P3
# Max error: 4
256 256
255
158 0 0
194 187 187
193 187 187
193 187 187
193 187 187
192 187 187
192 187 187
192 187 187
192 187 187
192 187 187
192 187 187
191 187 187
191 187 187
191 187 187
191 187 187
191 187 187
191 187 187
191 187 187
191 187 187
191 187 187
191 187 187
190 187 187
190 187 187
190 187 187
190 187 187
190 187 187
190 187 187
190 187 187
190 187 187
190 187 187
190 187 187
190 187 187
190 187 187
190 187 187
190 187 187
190 187 187
190 187 187
190 187 187
189 187 187
189 187 187
189 187 187
189 187 187
189 187 187
189 187 187
189 187 187
189 187 187
189 187 187
189 187 187
189 187 187
189 187 187
189 187 187
189 187 187
189 187 187
189 187 187
189 187 187
189 187 187
189 187 187
189 187 187
189 187 187
189 187 187
189 187 187
189 187 187
189 187 187
189 187 187
189 187 187
189 187 187
189 187 187
189 188 187
189 188 187
189 188 187
189 188 187
189 188 187
189 188 187
189 188 187
189 188 187
189 188 187
188 188 187
188 188 187
188 188 187
188 188 187
188 188 187
188 188 187
188 188 187
188 188 187
188 188 187
188 188 187
188 188 187
188 188 187
188 188 187
188 188 187
188 188 187
188 188 187
188 188 187
188 188 187
188 188 187
188 188 187
188 188 187
188 188 187
188 188 187
188 188 187
188 188 187
188 188 187
188 188 187
188 188 187
188 188 187
188 188 187
188 188 187
188 188 187
188 188 187
188 188 187
188 188 187
188 188 187
188 188 187
188 188 187
188 188 187
188 188 187
188 188 187
188 188 187
188 188 187
188 188 187
188 188 187
188 188 187
188 188 187
188 188 187
188 188 187
188 188 187
188 188 187
188 188 187
188 188 187
188 188 187
188 188 187
188 188 187
188 188 187
188 188 187
188 188 187
188 188 187
188 188 187
188 188 187
188 188 187
188 188 187
188 188 187
188 188 187
188 188 187
188 188 187
188 188 187
188 188 187
188 188 187
188 188 187
188 188 187
188 188 187
188 188 187
188 188 187
188 188 187
188 188 187
188 188 187
188 188 187
188 188 187
188 188 187
188 188 187
188 188 187
188 188 187
188 188 187
188 188 187
188 188 187
188 188 187
187 188 187
187 188 187
187 188 187
187 188 187
187 188 187
187 188 187
187 188 187
187 188 187
187 188 187
187 188 187
187 188 187
187 188 187
187 189 187
187 189 187
187 189 187
187 189 187
187 189 187
187 189 187
187 189 187
187 189 187
187 189 187
187 189 187
187 189 187
187 189 187
187 189 187
187 189 187
187 189 187
187 189 187
187 189 187
187 189 187
187 189 187
187 189 187
187 189 187
187 189 187
187 189 187
187 189 187
187 189 187
187 189 187
187 189 187
187 189 187
187 189 187
187 189 187
187 189 187
187 189 187
187 189 187
187 189 187
187 189 187
187 189 187
187 189 187
187 189 187
187 189 187
187 189 187
187 189 187
187 189 187
187 190 187
187 190 187
187 190 187
187 190 187
187 190 187
187 190 187
187 190 187
187 190 187
187 190 187
187 190 187
187 190 187
187 190 187
187 190 187
187 190 187
187 190 187
187 190 187
187 190 187
187 190 187
187 191 187
187 191 187
187 191 187
187 191 187
187 191 187
187 191 187
187 191 187
187 191 187
187 191 187
187 191 187
187 192 187
187 192 187
187 192 187
187 192 187
187 192 187
187 192 187
187 193 187
187 193 187
187 193 187
157 0 0
158 0 0
194 187 187
193 187 187
193 187 187
193 187 187
193 187 187
192 187 187
192 187 187
192 187 187
192 187 187
192 187 187
192 187 187
191 187 187
191 187 187
191 187 187
191 187 187
191 187 187
191 187 187
191 187 187
191 187 187
191 187 187
191 187 187
191 187 187
190 187 187
190 187 187
190 187 187
190 187 187
190 187 187
190 187 187
190 187 187
190 187 187
190 187 187
190 187 187
190 187 187
190 187 187
190 187 187
190 187 187
190 187 187
190 187 187
190 187 187
190 187 187
189 187 187
189 187 187
189 187 187
189 187 187
189 187 187
189 187 187
189 187 187
189 187 187
189 187 187
189 187 187
189 187 187
189 187 187
189 187 187
189 187 187
189 187 187
189 187 187
189 187 187
189 187 187
189 187 187
189 187 187
189 188 187
189 188 187
189 188 187
189 188 187
189 188 187
189 188 187
189 188 187
189 188 187
189 188 187
189 188 187
189 188 187
189 188 187
189 188 187
189 188 187
189 188 187
189 188 187
189 188 187
189 188 187
189 188 187
189 188 187
188 188 187
188 188 187
188 188 187
188 188 187
188 188 187
188 188 187
188 188 187
188 188 187
188 188 187
188 188 187
188 188 187
188 188 187
188 188 187
188 188 187
188 188 187
188 188 187
188 188 187
188 188 187
188 188 187
188 188 187
188 188 187
188 188 187
188 188 187
188 188 187
188 188 187
188 188 187
188 188 187
188 188 187
188 188 187
188 188 187
188 188 187
188 188 187
188 188 187
188 188 187
188 188 187
188 188 187
188 188 187
188 188 187
188 188 187
188 188 187
188 188 187
188 188 187
188 188 187
188 188 187
188 188 187
188 188 187
188 188 187
188 188 187
188 188 187
188 188 187
188 188 187
188 188 187
188 188 187
188 188 187
188 188 187
188 188 187
188 188 187
188 188 187
188 188 187
188 188 187
188 188 187
188 188 187
188 188 187
188 188 187
188 188 187
188 188 187
188 188 187
188 188 187
188 188 187
188 188 187
188 188 187
188 188 187
188 188 187
188 188 187
188 188 187
188 188 187
188 188 187
188 188 187
188 188 187
188 188 187
188 188 187
188 188 187
188 188 187
188 188 187
188 188 187
188 188 187
188 188 187
188 188 187
187 188 187
187 189 187
187 189 187
187 189 187
187 189 187
187 189 187
187 189 187
187 189 187
187 189 187
187 189 187
187 189 187
187 189 187
187 189 187
187 189 187
187 189 187
187 189 187
187 189 187
187 189 187
187 189 187
187 189 187
187 189 187
187 189 187
187 189 187
187 189 187
187 189 187
187 189 187
187 189 187
187 189 187
187 189 187
187 189 187
187 189 187
187 189 187
187 189 187
187 189 187
187 189 187
187 189 187
187 189 187
187 189 187
187 189 187
187 189 187
187 189 187
187 189 187
187 189 187
187 189 187
187 189 187
187 190 187
187 190 187
187 190 187
187 190 187
187 190 187
187 190 187
187 190 187
187 190 187
187 190 187
187 190 187
187 190 187
187 190 187
187 190 187
187 190 187
187 190 187
187 190 187
187 190 187
187 190 187
187 190 187
187 191 187
187 191 187
187 191 187
187 191 187
187 191 187
187 191 187
187 191 187
187 191 187
187 191 187
187 191 187
187 191 187
187 192 187
187 192 187
187 192 187
187 192 187
187 192 187
187 192 187
187 193 187
187 193 187
187 193 187
187 193 187
0 160 0
156 0 0
157 0 0
158 0 0
194 187 187
193 187 187
193 187 187
193 187 187
193 187 187
192 187 187
192 187 187
192 187 187
192 187 187
192 187 187
192 187 187
192 187 187
191 187 187
191 187 187
191 187 187
191 187 187
191 187 187
191 187 187
191 187 187
191 187 187
191 187 187
191 187 187
191 187 187
191 187 187
190 187 187
190 187 187
190 187 187
190 187 187
190 187 187
190 187 187
190 187 187
190 187 187
190 187 187
190 187 187
190 187 187
190 187 187
190 187 187
190 187 187
190 187 187
190 187 187
190 187 187
190 187 187
190 187 187
189 187 187
189 187 187
189 187 187
189 187 187
189 187 187
189 187 187
189 187 187
189 187 187
189 187 187
189 187 187
189 188 187
189 188 187
189 188 187
189 188 187
189 188 187
189 188 187
189 188 187
189 188 187
189 188 187
189 188 187
189 188 187
189 188 187
189 188 187
189 188 187
189 188 187
189 188 187
189 188 187
189 188 187
189 188 187
189 188 187
189 188 187
189 188 187
189 188 187
189 188 187
189 188 187
189 188 187
189 188 187
189 188 187
189 188 187
189 188 187
189 188 187
188 188 187
188 188 187
188 188 187
188 188 187
188 188 187
188 188 187
188 188 187
188 188 187
188 188 187
188 188 187
188 188 187
188 188 187
188 188 187
188 188 187
188 188 187
188 188 187
188 188 187
188 188 187
188 188 187
188 188 187
188 188 187
188 188 187
188 188 187
188 188 187
188 188 187
188 188 187
188 188 187
188 188 187
188 188 187
188 188 187
188 188 187
188 188 187
188 188 187
188 188 187
188 188 187
188 188 187
188 188 187
188 188 187
188 188 187
188 188 187
188 188 187
188 188 187
188 188 187
188 188 187
188 188 187
188 188 187
188 188 187
188 188 187
188 188 187
188 188 187
188 188 187
188 188 187
188 188 187
188 188 187
188 188 187
188 188 187
188 188 187
188 188 187
188 188 187
188 188 187
188 188 187
188 188 187
188 188 187
188 188 187
188 188 187
188 188 187
188 188 187
188 188 187
188 188 187
188 188 187
188 188 187
188 188 187
188 188 187
188 188 187
188 188 187
188 188 187
188 188 187
188 188 187
188 188 187
188 189 187
188 189 187
188 189 187
188 189 187
188 189 187
188 189 187
188 189 187
188 189 187
188 189 187
187 189 187
187 189 187
187 189 187
187 189 187
187 189 187
187 189 187
187 189 187
187 189 187
187 189 187
187 189 187
187 189 187
187 189 187
187 189 187
187 189 187
187 189 187
187 189 187
187 189 187
187 189 187
187 189 187
187 189 187
187 189 187
187 189 187
187 189 187
187 189 187
187 189 187
187 189 187
187 189 187
187 189 187
187 189 187
187 189 187
187 189 187
187 189 187
187 189 187
187 189 187
187 189 187
187 189 187
187 189 187
187 190 187
187 190 187
187 190 187
187 190 187
187 190 187
187 190 187
187 190 187
187 190 187
187 190 187
187 190 187
187 190 187
187 190 187
187 190 187
187 190 187
187 190 187
187 190 187
187 190 187
187 190 187
187 190 187
187 190 187
187 191 187
187 191 187
187 191 187
187 191 187
187 191 187
187 191 187
187 191 187
187 191 187
187 191 187
187 191 187
187 191 187
187 192 187
187 192 187
187 192 187
187 192 187
187 192 187
187 192 187
187 192 187
187 193 187
187 193 187
187 193 187
187 193 187
0 160 0
0 158 0
155 0 0
156 0 0
157 0 0
159 0 0
194 187 187
193 187 187
193 187 187
193 187 187
193 187 187
193 187 187
192 187 187
192 187 187
192 187 187
192 187 187
192 187 187
192 187 187
192 187 187
191 187 187
191 187 187
191 187 187
191 187 187
191 187 187
191 187 187
191 187 187
191 187 187
191 187 187
191 187 187
191 187 187
191 187 187
190 187 187
190 187 187
190 187 187
190 187 187
190 187 187
190 187 187
190 187 187
190 187 187
190 187 187
190 187 187
190 187 187
190 187 187
190 187 187
190 187 187
190 187 187
190 187 187
190 187 187
190 187 187
190 187 187
190 187 187
190 187 187
189 187 187
189 187 187
189 188 187
189 188 187
189 188 187
189 188 187
189 188 187
189 188 187
189 188 187
189 188 187
189 188 187
189 188 187
189 188 187
189 188 187
189 188 187
189 188 187
189 188 187
189 188 187
189 188 187
189 188 187
189 188 187
189 188 187
189 188 187
189 188 187
189 188 187
189 188 187
189 188 187
189 188 187
189 188 187
189 188 187
189 188 187
189 188 187
189 188 187
189 188 187
189 188 187
189 188 187
189 188 187
189 188 187
189 188 187
189 188 187
189 188 187
189 188 187
189 188 187
188 188 187
188 188 187
188 188 187
188 188 187
188 188 187
188 188 187
188 188 187
188 188 187
188 188 187
188 188 187
188 188 187
188 188 187
188 188 187
188 188 187
188 188 187
188 188 187
188 188 187
188 188 187
188 188 187
188 188 187
188 188 187
188 188 187
188 188 187
188 188 187
188 188 187
188 188 187
188 188 187
188 188 187
188 188 187
188 188 187
188 188 187
188 188 187
188 188 187
188 188 187
188 188 187
188 188 187
188 188 187
188 188 187
188 188 187
188 188 187
188 188 187
188 188 187
188 188 187
188 188 187
188 188 187
188 188 187
188 188 187
188 188 187
188 188 187
188 188 187
188 188 187
188 188 187
188 188 187
188 188 187
188 188 187
188 188 187
188 188 187
188 188 187
188 188 187
188 188 187
188 188 187
188 188 187
188 188 187
188 188 187
188 188 187
188 188 187
188 188 187
188 189 187
188 189 187
188 189 187
188 189 187
188 189 187
188 189 187
188 189 187
188 189 187
188 189 187
188 189 187
188 189 187
188 189 187
188 189 187
188 189 187
188 189 187
188 189 187
188 189 187
188 189 187
188 189 187
187 189 187
187 189 187
187 189 187
187 189 187
187 189 187
187 189 187
187 189 187
187 189 187
187 189 187
187 189 187
187 189 187
187 189 187
187 189 187
187 189 187
187 189 187
187 189 187
187 189 187
187 189 187
187 189 187
187 189 187
187 189 187
187 189 187
187 189 187
187 189 187
187 189 187
187 189 187
187 189 187
187 189 187
187 189 187
187 190 187
187 190 187
187 190 187
187 190 187
187 190 187
187 190 187
187 190 187
187 190 187
187 190 187
187 190 187
187 190 187
187 190 187
187 190 187
187 190 187
187 190 187
187 190 187
187 190 187
187 190 187
187 190 187
187 190 187
187 190 187
187 191 187
187 191 187
187 191 187
187 191 187
187 191 187
187 191 187
187 191 187
187 191 187
187 191 187
187 191 187
187 191 187
187 191 187
187 192 187
187 192 187
187 192 187
187 192 187
187 192 187
187 192 187
187 192 187
187 192 187
187 193 187
187 193 187
187 193 187
187 193 187
0 160 0
0 158 0
0 157 0
154 0 0
155 0 0
157 0 0
158 0 0
159 0 0
194 187 187
193 187 187
193 187 187
193 187 187
193 187 187
193 187 187
192 187 187
192 187 187
192 187 187
192 187 187
192 187 187
192 187 187
192 187 187
192 187 187
191 187 187
191 187 187
191 187 187
191 187 187
191 187 187
191 187 187
191 187 187
191 187 187
191 187 187
191 187 187
191 187 187
191 187 187
191 187 187
190 187 187
190 187 187
190 187 187
190 187 187
190 187 187
190 187 187
190 187 187
190 187 187
190 187 187
190 187 187
190 187 187
190 187 187
190 187 187
190 187 187
190 187 187
190 188 187
190 188 187
190 188 187
190 188 187
190 188 187
190 188 187
190 188 187
189 188 187
189 188 187
189 188 187
189 188 187
189 188 187
189 188 187
189 188 187
189 188 187
189 188 187
189 188 187
189 188 187
189 188 187
189 188 187
189 188 187
189 188 187
189 188 187
189 188 187
189 188 187
189 188 187
189 188 187
189 188 187
189 188 187
189 188 187
189 188 187
189 188 187
189 188 187
189 188 187
189 188 187
189 188 187
189 188 187
189 188 187
189 188 187
189 188 187
189 188 187
189 188 187
189 188 187
189 188 187
189 188 187
189 188 187
189 188 187
189 188 187
189 188 187
189 188 187
189 188 187
188 188 187
188 188 187
188 188 187
188 188 187
188 188 187
188 188 187
188 188 187
188 188 187
188 188 187
188 188 187
188 188 187
188 188 187
188 188 187
188 188 187
188 188 187
188 188 187
188 188 187
188 188 187
188 188 187
188 188 187
188 188 187
188 188 187
188 188 187
188 188 187
188 188 187
188 188 187
188 188 187
188 188 187
188 188 187
188 188 187
188 188 187
188 188 187
188 188 187
188 188 187
188 188 187
188 188 187
188 188 187
188 188 187
188 188 187
188 188 187
188 188 187
188 188 187
188 188 187
188 188 187
188 188 187
188 188 187
188 188 187
188 188 187
188 188 187
188 188 187
188 188 187
188 188 187
188 188 187
188 188 187
188 188 187
188 188 187
188 189 187
188 189 187
188 189 187
188 189 187
188 189 187
188 189 187
188 189 187
188 189 187
188 189 187
188 189 187
188 189 187
188 189 187
188 189 187
188 189 187
188 189 187
188 189 187
188 189 187
188 189 187
188 189 187
188 189 187
188 189 187
188 189 187
188 189 187
188 189 187
188 189 187
188 189 187
188 189 187
188 189 187
188 189 187
188 189 187
187 189 187
187 189 187
187 189 187
187 189 187
187 189 187
187 189 187
187 189 187
187 189 187
187 189 187
187 189 187
187 189 187
187 189 187
187 189 187
187 189 187
187 189 187
187 189 187
187 189 187
187 189 187
187 189 187
187 189 187
187 190 187
187 190 187
187 190 187
187 190 187
187 190 187
187 190 187
187 190 187
187 190 187
187 190 187
187 190 187
187 190 187
187 190 187
187 190 187
187 190 187
187 190 187
187 190 187
187 190 187
187 190 187
187 190 187
187 190 187
187 190 187
187 190 187
187 190 187
187 191 187
187 191 187
187 191 187
187 191 187
187 191 187
187 191 187
187 191 187
187 191 187
187 191 187
187 191 187
187 191 187
187 191 187
187 192 187
187 192 187
187 192 187
187 192 187
187 192 187
187 192 187
187 192 187
187 192 187
187 193 187
187 193 187
187 193 187
187 193 187
187 193 187
0 160 0
0 159 0
0 158 0
0 157 0
153 0 0
155 0 0
156 0 0
157 0 0
158 0 0
159 0 0
194 187 187
194 187 187
193 187 187
193 187 187
193 187 187
193 187 187
193 187 187
192 187 187
192 187 187
192 187 187
192 187 187
192 187 187
192 187 187
192 187 187
192 187 187
191 187 187
191 187 187
191 187 187
191 187 187
191 187 187
191 187 187
191 187 187
191 187 187
191 187 187
191 187 187
191 187 187
191 187 187
191 187 187
191 187 187
190 187 187
190 187 187
190 187 187
190 187 187
190 187 187
190 187 187
190 187 187
190 188 187
190 188 187
190 188 187
190 188 187
190 188 187
190 188 187
190 188 187
190 188 187
190 188 187
190 188 187
190 188 187
190 188 187
190 188 187
190 188 187
190 188 187
190 188 187
190 188 187
189 188 187
189 188 187
189 188 187
189 188 187
189 188 187
189 188 187
189 188 187
189 188 187
189 188 187
189 188 187
189 188 187
189 188 187
189 188 187
189 188 187
189 188 187
189 188 187
189 188 187
189 188 187
189 188 187
189 188 187
189 188 187
189 188 187
189 188 187
189 188 187
189 188 187
189 188 187
189 188 187
189 188 187
189 188 187
189 188 187
189 188 187
189 188 187
189 188 187
189 188 187
189 188 187
189 188 187
189 188 187
189 188 187
189 188 187
189 188 187
189 188 187
189 188 187
189 188 187
189 188 187
189 188 187
188 188 187
188 188 187
188 188 187
188 188 187
188 188 187
188 188 187
188 188 187
188 188 187
188 188 187
188 188 187
188 188 187
188 188 187
188 188 187
188 188 187
188 188 187
188 188 187
188 188 187
188 188 187
188 188 187
188 188 187
188 188 187
188 188 187
188 188 187
188 188 187
188 188 187
188 188 187
188 188 187
188 188 187
188 188 187
188 188 187
188 188 187
188 188 187
188 188 187
188 188 187
188 188 187
188 188 187
188 188 187
188 188 187
188 188 187
188 188 187
188 188 187
188 188 187
188 188 187
188 188 187
188 189 187
188 189 187
188 189 187
188 189 187
188 189 187
188 189 187
188 189 187
188 189 187
188 189 187
188 189 187
188 189 187
188 189 187
188 189 187
188 189 187
188 189 187
188 189 187
188 189 187
188 189 187
188 189 187
188 189 187
188 189 187
188 189 187
188 189 187
188 189 187
188 189 187
188 189 187
188 189 187
188 189 187
188 189 187
188 189 187
188 189 187
188 189 187
188 189 187
188 189 187
188 189 187
188 189 187
188 189 187
188 189 187
188 189 187
188 189 187
188 189 187
187 189 187
187 189 187
187 189 187
187 189 187
187 189 187
187 189 187
187 189 187
187 189 187
187 189 187
187 189 187
187 189 187
187 189 187
187 190 187
187 190 187
187 190 187
187 190 187
187 190 187
187 190 187
187 190 187
187 190 187
187 190 187
187 190 187
187 190 187
187 190 187
187 190 187
187 190 187
187 190 187
187 190 187
187 190 187
187 190 187
187 190 187
187 190 187
187 190 187
187 190 187
187 190 187
187 191 187
187 191 187
187 191 187
187 191 187
187 191 187
187 191 187
187 191 187
187 191 187
187 191 187
187 191 187
187 191 187
187 191 187
187 191 187
187 192 187
187 192 187
187 192 187
187 192 187
187 192 187
187 192 187
187 192 187
187 192 187
187 192 187
187 193 187
187 193 187
187 193 187
187 193 187
187 193 187
0 160 0
0 159 0
0 158 0
0 157 0
0 156 0
153 0 0
154 0 0
155 0 0
156 0 0
157 0 0
158 0 0
159 0 0
194 187 187
194 187 187
193 187 187
193 187 187
193 187 187
193 187 187
193 187 187
192 187 187
192 187 187
192 187 187
192 187 187
192 187 187
192 187 187
192 187 187
192 187 187
192 187 187
192 187 187
191 187 187
191 187 187
191 187 187
191 187 187
191 187 187
191 187 187
191 187 187
191 187 187
191 187 187
191 187 187
191 187 187
191 187 187
191 187 187
191 187 187
190 188 187
190 188 187
190 188 187
190 188 187
190 188 187
190 188 187
190 188 187
190 188 187
190 188 187
190 188 187
190 188 187
190 188 187
190 188 187
190 188 187
190 188 187
190 188 187
190 188 187
190 188 187
190 188 187
190 188 187
190 188 187
190 188 187
190 188 187
190 188 187
190 188 187
189 188 187
189 188 187
189 188 187
189 188 187
189 188 187
189 188 187
189 188 187
189 188 187
189 188 187
189 188 187
189 188 187
189 188 187
189 188 187
189 188 187
189 188 187
189 188 187
189 188 187
189 188 187
189 188 187
189 188 187
189 188 187
189 188 187
189 188 187
189 188 187
189 188 187
189 188 187
189 188 187
189 188 187
189 188 187
189 188 187
189 188 187
189 188 187
189 188 187
189 188 187
189 188 187
189 188 187
189 188 187
189 188 187
189 188 187
189 188 187
189 188 187
189 188 187
189 188 187
189 188 187
189 188 187
189 188 187
189 188 187
188 188 187
188 188 187
188 188 187
188 188 187
188 188 187
188 188 187
188 188 187
188 188 187
188 188 187
188 188 187
188 188 187
188 188 187
188 188 187
188 188 187
188 188 187
188 188 187
188 188 187
188 188 187
188 188 187
188 188 187
188 188 187
188 188 187
188 188 187
188 188 187
188 188 187
188 188 187
188 188 187
188 188 187
188 188 187
188 188 187
188 189 187
188 189 187
188 189 187
188 189 187
188 189 187
188 189 187
188 189 187
188 189 187
188 189 187
188 189 187
188 189 187
188 189 187
188 189 187
188 189 187
188 189 187
188 189 187
188 189 187
188 189 187
188 189 187
188 189 187
188 189 187
188 189 187
188 189 187
188 189 187
188 189 187
188 189 187
188 189 187
188 189 187
188 189 187
188 189 187
188 189 187
188 189 187
188 189 187
188 189 187
188 189 187
188 189 187
188 189 187
188 189 187
188 189 187
188 189 187
188 189 187
188 189 187
188 189 187
188 189 187
188 189 187
188 189 187
188 189 187
188 189 187
188 189 187
188 189 187
188 189 187
188 189 187
187 189 187
187 189 187
187 189 187
187 189 187
187 189 187
187 189 187
187 190 187
187 190 187
187 190 187
187 190 187
187 190 187
187 190 187
187 190 187
187 190 187
187 190 187
187 190 187
187 190 187
187 190 187
187 190 187
187 190 187
187 190 187
187 190 187
187 190 187
187 190 187
187 190 187
187 190 187
187 190 187
187 190 187
187 190 187
187 190 187
187 191 187
187 191 187
187 191 187
187 191 187
187 191 187
187 191 187
187 191 187
187 191 187
187 191 187
187 191 187
187 191 187
187 191 187
187 191 187
187 192 187
187 192 187
187 192 187
187 192 187
187 192 187
187 192 187
187 192 187
187 192 187
187 192 187
187 193 187
187 193 187
187 193 187
187 193 187
187 193 187
187 194 187
0 160 0
0 159 0
0 158 0
0 157 0
0 156 0
0 155 0
152 0 0
153 0 0
154 0 0
155 0 0
156 0 0
157 0 0
158 0 0
159 0 0
194 187 187
194 187 187
193 187 187
193 187 187
193 187 187
193 187 187
193 187 187
193 187 187
192 187 187
192 187 187
192 187 187
192 187 187
192 187 187
192 187 187
192 187 187
192 187 187
192 187 187
192 187 187
191 187 187
191 187 187
191 187 187
191 187 187
191 187 187
191 187 187
191 187 187
191 187 187
191 188 187
191 188 187
191 188 187
191 188 187
191 188 187
191 188 187
191 188 187
190 188 187
190 188 187
190 188 187
190 188 187
190 188 187
190 188 187
190 188 187
190 188 187
190 188 187
190 188 187
190 188 187
190 188 187
190 188 187
190 188 187
190 188 187
190 188 187
190 188 187
190 188 187
190 188 187
190 188 187
190 188 187
190 188 187
190 188 187
190 188 187
190 188 187
190 188 187
190 188 187
189 188 187
189 188 187
189 188 187
189 188 187
189 188 187
189 188 187
189 188 187
189 188 187
189 188 187
189 188 187
189 188 187
189 188 187
189 188 187
189 188 187
189 188 187
189 188 187
189 188 187
189 188 187
189 188 187
189 188 187
189 188 187
189 188 187
189 188 187
189 188 187
189 188 187
189 188 187
189 188 187
189 188 187
189 188 187
189 188 187
189 188 187
189 188 187
189 188 187
189 188 187
189 188 187
189 188 187
189 188 187
189 188 187
189 188 187
189 188 187
189 188 187
189 188 187
189 188 187
189 188 187
189 188 187
189 188 187
189 188 187
188 188 187
188 188 187
188 188 187
188 188 187
188 188 187
188 188 187
188 188 187
188 188 187
188 188 187
188 188 187
188 188 187
188 188 187
188 188 187
188 188 187
188 188 187
188 188 187
188 188 187
188 188 187
188 189 188
188 189 188
188 189 188
188 189 188
188 189 188
188 189 188
188 189 188
188 189 188
188 189 188
188 189 188
188 189 188
188 189 188
188 189 188
188 189 188
188 189 188
188 189 188
188 189 188
188 189 188
188 189 188
188 189 188
188 189 188
188 189 188
188 189 188
188 189 188
188 189 188
188 189 188
188 189 188
188 189 188
188 189 188
188 189 188
188 189 187
188 189 187
188 189 187
188 189 188
188 189 188
188 189 187
188 189 187
188 189 187
188 189 187
188 189 187
188 189 187
188 189 187
188 189 187
188 189 187
188 189 187
188 189 187
188 189 187
188 189 187
188 189 187
188 189 187
188 189 187
188 189 187
188 189 187
188 189 187
188 189 187
188 189 187
188 189 187
188 189 187
188 189 187
188 189 187
188 189 187
188 190 187
188 190 187
188 190 187
187 190 187
187 190 187
187 190 187
187 190 187
187 190 187
187 190 187
187 190 187
187 190 187
187 190 187
187 190 187
187 190 187
187 190 187
187 190 187
187 190 187
187 190 187
187 190 187
187 190 187
187 190 187
187 190 187
187 190 187
187 190 187
187 190 187
187 191 187
187 191 187
187 191 187
187 191 187
187 191 187
187 191 187
187 191 187
187 191 187
187 191 187
187 191 187
187 191 187
187 191 187
187 191 187
187 191 187
187 191 187
187 192 187
187 192 187
187 192 187
187 192 187
187 192 187
187 192 187
187 192 187
187 192 187
187 192 187
187 193 187
187 193 187
187 193 187
187 193 187
187 193 187
187 194 187
0 160 0
0 159 0
0 158 0
0 157 0
0 156 0
0 155 0
0 154 0
151 0 0
152 0 0
154 0 0
155 0 0
156 0 0
157 0 0
158 0 0
159 0 0
159 0 0
194 187 187
194 187 187
193 187 187
193 187 187
193 187 187
193 187 187
193 187 187
193 187 187
193 187 187
192 187 187
192 187 187
192 187 187
192 187 187
192 187 187
192 187 187
192 187 187
192 187 187
192 187 187
192 187 187
191 187 187
191 187 187
191 188 187
191 188 187
191 188 187
191 188 187
191 188 187
191 188 187
191 188 187
191 188 187
191 188 187
191 188 187
191 188 187
191 188 187
191 188 187
191 188 187
191 188 187
190 188 187
190 188 187
190 188 187
190 188 187
190 188 187
190 188 187
190 188 187
190 188 187
190 188 187
190 188 187
190 188 187
190 188 187
190 188 187
190 188 187
190 188 187
190 188 187
190 188 187
190 188 187
190 188 187
190 188 187
190 188 187
190 188 187
190 188 187
190 188 187
190 188 187
190 188 187
190 188 187
190 188 187
189 188 187
189 188 187
189 188 187
189 188 187
189 188 187
189 188 187
189 188 187
189 188 187
189 188 187
189 188 187
189 188 187
189 188 187
189 188 187
189 188 187
189 188 187
189 188 187
189 188 187
189 188 187
189 188 187
189 188 187
189 188 187
189 188 187
189 188 187
189 188 187
189 188 187
189 188 187
189 188 187
189 188 187
189 188 187
189 188 187
189 188 187
189 188 187
189 188 187
189 188 187
189 188 187
189 188 187
189 188 187
189 188 187
189 188 187
189 188 187
189 188 187
189 188 187
189 188 187
189 188 187
189 188 187
189 188 187
189 188 187
189 188 188
189 188 188
188 188 188
188 188 188
188 189 188
188 189 188
188 189 188
188 189 188
188 189 188
188 189 188
188 189 188
188 189 188
188 189 188
188 189 188
188 189 188
188 189 188
188 189 188
188 189 188
188 189 188
188 189 188
188 189 188
188 189 188
188 189 188
188 189 188
188 189 188
188 189 188
188 189 188
188 189 188
188 189 188
188 189 188
188 189 188
188 189 188
188 189 188
188 189 188
188 189 188
188 189 188
188 189 188
188 189 188
188 189 188
188 189 188
188 189 188
188 189 188
188 189 188
188 189 188
188 189 188
188 189 188
188 189 188
188 189 188
188 189 188
188 189 188
188 189 188
188 189 188
188 189 188
188 189 188
188 189 188
188 189 188
188 189 188
188 189 188
188 189 188
188 189 188
188 189 188
188 189 187
188 189 187
188 189 187
188 189 187
188 189 187
188 189 187
188 189 187
188 189 187
188 189 187
188 190 187
188 190 187
188 190 187
188 190 187
188 190 187
188 190 187
188 190 187
188 190 187
188 190 187
188 190 187
188 190 187
187 190 187
187 190 187
187 190 187
187 190 187
187 190 187
187 190 187
187 190 187
187 190 187
187 190 187
187 190 187
187 190 187
187 190 187
187 190 187
187 190 187
187 190 187
187 190 187
187 191 187
187 191 187
187 191 187
187 191 187
187 191 187
187 191 187
187 191 187
187 191 187
187 191 187
187 191 187
187 191 187
187 191 187
187 191 187
187 191 187
187 191 187
187 192 187
187 192 187
187 192 187
187 192 187
187 192 187
187 192 187
187 192 187
187 192 187
187 192 187
187 193 187
187 193 187
187 193 187
187 193 187
187 193 187
187 193 187
187 194 187
0 160 0
0 159 0
0 158 0
0 157 0
0 157 0
0 156 0
0 155 0
0 154 0
150 0 0
152 0 0
153 0 0
154 0 0
155 0 0
156 0 0
157 0 0
158 0 0
159 0 0
160 0 0
194 187 187
194 187 187
194 187 187
193 187 187
193 187 187
193 187 187
193 187 187
193 187 187
193 187 187
193 187 187
192 187 187
192 187 187
192 187 187
192 187 187
192 187 187
192 187 187
192 187 187
192 188 187
192 188 187
192 188 187
192 188 187
191 188 187
191 188 187
191 188 187
191 188 187
191 188 187
191 188 187
191 188 187
191 188 187
191 188 187
191 188 187
191 188 187
191 188 187
191 188 187
191 188 187
191 188 187
191 188 187
191 188 187
190 188 187
190 188 187
190 188 187
190 188 187
190 188 187
190 188 187
190 188 187
190 188 187
190 188 187
190 188 187
190 188 187
190 188 187
190 188 187
190 188 187
190 188 187
190 188 187
190 188 187
190 188 187
190 188 187
190 188 187
190 188 187
190 188 187
190 188 187
190 188 187
190 188 187
190 188 187
190 188 187
190 188 187
190 188 187
190 188 187
189 188 187
189 188 187
189 188 187
189 188 187
189 188 187
189 188 187
189 188 187
189 188 187
189 188 187
189 188 187
189 188 187
189 188 187
189 188 187
189 188 187
189 188 187
189 188 187
189 188 187
189 188 187
189 188 187
189 188 187
189 188 187
189 188 187
189 188 187
189 188 187
189 188 187
189 188 187
189 188 187
189 188 187
189 188 187
189 188 187
189 188 187
189 188 187
189 188 187
189 188 187
189 188 187
189 188 188
189 189 188
189 189 188
189 189 188
189 189 188
189 189 188
189 189 188
189 189 188
189 189 188
189 189 188
189 189 188
189 189 188
189 189 188
189 189 188
188 189 188
188 189 188
188 189 188
188 189 188
188 189 188
188 189 188
188 189 188
188 189 188
188 189 188
188 189 188
188 189 188
188 189 188
188 189 188
188 189 188
188 189 188
188 189 188
188 189 188
188 189 188
188 189 188
188 189 188
188 189 188
188 189 188
188 189 188
188 189 188
188 189 188
188 189 188
188 189 188
188 189 188
188 189 188
188 189 188
188 189 188
188 189 188
188 189 188
188 189 188
188 189 188
188 189 188
188 189 188
188 189 188
188 189 188
188 189 188
188 189 188
188 189 188
188 189 188
188 189 188
188 189 188
188 189 188
188 189 188
188 189 188
188 189 188
188 189 188
188 189 188
188 189 188
188 189 188
188 189 188
188 189 188
188 189 188
188 189 188
188 189 188
188 189 188
188 189 188
188 190 188
188 190 188
188 190 187
188 190 188
188 190 187
188 190 187
188 190 187
188 190 187
188 190 187
188 190 187
188 190 187
188 190 187
188 190 187
188 190 187
188 190 187
188 190 187
188 190 187
188 190 187
187 190 187
187 190 187
187 190 187
187 190 187
187 190 187
187 190 187
187 190 187
187 190 187
187 190 187
187 191 187
187 191 187
187 191 187
187 191 187
187 191 187
187 191 187
187 191 187
187 191 187
187 191 187
187 191 187
187 191 187
187 191 187
187 191 187
187 191 187
187 191 187
187 191 187
187 192 187
187 192 187
187 192 187
187 192 187
187 192 187
187 192 187
187 192 187
187 192 187
187 192 187
187 192 187
187 193 187
187 193 187
187 193 187
187 193 187
187 193 187
187 193 187
187 194 187
0 160 0
0 159 0
0 158 0
0 158 0
0 157 0
0 156 0
0 155 0
0 154 0
0 153 0
149 0 0
151 0 0
152 0 0
153 0 0
154 0 0
155 0 0
156 0 0
157 0 0
158 0 0
159 0 0
160 0 0
194 187 187
194 187 187
194 187 187
193 187 187
193 187 187
193 187 187
193 187 187
193 187 187
193 187 187
193 187 187
192 187 187
192 187 187
192 187 187
192 188 187
192 188 187
192 188 187
192 188 187
192 188 187
192 188 187
192 188 187
192 188 187
192 188 187
191 188 187
191 188 187
191 188 187
191 188 187
191 188 187
191 188 187
191 188 187
191 188 187
191 188 187
191 188 187
191 188 187
191 188 187
191 188 187
191 188 187
191 188 187
191 188 187
191 188 187
191 188 187
191 188 187
190 188 187
190 188 187
190 188 187
190 188 187
190 188 187
190 188 187
190 188 187
190 188 187
190 188 187
190 188 187
190 188 187
190 188 187
190 188 187
190 188 187
190 188 187
190 188 187
190 188 187
190 188 187
190 188 187
190 188 187
190 188 187
190 188 187
190 188 187
190 188 187
190 188 187
190 188 187
190 188 187
190 188 187
190 188 187
190 188 187
190 188 187
189 188 187
189 188 187
189 188 187
189 188 187
189 188 187
189 188 187
189 188 187
189 188 187
189 188 187
189 188 187
189 188 187
189 188 187
189 188 187
189 188 187
189 188 187
189 188 187
189 188 187
189 188 187
189 188 187
189 188 187
189 189 187
189 189 187
189 189 187
189 189 188
189 189 188
189 189 188
189 189 188
189 189 188
189 189 188
189 189 188
189 189 188
189 189 188
189 189 188
189 189 188
189 189 188
189 189 188
189 189 188
189 189 188
189 189 188
189 189 188
189 189 188
189 189 188
189 189 188
189 189 188
189 189 188
189 189 188
189 189 188
189 189 188
189 189 188
189 189 188
188 189 188
188 189 188
188 189 188
188 189 188
188 189 188
188 189 188
188 189 188
188 189 188
188 189 188
188 189 188
188 189 188
188 189 188
188 189 188
188 189 188
188 189 188
188 189 188
188 189 188
188 189 188
188 189 188
188 189 188
188 189 188
188 189 188
188 189 188
188 189 188
188 189 188
188 189 188
188 189 188
188 189 188
188 189 188
188 189 188
188 189 188
188 189 188
188 189 188
188 189 188
188 189 188
188 189 188
188 189 188
188 189 188
188 189 188
188 189 188
188 189 188
188 189 188
188 189 188
188 189 188
188 189 188
188 189 188
188 189 188
188 189 188
188 189 188
188 189 188
188 190 188
188 190 188
188 190 188
188 190 188
188 190 188
188 190 188
188 190 188
188 190 188
188 190 188
188 190 188
188 190 188
188 190 188
188 190 188
188 190 188
188 190 188
188 190 187
188 190 187
188 190 187
188 190 187
188 190 187
188 190 187
188 190 187
188 190 187
188 190 187
188 190 187
188 190 187
187 190 187
187 190 187
187 190 187
187 191 187
187 191 187
187 191 187
187 191 187
187 191 187
187 191 187
187 191 187
187 191 187
187 191 187
187 191 187
187 191 187
187 191 187
187 191 187
187 191 187
187 191 187
187 191 187
187 192 187
187 192 187
187 192 187
187 192 187
187 192 187
187 192 187
187 192 187
187 192 187
187 192 187
187 192 187
187 192 187
187 193 187
187 193 187
187 193 187
187 193 187
187 193 187
187 193 187
187 194 187
0 160 0
0 159 0
0 159 0
0 158 0
0 157 0
0 156 0
0 155 0
0 154 0
0 153 0
0 152 0
149 0 0
150 0 0
152 0 0
153 0 0
154 0 0
155 0 0
156 0 0
157 0 0
157 0 0
158 0 0
159 0 0
160 0 0
194 187 187
194 187 187
194 187 187
193 187 187
193 187 187
193 187 187
193 187 187
193 187 187
193 187 187
193 188 187
193 188 187
192 188 187
192 188 187
192 188 187
192 188 187
192 188 187
192 188 187
192 188 187
192 188 187
192 188 187
192 188 187
192 188 187
192 188 187
192 188 187
191 188 187
191 188 187
191 188 187
191 188 187
191 188 187
191 188 187
191 188 187
191 188 187
191 188 187
191 188 187
191 188 187
191 188 187
191 188 187
191 188 187
191 188 187
191 188 187
191 188 187
191 188 187
191 188 187
191 188 187
190 188 187
190 188 187
190 188 187
190 188 187
190 188 187
190 188 187
190 188 187
190 188 187
190 188 187
190 188 187
190 188 187
190 188 187
190 188 187
190 188 187
190 188 187
190 188 187
190 188 187
190 188 187
190 188 187
190 188 187
190 188 187
190 188 187
190 188 187
190 188 187
190 188 187
190 188 187
190 188 187
190 188 187
190 188 187
190 188 187
190 188 187
190 188 187
190 188 187
190 188 187
189 188 187
189 188 187
189 189 187
189 189 187
189 189 187
189 189 187
189 189 187
189 189 187
189 189 187
189 189 187
189 189 187
189 189 188
189 189 188
189 189 188
189 189 188
189 189 188
189 189 188
189 189 188
189 189 188
189 189 188
189 189 188
189 189 188
189 189 188
189 189 188
189 189 188
189 189 188
189 189 188
189 189 188
189 189 188
189 189 188
189 189 188
189 189 188
189 189 188
189 189 188
189 189 188
189 189 188
189 189 188
189 189 188
189 189 188
189 189 188
189 189 188
189 189 188
189 189 188
189 189 188
189 189 188
189 189 188
189 189 188
189 189 188
188 189 188
188 189 188
188 189 188
188 189 188
188 189 188
188 189 188
188 189 188
188 189 188
188 189 188
188 189 188
188 189 188
188 189 188
188 189 188
188 189 188
188 189 188
188 189 188
188 189 188
188 189 188
188 189 188
188 189 188
188 189 188
188 189 188
188 189 188
188 189 188
188 189 188
188 189 188
188 189 188
188 189 188
188 189 188
188 189 188
188 189 188
188 189 188
188 189 188
188 189 188
188 189 188
188 189 188
188 189 188
188 189 188
188 189 188
188 189 188
188 189 188
188 190 188
188 190 188
188 190 188
188 190 188
188 190 188
188 190 188
188 190 188
188 190 188
188 190 188
188 190 188
188 190 188
188 190 188
188 190 188
188 190 188
188 190 188
188 190 188
188 190 188
188 190 188
188 190 188
188 190 188
188 190 188
188 190 188
188 190 188
188 190 188
188 190 188
188 190 187
188 190 187
188 190 187
188 190 187
188 190 187
188 191 187
188 191 187
188 191 187
188 191 187
187 191 187
187 191 187
187 191 187
187 191 187
187 191 187
187 191 187
187 191 187
187 191 187
187 191 187
187 191 187
187 191 187
187 191 187
187 191 187
187 192 187
187 192 187
187 192 187
187 192 187
187 192 187
187 192 187
187 192 187
187 192 187
187 192 187
187 192 187
187 192 187
187 193 187
187 193 187
187 193 187
187 193 187
187 193 187
187 193 187
187 193 187
187 194 187
0 161 0
0 159 0
0 159 0
0 158 0
0 157 0
0 156 0
0 155 0
0 155 0
0 154 0
0 153 0
0 152 0
148 0 0
150 0 0
151 0 0
152 0 0
153 0 0
154 0 0
155 0 0
156 0 0
157 0 0
158 0 0
159 0 0
159 0 0
160 0 0
194 187 187
194 187 187
194 187 187
194 187 187
193 187 187
193 188 187
193 188 187
193 188 187
193 188 187
193 188 187
193 188 187
193 188 187
192 188 187
192 188 187
192 188 187
192 188 187
192 188 187
192 188 187
192 188 187
192 188 187
192 188 187
192 188 187
192 188 187
192 188 187
192 188 187
192 188 187
191 188 187
191 188 187
191 188 187
191 188 187
191 188 187
191 188 187
191 188 187
191 188 187
191 188 187
191 188 187
191 188 187
191 188 187
191 188 187
191 188 187
191 188 187
191 188 187
191 188 187
191 188 187
191 188 187
191 188 187
191 188 187
191 188 187
190 188 187
190 188 187
190 188 187
190 188 187
190 188 187
190 188 187
190 188 187
190 188 187
190 188 187
190 188 187
190 188 187
190 188 187
190 188 187
190 188 187
190 188 187
190 188 187
190 188 187
190 188 187
190 188 187
190 188 187
190 188 187
190 189 187
190 189 187
190 189 187
190 189 187
190 189 187
190 189 187
190 189 187
190 189 187
190 189 187
190 189 187
190 189 187
190 189 187
190 189 187
189 189 187
189 189 187
189 189 188
189 189 188
189 189 188
189 189 188
189 189 188
189 189 188
189 189 188
189 189 188
189 189 188
189 189 188
189 189 188
189 189 188
189 189 188
189 189 188
189 189 188
189 189 188
189 189 188
189 189 188
189 189 188
189 189 188
189 189 188
189 189 188
189 189 188
189 189 188
189 189 188
189 189 188
189 189 188
189 189 188
189 189 188
189 189 188
189 189 188
189 189 188
189 189 188
189 189 188
189 189 188
189 189 188
189 189 188
189 189 188
189 189 188
189 189 188
189 189 188
189 189 188
189 189 188
189 189 188
189 189 188
189 189 188
188 189 188
188 189 188
188 189 188
188 189 188
188 189 188
188 189 188
188 189 188
188 189 188
188 189 188
188 189 188
188 189 188
188 189 188
188 189 188
188 189 188
188 189 188
188 189 188
188 189 188
188 189 188
188 189 188
188 189 188
188 189 188
188 189 188
188 189 188
188 189 188
188 189 188
188 189 188
188 189 188
188 189 188
188 189 188
188 189 188
188 189 188
188 190 188
188 190 188
188 190 188
188 190 188
188 190 188
188 190 188
188 190 188
188 190 188
188 190 188
188 190 188
188 190 188
188 190 188
188 190 188
188 190 188
188 190 188
188 190 188
188 190 188
188 190 188
188 190 188
188 190 188
188 190 188
188 190 188
188 190 188
188 190 188
188 190 188
188 190 188
188 190 188
188 190 188
188 190 188
188 190 188
188 190 188
188 190 188
188 190 188
188 191 188
188 191 187
188 191 187
188 191 187
188 191 187
188 191 187
188 191 187
188 191 187
188 191 187
187 191 187
187 191 187
187 191 187
187 191 187
187 191 187
187 191 187
187 191 187
187 191 187
187 192 187
187 192 187
187 192 187
187 192 187
187 192 187
187 192 187
187 192 187
187 192 187
187 192 187
187 192 187
187 192 187
187 192 187
187 193 187
187 193 187
187 193 187
187 193 187
187 193 187
187 193 187
187 194 187
187 194 187
0 161 0
0 160 0
0 159 0
0 158 0
0 157 0
0 157 0
0 156 0
0 155 0
0 154 0
0 153 0
0 152 0
0 151 0
147 0 0
149 0 0
150 0 0
152 0 0
153 0 0
154 0 0
155 0 0
156 0 0
156 0 0
157 0 0
158 0 0
159 0 0
160 0 0
160 0 0
194 187 187
194 187 187
194 188 187
194 188 187
194 188 187
193 188 187
193 188 187
193 188 187
193 188 187
193 188 187
193 188 187
193 188 187
193 188 187
192 188 187
192 188 187
192 188 187
192 188 187
192 188 187
192 188 187
192 188 187
192 188 187
192 188 187
192 188 187
192 188 187
192 188 187
192 188 187
192 188 187
192 188 187
191 188 187
191 188 187
191 188 187
191 188 187
191 188 187
191 188 187
191 188 187
191 188 187
191 188 187
191 188 187
191 188 187
191 188 187
191 188 187
191 188 187
191 188 187
191 188 187
191 188 187
191 188 187
191 188 187
191 188 187
191 188 187
191 188 187
191 188 187
191 188 187
190 188 187
190 188 187
190 188 187
190 188 187
190 188 187
190 188 187
190 188 187
190 188 187
190 189 187
190 189 187
190 189 187
190 189 187
190 189 187
190 189 187
190 189 187
190 189 187
190 189 187
190 189 187
190 189 187
190 189 187
190 189 187
190 189 187
190 189 187
190 189 187
190 189 187
190 189 187
190 189 187
190 189 187
190 189 188
190 189 188
190 189 188
190 189 188
190 189 188
190 189 188
190 189 188
189 189 188
189 189 188
189 189 188
189 189 188
189 189 188
189 189 188
189 189 188
189 189 188
189 189 188
189 189 188
189 189 188
189 189 188
189 189 188
189 189 188
189 189 188
189 189 188
189 189 188
189 189 188
189 189 188
189 189 188
189 189 188
189 189 188
189 189 188
189 189 188
189 189 188
189 189 188
189 189 188
189 189 188
189 189 188
189 189 188
189 189 188
189 189 188
189 189 188
189 189 188
189 189 188
189 189 188
189 189 188
189 189 188
189 189 188
189 189 188
189 189 188
189 189 188
189 189 188
189 189 188
189 189 188
189 189 188
189 189 188
189 189 188
188 189 188
188 189 188
188 189 188
188 189 188
188 189 188
188 189 188
188 189 188
188 189 188
188 189 188
188 189 188
188 189 188
188 189 188
188 189 188
188 189 188
188 189 188
188 189 188
188 189 188
188 189 188
188 189 188
188 189 188
188 190 188
188 190 188
188 190 188
188 190 188
188 190 188
188 190 188
188 190 188
188 190 188
188 190 188
188 190 188
188 190 188
188 190 188
188 190 188
188 190 188
188 190 188
188 190 188
188 190 188
188 190 188
188 190 188
188 190 188
188 190 188
188 190 188
188 190 188
188 190 188
188 190 188
188 190 188
188 190 188
188 190 188
188 190 188
188 190 188
188 190 188
188 190 188
188 190 188
188 190 188
188 190 188
188 191 188
188 191 188
188 191 188
188 191 188
188 191 188
188 191 188
188 191 188
188 191 188
188 191 188
188 191 187
188 191 187
188 191 187
188 191 187
188 191 187
188 191 187
187 191 187
187 191 187
187 191 187
187 191 187
187 192 187
187 192 187
187 192 187
187 192 187
187 192 187
187 192 187
187 192 187
187 192 187
187 192 187
187 192 187
187 192 187
187 193 187
187 193 187
187 193 187
187 193 187
187 193 187
187 193 187
187 193 187
187 194 187
187 194 187
0 161 0
0 160 0
0 159 0
0 158 0
0 158 0
0 157 0
0 156 0
0 155 0
0 154 0
0 154 0
0 153 0
0 152 0
0 150 0
147 0 0
148 0 0
150 0 0
151 0 0
152 0 0
153 0 0
154 0 0
155 0 0
156 0 0
157 0 0
157 0 0
158 0 0
159 0 0
160 0 0
161 0 0
194 188 187
194 188 187
194 188 187
194 188 187
194 188 187
193 188 187
193 188 187
193 188 187
193 188 187
193 188 187
193 188 187
193 188 187
193 188 187
193 188 187
193 188 187
192 188 187
192 188 187
192 188 187
192 188 187
192 188 187
192 188 187
192 188 187
192 188 187
192 188 187
192 188 187
192 188 187
192 188 187
192 188 187
192 188 187
192 188 187
192 188 187
191 188 187
191 188 187
191 188 187
191 188 187
191 188 187
191 188 187
191 188 187
191 188 187
191 188 187
191 188 187
191 188 187
191 188 187
191 188 187
191 188 187
191 188 187
191 188 187
191 188 187
191 188 187
191 188 187
191 188 187
191 188 187
191 189 187
191 189 187
191 189 187
191 189 187
191 189 187
190 189 187
190 189 187
190 189 187
190 189 187
190 189 187
190 189 187
190 189 187
190 189 187
190 189 187
190 189 187
190 189 187
190 189 187
190 189 187
190 189 187
190 189 187
190 189 187
190 189 187
190 189 187
190 189 187
190 189 188
190 189 188
190 189 188
190 189 188
190 189 188
190 189 188
190 189 188
190 189 188
190 189 188
190 189 188
190 189 188
190 189 188
190 189 188
190 189 188
190 189 188
190 189 188
190 189 188
189 189 188
189 189 188
189 189 188
189 189 188
189 189 188
189 189 188
189 189 188
189 189 188
189 189 188
189 189 188
189 189 188
189 189 188
189 189 188
189 189 188
189 189 188
189 189 188
189 189 188
189 189 188
189 189 188
189 189 188
189 189 188
189 189 188
189 189 188
189 189 188
189 189 188
189 189 188
189 189 188
189 189 188
189 189 188
189 189 188
189 189 188
189 189 188
189 189 188
189 189 188
189 189 188
189 189 188
189 189 188
189 189 188
189 189 188
189 189 188
189 189 188
189 189 188
189 189 188
189 189 188
189 189 188
189 189 188
188 189 188
188 189 188
188 189 188
188 189 188
188 189 188
188 189 188
188 189 188
188 189 188
188 189 188
188 189 188
188 190 188
188 190 188
188 190 188
188 190 188
188 190 188
188 190 188
188 190 188
188 190 188
188 190 188
188 190 188
188 190 188
188 190 188
188 190 188
188 190 188
188 190 188
188 190 188
188 190 188
188 190 188
188 190 188
188 190 188
188 190 188
188 190 188
188 190 188
188 190 188
188 190 188
188 190 188
188 190 188
188 190 188
188 190 188
188 190 188
188 190 188
188 190 188
188 190 188
188 190 188
188 190 188
188 190 188
188 190 188
188 191 188
188 191 188
188 191 188
188 191 188
188 191 188
188 191 188
188 191 188
188 191 188
188 191 188
188 191 188
188 191 188
188 191 188
188 191 188
188 191 188
188 191 188
188 191 188
188 191 188
188 191 187
188 191 187
188 192 187
188 192 187
187 192 187
187 192 187
187 192 187
187 192 187
187 192 187
187 192 187
187 192 187
187 192 187
187 192 187
187 192 187
187 193 187
187 193 187
187 193 187
187 193 187
187 193 187
187 193 187
187 193 187
187 193 187
187 194 187
187 194 187
0 161 0
0 160 0
0 159 0
0 158 0
0 158 0
0 157 0
0 156 0
0 155 0
0 155 0
0 154 0
0 153 0
0 152 0
0 151 0
0 150 0
146 0 0
148 0 0
149 0 0
150 0 0
152 0 0
153 0 0
154 0 0
154 0 0
155 0 0
156 0 0
157 0 0
158 0 0
158 0 0
159 0 0
160 0 0
161 0 0
195 188 187
194 188 187
194 188 187
194 188 187
194 188 187
194 188 187
193 188 187
193 188 187
193 188 187
193 188 187
193 188 187
193 188 187
193 188 187
193 188 187
193 188 187
193 188 187
192 188 187
192 188 187
192 188 187
192 188 187
192 188 187
192 188 187
192 188 187
192 188 187
192 188 187
192 188 187
192 188 187
192 188 187
192 188 187
192 188 187
192 188 187
192 188 187
192 188 187
192 188 187
191 188 187
191 188 187
191 188 187
191 188 187
191 188 187
191 188 187
191 188 187
191 188 187
191 188 187
191 188 187
191 189 187
191 189 187
191 189 187
191 189 187
191 189 187
191 189 187
191 189 187
191 189 187
191 189 187
191 189 187
191 189 187
191 189 187
191 189 187
191 189 187
191 189 187
191 189 187
191 189 187
191 189 187
190 189 187
190 189 187
190 189 187
190 189 187
190 189 187
190 189 187
190 189 187
190 189 187
190 189 187
190 189 187
190 189 187
190 189 188
190 189 188
190 189 188
190 189 188
190 189 188
190 189 188
190 189 188
190 189 188
190 189 188
190 189 188
190 189 188
190 189 188
190 189 188
190 189 188
190 189 188
190 189 188
190 189 188
190 189 188
190 189 188
190 189 188
190 189 188
190 189 188
190 189 188
190 189 188
190 189 188
189 189 188
189 189 188
189 189 188
189 189 188
189 189 188
189 189 188
189 189 188
189 189 188
189 189 188
189 189 188
189 189 188
189 189 188
189 189 188
189 189 188
189 189 188
189 189 188
189 189 188
189 189 188
189 189 188
189 189 188
189 189 188
189 189 188
189 189 188
189 189 188
189 189 188
189 189 188
189 189 188
189 189 188
189 189 188
189 189 188
189 189 188
189 189 188
189 189 188
189 189 188
189 189 188
189 189 188
189 189 188
189 189 188
189 189 188
189 189 188
189 189 188
189 189 188
189 189 188
189 190 188
188 190 188
188 190 188
188 190 188
188 190 188
188 190 188
188 190 188
188 190 188
188 190 188
188 190 188
188 190 188
188 190 188
188 190 188
188 190 188
188 190 188
188 190 188
188 190 188
188 190 188
188 190 188
188 190 188
188 190 188
188 190 188
188 190 188
188 190 188
188 190 188
188 190 188
188 190 188
188 190 188
188 190 188
188 190 188
188 190 188
188 190 188
188 190 188
188 190 188
188 190 188
188 190 188
188 190 188
188 190 188
188 190 188
188 190 188
188 190 188
188 190 188
188 191 188
188 191 188
188 191 188
188 191 188
188 191 188
188 191 188
188 191 188
188 191 188
188 191 188
188 191 188
188 191 188
188 191 188
188 191 188
188 191 188
188 191 188
188 191 188
188 191 188
188 191 188
188 191 188
188 191 188
188 192 188
188 192 188
188 192 187
188 192 187
188 192 187
187 192 187
187 192 187
187 192 187
187 192 187
187 192 187
187 192 187
187 192 187
187 193 187
187 193 187
187 193 187
187 193 187
187 193 187
187 193 187
187 193 187
187 193 187
187 194 187
187 194 187
0 161 0
0 160 0
0 159 0
0 159 0
0 158 0
0 157 0
0 156 0
0 156 0
0 155 0
0 154 0
0 153 0
0 152 0
0 151 0
0 150 0
0 149 0
145 0 0
147 0 0
148 0 0
150 0 0
151 0 0
152 0 0
153 0 0
154 0 0
155 0 0
156 0 0
156 0 0
157 0 0
158 0 0
159 0 0
160 0 0
160 0 0
161 0 0
195 188 187
194 188 187
194 188 187
194 188 187
194 188 187
194 188 187
194 188 187
193 188 187
193 188 187
193 188 187
193 188 187
193 188 187
193 188 187
193 188 187
193 188 187
193 188 187
193 188 187
193 188 187
192 188 187
192 188 187
192 188 187
192 188 187
192 188 187
192 188 187
192 188 187
192 188 187
192 188 187
192 188 187
192 188 187
192 188 187
192 188 187
192 188 187
192 188 187
192 188 187
192 188 187
192 188 187
192 188 187
191 188 187
191 189 187
191 189 187
191 189 187
191 189 187
191 189 187
191 189 187
191 189 187
191 189 187
191 189 187
191 189 187
191 189 187
191 189 187
191 189 187
191 189 187
191 189 187
191 189 187
191 189 187
191 189 187
191 189 187
191 189 187
191 189 187
191 189 187
191 189 187
191 189 187
191 189 187
191 189 187
191 189 187
191 189 187
191 189 187
191 189 187
190 189 187
190 189 188
190 189 188
190 189 188
190 189 188
190 189 188
190 189 188
190 189 188
190 189 188
190 189 188
190 189 188
190 189 188
190 189 188
190 189 188
190 189 188
190 189 188
190 189 188
190 189 188
190 189 188
190 189 188
190 189 188
190 189 188
190 189 188
190 189 188
190 189 188
190 189 188
190 189 188
190 189 188
190 189 188
190 189 188
190 189 188
190 189 188
190 189 188
190 189 188
189 189 188
189 189 188
189 189 188
189 189 188
189 189 188
189 189 188
189 189 188
189 189 188
189 189 188
189 189 188
189 189 188
189 189 188
189 189 188
189 189 188
189 189 188
189 189 188
189 189 188
189 189 188
189 189 188
189 189 188
189 189 188
189 189 188
189 189 188
189 189 188
189 189 188
189 189 188
189 189 188
189 189 188
189 190 188
189 190 188
189 190 188
189 190 188
189 190 188
189 190 188
189 190 188
189 190 188
189 190 188
189 190 188
189 190 188
189 190 188
189 190 188
189 190 188
189 190 188
189 190 188
188 190 188
188 190 188
188 190 188
188 190 188
188 190 188
188 190 188
188 190 188
188 190 188
188 190 188
188 190 188
188 190 188
188 190 188
188 190 188
188 190 188
188 190 188
188 190 188
188 190 188
188 190 188
188 190 188
188 190 188
188 190 188
188 190 188
188 190 188
188 190 188
188 190 188
188 190 188
188 190 188
188 190 188
188 190 188
188 190 188
188 190 188
188 190 188
188 190 188
188 191 188
188 191 188
188 191 188
188 191 188
188 191 188
188 191 188
188 191 188
188 191 188
188 191 188
188 191 188
188 191 188
188 191 188
188 191 188
188 191 188
188 191 188
188 191 188
188 191 188
188 191 188
188 191 188
188 191 188
188 191 188
188 192 188
188 192 188
188 192 188
188 192 188
188 192 188
188 192 188
188 192 188
188 192 188
188 192 187
188 192 187
187 192 187
187 192 187
187 193 187
187 193 187
187 193 187
187 193 187
187 193 187
187 193 187
187 193 187
187 193 187
187 194 187
187 194 187
187 194 187
0 161 0
0 160 0
0 159 0
0 159 0
0 158 0
0 157 0
0 157 0
0 156 0
0 155 0
0 154 0
0 154 0
0 153 0
0 152 0
0 151 0
0 150 0
0 148 0
145 0 0
146 0 0
148 0 0
149 0 0
150 0 0
151 0 0
152 0 0
153 0 0
154 0 0
155 0 0
156 0 0
157 0 0
158 0 0
158 0 0
159 0 0
160 0 0
161 0 0
162 0 0
195 188 187
194 188 187
194 188 187
194 188 187
194 188 187
194 188 187
194 188 187
194 188 187
193 188 187
193 188 187
193 188 187
193 188 187
193 188 187
193 188 187
193 188 187
193 188 187
193 188 187
193 188 187
193 188 187
193 188 187
192 188 187
192 188 187
192 188 187
192 188 187
192 188 187
192 188 187
192 188 187
192 188 187
192 188 187
192 188 187
192 188 187
192 188 187
192 189 187
192 189 187
192 189 187
192 189 187
192 189 187
192 189 187
192 189 187
192 189 187
192 189 187
192 189 187
191 189 187
191 189 187
191 189 187
191 189 187
191 189 187
191 189 187
191 189 187
191 189 187
191 189 187
191 189 187
191 189 187
191 189 187
191 189 187
191 189 187
191 189 187
191 189 187
191 189 187
191 189 187
191 189 187
191 189 187
191 189 187
191 189 187
191 189 187
191 189 187
191 189 187
191 189 188
191 189 188
191 189 188
191 189 188
191 189 188
191 189 188
191 189 188
190 189 188
190 189 188
190 189 188
190 189 188
190 189 188
190 189 188
190 189 188
190 189 188
190 189 188
190 189 188
190 189 188
190 189 188
190 189 188
190 189 188
190 189 188
190 189 188
190 189 188
190 189 188
190 189 188
190 189 188
190 189 188
190 189 188
190 189 188
190 189 188
190 189 188
190 189 188
190 189 188
190 189 188
190 189 188
190 189 188
190 189 188
190 189 188
190 190 188
189 190 188
189 190 188
189 190 188
189 190 188
189 190 188
189 190 188
189 190 188
189 190 188
189 190 188
189 190 188
189 190 188
189 190 188
189 190 188
189 190 188
189 190 188
189 190 188
189 190 188
189 190 188
189 190 188
189 190 188
189 190 188
189 190 188
189 190 188
189 190 188
189 190 188
189 190 188
189 190 188
189 190 188
189 190 188
189 190 188
189 190 188
189 190 188
189 190 188
189 190 188
189 190 188
189 190 188
189 190 188
189 190 188
189 190 188
189 190 188
189 190 188
189 190 188
189 190 188
188 190 188
188 190 188
188 190 188
188 190 188
188 190 188
188 190 188
188 190 188
188 190 188
188 190 188
188 190 188
188 190 188
188 190 188
188 190 188
188 190 188
188 190 188
188 190 188
188 190 188
188 190 188
188 190 188
188 190 188
188 190 188
188 190 188
188 190 188
188 190 188
188 190 188
188 191 188
188 191 188
188 191 188
188 191 188
188 191 188
188 191 188
188 191 188
188 191 188
188 191 188
188 191 188
188 191 188
188 191 188
188 191 188
188 191 188
188 191 188
188 191 188
188 191 188
188 191 188
188 191 188
188 191 188
188 191 188
188 191 188
188 192 188
188 192 188
188 192 188
188 192 188
188 192 188
188 192 188
188 192 188
188 192 188
188 192 188
188 192 188
188 192 188
188 192 188
188 192 188
188 193 187
187 193 187
187 193 187
187 193 187
187 193 187
187 193 187
187 193 187
187 193 187
187 194 187
187 194 187
187 194 187
0 161 0
0 160 0
0 160 0
0 159 0
0 158 0
0 158 0
0 157 0
0 156 0
0 155 0
0 155 0
0 154 0
0 153 0
0 152 0
0 151 0
0 150 0
0 149 0
0 148 0
144 0 0
146 0 0
147 0 0
149 0 0
150 0 0
151 0 0
152 0 0
153 0 0
154 0 0
155 0 0
155 0 0
156 0 0
157 0 0
158 0 0
159 0 0
159 0 0
160 0 0
161 0 0
162 0 0
195 188 187
195 188 187
194 188 187
194 188 187
194 188 187
194 188 187
194 188 187
194 188 187
194 188 187
193 188 187
193 188 187
193 188 187
193 188 187
193 188 187
193 188 187
193 188 187
193 188 187
193 188 187
193 188 187
193 188 187
193 188 187
193 188 187
193 188 187
192 188 187
192 188 187
192 188 187
192 188 187
192 188 187
192 189 187
192 189 187
192 189 187
192 189 187
192 189 187
192 189 187
192 189 187
192 189 187
192 189 187
192 189 187
192 189 187
192 189 187
192 189 187
192 189 187
192 189 187
192 189 187
192 189 187
192 189 187
192 189 187
191 189 187
191 189 187
191 189 187
191 189 187
191 189 187
191 189 187
191 189 187
191 189 187
191 189 187
191 189 187
191 189 187
191 189 187
191 189 187
191 189 187
191 189 187
191 189 187
191 189 187
191 189 188
191 189 188
191 189 188
191 189 188
191 189 188
191 189 188
191 189 188
191 189 188
191 189 188
191 189 188
191 190 188
191 190 188
191 190 188
191 190 188
191 190 188
190 190 188
190 190 188
190 190 188
190 190 188
190 190 188
190 190 188
190 190 188
190 190 188
190 190 188
190 190 188
190 190 188
190 190 188
190 190 188
190 190 188
190 190 188
190 190 188
190 190 188
190 190 188
190 190 188
190 190 188
190 190 188
190 190 188
190 190 188
190 190 188
190 190 188
190 190 188
190 190 188
190 190 188
190 190 188
190 190 188
190 190 188
190 190 188
189 190 188
189 190 188
189 190 188
189 190 188
189 190 188
189 190 188
189 190 188
189 190 188
189 190 188
189 190 188
189 190 188
189 190 188
189 190 188
189 190 188
189 190 188
189 190 188
189 190 188
189 190 188
189 190 188
189 190 188
189 190 188
189 190 188
189 190 188
189 190 188
189 190 188
189 190 188
189 190 188
189 190 188
189 190 188
189 190 188
189 190 188
189 190 188
189 190 188
189 190 188
189 190 188
189 190 188
189 190 188
189 190 188
189 190 188
189 190 188
189 190 188
189 190 188
188 190 188
188 190 188
188 190 188
188 190 188
188 190 188
188 190 188
188 190 188
188 190 188
188 190 188
188 190 188
188 190 188
188 190 188
188 190 188
188 190 188
188 190 188
188 190 188
188 190 188
188 190 188
188 191 188
188 191 188
188 191 188
188 191 188
188 191 188
188 191 188
188 191 188
188 191 188
188 191 188
188 191 188
188 191 188
188 191 188
188 191 188
188 191 188
188 191 188
188 191 188
188 191 188
188 191 188
188 191 188
188 191 188
188 191 188
188 191 188
188 191 188
188 192 188
188 192 188
188 192 188
188 192 188
188 192 188
188 192 188
188 192 188
188 192 188
188 192 188
188 192 188
188 192 188
188 192 188
188 192 188
188 193 188
188 193 188
188 193 188
188 193 188
188 193 187
187 193 187
187 193 187
187 193 187
187 193 187
187 194 187
187 194 187
187 194 187
0 161 0
0 161 0
0 160 0
0 159 0
0 158 0
0 158 0
0 157 0
0 156 0
0 156 0
0 155 0
0 154 0
0 153 0
0 153 0
0 152 0
0 151 0
0 150 0
0 149 0
0 147 0
143 0 0
145 0 0
147 0 0
148 0 0
149 0 0
150 0 0
151 0 0
152 0 0
153 0 0
154 0 0
155 0 0
156 0 0
157 0 0
157 0 0
158 0 0
159 0 0
160 0 0
160 0 0
161 0 0
162 0 0
195 188 187
195 188 187
194 188 187
194 188 187
194 188 187
194 188 187
194 188 187
194 188 187
194 188 187
194 188 187
193 188 187
193 188 187
193 188 187
193 188 187
193 188 187
193 188 187
193 188 187
193 188 187
193 188 187
193 188 187
193 188 187
193 188 187
193 188 187
193 189 187
193 189 187
193 189 187
192 189 187
192 189 187
192 189 187
192 189 187
192 189 187
192 189 187
192 189 187
192 189 187
192 189 187
192 189 187
192 189 187
192 189 187
192 189 187
192 189 187
192 189 187
192 189 187
192 189 187
192 189 187
192 189 187
192 189 187
192 189 187
192 189 187
192 189 187
192 189 187
192 189 187
192 189 187
192 189 187
192 189 187
191 189 187
191 189 187
191 189 187
191 189 187
191 189 187
191 189 187
191 190 188
191 190 188
191 190 188
191 190 188
191 190 188
191 190 188
191 190 188
191 190 188
191 190 188
191 190 188
191 190 188
191 190 188
191 190 188
191 190 188
191 190 188
191 190 188
191 190 188
191 190 188
191 190 188
191 190 188
191 190 188
191 190 188
191 190 188
191 190 188
190 190 188
190 190 188
190 190 188
190 190 188
190 190 188
190 190 188
190 190 188
190 190 188
190 190 188
190 190 188
190 190 188
190 190 188
190 190 188
190 190 188
190 190 188
190 190 188
190 190 188
190 190 188
190 190 188
190 190 188
190 190 188
190 190 188
190 190 188
190 190 188
190 190 188
190 190 188
190 190 188
190 190 188
190 190 188
190 190 188
190 190 188
189 190 188
189 190 188
189 190 188
189 190 188
189 190 188
189 190 188
189 190 188
189 190 188
189 190 188
189 190 188
189 190 188
189 190 188
189 190 188
189 190 188
189 190 188
189 190 188
189 190 188
189 190 188
189 190 188
189 190 188
189 190 188
189 190 188
189 190 188
189 190 188
189 190 188
189 190 188
189 190 188
189 190 188
189 190 188
189 190 188
189 190 188
189 190 188
189 190 188
189 190 188
189 190 188
189 190 188
189 190 188
189 190 188
189 190 188
189 190 188
189 190 188
188 190 188
188 190 188
188 190 188
188 190 188
188 190 188
188 190 188
188 190 188
188 190 188
188 190 188
188 190 188
188 190 188
188 191 188
188 191 188
188 191 188
188 191 188
188 191 188
188 191 188
188 191 188
188 191 188
188 191 188
188 191 188
188 191 188
188 191 188
188 191 188
188 191 188
188 191 188
188 191 188
188 191 188
188 191 188
188 191 188
188 191 188
188 191 188
188 191 188
188 191 188
188 191 188
188 192 188
188 192 188
188 192 188
188 192 188
188 192 188
188 192 188
188 192 188
188 192 188
188 192 188
188 192 188
188 192 188
188 192 188
188 192 188
188 192 188
188 193 188
188 193 188
188 193 188
188 193 188
188 193 188
188 193 188
188 193 188
188 193 188
187 194 187
187 194 187
187 194 187
187 194 187
0 162 0
0 161 0
0 160 0
0 159 0
0 159 0
0 158 0
0 157 0
0 157 0
0 156 0
0 155 0
0 155 0
0 154 0
0 153 0
0 152 0
0 151 0
0 150 0
0 149 0
0 148 0
0 147 0
143 0 0
145 0 0
146 0 0
147 0 0
149 0 0
150 0 0
151 0 0
152 0 0
153 0 0
154 0 0
155 0 0
155 0 0
156 0 0
157 0 0
158 0 0
158 0 0
159 0 0
160 0 0
161 0 0
161 0 0
162 0 0
195 188 187
195 188 187
195 188 187
194 188 187
194 188 187
194 188 187
194 188 187
194 188 187
194 188 187
194 188 187
194 188 187
194 188 187
193 188 187
193 188 187
193 188 187
193 188 187
193 188 187
193 188 187
193 188 187
193 189 187
193 189 187
193 189 187
193 189 187
193 189 187
193 189 187
193 189 187
193 189 187
193 189 187
193 189 187
192 189 187
192 189 187
192 189 187
192 189 187
192 189 187
192 189 187
192 189 187
192 189 187
192 189 187
192 189 187
192 189 187
192 189 187
192 189 187
192 189 187
192 189 187
192 189 187
192 189 187
192 189 187
192 189 187
192 189 187
192 189 187
192 189 187
192 190 187
192 190 187
192 190 187
192 190 187
192 190 187
192 190 188
192 190 188
192 190 188
192 190 188
191 190 188
191 190 188
191 190 188
191 190 188
191 190 188
191 190 188
191 190 188
191 190 188
191 190 188
191 190 188
191 190 188
191 190 188
191 190 188
191 190 188
191 190 188
191 190 188
191 190 188
191 190 188
191 190 188
191 190 188
191 190 188
191 190 188
191 190 188
191 190 188
191 190 188
191 190 188
191 190 188
191 190 188
191 190 188
190 190 188
190 190 188
190 190 188
190 190 188
190 190 188
190 190 188
190 190 188
190 190 188
190 190 188
190 190 188
190 190 188
190 190 188
190 190 188
190 190 188
190 190 188
190 190 188
190 190 188
190 190 188
190 190 188
190 190 188
190 190 188
190 190 188
190 190 188
190 190 188
190 190 188
190 190 188
190 190 188
190 190 188
190 190 188
189 190 188
189 190 188
189 190 188
189 190 188
189 190 188
189 190 188
189 190 188
189 190 188
189 190 188
189 190 188
189 190 188
189 190 188
189 190 188
189 190 188
189 190 188
189 190 188
189 190 188
189 190 188
189 190 188
189 190 188
189 190 188
189 190 188
189 190 188
189 190 188
189 190 188
189 190 188
189 190 188
189 190 188
189 190 188
189 190 188
189 190 188
189 190 188
189 190 188
189 190 188
189 190 188
189 190 188
189 190 188
189 190 188
189 190 188
189 190 188
188 190 188
188 190 188
188 190 188
188 190 188
188 191 188
188 191 188
188 191 188
188 191 188
188 191 188
188 191 188
188 191 188
188 191 188
188 191 188
188 191 188
188 191 188
188 191 188
188 191 188
188 191 188
188 191 188
188 191 188
188 191 188
188 191 188
188 191 188
188 191 188
188 191 188
188 191 188
188 191 188
188 191 188
188 191 188
188 192 188
188 192 188
188 192 188
188 192 188
188 192 188
188 192 188
188 192 188
188 192 188
188 192 188
188 192 188
188 192 188
188 192 188
188 192 188
188 192 188
188 192 188
188 193 188
188 193 188
188 193 188
188 193 188
188 193 188
188 193 188
188 193 188
188 193 188
188 193 188
188 194 188
188 194 188
188 194 188
187 194 187
0 162 0
0 161 0
0 160 0
0 159 0
0 159 0
0 158 0
0 157 0
0 157 0
0 156 0
0 155 0
0 155 0
0 154 0
0 153 0
0 153 0
0 152 0
0 151 0
0 150 0
0 149 0
0 147 0
0 146 0
142 0 0
144 0 0
146 0 0
147 0 0
148 0 0
149 0 0
150 0 0
151 0 0
152 0 0
153 0 0
154 0 0
155 0 0
156 0 0
156 0 0
157 0 0
158 0 0
159 0 0
159 0 0
160 0 0
161 0 0
162 0 0
163 0 0
195 188 187
195 188 187
195 188 187
195 188 187
194 188 187
194 188 187
194 188 187
194 188 187
194 188 187
194 188 187
194 188 187
194 188 187
194 188 187
194 188 187
193 188 187
193 188 187
193 189 187
193 189 187
193 189 187
193 189 187
193 189 187
193 189 187
193 189 187
193 189 187
193 189 187
193 189 187
193 189 187
193 189 187
193 189 187
193 189 187
193 189 187
193 189 187
193 189 187
193 189 187
192 189 187
192 189 187
192 189 187
192 189 187
192 189 187
192 189 187
192 189 187
192 189 187
192 189 187
192 189 187
192 190 187
192 190 187
192 190 187
192 190 187
192 190 187
192 190 187
192 190 187
192 190 187
192 190 187
192 190 187
192 190 188
192 190 188
192 190 188
192 190 188
192 190 188
192 190 188
192 190 188
192 190 188
192 190 188
192 190 188
192 190 188
192 190 188
192 190 188
191 190 188
191 190 188
191 190 188
191 190 188
191 190 188
191 190 188
191 190 188
191 190 188
191 190 188
191 190 188
191 190 188
191 190 188
191 190 188
191 190 188
191 190 188
191 190 188
191 190 188
191 190 188
191 190 188
191 190 188
191 190 188
191 190 188
191 190 188
191 190 188
191 190 188
191 190 188
191 190 188
190 190 188
190 190 188
190 190 188
190 190 188
190 190 188
190 190 188
190 190 188
190 190 188
190 190 188
190 190 188
190 190 188
190 190 188
190 190 188
190 190 188
190 190 188
190 190 188
190 190 188
190 190 188
190 190 188
190 190 188
190 190 188
190 190 188
190 190 188
190 190 188
190 190 188
190 190 188
190 190 188
190 190 188
189 190 188
189 190 188
189 190 188
189 190 188
189 190 188
189 190 188
189 190 188
189 190 188
189 190 188
189 190 188
189 190 188
189 190 188
189 190 188
189 190 188
189 190 188
189 190 188
189 190 188
189 190 188
189 190 188
189 190 188
189 190 188
189 190 188
189 190 188
189 190 188
189 190 188
189 190 188
189 190 188
189 190 188
189 190 188
189 190 188
189 190 188
189 190 188
189 190 188
189 190 188
189 190 188
189 191 188
189 191 188
189 191 188
189 191 188
188 191 188
188 191 188
188 191 188
188 191 188
188 191 188
188 191 188
188 191 188
188 191 188
188 191 188
188 191 188
188 191 188
188 191 188
188 191 188
188 191 188
188 191 188
188 191 188
188 191 188
188 191 188
188 191 188
188 191 188
188 191 188
188 191 188
188 191 188
188 192 188
188 192 188
188 192 188
188 192 188
188 192 188
188 192 188
188 192 188
188 192 188
188 192 188
188 192 188
188 192 188
188 192 188
188 192 188
188 192 188
188 192 188
188 193 188
188 193 188
188 193 188
188 193 188
188 193 188
188 193 188
188 193 188
188 193 188
188 193 188
188 193 188
188 194 188
188 194 188
188 194 188
188 194 188
0 162 0
0 161 0
0 160 0
0 160 0
0 159 0
0 158 0
0 158 0
0 157 0
0 156 0
0 156 0
0 155 0
0 154 0
0 154 0
0 153 0
0 152 0
0 151 0
0 150 0
0 149 0
0 148 0
0 147 0
0 146 0
142 0 0
143 0 0
145 0 0
146 0 0
148 0 0
149 0 0
150 0 0
151 0 0
152 0 0
153 0 0
154 0 0
154 0 0
155 0 0
156 0 0
157 0 0
158 0 0
158 0 0
159 0 0
160 0 0
161 0 0
161 0 0
162 0 0
163 0 0
195 188 187
195 188 187
195 188 187
195 188 187
194 188 187
194 188 187
194 188 187
194 188 187
194 188 187
194 188 187
194 188 187
194 188 187
194 188 187
194 189 187
194 189 187
194 189 187
193 189 187
193 189 187
193 189 187
193 189 187
193 189 187
193 189 187
193 189 187
193 189 187
193 189 187
193 189 187
193 189 187
193 189 187
193 189 187
193 189 187
193 189 187
193 189 187
193 189 187
193 189 187
193 189 187
193 189 187
193 189 187
193 189 187
193 189 187
193 190 187
192 190 187
192 190 187
192 190 187
192 190 187
192 190 187
192 190 187
192 190 187
192 190 187
192 190 187
192 190 187
192 190 188
192 190 188
192 190 188
192 190 188
192 190 188
192 190 188
192 190 188
192 190 188
192 190 188
192 190 188
192 190 188
192 190 188
192 190 188
192 190 188
192 190 188
192 190 188
192 190 188
192 190 188
192 190 188
192 190 188
192 190 188
192 190 188
192 190 188
191 190 188
191 190 188
191 190 188
191 190 188
191 190 188
191 190 188
191 190 188
191 190 188
191 190 188
191 190 188
191 190 188
191 190 188
191 190 188
191 190 188
191 190 188
191 190 188
191 190 188
191 190 188
191 190 188
191 190 188
191 190 188
191 190 188
191 190 188
191 190 188
190 190 188
190 190 188
190 190 188
190 190 188
190 190 188
190 190 188
190 190 188
190 190 188
190 190 188
190 190 188
190 190 188
190 190 188
190 190 188
190 190 188
190 190 188
190 190 188
190 190 188
190 190 188
190 190 188
190 190 188
190 190 188
190 190 188
190 190 188
190 190 188
190 190 188
190 190 188
190 190 188
190 190 188
189 190 188
189 190 188
189 190 188
189 190 188
189 190 188
189 190 188
189 190 188
189 190 188
189 190 188
189 190 188
189 190 188
189 190 188
189 190 188
189 190 188
189 190 188
189 190 188
189 190 188
189 190 188
189 190 188
189 190 188
189 190 188
189 190 188
189 190 188
189 190 188
189 190 188
189 190 188
189 191 188
189 191 188
189 191 188
189 191 188
189 191 188
189 191 188
189 191 188
189 191 188
189 191 188
189 191 188
189 191 188
189 191 188
189 191 188
188 191 188
188 191 188
188 191 188
188 191 188
188 191 188
188 191 188
188 191 188
188 191 188
188 191 188
188 191 188
188 191 188
188 191 188
188 191 188
188 191 188
188 191 188
188 191 188
188 191 188
188 192 188
188 192 188
188 192 188
188 192 188
188 192 188
188 192 188
188 192 188
188 192 188
188 192 188
188 192 188
188 192 188
188 192 188
188 192 188
188 192 188
188 192 188
188 192 188
188 193 188
188 193 188
188 193 188
188 193 188
188 193 188
188 193 188
188 193 188
188 193 188
188 193 188
188 194 188
188 194 188
188 194 188
188 194 188
188 194 188
0 162 0
0 161 0
0 160 0
0 160 0
0 159 0
0 158 0
0 158 0
0 157 0
0 156 0
0 156 0
0 155 0
0 155 0
0 154 0
0 153 0
0 152 0
0 152 0
0 151 0
0 150 0
0 149 0
0 148 0
0 146 0
0 145 0
141 0 0
143 0 0
144 0 0
146 0 0
147 0 0
148 0 0
149 0 0
150 0 0
151 0 0
152 0 0
153 0 0
154 0 0
155 0 0
156 0 0
156 0 0
157 0 0
158 0 0
159 0 0
159 0 0
160 0 0
161 0 0
162 0 0
163 0 0
163 0 0
195 188 187
195 188 187
195 188 187
195 188 187
195 188 187
194 188 187
194 188 187
194 188 187
194 188 187
194 188 187
194 189 187
194 189 187
194 189 187
194 189 187
194 189 187
194 189 187
194 189 187
194 189 187
194 189 187
193 189 187
193 189 187
193 189 187
193 189 187
193 189 187
193 189 187
193 189 187
193 189 187
193 189 187
193 189 187
193 189 187
193 189 187
193 189 187
193 189 187
193 189 187
193 189 187
193 190 187
193 190 187
193 190 187
193 190 187
193 190 187
193 190 187
193 190 187
193 190 187
193 190 187
193 190 187
193 190 187
193 190 187
193 190 188
192 190 188
192 190 188
192 190 188
192 190 188
192 190 188
192 190 188
192 190 188
192 190 188
192 190 188
192 190 188
192 190 188
192 190 188
192 190 188
192 190 188
192 190 188
192 190 188
192 190 188
192 190 188
192 190 188
192 190 188
192 190 188
192 190 188
192 190 188
192 190 188
192 191 188
192 191 188
192 191 188
192 191 188
192 191 188
192 191 188
191 191 188
191 191 188
191 191 188
191 191 188
191 191 188
191 191 188
191 191 188
191 191 188
191 191 188
191 191 188
191 191 188
191 190 188
191 190 188
191 190 188
191 190 188
191 190 188
191 190 188
191 190 188
191 190 188
191 190 188
191 190 188
191 190 188
191 190 188
190 190 188
190 190 188
190 190 188
190 190 188
190 190 188
190 190 188
190 190 188
190 190 188
190 190 188
190 190 188
190 190 188
190 190 188
190 190 188
190 190 188
190 190 188
190 190 188
190 190 188
190 190 188
190 190 188
190 190 188
190 190 188
190 190 188
190 190 188
190 190 188
190 190 188
190 190 188
190 190 188
189 190 188
189 190 188
189 190 188
189 190 188
189 190 188
189 190 188
189 190 188
189 190 188
189 190 188
189 190 188
189 190 188
189 190 188
189 190 188
189 190 188
189 190 188
189 190 188
189 191 188
189 191 188
189 191 188
189 191 188
189 191 188
189 191 188
189 191 188
189 191 188
189 191 188
189 191 188
189 191 188
189 191 188
189 191 188
189 191 188
189 191 188
189 191 188
189 191 188
189 191 188
189 191 188
189 191 188
189 191 188
189 191 188
188 191 188
188 191 188
188 191 188
188 191 188
188 191 188
188 191 188
188 191 188
188 191 188
188 191 188
188 191 188
188 191 188
188 191 188
188 192 188
188 192 188
188 192 188
188 192 188
188 192 188
188 192 188
188 192 188
188 192 188
188 192 188
188 192 188
188 192 188
188 192 188
188 192 188
188 192 188
188 192 188
188 192 188
188 193 188
188 193 188
188 193 188
188 193 188
188 193 188
188 193 188
188 193 188
188 193 188
188 193 188
188 193 188
188 194 188
188 194 188
188 194 188
188 194 188
188 194 188
0 162 0
0 161 0
0 161 0
0 160 0
0 159 0
0 159 0
0 158 0
0 157 0
0 157 0
0 156 0
0 155 0
0 155 0
0 154 0
0 153 0
0 153 0
0 152 0
0 151 0
0 150 0
0 149 0
0 148 0
0 147 0
0 146 0
0 144 0
140 0 0
142 0 0
144 0 0
145 0 0
147 0 0
148 0 0
149 0 0
150 0 0
151 0 0
152 0 0
153 0 0
154 0 0
154 0 0
155 0 0
156 0 0
157 0 0
157 0 0
158 0 0
159 0 0
160 0 0
160 0 0
161 0 0
162 0 0
163 0 0
164 0 0
195 188 187
195 188 187
195 188 187
195 188 187
195 188 187
195 188 187
195 188 187
194 188 187
194 189 187
194 189 187
194 189 187
194 189 187
194 189 187
194 189 187
194 189 187
194 189 187
194 189 187
194 189 187
194 189 187
194 189 187
194 189 187
194 189 187
193 189 187
193 189 187
193 189 187
193 189 187
193 189 187
193 189 187
193 189 187
193 189 187
193 189 187
193 190 187
193 190 187
193 190 187
193 190 187
193 190 187
193 190 187
193 190 187
193 190 187
193 190 187
193 190 187
193 190 187
193 190 187
193 190 187
193 190 188
193 190 188
193 190 188
193 190 188
193 190 188
193 190 188
193 190 188
193 190 188
193 190 188
193 190 188
193 190 188
193 190 188
192 190 188
192 191 188
192 191 188
192 191 188
192 191 188
192 191 188
192 191 188
192 191 188
192 191 188
192 191 188
192 191 188
192 191 188
192 191 188
192 191 188
192 191 188
192 191 188
192 191 188
192 191 188
192 191 188
192 191 188
192 191 188
192 191 188
192 191 188
192 191 188
192 191 188
192 191 188
191 191 188
191 191 188
191 191 188
191 191 188
191 191 188
191 191 188
191 191 188
191 191 188
191 191 188
191 191 188
191 191 188
191 191 188
191 191 188
191 191 188
191 191 188
191 191 188
191 191 188
191 191 188
191 191 188
191 191 188
191 191 188
191 191 188
190 191 188
190 191 188
190 191 188
190 191 188
190 191 188
190 191 188
190 190 188
190 190 188
190 190 188
190 190 188
190 190 188
190 190 188
190 190 188
190 190 188
190 190 188
190 190 188
190 190 188
190 190 188
190 190 188
190 190 188
190 190 188
190 190 188
190 190 188
190 190 188
190 190 188
190 190 188
189 190 188
189 190 188
189 190 188
189 191 188
189 191 188
189 191 188
189 191 188
189 191 188
189 191 188
189 191 188
189 191 188
189 191 188
189 191 188
189 191 188
189 191 188
189 191 188
189 191 188
189 191 188
189 191 188
189 191 188
189 191 188
189 191 188
189 191 188
189 191 188
189 191 188
189 191 188
189 191 188
189 191 188
189 191 188
189 191 188
189 191 188
189 191 188
189 191 188
189 191 188
189 191 188
189 191 188
189 191 188
189 191 188
188 191 188
188 191 188
188 191 188
188 191 188
188 191 188
188 191 188
188 192 188
188 192 188
188 192 188
188 192 188
188 192 188
188 192 188
188 192 188
188 192 188
188 192 188
188 192 188
188 192 188
188 192 188
188 192 188
188 192 188
188 192 188
188 192 188
188 192 188
188 193 188
188 193 188
188 193 188
188 193 188
188 193 188
188 193 188
188 193 188
188 193 188
188 193 188
188 193 188
188 193 188
188 194 188
188 194 188
188 194 188
188 194 188
188 194 188
0 162 0
0 161 0
0 161 0
0 160 0
0 159 0
0 159 0
0 158 0
0 158 0
0 157 0
0 156 0
0 156 0
0 155 0
0 154 0
0 154 0
0 153 0
0 152 0
0 151 0
0 151 0
0 150 0
0 149 0
0 148 0
0 147 0
0 145 0
0 144 0
140 0 0
142 0 0
143 0 0
145 0 0
146 0 0
147 0 0
148 0 0
149 0 0
150 0 0
151 0 0
152 0 0
153 0 0
154 0 0
155 0 0
156 0 0
156 0 0
157 0 0
158 0 0
159 0 0
159 0 0
160 0 0
161 0 0
162 0 0
162 0 0
163 0 0
164 0 0
196 188 187
195 188 187
195 188 187
195 188 187
195 188 187
195 188 187
195 189 187
195 189 187
194 189 187
194 189 187
194 189 187
194 189 187
194 189 187
194 189 187
194 189 187
194 189 187
194 189 187
194 189 187
194 189 187
194 189 187
194 189 187
194 189 187
194 189 187
194 189 187
194 189 187
193 189 187
193 189 187
193 189 187
193 190 187
193 190 187
193 190 187
193 190 187
193 190 187
193 190 187
193 190 187
193 190 187
193 190 187
193 190 187
193 190 187
193 190 187
193 190 187
193 190 188
193 190 188
193 190 188
193 190 188
193 190 188
193 190 188
193 190 188
193 190 188
193 190 188
193 191 188
193 191 188
193 191 188
193 191 188
193 191 188
193 191 188
193 191 188
193 191 188
193 191 188
193 191 188
193 191 188
193 191 188
192 191 188
192 191 188
192 191 188
192 191 188
192 191 188
192 191 188
192 191 188
192 191 188
192 191 188
192 191 188
192 191 188
192 191 188
192 191 188
192 191 188
192 191 188
192 191 188
192 191 188
192 191 188
192 191 188
192 191 188
192 191 188
192 191 188
192 191 188
191 191 188
191 191 188
191 191 188
191 191 188
191 191 188
191 191 188
191 191 188
191 191 188
191 191 188
191 191 188
191 191 188
191 191 188
191 191 188
191 191 188
191 191 188
191 191 188
191 191 188
191 191 188
191 191 188
191 191 188
191 191 188
190 191 188
190 191 188
190 191 188
190 191 188
190 191 188
190 191 188
190 191 188
190 191 188
190 191 188
190 191 188
190 191 188
190 191 188
190 191 188
190 191 188
190 191 188
190 191 188
190 191 188
190 191 188
190 191 188
190 191 188
190 191 188
190 191 188
190 191 188
190 191 188
190 191 188
190 191 188
190 191 188
189 191 188
189 191 188
189 191 188
189 191 188
189 191 188
189 191 188
189 191 188
189 191 188
189 191 188
189 191 188
189 191 188
189 191 188
189 191 188
189 191 188
189 191 188
189 191 188
189 191 188
189 191 188
189 191 188
189 191 188
189 191 188
189 191 188
189 191 188
189 191 188
189 191 188
189 191 188
189 191 188
189 191 188
189 191 188
189 191 188
189 191 188
189 191 188
189 191 188
189 191 188
189 191 188
189 191 188
188 191 188
188 191 188
188 192 188
188 192 188
188 192 188
188 192 188
188 192 188
188 192 188
188 192 188
188 192 188
188 192 188
188 192 188
188 192 188
188 192 188
188 192 188
188 192 188
188 192 188
188 192 188
188 192 188
188 193 188
188 193 188
188 193 188
188 193 188
188 193 188
188 193 188
188 193 188
188 193 188
188 193 188
188 193 188
188 193 188
188 194 188
188 194 188
188 194 188
188 194 188
188 194 188
188 194 188
0 163 0
0 162 0
0 161 0
0 160 0
0 160 0
0 159 0
0 158 0
0 158 0
0 157 0
0 156 0
0 156 0
0 155 0
0 155 0
0 154 0
0 153 0
0 153 0
0 152 0
0 151 0
0 150 0
0 149 0
0 148 0
0 147 0
0 146 0
0 145 0
0 143 0
139 0 0
141 0 0
143 0 0
144 0 0
146 0 0
147 0 0
148 0 0
149 0 0
150 0 0
151 0 0
152 0 0
153 0 0
154 0 0
154 0 0
155 0 0
156 0 0
157 0 0
157 0 0
158 0 0
159 0 0
160 0 0
160 0 0
161 0 0
162 0 0
163 0 0
164 0 0
164 0 0
196 188 187
195 188 187
195 188 187
195 188 187
195 188 187
195 189 187
195 189 187
195 189 187
195 189 187
195 189 187
194 189 187
194 189 187
194 189 187
194 189 187
194 189 187
194 189 187
194 189 187
194 189 187
194 189 187
194 189 187
194 189 187
194 189 187
194 189 187
194 189 187
194 189 187
194 189 187
194 190 187
194 190 187
194 190 187
194 190 187
194 190 187
193 190 187
193 190 187
193 190 187
193 190 187
193 190 187
193 190 187
193 190 188
193 190 188
193 190 188
193 190 188
193 190 188
193 190 188
193 190 188
193 190 188
193 190 188
193 191 188
193 191 188
193 191 188
193 191 188
193 191 188
193 191 188
193 191 188
193 191 188
193 191 188
193 191 188
193 191 188
193 191 188
193 191 188
193 191 188
193 191 188
193 191 188
193 191 188
193 191 188
193 191 188
193 191 188
193 191 188
192 191 188
192 191 188
192 191 188
192 191 188
192 191 188
192 191 188
192 191 188
192 191 188
192 191 188
192 191 188
192 191 188
192 191 188
192 191 188
192 191 188
192 191 188
192 191 188
192 191 188
192 191 188
192 191 188
192 191 188
192 191 188
191 191 188
191 191 188
191 191 188
191 191 188
191 191 188
191 191 188
191 191 188
191 191 188
191 191 188
191 191 188
191 191 188
191 191 188
191 191 188
191 191 188
191 191 188
191 191 188
191 191 188
191 191 189
191 191 189
191 191 189
190 191 189
190 191 189
190 191 189
190 191 189
190 191 189
190 191 189
190 191 189
190 191 189
190 191 189
190 191 189
190 191 189
190 191 189
190 191 189
190 191 189
190 191 189
190 191 189
190 191 189
190 191 189
190 191 189
190 191 189
190 191 189
190 191 189
190 191 189
190 191 189
190 191 189
190 191 189
190 191 189
189 191 189
189 191 189
189 191 189
189 191 189
189 191 189
189 191 189
189 191 189
189 191 189
189 191 188
189 191 188
189 191 188
189 191 188
189 191 188
189 191 188
189 191 188
189 191 188
189 191 188
189 191 188
189 191 188
189 191 188
189 191 188
189 191 188
189 191 188
189 191 188
189 191 188
189 191 188
189 191 188
189 191 188
189 191 188
189 191 188
189 191 188
189 191 188
189 191 188
189 192 188
189 192 188
189 192 188
188 192 188
188 192 188
188 192 188
188 192 188
188 192 188
188 192 188
188 192 188
188 192 188
188 192 188
188 192 188
188 192 188
188 192 188
188 192 188
188 192 188
188 192 188
188 193 188
188 193 188
188 193 188
188 193 188
188 193 188
188 193 188
188 193 188
188 193 188
188 193 188
188 193 188
188 193 188
188 194 188
188 194 188
188 194 188
188 194 188
188 194 188
188 194 188
0 163 0
0 162 0
0 161 0
0 160 0
0 160 0
0 159 0
0 158 0
0 158 0
0 157 0
0 157 0
0 156 0
0 155 0
0 155 0
0 154 0
0 153 0
0 153 0
0 152 0
0 151 0
0 150 0
0 150 0
0 149 0
0 148 0
0 147 0
0 146 0
0 144 0
0 143 0
139 0 0
141 0 0
142 0 0
144 0 0
145 0 0
146 0 0
147 0 0
148 0 0
149 0 0
151 0 0
151 0 0
152 0 0
153 0 0
154 0 0
155 0 0
155 0 0
156 0 0
157 0 0
158 0 0
158 0 0
159 0 0
160 0 0
161 0 0
162 0 0
162 0 0
163 0 0
164 0 0
165 0 0
196 188 187
196 188 187
195 188 187
195 188 187
195 189 187
195 189 187
195 189 187
195 189 187
195 189 187
195 189 187
195 189 187
194 189 187
194 189 187
194 189 187
194 189 187
194 189 187
194 189 187
194 189 187
194 189 187
194 189 187
194 189 187
194 189 187
194 189 187
194 189 187
194 190 187
194 190 187
194 190 187
194 190 187
194 190 187
194 190 187
194 190 187
194 190 188
194 190 188
194 190 188
194 190 188
194 190 188
194 190 188
193 190 188
193 190 188
193 190 188
193 190 188
193 190 188
193 190 188
193 191 188
193 191 188
193 191 188
193 191 188
193 191 188
193 191 188
193 191 188
193 191 188
193 191 188
193 191 188
193 191 188
193 191 188
193 191 188
193 191 188
193 191 188
193 191 188
193 191 188
193 191 188
193 191 188
193 191 188
193 191 188
193 191 188
193 191 188
193 191 188
193 191 188
193 191 188
193 191 188
193 191 188
192 191 188
192 191 188
192 191 188
192 191 188
192 191 188
192 191 188
192 191 188
192 191 188
192 191 188
192 191 188
192 191 188
192 191 188
192 191 188
192 191 188
192 191 188
192 191 188
192 191 188
192 191 188
192 191 188
191 191 188
191 191 188
191 191 188
191 191 188
191 191 188
191 191 188
191 191 188
191 191 189
191 191 189
191 191 189
191 191 189
191 191 189
191 191 189
191 191 189
191 191 189
191 191 189
191 191 189
191 191 189
191 191 189
191 191 189
190 191 189
190 191 189
190 191 189
190 191 189
190 191 189
190 191 189
190 191 189
190 191 189
190 191 189
190 191 189
190 191 189
190 191 189
190 191 189
190 191 189
190 191 189
190 191 189
190 191 189
190 191 189
190 191 189
190 191 189
190 191 189
190 191 189
190 191 189
190 191 189
190 191 189
190 191 189
190 191 189
189 191 189
189 191 189
189 191 189
189 191 189
189 191 189
189 191 189
189 191 189
189 191 189
189 191 189
189 191 189
189 191 189
189 191 189
189 191 189
189 191 189
189 191 188
189 191 188
189 191 188
189 191 188
189 191 188
189 191 188
189 191 188
189 191 188
189 191 188
189 191 188
189 191 188
189 191 188
189 191 188
189 192 188
189 192 188
189 192 188
189 192 188
189 192 188
189 192 188
189 192 188
189 192 188
189 192 188
188 192 188
188 192 188
188 192 188
188 192 188
188 192 188
188 192 188
188 192 188
188 192 188
188 192 188
188 192 188
188 193 188
188 193 188
188 193 188
188 193 188
188 193 188
188 193 188
188 193 188
188 193 188
188 193 188
188 193 188
188 193 188
188 194 188
188 194 188
188 194 188
188 194 188
188 194 188
188 194 188
188 195 188
0 163 0
0 162 0
0 161 0
0 161 0
0 160 0
0 159 0
0 159 0
0 158 0
0 157 0
0 157 0
0 156 0
0 156 0
0 155 0
0 154 0
0 154 0
0 153 0
0 152 0
0 152 0
0 151 0
0 150 0
0 149 0
0 148 0
0 147 0
0 146 0
0 145 0
0 144 0
0 142 0
138 0 0
140 0 0
142 0 0
143 0 0
145 0 0
146 0 0
147 0 0
148 0 0
149 0 0
150 0 0
151 0 0
152 0 0
153 0 0
153 0 0
154 0 0
155 0 0
156 0 0
157 0 0
157 0 0
158 0 0
159 0 0
160 0 0
160 0 0
161 0 0
162 0 0
163 0 0
164 0 0
164 0 0
165 0 0
196 188 187
196 188 187
195 189 187
195 189 187
195 189 187
195 189 187
195 189 187
195 189 187
195 189 187
195 189 187
195 189 187
195 189 187
194 189 187
194 189 187
194 189 187
194 189 187
194 189 187
194 189 187
194 189 187
194 189 187
194 189 187
194 189 187
194 190 187
194 190 187
194 190 187
194 190 188
194 190 188
194 190 188
194 190 188
194 190 188
194 190 188
194 190 188
194 190 188
194 190 188
194 190 188
194 190 188
194 190 188
194 190 188
194 190 188
194 190 188
194 191 188
194 191 188
194 191 188
194 191 188
194 191 188
193 191 188
193 191 188
193 191 188
193 191 188
193 191 188
193 191 188
193 191 188
193 191 188
193 191 188
193 191 188
193 191 188
193 191 188
193 191 188
193 191 188
193 191 188
193 191 188
193 191 188
193 191 188
193 191 188
193 191 188
193 191 188
193 191 188
193 191 188
193 191 188
193 191 188
193 191 188
193 191 188
193 191 188
192 191 188
192 191 188
192 191 188
192 191 188
192 191 188
192 191 188
192 191 188
192 191 188
192 191 188
192 191 188
192 191 188
192 191 188
192 191 188
192 191 188
192 191 188
192 191 188
192 191 188
192 191 189
192 191 189
191 191 189
191 191 189
191 191 189
191 191 189
191 191 189
191 191 189
191 191 189
191 191 189
191 191 189
191 191 189
191 191 189
191 191 189
191 191 189
191 191 189
191 191 189
191 191 189
191 191 189
191 191 189
191 191 189
191 191 189
190 191 189
190 191 189
190 191 189
190 191 189
190 191 189
190 191 189
190 191 189
190 191 189
190 191 189
190 191 189
190 191 189
190 191 189
190 191 189
190 191 189
190 191 189
190 191 189
190 191 189
190 191 189
190 191 189
190 191 189
190 191 189
190 191 189
190 191 189
190 191 189
190 191 189
190 191 189
190 191 189
189 191 189
189 191 189
189 191 189
189 191 189
189 191 189
189 191 189
189 191 189
189 191 189
189 191 189
189 191 189
189 191 189
189 191 189
189 191 189
189 191 189
189 191 189
189 191 189
189 191 189
189 191 189
189 191 189
189 191 188
189 192 188
189 192 188
189 192 188
189 192 188
189 192 188
189 192 188
189 192 188
189 192 188
189 192 188
189 192 188
189 192 188
189 192 188
189 192 188
189 192 188
189 192 188
188 192 188
188 192 188
188 192 188
188 192 188
188 192 188
188 192 188
188 193 188
188 193 188
188 193 188
188 193 188
188 193 188
188 193 188
188 193 188
188 193 188
188 193 188
188 193 188
188 193 188
188 194 188
188 194 188
188 194 188
188 194 188
188 194 188
188 194 188
188 194 188
188 195 188
0 163 0
0 162 0
0 161 0
0 161 0
0 160 0
0 159 0
0 159 0
0 158 0
0 158 0
0 157 0
0 156 0
0 156 0
0 155 0
0 155 0
0 154 0
0 153 0
0 153 0
0 152 0
0 151 0
0 150 0
0 150 0
0 149 0
0 148 0
0 147 0
0 146 0
0 144 0
0 143 0
0 142 0
138 0 0
139 0 0
141 0 0
143 0 0
144 0 0
145 0 0
146 0 0
148 0 0
149 0 0
150 0 0
150 0 0
151 0 0
152 0 0
153 0 0
154 0 0
155 0 0
155 0 0
156 0 0
157 0 0
158 0 0
159 0 0
159 0 0
160 0 0
161 0 0
162 0 0
162 0 0
163 0 0
164 0 0
165 0 0
165 0 0
196 188 187
196 188 187
196 189 187
195 189 187
195 189 187
195 189 187
195 189 187
195 189 187
195 189 187
195 189 187
195 189 187
195 189 187
195 189 187
194 189 187
194 189 187
194 189 187
194 189 187
194 189 188
194 189 188
194 189 188
194 190 188
194 190 188
194 190 188
194 190 188
194 190 188
194 190 188
194 190 188
194 190 188
194 190 188
194 190 188
194 190 188
194 190 188
194 190 188
194 190 188
194 190 188
194 190 188
194 190 188
194 190 188
194 191 188
194 191 188
194 191 188
194 191 188
194 191 188
194 191 188
194 191 188
194 191 188
194 191 188
194 191 188
194 191 188
193 191 188
193 191 188
193 191 188
193 191 188
193 191 188
193 191 188
193 191 188
193 191 188
193 191 188
193 191 188
193 191 188
193 191 188
193 191 188
193 191 188
193 191 188
193 191 188
193 191 188
193 191 188
193 191 188
193 191 188
193 191 188
193 191 188
193 191 188
193 191 188
193 191 188
193 191 188
192 191 188
192 191 188
192 191 188
192 191 188
192 191 188
192 191 188
192 191 188
192 191 188
192 191 188
192 191 189
192 191 189
192 191 189
192 191 189
192 191 189
192 191 189
192 191 189
192 191 189
192 191 189
192 191 189
191 191 189
191 191 189
191 191 189
191 191 189
191 191 189
191 191 189
191 191 189
191 191 189
191 191 189
191 191 189
191 191 189
191 191 189
191 191 189
191 191 189
191 191 189
191 191 189
191 191 189
191 191 189
191 191 189
191 191 189
190 191 189
190 191 189
190 191 189
190 191 189
190 191 189
190 191 189
190 191 189
190 191 189
190 191 189
190 191 189
190 191 189
190 191 189
190 191 189
190 191 189
190 191 189
190 191 189
190 191 189
190 191 189
190 191 189
190 191 189
190 191 189
190 191 189
190 191 189
190 191 189
190 191 189
190 191 189
190 191 189
189 191 189
189 191 189
189 191 189
189 191 189
189 191 189
189 191 189
189 191 189
189 191 189
189 191 189
189 191 189
189 191 189
189 191 189
189 191 189
189 191 189
189 192 189
189 192 189
189 192 189
189 192 189
189 192 189
189 192 189
189 192 189
189 192 189
189 192 188
189 192 188
189 192 188
189 192 188
189 192 188
189 192 188
189 192 188
189 192 188
189 192 188
189 192 188
189 192 188
189 192 188
188 192 188
188 192 188
188 193 188
188 193 188
188 193 188
188 193 188
188 193 188
188 193 188
188 193 188
188 193 188
188 193 188
188 193 188
188 193 188
188 193 188
188 194 188
188 194 188
188 194 188
188 194 188
188 194 188
188 194 188
188 194 188
188 195 188
0 163 0
0 162 0
0 162 0
0 161 0
0 160 0
0 160 0
0 159 0
0 158 0
0 158 0
0 157 0
0 157 0
0 156 0
0 155 0
0 155 0
0 154 0
0 154 0
0 153 0
0 152 0
0 152 0
0 151 0
0 150 0
0 149 0
0 148 0
0 147 0
0 146 0
0 145 0
0 144 0
0 143 0
0 141 0
137 0 0
139 0 0
141 0 0
142 0 0
143 0 0
145 0 0
146 0 0
147 0 0
148 0 0
149 0 0
150 0 0
151 0 0
152 0 0
153 0 0
154 0 0
154 0 0
155 0 0
156 0 0
157 0 0
157 0 0
158 0 0
159 0 0
160 0 0
160 0 0
161 0 0
162 0 0
163 0 0
163 0 0
164 0 0
165 0 0
166 0 0
196 188 187
196 189 187
196 189 187
195 189 187
195 189 187
195 189 187
195 189 187
195 189 187
195 189 187
195 189 187
195 189 187
195 189 188
195 189 188
195 189 188
195 189 188
194 189 188
194 189 188
194 189 188
194 189 188
194 190 188
194 190 188
194 190 188
194 190 188
194 190 188
194 190 188
194 190 188
194 190 188
194 190 188
194 190 188
194 190 188
194 190 188
194 190 188
194 190 188
194 190 188
194 190 188
194 190 188
194 191 188
194 191 188
194 191 188
194 191 188
194 191 188
194 191 188
194 191 188
194 191 188
194 191 188
194 191 188
194 191 188
194 191 188
194 191 188
194 191 188
194 191 188
194 191 188
193 191 188
193 191 188
193 191 188
193 191 188
193 191 188
193 191 188
193 191 188
193 191 188
193 191 188
193 191 188
193 191 188
193 192 188
193 192 188
193 192 188
193 192 188
193 192 188
193 192 188
193 192 188
193 192 188
193 192 188
193 192 188
193 192 188
193 192 188
193 192 188
192 192 188
192 192 188
192 192 189
192 192 189
192 192 189
192 192 189
192 192 189
192 192 189
192 192 189
192 192 189
192 191 189
192 191 189
192 191 189
192 191 189
192 191 189
192 191 189
192 191 189
192 191 189
192 191 189
191 191 189
191 191 189
191 191 189
191 191 189
191 191 189
191 191 189
191 191 189
191 191 189
191 191 189
191 191 189
191 191 189
191 191 189
191 191 189
191 191 189
191 191 189
191 191 189
191 191 189
191 191 189
191 191 189
191 191 189
191 191 189
190 191 189
190 191 189
190 191 189
190 191 189
190 191 189
190 191 189
190 191 189
190 191 189
190 191 189
190 191 189
190 191 189
190 191 189
190 191 189
190 191 189
190 191 189
190 191 189
190 191 189
190 191 189
190 191 189
190 191 189
190 191 189
190 191 189
190 191 189
190 191 189
190 191 189
190 191 189
190 191 189
189 191 189
189 191 189
189 191 189
189 191 189
189 191 189
189 191 189
189 191 189
189 192 189
189 192 189
189 192 189
189 192 189
189 192 189
189 192 189
189 192 189
189 192 189
189 192 189
189 192 189
189 192 189
189 192 189
189 192 189
189 192 189
189 192 189
189 192 189
189 192 188
189 192 188
189 192 188
189 192 188
189 192 188
189 192 188
189 192 188
189 192 188
189 193 188
189 193 188
188 193 188
188 193 188
188 193 188
188 193 188
188 193 188
188 193 188
188 193 188
188 193 188
188 193 188
188 193 188
188 194 188
188 194 188
188 194 188
188 194 188
188 194 188
188 194 188
188 194 188
188 195 188
188 195 188
0 164 0
0 163 0
0 162 0
0 161 0
0 161 0
0 160 0
0 159 0
0 159 0
0 158 0
0 157 0
0 157 0
0 156 0
0 156 0
0 155 0
0 154 0
0 154 0
0 153 0
0 152 0
0 152 0
0 151 0
0 150 0
0 150 0
0 149 0
0 148 0
0 147 0
0 146 0
0 145 0
0 144 0
0 142 0
0 141 0
137 0 0
138 0 0
140 0 0
142 0 0
143 0 0
144 0 0
146 0 0
147 0 0
148 0 0
149 0 0
150 0 0
151 0 0
152 0 0
152 0 0
153 0 0
154 0 0
155 0 0
155 0 0
156 0 0
157 0 0
158 0 0
159 0 0
159 0 0
160 0 0
161 0 0
162 0 0
162 0 0
163 0 0
164 0 0
164 0 0
165 0 0
166 0 0
196 189 187
196 189 187
196 189 187
195 189 187
195 189 187
195 189 188
195 189 188
195 189 188
195 189 188
195 189 188
195 189 188
195 189 188
195 189 188
195 189 188
195 189 188
194 189 188
194 189 188
194 189 188
194 190 188
194 190 188
194 190 188
194 190 188
194 190 188
194 190 188
194 190 188
194 190 188
194 190 188
194 190 188
194 190 188
194 190 188
194 190 188
194 190 188
194 190 188
194 190 188
194 190 188
194 191 188
194 191 188
194 191 188
194 191 188
194 191 188
194 191 188
194 191 188
194 191 188
194 191 188
194 191 188
194 191 188
194 191 188
194 191 188
194 191 188
194 191 188
194 191 188
194 191 188
194 191 188
194 191 188
193 191 188
193 191 188
193 191 188
193 191 188
193 191 188
193 191 188
193 192 188
193 192 188
193 192 188
193 192 188
193 192 188
193 192 188
193 192 188
193 192 188
193 192 188
193 192 188
193 192 188
193 192 189
193 192 189
193 192 189
193 192 189
193 192 189
193 192 189
192 192 189
192 192 189
192 192 189
192 192 189
192 192 189
192 192 189
192 192 189
192 192 189
192 192 189
192 192 189
192 192 189
192 192 189
192 192 189
192 192 189
192 192 189
192 192 189
192 191 189
192 191 189
192 191 189
191 191 189
191 191 189
191 191 189
191 191 189
191 191 189
191 191 189
191 191 189
191 191 189
191 191 189
191 191 189
191 191 189
191 191 189
191 191 189
191 191 189
191 191 189
191 191 189
191 191 189
191 191 189
191 191 189
191 191 189
191 191 189
191 191 189
190 191 189
190 191 189
190 191 189
190 191 189
190 191 189
190 191 189
190 191 189
190 191 189
190 191 189
190 191 189
190 191 189
190 191 189
190 191 189
190 191 189
190 191 189
190 191 189
190 191 189
190 191 189
190 191 189
190 191 189
190 191 189
190 191 189
190 191 189
190 191 189
190 191 189
190 191 189
190 192 189
189 192 189
189 192 189
189 192 189
189 192 189
189 192 189
189 192 189
189 192 189
189 192 189
189 192 189
189 192 189
189 192 189
189 192 189
189 192 189
189 192 189
189 192 189
189 192 189
189 192 189
189 192 189
189 192 189
189 192 189
189 192 189
189 192 189
189 192 189
189 192 189
189 192 188
189 192 188
189 193 188
189 193 188
189 193 188
189 193 188
189 193 188
189 193 188
188 193 188
188 193 188
188 193 188
188 193 188
188 193 188
188 193 188
188 193 188
188 194 188
188 194 188
188 194 188
188 194 188
188 194 188
188 194 188
188 194 188
188 195 188
188 195 188
0 164 0
0 163 0
0 162 0
0 161 0
0 161 0
0 160 0
0 159 0
0 159 0
0 158 0
0 158 0
0 157 0
0 156 0
0 156 0
0 155 0
0 155 0
0 154 0
0 153 0
0 153 0
0 152 0
0 151 0
0 151 0
0 150 0
0 149 0
0 148 0
0 147 0
0 146 0
0 145 0
0 144 0
0 143 0
0 142 0
0 140 0
136 0 0
138 0 0
140 0 0
141 0 0
143 0 0
144 0 0
145 0 0
146 0 0
147 0 0
148 0 0
149 0 0
150 0 0
151 0 0
152 0 0
153 0 0
154 0 0
154 0 0
155 0 0
156 0 0
157 0 0
157 0 0
158 0 0
159 0 0
160 0 0
161 0 0
161 0 0
162 0 0
163 0 0
163 0 0
164 0 0
165 0 0
165 0 0
166 0 0
196 189 187
196 189 188
196 189 188
196 189 188
195 189 188
195 189 188
195 189 188
195 189 188
195 189 188
195 189 188
195 189 188
195 189 188
195 189 188
195 189 188
195 189 188
195 189 188
194 189 188
194 190 188
194 190 188
194 190 188
194 190 188
194 190 188
194 190 188
194 190 188
194 190 188
194 190 188
194 190 188
194 190 188
194 190 188
194 190 188
194 190 188
194 190 188
194 190 188
194 190 188
194 191 188
194 191 188
194 191 188
194 191 188
194 191 188
194 191 188
194 191 188
194 191 188
194 191 188
194 191 188
194 191 188
194 191 188
194 191 188
194 191 188
194 191 188
194 191 188
194 191 188
194 191 188
194 191 188
194 191 188
193 191 188
193 191 188
193 191 188
193 192 188
193 192 188
193 192 188
193 192 188
193 192 188
193 192 188
193 192 189
193 192 189
193 192 189
193 192 189
193 192 189
193 192 189
193 192 189
193 192 189
193 192 189
193 192 189
193 192 189
193 192 189
193 192 189
193 192 189
193 192 189
192 192 189
192 192 189
192 192 189
192 192 189
192 192 189
192 192 189
192 192 189
192 192 189
192 192 189
192 192 189
192 192 189
192 192 189
192 192 189
192 192 189
192 192 189
192 192 189
192 192 189
192 192 189
192 192 189
192 192 189
191 192 189
191 192 189
191 191 189
191 191 189
191 191 189
191 191 189
191 191 189
191 191 189
191 191 189
191 191 189
191 191 189
191 191 189
191 191 189
191 191 189
191 191 189
191 191 189
191 191 189
191 191 189
191 191 189
191 191 189
191 191 189
191 191 189
190 191 189
190 191 189
190 191 189
190 191 189
190 191 189
190 191 189
190 191 189
190 191 189
190 191 189
190 191 189
190 191 189
190 191 189
190 191 189
190 191 189
190 191 189
190 191 189
190 192 189
190 192 189
190 192 189
190 192 189
190 192 189
190 192 189
190 192 189
190 192 189
190 192 189
190 192 189
190 192 189
190 192 189
189 192 189
189 192 189
189 192 189
189 192 189
189 192 189
189 192 189
189 192 189
189 192 189
189 192 189
189 192 189
189 192 189
189 192 189
189 192 189
189 192 189
189 192 189
189 192 189
189 192 189
189 192 189
189 192 189
189 193 189
189 193 189
189 193 189
189 193 189
189 193 188
189 193 188
189 193 188
189 193 188
189 193 188
189 193 188
188 193 188
188 193 188
188 193 188
188 193 188
188 194 188
188 194 188
188 194 188
188 194 188
188 194 188
188 194 188
188 194 188
188 194 188
188 195 188
188 195 188
0 164 0
0 163 0
0 162 0
0 162 0
0 161 0
0 160 0
0 160 0
0 159 0
0 158 0
0 158 0
0 157 0
0 157 0
0 156 0
0 155 0
0 155 0
0 154 0
0 154 0
0 153 0
0 152 0
0 152 0
0 151 0
0 150 0
0 150 0
0 149 0
0 148 0
0 147 0
0 146 0
0 145 0
0 144 0
0 143 0
0 141 0
0 140 0
136 0 0
138 0 0
139 0 0
141 0 0
142 0 0
143 0 0
145 0 0
146 0 0
147 0 0
148 0 0
149 0 0
150 0 0
151 0 0
151 0 0
152 0 0
153 0 0
154 0 0
155 0 0
156 0 0
156 0 0
157 0 0
158 0 0
159 0 0
159 0 0
160 0 0
161 0 0
162 0 0
162 0 0
163 0 0
164 0 0
164 0 0
165 0 0
166 0 0
166 0 0
196 189 188
196 189 188
196 189 188
196 189 188
195 189 188
195 189 188
195 189 188
195 189 188
195 189 188
195 189 188
195 189 188
195 189 188
195 189 188
195 189 188
195 189 188
195 189 188
195 190 188
194 190 188
194 190 188
194 190 188
194 190 188
194 190 188
194 190 188
194 190 188
194 190 188
194 190 188
194 190 188
194 190 188
194 190 188
194 190 188
194 190 188
194 190 188
194 190 188
194 191 188
194 191 188
194 191 188
194 191 188
194 191 188
194 191 188
194 191 188
194 191 188
194 191 188
194 191 188
194 191 188
194 191 188
194 191 188
194 191 188
194 191 188
194 191 188
194 191 188
194 191 188
194 191 189
194 191 189
194 191 189
193 191 189
193 191 189
193 192 189
193 192 189
193 192 189
193 192 189
193 192 189
193 192 189
193 192 189
193 192 189
193 192 189
193 192 189
193 192 189
193 192 189
193 192 189
193 192 189
193 192 189
193 192 189
193 192 189
193 192 189
193 192 189
193 192 189
193 192 189
193 192 189
192 192 189
192 192 189
192 192 189
192 192 189
192 192 189
192 192 189
192 192 189
192 192 189
192 192 189
192 192 189
192 192 189
192 192 189
192 192 189
192 192 189
192 192 189
192 192 189
192 192 189
192 192 189
192 192 189
192 192 189
192 192 189
191 192 189
191 192 189
191 192 189
191 192 189
191 192 189
191 192 189
191 192 189
191 192 189
191 192 189
191 192 189
191 192 189
191 192 189
191 192 189
191 192 189
191 192 189
191 192 189
191 192 189
191 192 189
191 191 189
191 192 189
191 191 189
191 192 189
191 192 189
190 192 189
190 192 189
190 192 189
190 192 189
190 192 189
190 192 189
190 192 189
190 192 189
190 192 189
190 192 189
190 192 189
190 192 189
190 192 189
190 192 189
190 192 189
190 192 189
190 192 189
190 192 189
190 192 189
190 192 189
190 192 189
190 192 189
190 192 189
190 192 189
190 192 189
190 192 189
190 192 189
190 192 189
189 192 189
189 192 189
189 192 189
189 192 189
189 192 189
189 192 189
189 192 189
189 192 189
189 192 189
189 192 189
189 192 189
189 192 189
189 192 189
189 192 189
189 193 189
189 193 189
189 193 189
189 193 189
189 193 189
189 193 189
189 193 189
189 193 189
189 193 189
189 193 188
189 193 188
189 193 188
189 193 188
189 193 188
188 194 188
188 194 188
188 194 188
188 194 188
188 194 188
188 194 188
188 194 188
188 194 188
188 195 188
188 195 188
188 195 188
0 164 0
0 163 0
0 163 0
0 162 0
0 161 0
0 160 0
0 160 0
0 159 0
0 159 0
0 158 0
0 157 0
0 157 0
0 156 0
0 156 0
0 155 0
0 155 0
0 154 0
0 153 0
0 153 0
0 152 0
0 151 0
0 151 0
0 150 0
0 149 0
0 148 0
0 147 0
0 146 0
0 146 0
0 144 0
0 143 0
0 142 0
0 141 0
0 139 0
135 0 0
137 0 0
139 0 0
140 0 0
142 0 0
143 0 0
144 0 0
145 0 0
146 0 0
147 0 0
148 0 0
149 0 0
150 0 0
151 0 0
152 0 0
153 0 0
154 0 0
154 0 0
155 0 0
156 0 0
157 0 0
158 0 0
158 0 0
159 0 0
160 0 0
161 0 0
161 0 0
162 0 0
163 0 0
163 0 0
164 0 0
164 0 0
165 0 0
166 0 0
167 0 0
196 189 188
196 189 188
196 189 188
196 189 188
195 189 188
195 189 188
195 189 188
195 189 188
195 189 188
195 189 188
195 189 188
195 189 188
195 189 188
195 189 188
195 189 188
195 190 188
195 190 188
194 190 188
194 190 188
194 190 188
194 190 188
194 190 188
194 190 188
194 190 188
194 190 188
194 190 188
194 190 188
194 190 188
194 190 188
194 190 188
194 190 188
194 190 188
194 191 188
194 191 188
194 191 188
194 191 188
194 191 188
194 191 188
194 191 188
194 191 189
194 191 189
194 191 189
194 191 189
194 191 189
194 191 189
194 191 189
194 191 189
194 191 189
194 191 189
194 191 189
194 191 189
194 191 189
194 191 189
193 191 189
193 192 189
193 192 189
193 192 189
193 192 189
193 192 189
193 192 189
193 192 189
193 192 189
193 192 189
193 192 189
193 192 189
193 192 189
193 192 189
193 192 189
193 192 189
193 192 189
193 192 189
193 192 189
193 192 189
193 192 189
193 192 189
193 192 189
193 192 189
193 192 189
193 192 189
192 192 189
192 192 189
192 192 189
192 192 189
192 192 189
192 192 189
192 192 189
192 192 189
192 192 189
192 192 189
192 192 189
192 192 189
192 192 189
192 192 189
192 192 189
192 192 189
192 192 189
192 192 189
192 192 189
192 192 189
192 192 189
191 192 189
191 192 189
191 192 190
191 192 190
191 192 190
191 192 190
191 192 190
191 192 190
191 192 190
191 192 190
191 192 190
191 192 190
191 192 190
191 192 190
191 192 190
191 192 190
191 192 190
191 192 190
191 192 190
191 192 190
191 192 190
191 192 190
191 192 190
191 192 189
191 192 189
190 192 189
190 192 189
190 192 189
190 192 189
190 192 189
190 192 189
190 192 189
190 192 189
190 192 189
190 192 189
190 192 189
190 192 189
190 192 189
190 192 189
190 192 189
190 192 189
190 192 189
190 192 189
190 192 189
190 192 189
190 192 189
190 192 189
190 192 189
190 192 189
190 192 189
190 192 189
190 192 189
189 192 189
189 192 189
189 192 189
189 192 189
189 192 189
189 192 189
189 192 189
189 192 189
189 193 189
189 193 189
189 193 189
189 193 189
189 193 189
189 193 189
189 193 189
189 193 189
189 193 189
189 193 189
189 193 189
189 193 189
189 193 189
189 193 189
189 193 188
189 194 188
189 194 188
189 194 188
188 194 188
188 194 188
188 194 188
188 194 188
188 194 188
188 194 188
188 195 188
188 195 188
188 195 188
0 165 0
0 164 0
0 163 0
0 162 0
0 161 0
0 161 0
0 160 0
0 159 0
0 159 0
0 158 0
0 158 0
0 157 0
0 157 0
0 156 0
0 155 0
0 155 0
0 154 0
0 153 0
0 153 0
0 152 0
0 152 0
0 151 0
0 150 0
0 149 0
0 149 0
0 148 0
0 147 0
0 146 0
0 145 0
0 144 0
0 143 0
0 142 0
0 140 0
0 139 0
135 0 0
137 0 0
138 0 0
140 0 0
141 0 0
142 0 0
144 0 0
145 0 0
146 0 0
147 0 0
148 0 0
149 0 0
150 0 0
151 0 0
152 0 0
152 0 0
153 0 0
154 0 0
155 0 0
156 0 0
156 0 0
157 0 0
158 0 0
159 0 0
160 0 0
160 0 0
161 0 0
162 0 0
162 0 0
163 0 0
164 0 0
164 0 0
165 0 0
165 0 0
166 0 0
167 0 0
196 189 188
196 189 188
196 189 188
196 189 188
196 189 188
195 189 188
195 189 188
195 189 188
195 189 188
195 189 188
195 189 188
195 189 188
195 189 188
195 189 188
195 190 188
195 190 188
195 190 188
194 190 188
194 190 188
194 190 188
194 190 188
194 190 188
194 190 188
194 190 188
194 190 188
194 190 188
194 190 188
194 190 188
194 190 189
194 190 189
194 191 189
194 191 189
194 191 189
194 191 189
194 191 189
194 191 189
194 191 189
194 191 189
194 191 189
194 191 189
194 191 189
194 191 189
194 191 189
194 191 189
194 191 189
194 191 189
194 191 189
194 191 189
194 191 189
194 191 189
194 191 189
194 191 189
194 192 189
193 192 189
193 192 189
193 192 189
193 192 189
193 192 189
193 192 189
193 192 189
193 192 189
193 192 189
193 192 189
193 192 189
193 192 189
193 192 189
193 192 189
193 192 189
193 192 189
193 192 189
193 192 189
193 192 189
193 192 189
193 192 189
193 192 189
193 192 189
193 192 189
193 192 189
193 192 189
192 192 189
192 192 189
192 192 190
192 192 190
192 192 190
192 192 190
192 192 190
192 192 190
192 192 190
192 192 190
192 192 190
192 192 190
192 192 190
192 192 190
192 192 190
192 192 190
192 192 190
192 192 190
192 192 190
192 192 190
192 192 190
192 192 190
192 192 190
191 192 190
191 192 190
191 192 190
191 192 190
191 192 190
191 192 190
191 192 190
191 192 190
191 192 190
191 192 190
191 192 190
191 192 190
191 192 190
191 192 190
191 192 190
191 192 190
191 192 190
191 192 190
191 192 190
191 192 190
191 192 190
191 192 190
191 192 190
191 192 190
191 192 190
191 192 190
190 192 190
190 192 190
190 192 190
190 192 190
190 192 190
190 192 190
190 192 190
190 192 190
190 192 190
190 192 190
190 192 190
190 192 189
190 192 189
190 192 189
190 192 189
190 192 189
190 192 189
190 192 189
190 192 189
190 192 189
190 192 189
190 192 189
190 192 189
190 192 189
190 192 189
190 192 189
190 192 189
189 193 189
189 193 189
189 193 189
189 193 189
189 193 189
189 193 189
189 193 189
189 193 189
189 193 189
189 193 189
189 193 189
189 193 189
189 193 189
189 193 189
189 193 189
189 193 189
189 193 189
189 194 189
189 194 189
189 194 189
189 194 188
189 194 188
189 194 188
189 194 188
188 194 188
188 194 188
188 195 188
188 195 188
188 195 188
188 195 188
0 165 0
0 164 0
0 163 0
0 162 0
0 162 0
0 161 0
0 160 0
0 160 0
0 159 0
0 158 0
0 158 0
0 157 0
0 157 0
0 156 0
0 155 0
0 155 0
0 154 0
0 154 0
0 153 0
0 152 0
0 152 0
0 151 0
0 150 0
0 150 0
0 149 0
0 148 0
0 147 0
0 146 0
0 146 0
0 145 0
0 144 0
0 142 0
0 141 0
0 140 0
0 138 0
134 0 0
136 0 0
138 0 0
139 0 0
141 0 0
142 0 0
143 0 0
144 0 0
145 0 0
146 0 0
147 0 0
148 0 0
149 0 0
150 0 0
151 0 0
152 0 0
153 0 0
154 0 0
154 0 0
155 0 0
156 0 0
157 0 0
158 0 0
158 0 0
159 0 0
160 0 0
161 0 0
161 0 0
162 0 0
163 0 0
163 0 0
164 0 0
164 0 0
165 0 0
165 0 0
166 0 0
167 0 0
196 189 188
196 189 188
196 189 188
196 189 188
196 189 188
195 189 188
195 189 188
195 189 188
195 189 188
195 189 188
195 189 188
195 189 188
195 189 188
195 190 188
195 190 188
195 190 188
195 190 188
194 190 188
194 190 188
194 190 188
194 190 189
194 190 189
194 190 189
194 190 189
194 190 189
194 190 189
194 190 189
194 190 189
194 191 189
194 191 189
194 191 189
194 191 189
194 191 189
194 191 189
194 191 189
194 191 189
194 191 189
194 191 189
194 191 189
194 191 189
194 191 189
194 191 189
194 191 189
194 191 189
194 191 189
194 191 189
194 191 189
194 191 189
194 191 189
194 191 189
194 192 189
194 192 189
194 192 189
193 192 189
193 192 189
193 192 189
193 192 189
193 192 189
193 192 189
193 192 189
193 192 189
193 192 189
193 192 189
193 192 189
193 192 189
193 192 190
193 192 190
193 192 190
193 192 190
193 192 190
193 192 190
193 192 190
193 192 190
193 192 190
193 192 190
193 192 190
193 192 190
193 192 190
193 192 190
193 192 190
193 192 190
192 192 190
192 192 190
192 192 190
192 192 190
192 192 190
192 192 190
192 192 190
192 192 190
192 192 190
192 192 190
192 192 190
192 192 190
192 192 190
192 192 190
192 192 190
192 192 190
192 192 190
192 192 190
192 192 190
192 192 190
192 192 190
192 192 190
192 192 190
192 192 190
191 192 190
191 192 190
191 192 190
191 192 190
191 192 190
191 192 190
191 192 190
191 192 190
191 192 190
191 192 190
191 192 190
191 192 190
191 192 190
191 192 190
191 192 190
191 192 190
191 192 190
191 192 190
191 192 190
191 192 190
191 192 190
191 192 190
191 192 190
191 192 190
191 192 190
191 192 190
191 192 190
190 192 190
190 192 190
190 192 190
190 192 190
190 192 190
190 192 190
190 192 190
190 192 190
190 192 190
190 192 190
190 192 190
190 192 190
190 192 190
190 192 190
190 192 190
190 192 190
190 192 189
190 193 189
190 193 189
190 193 189
190 193 189
190 193 189
190 193 189
190 193 189
190 193 189
190 193 189
189 193 189
189 193 189
189 193 189
189 193 189
189 193 189
189 193 189
189 193 189
189 193 189
189 193 189
189 193 189
189 193 189
189 194 189
189 194 189
189 194 189
189 194 189
189 194 189
189 194 189
189 194 189
189 194 188
189 194 188
189 195 188
188 195 188
188 195 188
188 195 188
188 195 188
0 165 0
0 164 0
0 163 0
0 163 0
0 162 0
0 161 0
0 160 0
0 160 0
0 159 0
0 159 0
0 158 0
0 157 0
0 157 0
0 156 0
0 156 0
0 155 0
0 155 0
0 154 0
0 153 0
0 153 0
0 152 0
0 151 0
0 151 0
0 150 0
0 149 0
0 149 0
0 148 0
0 147 0
0 146 0
0 145 0
0 144 0
0 143 0
0 142 0
0 141 0
0 139 0
0 138 0
134 0 0
136 0 0
137 0 0
139 0 0
140 0 0
142 0 0
143 0 0
144 0 0
145 0 0
146 0 0
147 0 0
148 0 0
149 0 0
150 0 0
151 0 0
152 0 0
152 0 0
153 0 0
154 0 0
155 0 0
156 0 0
157 0 0
157 0 0
158 0 0
159 0 0
160 0 0
160 0 0
161 0 0
162 0 0
162 0 0
163 0 0
163 0 0
164 0 0
164 0 0
165 0 0
166 0 0
166 0 0
167 0 0
196 189 188
196 189 188
196 189 188
196 189 188
196 189 188
195 189 188
195 189 188
195 189 188
195 189 188
195 189 188
195 189 188
195 190 188
195 190 188
195 190 189
195 190 189
195 190 189
195 190 189
195 190 189
194 190 189
194 190 189
194 190 189
194 190 189
194 190 189
194 190 189
194 190 189
194 190 189
194 191 189
194 191 189
194 191 189
194 191 189
194 191 189
194 191 189
194 191 189
194 191 189
194 191 189
194 191 189
194 191 189
194 191 189
194 191 189
194 191 189
194 191 189
194 191 189
194 191 189
194 191 189
194 191 189
194 191 189
194 192 189
194 192 190
194 192 190
194 192 190
194 192 190
194 192 190
194 192 190
194 192 190
194 192 190
193 192 190
193 192 190
193 192 190
193 192 190
193 192 190
193 192 190
193 192 190
193 192 190
193 192 190
193 192 190
193 192 190
193 192 190
193 192 190
193 192 190
193 192 190
193 192 190
193 192 190
193 192 190
193 192 190
193 192 190
193 192 190
193 192 190
193 192 190
193 192 190
193 192 190
193 192 190
193 192 190
193 192 190
192 192 190
192 192 190
192 192 190
192 192 190
192 192 190
192 192 190
192 192 190
192 192 190
192 192 190
192 192 190
192 192 190
192 192 190
192 192 190
192 192 190
192 192 190
192 192 190
192 192 190
192 192 190
192 192 190
192 192 190
192 192 190
192 192 190
192 192 190
192 192 190
192 192 190
192 192 190
192 192 190
191 192 190
191 192 190
191 192 190
191 192 190
191 192 190
191 192 190
191 192 190
191 192 190
191 192 190
191 192 190
191 192 190
191 192 190
191 192 190
191 192 190
191 192 190
191 192 190
191 192 190
191 192 190
191 192 190
191 192 190
191 192 190
191 192 190
191 192 190
191 192 190
191 192 190
191 192 190
191 192 190
190 192 190
190 192 190
190 192 190
190 193 190
190 193 190
190 193 190
190 193 190
190 193 190
190 193 190
190 193 190
190 193 190
190 193 190
190 193 190
190 193 190
190 193 190
190 193 190
190 193 190
190 193 189
190 193 189
190 193 189
190 193 189
190 193 189
190 193 189
190 193 189
189 193 189
189 193 189
189 193 189
189 193 189
189 194 189
189 194 189
189 194 189
189 194 189
189 194 189
189 194 189
189 194 189
189 194 189
189 194 189
189 194 189
189 195 189
189 195 189
189 195 188
189 195 188
188 195 188
188 196 188
0 166 0
0 165 0
0 164 0
0 163 0
0 162 0
0 161 0
0 161 0
0 160 0
0 159 0
0 159 0
0 158 0
0 158 0
0 157 0
0 156 0
0 156 0
0 155 0
0 155 0
0 154 0
0 154 0
0 153 0
0 152 0
0 152 0
0 151 0
0 150 0
0 150 0
0 149 0
0 148 0
0 147 0
0 147 0
0 146 0
0 145 0
0 144 0
0 143 0
0 141 0
0 140 0
0 139 0
0 137 0
133 0 0
135 0 0
137 0 0
138 0 0
140 0 0
141 0 0
142 0 0
143 0 0
145 0 0
146 0 0
147 0 0
148 0 0
149 0 0
149 0 0
150 0 0
151 0 0
152 0 0
153 0 0
154 0 0
155 0 0
155 0 0
156 0 0
157 0 0
158 0 0
159 0 0
159 0 0
160 0 0
161 0 0
161 0 0
162 0 0
162 0 0
163 0 0
164 0 0
164 0 0
165 0 0
165 0 0
166 0 0
167 0 0
168 0 0
197 189 188
196 189 188
196 189 188
196 189 188
196 189 188
196 189 188
195 189 188
195 189 188
195 189 188
195 190 189
195 190 189
195 190 189
195 190 189
195 190 189
195 190 189
195 190 189
195 190 189
195 190 189
195 190 189
195 190 189
194 190 189
194 190 189
194 191 189
194 191 189
194 191 189
194 191 189
194 191 189
194 191 189
194 191 189
194 191 189
194 191 189
194 191 189
194 191 190
194 191 190
194 191 190
194 191 190
194 191 190
194 191 190
194 191 190
194 191 190
194 191 190
194 192 190
194 192 190
194 192 190
194 192 190
194 192 190
194 192 190
194 192 190
194 192 190
194 192 190
194 192 190
194 192 190
194 192 190
194 192 190
194 192 190
194 192 190
194 192 190
194 192 190
194 192 190
193 192 190
193 192 190
193 192 190
193 192 190
193 192 190
193 192 190
193 192 190
193 192 190
193 192 190
193 192 190
193 192 190
193 192 190
193 192 190
193 192 190
193 192 190
193 192 190
193 192 190
193 192 190
193 192 190
193 192 190
193 192 190
193 192 190
193 192 190
193 192 190
193 192 190
193 192 190
193 192 190
193 192 190
193 192 190
192 192 190
192 192 190
192 192 190
192 192 190
192 192 191
192 192 191
192 192 191
192 192 191
192 192 191
192 192 191
192 192 191
192 192 191
192 192 191
192 192 191
192 192 191
192 192 191
192 192 191
192 192 191
192 192 191
192 192 191
192 192 191
192 192 191
192 192 191
192 192 191
192 192 191
192 192 191
192 192 191
192 192 191
191 192 191
191 192 190
191 192 190
191 192 190
191 192 190
191 192 190
191 192 190
191 193 190
191 193 190
191 193 190
191 193 190
191 193 190
191 193 190
191 193 190
191 193 190
191 193 190
191 193 190
191 193 190
191 193 190
191 193 190
191 193 190
191 193 190
191 193 190
191 193 190
191 193 190
191 193 190
191 193 190
190 193 190
190 193 190
190 193 190
190 193 190
190 193 190
190 193 190
190 193 190
190 193 190
190 193 190
190 193 190
190 193 190
190 193 190
190 193 190
190 193 190
190 193 190
190 193 190
190 193 189
190 193 189
190 194 189
190 194 189
189 194 189
189 194 189
189 194 189
189 194 189
189 194 189
189 194 189
189 194 189
189 194 189
189 194 189
189 195 189
189 195 189
189 195 189
189 195 189
189 195 189
189 195 188
188 196 188
0 166 0
0 165 0
0 164 0
0 163 0
0 162 0
0 162 0
0 161 0
0 160 0
0 160 0
0 159 0
0 158 0
0 158 0
0 157 0
0 157 0
0 156 0
0 156 0
0 155 0
0 154 0
0 154 0
0 153 0
0 153 0
0 152 0
0 151 0
0 151 0
0 150 0
0 149 0
0 149 0
0 148 0
0 147 0
0 146 0
0 145 0
0 144 0
0 143 0
0 142 0
0 141 0
0 140 0
0 138 0
0 137 0
133 0 0
135 0 0
136 0 0
138 0 0
139 0 0
141 0 0
142 0 0
143 0 0
144 0 0
145 0 0
146 0 0
147 0 0
148 0 0
149 0 0
150 0 0
151 0 0
152 0 0
152 0 0
153 0 0
154 0 0
155 0 0
156 0 0
157 0 0
158 0 0
158 0 0
159 0 0
160 0 0
160 0 0
161 0 0
162 0 0
162 0 0
163 0 0
163 0 0
164 0 0
164 0 0
165 0 0
165 0 0
166 0 0
167 0 0
168 0 0
197 189 188
196 189 188
196 189 188
196 189 188
196 189 188
196 189 189
195 189 189
195 190 189
195 190 189
195 190 189
195 190 189
195 190 189
195 190 189
195 190 189
195 190 189
195 190 189
195 190 189
195 190 189
195 191 189
195 191 189
195 191 189
195 191 190
195 191 190
195 191 190
194 191 190
194 191 190
194 191 190
194 191 190
194 191 190
194 191 190
194 191 190
194 191 190
194 191 190
194 191 190
194 191 190
194 192 190
194 192 190
194 192 190
194 192 190
194 192 190
194 192 190
194 192 190
194 192 190
194 192 190
194 192 190
194 192 190
194 192 190
194 192 190
194 192 190
194 192 190
194 192 190
194 192 190
194 192 190
194 192 190
194 192 190
194 192 190
194 192 190
194 192 191
194 192 191
194 192 191
194 192 191
194 192 191
194 192 191
194 192 191
194 192 191
193 192 191
193 192 191
193 192 191
193 192 191
193 193 191
193 193 191
193 193 191
193 193 191
193 193 191
193 193 191
193 193 191
193 193 191
193 193 191
193 193 191
193 193 191
193 193 191
193 193 191
193 193 191
193 193 191
193 193 191
193 193 191
193 193 191
193 193 191
193 193 191
193 193 191
193 193 191
193 193 191
193 193 191
193 193 191
193 193 191
192 193 191
192 193 191
192 193 191
192 193 191
192 193 191
192 193 191
192 193 191
192 193 191
192 193 191
192 193 191
192 193 191
192 193 191
192 193 191
192 193 191
192 193 191
192 193 191
192 193 191
192 193 191
192 193 191
192 193 191
192 193 191
192 193 191
192 193 191
192 193 191
192 193 191
192 193 191
192 193 191
192 193 191
192 193 191
192 193 191
191 193 191
191 193 191
191 193 191
191 193 191
191 193 191
191 193 191
191 193 191
191 193 191
191 193 191
191 193 191
191 193 191
191 193 191
191 193 191
191 193 191
191 193 190
191 193 190
191 193 190
191 193 190
191 193 190
191 193 190
191 193 190
191 193 190
191 193 190
191 193 190
191 193 190
190 193 190
190 193 190
190 193 190
190 193 190
190 194 190
190 194 190
190 194 190
190 194 190
190 194 190
190 194 190
190 194 190
190 194 190
190 194 190
190 194 189
190 194 189
190 194 189
189 194 189
189 194 189
189 194 189
189 195 189
189 195 189
189 195 189
189 195 189
189 195 189
189 195 189
189 196 189
189 196 189
0 167 0
0 165 0
0 164 0
0 163 0
0 163 0
0 162 0
0 161 0
0 160 0
0 160 0
0 159 0
0 159 0
0 158 0
0 157 0
0 157 0
0 156 0
0 156 0
0 155 0
0 155 0
0 154 0
0 153 0
0 153 0
0 152 0
0 152 0
0 151 0
0 150 0
0 150 0
0 149 0
0 148 0
0 147 0
0 147 0
0 146 0
0 145 0
0 144 0
0 143 0
0 142 0
0 141 0
0 139 0
0 138 0
0 136 0
132 0 0
134 0 0
136 0 0
137 0 0
139 0 0
140 0 0
141 0 0
143 0 0
144 0 0
145 0 0
146 0 0
147 0 0
148 0 0
149 0 0
150 0 0
150 0 0
151 0 0
152 0 0
153 0 0
154 0 0
155 0 0
156 0 0
156 0 0
157 0 0
158 0 0
159 0 0
159 0 0
160 0 0
161 0 0
161 0 0
162 0 0
162 0 0
163 0 0
163 0 0
164 0 0
164 0 0
165 0 0
165 0 0
166 0 0
167 0 0
168 0 0
197 189 188
196 189 188
196 189 189
196 189 189
196 190 189
196 190 189
196 190 189
195 190 189
195 190 189
195 190 189
195 190 189
195 190 189
195 190 190
195 191 190
195 191 190
195 191 190
195 191 190
195 191 190
195 191 190
195 191 190
195 191 190
195 191 190
195 191 190
195 191 190
195 191 190
195 191 190
195 191 190
195 192 190
195 192 190
195 192 190
195 192 190
195 192 190
195 192 190
195 192 191
195 192 191
194 192 191
194 192 191
194 192 191
194 192 191
194 192 191
194 192 191
194 192 191
194 192 191
194 192 191
194 192 191
194 192 191
194 192 191
194 192 191
194 192 191
194 192 191
194 192 191
194 192 191
194 193 191
194 193 191
194 193 191
194 193 191
194 193 191
194 193 191
194 193 191
194 193 191
194 193 191
194 193 191
194 193 191
194 193 191
194 193 191
194 193 191
194 193 191
194 193 191
194 193 191
194 193 191
194 193 191
194 193 191
194 193 191
194 193 191
193 193 191
193 193 191
193 193 191
193 193 191
193 193 191
193 193 191
193 193 191
193 193 191
193 193 191
193 193 191
193 193 191
193 193 191
193 193 191
193 193 191
193 193 191
193 193 191
193 193 191
193 193 191
193 193 191
193 193 191
193 193 191
193 193 191
193 193 191
193 193 191
193 193 191
193 193 191
193 193 191
193 193 191
193 193 191
193 193 191
193 193 191
193 193 191
192 193 191
192 193 191
192 193 191
192 193 191
192 193 191
192 193 191
192 193 191
192 193 191
192 193 191
192 193 191
192 193 191
192 193 191
192 193 191
192 193 191
192 193 191
192 193 191
192 193 191
192 193 191
192 193 191
192 193 191
192 193 191
192 193 191
192 193 191
192 193 191
192 193 191
192 193 191
192 193 191
192 193 191
192 193 191
192 193 191
192 193 191
191 193 191
191 193 191
191 193 191
191 194 191
191 194 191
191 194 191
191 194 191
191 194 191
191 194 191
191 194 191
191 194 191
191 194 191
191 194 191
191 194 191
191 194 191
191 194 190
191 194 190
191 194 190
191 194 190
191 194 190
190 194 190
190 194 190
190 194 190
190 194 190
190 194 190
190 194 190
190 194 190
190 194 190
190 195 190
190 195 190
190 195 189
189 195 189
189 195 189
189 195 189
189 195 189
189 195 189
189 196 189
189 196 189
0 167 0
0 166 0
0 165 0
0 164 0
0 163 0
0 162 0
0 161 0
0 161 0
0 160 0
0 159 0
0 159 0
0 158 0
0 158 0
0 157 0
0 156 0
0 156 0
0 155 0
0 155 0
0 154 0
0 154 0
0 153 0
0 152 0
0 152 0
0 151 0
0 151 0
0 150 0
0 149 0
0 148 0
0 148 0
0 147 0
0 146 0
0 145 0
0 144 0
0 143 0
0 142 0
0 141 0
0 140 0
0 139 0
0 138 0
0 136 0
132 0 0
134 0 0
135 0 0
137 0 0
138 0 0
140 0 0
141 0 0
142 0 0
143 0 0
144 0 0
145 0 0
146 0 0
147 0 0
148 0 0
149 0 0
150 0 0
151 0 0
152 0 0
153 0 0
153 0 0
154 0 0
155 0 0
156 0 0
157 0 0
158 0 0
158 0 0
159 0 0
160 0 0
160 0 0
161 0 0
162 0 0
162 0 0
162 0 0
163 0 0
163 0 0
164 0 0
164 0 0
165 0 0
166 0 0
166 0 0
167 0 0
169 0 0
197 189 189
197 189 189
196 190 189
196 190 189
196 190 189
196 190 189
196 190 190
196 190 190
196 191 190
196 191 190
196 191 190
195 191 190
195 191 190
195 191 190
195 191 190
195 191 190
195 191 191
195 192 191
195 192 191
195 192 191
195 192 191
195 192 191
195 192 191
195 192 191
195 192 191
195 192 191
195 192 191
195 192 191
195 192 191
195 192 191
195 192 191
195 192 191
195 192 191
195 192 191
195 192 191
195 193 191
195 193 191
195 193 191
195 193 191
195 193 191
195 193 191
195 193 191
195 193 191
195 193 191
195 193 191
195 193 191
195 193 192
195 193 192
195 193 192
195 193 192
195 193 192
195 193 192
195 193 192
194 193 192
194 193 192
194 193 192
194 193 192
194 193 192
194 193 192
194 193 192
194 193 192
194 193 192
194 193 192
194 193 192
194 193 192
194 193 192
194 193 192
194 193 192
194 193 192
194 193 192
194 193 192
194 193 192
194 193 192
194 193 192
194 193 192
194 193 192
194 193 192
194 193 192
194 193 192
194 193 192
194 193 192
194 193 192
194 193 192
194 193 192
194 193 192
194 193 192
194 193 192
194 194 192
193 194 192
193 194 192
193 194 192
193 194 192
193 194 192
193 194 192
193 194 192
193 194 192
193 194 192
193 194 192
193 194 192
193 194 192
193 194 192
193 194 192
193 194 192
193 194 192
193 194 192
193 194 192
193 194 192
193 194 192
193 194 192
193 194 192
193 194 192
193 194 192
193 194 192
193 194 192
193 194 192
193 194 192
193 194 192
193 194 192
193 194 192
193 194 192
193 194 192
193 194 192
193 194 192
192 194 192
192 194 192
192 194 192
192 194 192
192 194 192
192 194 192
192 194 192
192 194 192
192 194 192
192 194 192
192 194 192
192 194 192
192 194 192
192 194 192
192 194 192
192 194 192
192 194 192
192 194 192
192 194 191
192 194 191
192 194 191
192 194 191
192 194 191
192 194 191
192 194 191
192 194 191
192 194 191
191 194 191
191 194 191
191 194 191
191 194 191
191 194 191
191 194 191
191 194 191
191 195 191
191 195 191
191 195 191
191 195 191
191 195 190
191 195 190
190 195 190
190 195 190
190 195 190
190 195 190
190 195 190
190 195 190
190 195 189
189 196 189
189 196 189
189 196 189
0 168 0
0 166 0
0 165 0
0 164 0
0 163 0
0 162 0
0 162 0
0 161 0
0 160 0
0 160 0
0 159 0
0 158 0
0 158 0
0 157 0
0 157 0
0 156 0
0 156 0
0 155 0
0 154 0
0 154 0
0 153 0
0 153 0
0 152 0
0 151 0
0 151 0
0 150 0
0 149 0
0 149 0
0 148 0
0 147 0
0 146 0
0 146 0
0 145 0
0 144 0
0 143 0
0 142 0
0 141 0
0 140 0
0 138 0
0 137 0
0 136 0
132 0 0
133 0 0
135 0 0
136 0 0
138 0 0
139 0 0
140 0 0
142 0 0
143 0 0
144 0 0
145 0 0
146 0 0
147 0 0
148 0 0
149 0 0
150 0 0
151 0 0
151 0 0
152 0 0
153 0 0
154 0 0
155 0 0
156 0 0
156 0 0
157 0 0
158 0 0
159 0 0
160 0 0
160 0 0
161 0 0
161 0 0
162 0 0
162 0 0
163 0 0
163 0 0
163 0 0
164 0 0
165 0 0
165 0 0
166 0 0
167 0 0
168 0 0
169 0 0
197 189 189
197 190 189
196 190 190
196 191 190
196 191 190
196 191 191
196 192 191
196 192 191
196 192 191
196 192 191
196 192 191
196 192 191
196 192 192
196 192 192
196 192 192
196 193 192
196 193 192
196 193 192
196 193 192
196 193 192
196 193 192
196 193 192
196 193 192
196 193 192
196 193 192
196 193 192
196 193 192
196 193 192
196 193 192
196 193 192
196 193 192
196 193 192
196 193 192
196 193 192
196 193 192
196 193 192
195 193 192
195 193 192
195 194 192
195 194 192
195 194 192
195 194 192
195 194 192
195 194 192
195 194 192
195 194 192
195 194 192
195 194 192
195 194 192
195 194 192
195 194 192
195 194 193
195 194 193
195 194 193
195 194 193
195 194 193
195 194 193
195 194 193
195 194 193
195 194 193
195 194 193
195 194 193
195 194 193
195 194 193
195 194 193
195 194 193
195 194 193
195 194 193
195 194 193
195 194 193
195 194 193
195 194 193
195 194 193
195 194 193
195 194 193
195 194 193
195 194 193
194 194 193
194 194 193
194 194 193
194 194 193
194 194 193
194 194 193
194 194 193
194 194 193
194 194 193
194 194 193
194 194 193
194 194 193
194 194 193
194 194 193
194 194 193
194 194 193
194 194 193
194 194 193
194 194 193
194 194 193
194 194 193
194 194 193
194 194 193
194 194 193
194 194 193
194 194 193
194 194 193
194 194 193
194 194 193
194 194 193
194 194 193
194 194 193
194 194 193
194 194 193
194 194 193
194 194 193
194 194 193
194 194 193
193 194 193
193 194 193
193 194 193
193 194 193
193 194 193
193 194 193
193 194 193
193 195 193
193 195 193
193 195 193
193 195 193
193 195 193
193 195 193
193 195 193
193 195 193
193 195 193
193 195 193
193 195 193
193 195 193
193 195 193
193 195 193
193 195 193
193 195 193
193 195 193
193 195 193
193 195 192
193 195 192
193 195 192
193 195 192
193 195 192
193 195 192
193 195 192
193 195 192
193 195 192
193 195 192
192 195 192
192 195 192
192 195 192
192 195 192
192 195 192
192 195 192
192 195 192
192 195 192
192 195 192
192 195 192
192 195 192
192 195 192
192 195 191
191 196 191
191 196 191
191 196 191
191 196 191
191 196 191
190 196 190
190 196 190
189 196 189
0 169 0
0 167 0
0 165 0
0 164 0
0 163 0
0 163 0
0 162 0
0 161 0
0 160 0
0 160 0
0 159 0
0 159 0
0 158 0
0 157 0
0 157 0
0 156 0
0 156 0
0 155 0
0 155 0
0 154 0
0 153 0
0 153 0
0 152 0
0 152 0
0 151 0
0 150 0
0 150 0
0 149 0
0 148 0
0 148 0
0 147 0
0 146 0
0 145 0
0 144 0
0 144 0
0 142 0
0 142 0
0 140 0
0 139 0
0 138 0
0 137 0
0 135 0
131 0 0
133 0 0
134 0 0
136 0 0
137 0 0
139 0 0
140 0 0
141 0 0
142 0 0
143 0 0
145 0 0
146 0 0
146 0 0
147 0 0
148 0 0
149 0 0
150 0 0
151 0 0
152 0 0
153 0 0
154 0 0
154 0 0
155 0 0
156 0 0
157 0 0
158 0 0
159 0 0
159 0 0
160 0 0
160 0 0
161 0 0
161 0 0
162 0 0
162 0 0
163 0 0
163 0 0
164 0 0
164 0 0
165 0 0
165 0 0
166 0 0
167 0 0
168 0 0
167 0 0
168 150 147
169 155 152
170 156 153
170 157 154
170 158 155
170 158 155
170 158 155
170 158 155
169 159 156
169 159 156
169 159 156
169 159 156
169 159 156
169 159 156
169 159 156
169 160 156
169 160 156
169 160 156
168 160 156
168 160 156
168 160 156
168 160 156
168 160 157
168 160 157
168 160 157
168 160 157
168 160 157
168 161 157
168 161 157
168 161 157
167 161 157
167 161 157
167 161 157
167 161 157
167 161 157
167 161 157
167 161 157
167 161 157
167 161 157
167 161 157
167 161 157
167 161 157
167 161 157
166 162 157
166 162 157
166 162 157
166 162 157
166 162 157
166 162 157
166 162 157
166 162 157
166 162 157
166 162 157
166 162 157
166 162 157
166 162 157
165 162 157
165 162 157
165 162 157
165 162 157
165 162 157
165 162 157
165 162 157
165 162 157
165 162 157
165 162 157
165 163 157
165 163 157
164 163 157
164 163 157
164 163 157
164 163 157
164 163 157
164 163 157
164 163 157
164 163 157
164 163 157
164 163 157
164 163 157
164 163 158
163 163 158
163 163 157
163 163 157
163 163 158
163 163 158
163 163 158
163 163 158
163 163 158
163 163 158
163 163 158
163 163 158
163 163 158
162 163 158
162 163 158
162 163 158
162 163 158
162 163 158
162 163 158
162 163 158
162 163 158
162 163 158
162 163 158
162 163 158
162 163 158
162 163 158
161 163 158
161 164 158
161 164 158
161 164 158
161 164 158
161 164 158
161 164 158
161 164 158
161 164 158
161 164 158
161 164 158
161 164 158
161 164 158
161 164 158
161 164 158
161 164 158
160 164 158
160 164 158
160 164 158
160 164 158
160 164 158
160 164 158
160 165 158
160 165 158
160 165 158
160 165 158
160 165 157
160 165 157
160 165 158
160 165 157
160 165 157
160 165 157
159 165 157
159 165 157
159 165 157
159 165 157
159 166 157
159 166 157
159 166 157
159 166 157
159 166 157
159 166 157
159 166 157
159 166 157
159 166 157
159 166 157
159 167 157
159 167 157
158 167 157
158 167 157
158 167 157
158 167 157
158 167 157
158 167 157
158 167 156
158 168 156
157 168 156
157 168 156
157 168 156
157 168 155
156 168 155
155 168 154
154 168 153
151 167 150
129 157 127
0 167 0
0 166 0
0 165 0
0 164 0
0 163 0
0 162 0
0 161 0
0 161 0
0 160 0
0 159 0
0 159 0
0 158 0
0 158 0
0 157 0
0 156 0
0 156 0
0 155 0
0 155 0
0 154 0
0 154 0
0 153 0
0 152 0
0 152 0
0 151 0
0 151 0
0 150 0
0 149 0
0 149 0
0 148 0
0 147 0
0 147 0
0 146 0
0 145 0
0 144 0
0 143 0
0 142 0
0 141 0
0 140 0
0 139 0
0 137 0
0 136 0
0 135 0
131 0 0
132 0 0
134 0 0
135 0 0
137 0 0
138 0 0
140 0 0
141 0 0
142 0 0
143 0 0
144 0 0
145 0 0
146 0 0
147 0 0
148 0 0
149 0 0
150 0 0
151 0 0
152 0 0
152 0 0
153 0 0
154 0 0
155 0 0
156 0 0
157 0 0
158 0 0
158 0 0
159 0 0
159 0 0
160 0 0
161 0 0
161 0 0
161 0 0
162 0 0
162 0 0
163 0 0
163 0 0
164 0 0
164 0 0
165 0 0
165 0 0
166 0 0
166 0 0
163 0 0
162 138 135
166 146 143
167 150 147
167 152 149
168 153 150
168 154 151
168 155 152
168 156 152
168 156 153
168 156 153
168 157 153
168 157 154
168 157 154
168 157 154
168 158 154
168 158 154
168 158 154
168 158 155
168 158 155
167 158 155
167 159 155
167 159 155
167 159 155
167 159 155
167 159 155
167 159 155
167 159 155
167 159 155
167 160 155
167 160 155
167 160 155
167 160 155
167 160 156
167 160 156
166 160 156
166 160 156
166 160 156
166 160 156
166 160 156
166 160 156
166 160 156
166 161 156
166 161 156
166 161 156
166 161 156
166 161 156
166 161 156
165 161 156
165 161 156
165 161 156
165 161 156
165 161 156
165 161 156
165 161 156
165 161 156
165 161 156
165 161 156
165 161 156
165 161 156
165 162 156
164 162 156
164 162 156
164 162 156
164 162 156
164 162 156
164 162 156
164 162 156
164 162 156
164 162 156
164 162 156
164 162 156
164 162 156
163 162 156
163 162 156
163 162 156
163 162 156
163 162 157
163 162 157
163 162 157
163 162 156
163 162 157
163 162 157
163 162 157
162 162 157
162 162 157
162 162 157
162 162 157
162 162 157
162 162 157
162 162 157
162 162 157
162 162 157
162 162 157
162 162 157
162 163 157
161 163 157
161 163 157
161 163 157
161 163 157
161 163 157
161 163 157
161 163 157
161 163 157
161 163 157
161 163 157
161 163 157
161 163 157
161 163 157
160 163 157
160 163 157
160 163 157
160 163 157
160 163 157
160 163 157
160 163 157
160 163 157
160 163 157
160 163 157
160 163 157
160 163 157
160 163 157
159 163 157
159 163 157
159 163 157
159 164 157
159 164 157
159 164 156
159 164 156
159 164 156
159 164 156
159 164 156
159 164 156
159 164 156
159 164 156
159 164 156
158 164 156
158 164 156
158 164 156
158 164 156
158 165 156
158 165 156
158 165 156
158 165 156
158 165 156
158 165 156
158 165 156
158 165 156
157 165 156
157 165 156
157 165 156
157 165 155
157 166 155
157 166 155
157 166 155
156 166 155
156 166 155
156 166 155
156 166 154
156 166 154
155 166 154
155 166 154
155 166 153
154 166 153
154 166 152
153 166 151
152 166 150
150 165 148
146 164 145
140 162 138
126 154 124
0 165 0
0 164 0
0 164 0
0 163 0
0 162 0
0 162 0
0 161 0
0 160 0
0 160 0
0 159 0
0 158 0
0 158 0
0 157 0
0 157 0
0 156 0
0 156 0
0 155 0
0 154 0
0 154 0
0 153 0
0 153 0
0 152 0
0 152 0
0 151 0
0 150 0
0 150 0
0 149 0
0 148 0
0 148 0
0 147 0
0 146 0
0 145 0
0 144 0
0 144 0
0 143 0
0 142 0
0 141 0
0 139 0
0 138 0
0 137 0
0 136 0
0 134 0
130 0 0
132 0 0
134 0 0
135 0 0
136 0 0
138 0 0
139 0 0
140 0 0
141 0 0
143 0 0
144 0 0
145 0 0
146 0 0
147 0 0
148 0 0
148 0 0
149 0 0
150 0 0
151 0 0
152 0 0
153 0 0
154 0 0
155 0 0
156 0 0
156 0 0
157 0 0
158 0 0
159 0 0
159 0 0
160 0 0
160 0 0
161 0 0
161 0 0
162 0 0
162 0 0
162 0 0
163 0 0
163 0 0
164 0 0
164 0 0
165 0 0
165 0 0
165 0 0
160 0 0
160 134 130
163 141 137
165 145 142
166 148 145
166 150 147
167 151 148
167 152 149
167 153 150
167 154 150
167 154 151
167 155 151
167 155 152
167 156 152
167 156 152
167 156 153
167 156 153
167 157 153
167 157 153
167 157 153
167 157 153
167 157 154
167 158 154
167 158 154
167 158 154
166 158 154
166 158 154
166 158 154
166 158 154
166 159 154
166 159 154
166 159 154
166 159 154
166 159 155
166 159 155
166 159 155
166 159 155
166 159 155
166 159 155
166 160 155
166 160 155
165 160 155
165 160 155
165 160 155
165 160 155
165 160 155
165 160 155
165 160 155
165 160 155
165 160 155
165 160 155
165 160 155
165 160 155
165 160 155
165 161 155
164 161 155
164 161 155
164 161 155
164 161 155
164 161 155
164 161 155
164 161 155
164 161 155
164 161 155
164 161 155
164 161 155
164 161 156
163 161 156
163 161 156
163 161 156
163 161 156
163 161 156
163 161 156
163 161 156
163 161 156
163 161 156
163 161 156
163 162 156
162 162 156
162 162 156
162 162 156
162 162 156
162 162 156
162 162 156
162 162 156
162 162 156
162 162 156
162 162 156
162 162 156
161 162 156
161 162 156
161 162 156
161 162 156
161 162 156
161 162 156
161 162 156
161 162 156
161 162 156
161 162 156
161 162 156
160 162 156
160 162 156
160 162 156
160 162 156
160 162 156
160 162 156
160 162 156
160 162 156
160 162 156
160 162 156
160 162 156
160 162 156
159 162 156
159 162 156
159 162 156
159 162 156
159 163 156
159 163 156
159 163 156
159 163 156
159 163 156
159 163 156
159 163 156
159 163 156
159 163 156
158 163 156
158 163 156
158 163 156
158 163 156
158 163 156
158 163 155
158 163 155
158 163 155
158 163 155
158 163 155
158 163 155
158 164 155
158 164 155
157 164 155
157 164 155
157 164 155
157 164 155
157 164 155
157 164 155
157 164 155
157 164 155
156 164 155
156 164 154
156 164 154
156 165 154
156 165 154
156 165 154
156 165 154
155 165 154
155 165 153
155 165 153
155 165 153
154 165 153
154 165 153
154 165 152
153 165 152
153 165 151
152 165 151
152 165 150
151 165 149
149 164 148
148 164 146
145 163 143
141 162 140
135 159 133
125 153 123
0 163 0
0 163 0
0 163 0
0 162 0
0 162 0
0 161 0
0 160 0
0 160 0
0 159 0
0 158 0
0 158 0
0 157 0
0 157 0
0 156 0
0 156 0
0 155 0
0 155 0
0 154 0
0 153 0
0 153 0
0 152 0
0 152 0
0 151 0
0 151 0
0 150 0
0 149 0
0 149 0
0 148 0
0 147 0
0 146 0
0 146 0
0 145 0
0 144 0
0 143 0
0 142 0
0 141 0
0 140 0
0 139 0
0 138 0
0 137 0
0 135 0
0 134 0
130 0 0
132 0 0
133 0 0
135 0 0
136 0 0
137 0 0
139 0 0
140 0 0
141 0 0
142 0 0
143 0 0
144 0 0
145 0 0
146 0 0
147 0 0
148 0 0
149 0 0
150 0 0
151 0 0
152 0 0
153 0 0
153 0 0
154 0 0
155 0 0
156 0 0
157 0 0
158 0 0
158 0 0
159 0 0
159 0 0
160 0 0
160 0 0
161 0 0
161 0 0
162 0 0
162 0 0
162 0 0
163 0 0
163 0 0
163 0 0
164 0 0
164 0 0
164 0 0
159 0 0
158 132 127
161 137 133
163 142 138
164 145 141
165 147 143
165 149 145
166 150 146
166 151 147
166 152 148
166 153 149
166 153 149
166 154 150
166 154 150
166 155 151
166 155 151
166 155 151
166 155 152
166 156 152
166 156 152
166 156 152
166 156 152
166 157 152
166 157 153
166 157 153
166 157 153
166 157 153
166 157 153
166 158 153
166 158 153
166 158 153
166 158 153
165 158 153
165 158 153
165 158 154
165 158 154
165 159 154
165 159 154
165 159 154
165 159 154
165 159 154
165 159 154
165 159 154
165 159 154
165 159 154
165 159 154
165 159 154
165 159 154
164 160 154
164 160 154
164 160 154
164 160 154
164 160 154
164 160 154
164 160 154
164 160 154
164 160 155
164 160 155
164 160 155
164 160 155
164 160 155
163 160 155
163 160 155
163 160 155
163 160 155
163 160 155
163 161 155
163 161 155
163 161 155
163 161 155
163 161 155
163 161 155
162 161 155
162 161 155
162 161 155
162 161 155
162 161 155
162 161 155
162 161 155
162 161 155
162 161 155
162 161 155
162 161 155
161 161 155
161 161 155
161 161 155
161 161 155
161 161 155
161 161 155
161 161 155
161 161 155
161 161 155
161 161 155
161 161 155
160 161 155
160 161 155
160 161 155
160 161 155
160 161 155
160 161 155
160 161 155
160 161 155
160 162 155
160 162 155
160 162 155
159 162 155
159 162 155
159 162 155
159 162 155
159 162 155
159 162 155
159 162 155
159 162 155
159 162 155
159 162 155
159 162 155
159 162 155
158 162 155
158 162 155
158 162 155
158 162 155
158 162 155
158 162 155
158 162 155
158 162 155
158 162 155
158 162 155
158 162 155
157 162 155
157 163 155
157 163 155
157 163 155
157 163 155
157 163 154
157 163 154
157 163 154
157 163 154
157 163 154
156 163 154
156 163 154
156 163 154
156 163 154
156 163 154
156 163 154
156 164 154
156 164 154
155 164 153
155 164 153
155 164 153
155 164 153
155 164 153
155 164 153
154 164 153
154 164 152
154 164 152
154 164 152
153 164 152
153 164 151
152 164 151
152 164 150
151 164 150
151 164 149
150 164 148
149 164 147
148 163 146
146 163 145
144 162 143
141 161 140
137 160 136
132 157 130
125 152 123
0 162 0
0 163 0
0 162 0
0 162 0
0 161 0
0 160 0
0 160 0
0 159 0
0 159 0
0 158 0
0 157 0
0 157 0
0 156 0
0 156 0
0 155 0
0 155 0
0 154 0
0 154 0
0 153 0
0 153 0
0 152 0
0 151 0
0 151 0
0 150 0
0 150 0
0 149 0
0 148 0
0 148 0
0 147 0
0 146 0
0 145 0
0 145 0
0 144 0
0 143 0
0 142 0
0 141 0
0 140 0
0 139 0
0 137 0
0 136 0
0 135 0
0 133 0
129 0 0
131 0 0
133 0 0
134 0 0
136 0 0
137 0 0
138 0 0
139 0 0
141 0 0
142 0 0
143 0 0
144 0 0
145 0 0
146 0 0
147 0 0
148 0 0
149 0 0
150 0 0
150 0 0
151 0 0
152 0 0
153 0 0
154 0 0
155 0 0
156 0 0
157 0 0
157 0 0
158 0 0
159 0 0
159 0 0
160 0 0
160 0 0
160 0 0
161 0 0
161 0 0
162 0 0
162 0 0
162 0 0
163 0 0
163 0 0
163 0 0
163 0 0
163 0 0
158 0 0
157 130 126
160 135 131
161 139 135
163 142 138
163 145 141
164 146 143
164 148 144
165 149 145
165 150 146
165 151 147
165 151 148
165 152 148
165 153 149
165 153 149
165 153 150
165 154 150
165 154 150
165 154 150
165 155 151
165 155 151
165 155 151
165 156 151
165 156 151
165 156 152
165 156 152
165 156 152
165 157 152
165 157 152
165 157 152
165 157 152
165 157 152
165 157 152
165 157 153
165 158 153
165 158 153
165 158 153
165 158 153
165 158 153
165 158 153
164 158 153
164 158 153
164 158 153
164 159 153
164 159 153
164 159 153
164 159 153
164 159 153
164 159 153
164 159 154
164 159 154
164 159 154
164 159 154
164 159 154
164 159 154
163 159 154
163 160 154
163 160 154
163 160 154
163 160 154
163 160 154
163 160 154
163 160 154
163 160 154
163 160 154
163 160 154
163 160 154
162 160 154
162 160 154
162 160 154
162 160 154
162 160 154
162 160 154
162 160 154
162 160 154
162 160 154
162 160 154
162 160 154
161 160 154
161 161 154
161 161 154
161 161 154
161 161 154
161 161 154
161 161 155
161 161 155
161 161 154
161 161 155
160 161 155
160 161 155
160 161 155
160 161 155
160 161 155
160 161 155
160 161 155
160 161 155
160 161 155
160 161 155
160 161 155
159 161 155
159 161 155
159 161 155
159 161 155
159 161 155
159 161 155
159 161 155
159 161 154
159 161 155
159 161 155
159 161 155
158 161 154
158 161 154
158 161 154
158 161 154
158 161 154
158 161 154
158 161 154
158 161 154
158 161 154
158 162 154
158 162 154
157 162 154
157 162 154
157 162 154
157 162 154
157 162 154
157 162 154
157 162 154
157 162 154
157 162 154
157 162 154
156 162 154
156 162 154
156 162 154
156 162 154
156 162 154
156 162 153
156 162 153
156 163 153
155 162 153
155 163 153
155 163 153
155 163 153
155 163 153
155 163 153
155 163 153
154 163 152
154 163 152
154 163 152
154 163 152
154 163 152
153 163 152
153 163 151
153 163 151
152 163 151
152 163 150
152 163 150
151 163 150
151 163 149
150 163 149
150 163 148
149 163 147
148 163 146
147 162 145
145 162 144
144 161 142
142 161 140
139 160 137
135 158 133
130 156 128
124 151 122
0 161 0
0 162 0
0 162 0
0 161 0
0 160 0
0 160 0
0 159 0
0 159 0
0 158 0
0 158 0
0 157 0
0 157 0
0 156 0
0 155 0
0 155 0
0 154 0
0 154 0
0 153 0
0 153 0
0 152 0
0 152 0
0 151 0
0 150 0
0 150 0
0 149 0
0 149 0
0 148 0
0 147 0
0 147 0
0 146 0
0 145 0
0 144 0
0 143 0
0 142 0
0 141 0
0 140 0
0 139 0
0 138 0
0 137 0
0 136 0
0 134 0
0 133 0
129 0 0
131 0 0
132 0 0
134 0 0
135 0 0
137 0 0
138 0 0
139 0 0
140 0 0
141 0 0
142 0 0
143 0 0
144 0 0
145 0 0
146 0 0
147 0 0
148 0 0
149 0 0
150 0 0
151 0 0
152 0 0
153 0 0
154 0 0
155 0 0
155 0 0
156 0 0
157 0 0
158 0 0
158 0 0
159 0 0
159 0 0
160 0 0
160 0 0
161 0 0
161 0 0
161 0 0
161 0 0
162 0 0
162 0 0
162 0 0
163 0 0
163 0 0
162 0 0
157 0 0
156 129 124
159 133 129
160 137 133
161 140 136
162 142 138
163 144 140
163 146 142
164 147 143
164 148 144
164 149 145
164 150 146
165 151 147
165 151 147
165 152 148
165 152 148
165 153 149
165 153 149
165 153 149
165 154 149
165 154 150
165 154 150
165 155 150
165 155 150
165 155 151
165 155 151
165 155 151
165 156 151
165 156 151
165 156 151
165 156 151
164 156 152
164 157 152
164 157 152
164 157 152
164 157 152
164 157 152
164 157 152
164 157 152
164 157 152
164 158 152
164 158 152
164 158 152
164 158 152
164 158 153
164 158 153
164 158 153
164 158 153
164 158 153
163 158 153
163 159 153
163 159 153
163 159 153
163 159 153
163 159 153
163 159 153
163 159 153
163 159 153
163 159 153
163 159 153
163 159 153
163 159 153
162 159 153
162 159 153
162 159 153
162 160 153
162 160 154
162 160 153
162 160 154
162 160 154
162 160 154
162 160 154
161 160 154
161 160 154
161 160 154
161 160 154
161 160 154
161 160 154
161 160 154
161 160 154
161 160 154
161 160 154
161 160 154
160 160 154
160 160 154
160 160 154
160 160 154
160 160 154
160 160 154
160 160 154
160 160 154
160 160 154
160 160 154
160 160 154
159 160 154
159 160 154
159 160 154
159 160 154
159 160 154
159 161 154
159 160 154
159 160 154
159 160 154
159 161 154
158 161 154
158 161 154
158 161 154
158 161 154
158 161 154
158 161 154
158 161 154
158 161 154
158 161 154
158 161 154
157 161 154
157 161 154
157 161 154
157 161 154
157 161 154
157 161 154
157 161 154
157 161 154
157 161 153
157 161 153
156 161 153
156 161 153
156 161 153
156 161 153
156 161 153
156 161 153
156 162 153
156 162 153
156 162 153
156 162 153
155 162 153
155 162 153
155 162 153
155 162 153
155 162 152
155 162 152
154 162 152
154 162 152
154 162 152
154 162 152
154 162 152
154 162 152
153 162 151
153 162 151
153 162 151
153 162 151
153 162 151
152 162 150
152 162 150
152 162 150
151 162 149
151 162 149
150 162 149
150 162 148
149 162 148
149 162 147
148 162 146
147 162 145
146 162 144
145 161 143
143 161 142
141 160 140
139 159 137
136 158 134
133 157 131
129 155 127
124 151 122
0 159 0
0 161 0
0 161 0
0 160 0
0 160 0
0 159 0
0 159 0
0 158 0
0 158 0
0 157 0
0 157 0
0 156 0
0 156 0
0 155 0
0 155 0
0 154 0
0 154 0
0 153 0
0 152 0
0 152 0
0 151 0
0 151 0
0 150 0
0 149 0
0 149 0
0 148 0
0 147 0
0 147 0
0 146 0
0 145 0
0 145 0
0 144 0
0 143 0
0 142 0
0 141 0
0 140 0
0 139 0
0 138 0
0 137 0
0 135 0
0 134 0
0 133 0
129 0 0
130 0 0
132 0 0
133 0 0
135 0 0
136 0 0
137 0 0
139 0 0
140 0 0
141 0 0
142 0 0
143 0 0
144 0 0
145 0 0
146 0 0
147 0 0
148 0 0
149 0 0
150 0 0
151 0 0
152 0 0
152 0 0
153 0 0
154 0 0
155 0 0
156 0 0
157 0 0
157 0 0
158 0 0
159 0 0
159 0 0
160 0 0
160 0 0
160 0 0
161 0 0
161 0 0
161 0 0
161 0 0
162 0 0
162 0 0
162 0 0
162 0 0
161 0 0
156 0 0
155 128 123
158 132 127
159 135 131
160 138 134
161 140 136
162 142 138
162 144 140
163 145 141
163 147 142
163 148 143
164 148 144
164 149 145
164 150 146
164 151 146
164 151 147
164 151 147
164 152 148
164 152 148
164 153 148
164 153 149
164 153 149
164 154 149
164 154 149
164 154 150
164 154 150
164 155 150
164 155 150
164 155 150
164 155 150
164 155 151
164 156 151
164 156 151
164 156 151
164 156 151
164 156 151
164 156 151
164 157 151
164 157 151
164 157 152
164 157 152
164 157 152
163 157 152
163 157 152
163 157 152
163 158 152
163 158 152
163 158 152
163 158 152
163 158 152
163 158 152
163 158 152
163 158 152
163 158 152
163 158 152
163 158 152
162 158 152
162 159 152
162 159 153
162 159 153
162 159 153
162 159 153
162 159 153
162 159 153
162 159 153
162 159 153
162 159 153
162 159 153
161 159 153
161 159 153
161 159 153
161 159 153
161 159 153
161 159 153
161 159 153
161 159 153
161 159 153
161 159 153
161 160 153
160 160 153
160 160 153
160 160 153
160 160 153
160 160 153
160 160 153
160 160 153
160 160 153
160 160 153
160 160 153
159 160 153
159 160 153
159 160 153
159 160 153
159 160 153
159 160 153
159 160 153
159 160 153
159 160 153
159 160 153
158 160 153
158 160 153
158 160 153
158 160 153
158 160 153
158 160 153
158 160 153
158 160 153
158 160 153
157 160 153
157 160 153
157 160 153
157 160 153
157 160 153
157 160 153
157 160 153
157 160 153
157 160 153
157 160 153
157 160 153
156 161 153
156 161 153
156 161 153
156 161 153
156 161 153
156 161 153
156 161 153
156 161 153
155 161 153
155 161 152
155 161 152
155 161 152
155 161 152
155 161 152
155 161 152
155 161 152
154 161 152
154 161 152
154 161 152
154 161 152
154 161 151
154 161 151
154 161 151
153 162 151
153 162 151
153 162 151
153 162 151
153 162 150
152 162 150
152 162 150
152 162 150
151 162 149
151 162 149
151 162 149
150 162 149
150 162 148
150 162 148
149 162 147
148 162 147
148 161 146
147 161 145
146 161 145
145 161 144
144 161 142
143 160 141
141 160 140
139 159 138
137 158 135
135 157 133
131 156 129
128 154 126
124 150 121
0 158 0
0 160 0
0 160 0
0 160 0
0 159 0
0 159 0
0 158 0
0 158 0
0 157 0
0 157 0
0 156 0
0 156 0
0 155 0
0 155 0
0 154 0
0 154 0
0 153 0
0 152 0
0 152 0
0 151 0
0 151 0
0 150 0
0 150 0
0 149 0
0 148 0
0 148 0
0 147 0
0 146 0
0 146 0
0 145 0
0 144 0
0 143 0
0 142 0
0 142 0
0 141 0
0 140 0
0 139 0
0 137 0
0 136 0
0 135 0
0 134 0
0 132 0
128 0 0
130 0 0
131 0 0
133 0 0
134 0 0
136 0 0
137 0 0
138 0 0
139 0 0
140 0 0
141 0 0
143 0 0
144 0 0
145 0 0
146 0 0
147 0 0
147 0 0
148 0 0
149 0 0
150 0 0
151 0 0
152 0 0
153 0 0
154 0 0
155 0 0
156 0 0
156 0 0
157 0 0
158 0 0
158 0 0
159 0 0
159 0 0
160 0 0
160 0 0
160 0 0
160 0 0
161 0 0
161 0 0
161 0 0
161 0 0
161 0 0
161 0 0
160 0 0
155 0 0
155 128 123
157 131 126
158 134 129
159 137 132
160 139 134
161 141 136
161 142 138
162 144 140
162 145 141
163 146 142
163 147 143
163 148 144
163 149 144
163 149 145
163 150 145
163 150 146
164 151 146
164 151 147
164 152 147
164 152 147
164 152 148
164 153 148
164 153 148
164 153 149
164 154 149
164 154 149
164 154 149
164 154 149
164 154 149
164 155 150
164 155 150
163 155 150
163 155 150
163 155 150
163 156 150
163 156 150
163 156 150
163 156 151
163 156 151
163 156 151
163 156 151
163 157 151
163 157 151
163 157 151
163 157 151
163 157 151
163 157 151
163 157 151
163 157 151
163 157 151
162 157 151
162 158 152
162 158 152
162 158 152
162 158 152
162 158 152
162 158 152
162 158 152
162 158 152
162 158 152
162 158 152
162 158 152
162 158 152
161 158 152
161 159 152
161 159 152
161 159 152
161 159 152
161 159 152
161 159 152
161 159 152
161 159 152
161 159 152
160 159 152
160 159 153
160 159 153
160 159 153
160 159 153
160 159 153
160 159 153
160 159 153
160 159 153
160 159 153
159 159 153
159 159 153
159 159 153
159 159 153
159 159 153
159 159 153
159 159 153
159 159 153
159 159 153
159 159 153
158 159 153
158 159 153
158 159 153
158 159 153
158 159 153
158 159 153
158 160 153
158 160 153
158 160 153
158 160 153
157 160 153
157 160 153
157 160 153
157 160 153
157 160 153
157 160 153
157 160 153
157 160 153
157 160 153
156 160 152
156 160 152
156 160 152
156 160 152
156 160 152
156 160 152
156 160 152
156 160 152
156 160 152
155 160 152
155 160 152
155 160 152
155 160 152
155 160 152
155 160 152
155 160 152
155 160 152
154 160 152
154 160 152
154 161 151
154 161 151
154 161 151
154 161 151
154 161 151
153 161 151
153 161 151
153 161 151
153 161 151
153 161 150
152 161 150
152 161 150
152 161 150
152 161 150
152 161 149
151 161 149
151 161 149
151 161 149
150 161 148
150 161 148
150 161 148
149 161 147
149 161 147
148 161 146
148 161 146
147 161 145
146 161 145
146 161 144
145 160 143
144 160 142
143 160 141
141 159 139
140 159 138
138 158 136
136 157 134
133 156 131
130 155 128
127 153 125
123 149 121
0 157 0
0 159 0
0 159 0
0 159 0
0 159 0
0 158 0
0 158 0
0 157 0
0 157 0
0 156 0
0 156 0
0 155 0
0 155 0
0 154 0
0 154 0
0 153 0
0 153 0
0 152 0
0 152 0
0 151 0
0 150 0
0 150 0
0 149 0
0 149 0
0 148 0
0 147 0
0 147 0
0 146 0
0 145 0
0 145 0
0 144 0
0 143 0
0 142 0
0 141 0
0 140 0
0 139 0
0 138 0
0 137 0
0 136 0
0 135 0
0 133 0
0 132 0
128 0 0
129 0 0
131 0 0
132 0 0
134 0 0
135 0 0
137 0 0
138 0 0
139 0 0
140 0 0
141 0 0
142 0 0
143 0 0
144 0 0
145 0 0
146 0 0
147 0 0
148 0 0
149 0 0
150 0 0
151 0 0
152 0 0
153 0 0
154 0 0
155 0 0
155 0 0
156 0 0
157 0 0
157 0 0
158 0 0
158 0 0
159 0 0
159 0 0
160 0 0
160 0 0
160 0 0
160 0 0
161 0 0
161 0 0
161 0 0
161 0 0
160 0 0
159 0 0
154 0 0
154 127 122
156 130 125
157 133 128
158 135 131
159 137 133
160 139 135
161 141 136
161 142 138
161 144 139
162 145 140
162 146 141
162 147 142
162 147 143
163 148 144
163 149 144
163 149 145
163 150 145
163 150 146
163 151 146
163 151 146
163 151 147
163 152 147
163 152 147
163 152 148
163 153 148
163 153 148
163 153 148
163 154 148
163 154 149
163 154 149
163 154 149
163 154 149
163 155 149
163 155 149
163 155 149
163 155 150
163 155 150
163 155 150
163 156 150
163 156 150
163 156 150
163 156 150
163 156 150
162 156 150
162 156 151
162 157 151
162 157 151
162 157 151
162 157 151
162 157 151
162 157 151
162 157 151
162 157 151
162 157 151
162 157 151
162 157 151
162 157 151
162 158 151
161 158 151
161 158 151
161 158 151
161 158 151
161 158 151
161 158 152
161 158 152
161 158 152
161 158 152
161 158 152
161 158 152
160 158 152
160 158 152
160 158 152
160 158 152
160 158 152
160 158 152
160 159 152
160 159 152
160 159 152
160 159 152
159 159 152
159 159 152
159 159 152
159 159 152
159 159 152
159 159 152
159 159 152
159 159 152
159 159 152
158 159 152
158 159 152
158 159 152
158 159 152
158 159 152
158 159 152
158 159 152
158 159 152
158 159 152
158 159 152
157 159 152
157 159 152
157 159 152
157 159 152
157 159 152
157 159 152
157 159 152
157 159 152
157 159 152
156 159 152
156 159 152
156 159 152
156 159 152
156 159 152
156 159 152
156 159 152
156 159 152
156 159 152
156 160 152
155 160 152
155 160 152
155 160 152
155 160 152
155 160 151
155 160 151
155 160 151
154 160 151
154 160 151
154 160 151
154 160 151
154 160 151
154 160 151
154 160 151
154 160 151
153 160 151
153 160 150
153 160 150
153 160 150
153 160 150
153 160 150
152 160 150
152 160 150
152 160 150
152 160 149
151 160 149
151 160 149
151 160 149
151 160 149
150 160 148
150 160 148
150 160 148
149 160 147
149 160 147
149 160 147
148 160 146
148 160 146
147 160 145
147 160 145
146 160 144
145 160 143
144 160 142
143 159 141
142 159 140
141 159 139
140 158 138
138 158 136
136 157 134
134 156 132
132 155 130
129 154 127
126 152 124
123 149 121
0 157 0
0 158 0
0 159 0
0 159 0
0 158 0
0 158 0
0 157 0
0 157 0
0 156 0
0 156 0
0 155 0
0 155 0
0 154 0
0 154 0
0 153 0
0 153 0
0 152 0
0 152 0
0 151 0
0 151 0
0 150 0
0 149 0
0 149 0
0 148 0
0 148 0
0 147 0
0 146 0
0 146 0
0 145 0
0 144 0
0 143 0
0 143 0
0 142 0
0 141 0
0 140 0
0 139 0
0 138 0
0 137 0
0 135 0
0 134 0
0 133 0
0 131 0
127 0 0
129 0 0
131 0 0
132 0 0
133 0 0
135 0 0
136 0 0
137 0 0
138 0 0
140 0 0
141 0 0
142 0 0
143 0 0
144 0 0
145 0 0
146 0 0
147 0 0
148 0 0
149 0 0
150 0 0
151 0 0
151 0 0
152 0 0
153 0 0
154 0 0
155 0 0
156 0 0
157 0 0
157 0 0
158 0 0
158 0 0
159 0 0
159 0 0
159 0 0
159 0 0
160 0 0
160 0 0
160 0 0
160 0 0
160 0 0
160 0 0
160 0 0
158 0 0
154 0 0
153 126 121
155 129 124
157 132 127
158 134 129
159 136 131
159 138 133
160 140 135
160 141 136
161 142 138
161 143 139
161 145 140
162 145 141
162 146 142
162 147 142
162 148 143
162 148 144
162 149 144
162 149 144
162 150 145
162 150 145
163 151 146
163 151 146
163 151 146
163 152 147
163 152 147
163 152 147
163 153 147
163 153 148
163 153 148
163 153 148
162 153 148
163 154 148
163 154 148
162 154 149
162 154 149
162 154 149
162 155 149
162 155 149
162 155 149
162 155 149
162 155 149
162 155 150
162 156 150
162 156 150
162 156 150
162 156 150
162 156 150
162 156 150
162 156 150
162 156 150
162 156 150
162 157 150
162 157 150
161 157 150
161 157 150
161 157 151
161 157 151
161 157 151
161 157 151
161 157 151
161 157 151
161 157 151
161 157 151
161 157 151
161 158 151
160 158 151
160 158 151
160 158 151
160 158 151
160 158 151
160 158 151
160 158 151
160 158 151
160 158 151
160 158 151
159 158 151
159 158 151
159 158 151
159 158 151
159 158 151
159 158 151
159 158 152
159 158 152
159 158 152
159 158 152
158 158 152
158 158 152
158 158 152
158 158 152
158 158 152
158 158 152
158 159 152
158 158 152
158 159 152
157 159 152
157 159 152
157 159 152
157 159 152
157 159 152
157 159 152
157 159 152
157 159 152
157 159 152
156 159 151
156 159 151
156 159 151
156 159 151
156 159 151
156 159 151
156 159 151
156 159 151
156 159 151
155 159 151
155 159 151
155 159 151
155 159 151
155 159 151
155 159 151
155 159 151
155 159 151
154 159 151
154 159 151
154 159 151
154 159 151
154 159 151
154 159 150
154 159 151
153 159 150
153 159 150
153 159 150
153 160 150
153 160 150
153 160 150
153 160 150
152 160 150
152 160 149
152 160 149
152 160 149
152 160 149
151 160 149
151 160 149
151 160 148
151 160 148
150 160 148
150 160 148
150 160 148
150 160 147
149 160 147
149 160 147
148 160 146
148 160 146
148 160 145
147 160 145
147 160 145
146 159 144
145 159 143
145 159 143
144 159 142
143 159 141
142 159 140
141 158 139
140 158 138
138 157 136
137 157 135
135 156 133
133 155 131
131 154 129
128 153 126
126 152 123
122 148 120
0 156 0
0 157 0
0 158 0
0 158 0
0 158 0
0 157 0
0 157 0
0 156 0
0 156 0
0 156 0
0 155 0
0 155 0
0 154 0
0 153 0
0 153 0
0 152 0
0 152 0
0 151 0
0 151 0
0 150 0
0 150 0
0 149 0
0 149 0
0 148 0
0 147 0
0 147 0
0 146 0
0 145 0
0 145 0
0 144 0
0 143 0
0 142 0
0 141 0
0 140 0
0 139 0
0 138 0
0 137 0
0 136 0
0 135 0
0 134 0
0 132 0
0 131 0
127 0 0
129 0 0
130 0 0
132 0 0
133 0 0
134 0 0
136 0 0
137 0 0
138 0 0
139 0 0
140 0 0
141 0 0
142 0 0
143 0 0
144 0 0
145 0 0
146 0 0
147 0 0
148 0 0
149 0 0
150 0 0
151 0 0
152 0 0
153 0 0
154 0 0
155 0 0
156 0 0
156 0 0
157 0 0
157 0 0
158 0 0
158 0 0
159 0 0
159 0 0
159 0 0
159 0 0
159 0 0
160 0 0
160 0 0
160 0 0
160 0 0
159 0 0
158 0 0
153 0 0
153 126 121
155 129 123
156 131 126
157 133 128
158 135 130
158 137 132
159 138 134
159 140 135
160 141 136
160 142 138
161 143 139
161 144 139
161 145 140
161 146 141
161 147 142
162 147 142
162 148 143
162 148 143
162 149 144
162 149 144
162 150 145
162 150 145
162 150 145
162 151 146
162 151 146
162 151 146
162 152 146
162 152 147
162 152 147
162 153 147
162 153 147
162 153 147
162 153 148
162 153 148
162 154 148
162 154 148
162 154 148
162 154 148
162 154 148
162 155 149
162 155 149
162 155 149
162 155 149
162 155 149
162 155 149
162 155 149
161 156 149
161 156 149
161 156 149
161 156 150
161 156 150
161 156 150
161 156 150
161 156 150
161 156 150
161 156 150
161 157 150
161 157 150
161 157 150
161 157 150
160 157 150
160 157 150
160 157 150
160 157 150
160 157 150
160 157 150
160 157 150
160 157 151
160 157 151
160 157 151
160 157 151
159 157 151
159 157 151
159 158 151
159 158 151
159 158 151
159 158 151
159 158 151
159 158 151
159 158 151
159 158 151
158 158 151
158 158 151
158 158 151
158 158 151
158 158 151
158 158 151
158 158 151
158 158 151
158 158 151
157 158 151
157 158 151
157 158 151
157 158 151
157 158 151
157 158 151
157 158 151
157 158 151
157 158 151
156 158 151
156 158 151
156 158 151
156 158 151
156 158 151
156 158 151
156 158 151
156 158 151
155 158 151
155 158 151
155 158 151
155 158 151
155 158 151
155 158 151
155 158 151
155 158 151
154 158 150
154 159 151
154 159 150
154 159 150
154 159 150
154 159 150
154 159 150
154 159 150
153 159 150
153 159 150
153 159 150
153 159 150
153 159 150
153 159 150
152 159 149
152 159 149
152 159 149
152 159 149
152 159 149
152 159 149
151 159 149
151 159 149
151 159 148
151 159 148
151 159 148
150 159 148
150 159 148
150 159 147
150 159 147
149 159 147
149 159 147
149 159 146
148 159 146
148 159 146
147 159 145
147 159 145
147 159 144
146 159 144
146 159 143
145 159 143
144 159 142
143 158 141
143 158 141
142 158 140
141 158 139
140 157 138
138 157 136
137 157 135
136 156 133
134 155 132
132 155 130
130 154 128
127 153 125
125 151 123
122 148 120
0 155 0
0 157 0
0 157 0
0 157 0
0 157 0
0 157 0
0 156 0
0 156 0
0 156 0
0 155 0
0 155 0
0 154 0
0 154 0
0 153 0
0 153 0
0 152 0
0 152 0
0 151 0
0 151 0
0 150 0
0 149 0
0 149 0
0 148 0
0 148 0
0 147 0
0 146 0
0 146 0
0 145 0
0 144 0
0 143 0
0 143 0
0 142 0
0 141 0
0 140 0
0 139 0
0 138 0
0 137 0
0 136 0
0 135 0
0 133 0
0 132 0
0 131 0
127 0 0
128 0 0
130 0 0
131 0 0
133 0 0
134 0 0
135 0 0
136 0 0
138 0 0
139 0 0
140 0 0
141 0 0
142 0 0
143 0 0
144 0 0
145 0 0
146 0 0
147 0 0
148 0 0
149 0 0
150 0 0
151 0 0
152 0 0
153 0 0
154 0 0
154 0 0
155 0 0
156 0 0
157 0 0
157 0 0
158 0 0
158 0 0
158 0 0
159 0 0
159 0 0
159 0 0
159 0 0
159 0 0
159 0 0
159 0 0
159 0 0
158 0 0
157 0 0
153 0 0
152 126 120
154 128 123
155 130 125
156 132 127
157 134 129
158 136 131
158 137 132
159 139 134
159 140 135
160 141 136
160 142 137
160 143 138
160 144 139
161 145 140
161 146 141
161 146 141
161 147 142
161 147 142
161 148 143
161 148 143
161 149 144
161 149 144
161 150 144
162 150 145
162 150 145
162 151 145
162 151 146
162 151 146
162 152 146
162 152 146
162 152 146
162 152 147
162 153 147
162 153 147
161 153 147
161 153 147
161 153 147
161 154 148
161 154 148
161 154 148
161 154 148
161 154 148
161 154 148
161 155 148
161 155 148
161 155 148
161 155 149
161 155 149
161 155 149
161 155 149
161 155 149
161 156 149
161 156 149
161 156 149
161 156 149
160 156 149
160 156 149
160 156 149
160 156 149
160 156 150
160 156 150
160 156 150
160 157 150
160 157 150
160 157 150
160 157 150
160 157 150
159 157 150
159 157 150
159 157 150
159 157 150
159 157 150
159 157 150
159 157 150
159 157 150
159 157 150
158 157 150
158 157 150
158 157 150
158 157 150
158 157 150
158 157 150
158 157 150
158 157 150
158 157 150
157 157 150
157 157 150
157 158 151
157 158 151
157 158 151
157 158 151
157 158 150
157 158 150
157 158 150
156 158 150
156 158 150
156 158 150
156 158 150
156 158 150
156 158 150
156 158 150
156 158 150
156 158 150
155 158 150
155 158 150
155 158 150
155 158 150
155 158 150
155 158 150
155 158 150
155 158 150
154 158 150
154 158 150
154 158 150
154 158 150
154 158 150
154 158 150
154 158 150
154 158 150
153 158 150
153 158 150
153 158 150
153 158 149
153 158 149
153 158 149
153 158 149
152 158 149
152 158 149
152 158 149
152 158 149
152 158 149
152 159 149
151 159 148
151 159 148
151 159 148
151 159 148
150 159 148
150 159 148
150 159 147
150 159 147
150 159 147
149 159 147
149 159 147
149 159 146
148 159 146
148 159 146
148 159 145
147 159 145
147 159 145
147 158 144
146 158 144
146 158 143
145 158 143
144 158 142
144 158 142
143 158 141
142 158 140
142 157 139
141 157 139
140 157 138
138 157 136
137 156 135
136 156 134
134 155 132
133 155 131
131 154 129
129 153 127
127 152 124
124 150 122
122 148 120
0 154 0
0 156 0
0 157 0
0 157 0
0 157 0
0 156 0
0 156 0
0 156 0
0 155 0
0 155 0
0 154 0
0 154 0
0 153 0
0 153 0
0 152 0
0 152 0
0 151 0
0 151 0
0 150 0
0 150 0
0 149 0
0 148 0
0 148 0
0 147 0
0 147 0
0 146 0
0 145 0
0 144 0
0 144 0
0 143 0
0 142 0
0 141 0
0 141 0
0 140 0
0 139 0
0 138 0
0 137 0
0 135 0
0 134 0
0 133 0
0 132 0
0 130 0
126 0 0
128 0 0
129 0 0
131 0 0
132 0 0
133 0 0
135 0 0
136 0 0
137 0 0
138 0 0
139 0 0
140 0 0
142 0 0
143 0 0
144 0 0
145 0 0
145 0 0
146 0 0
147 0 0
148 0 0
149 0 0
150 0 0
151 0 0
152 0 0
153 0 0
154 0 0
155 0 0
156 0 0
156 0 0
157 0 0
157 0 0
158 0 0
158 0 0
158 0 0
158 0 0
159 0 0
159 0 0
159 0 0
159 0 0
159 0 0
159 0 0
158 0 0
156 0 0
152 0 0
152 125 120
154 127 122
155 129 124
156 131 126
156 133 128
157 135 130
158 136 131
158 138 133
159 139 134
159 140 135
159 141 136
159 142 137
160 143 138
160 144 139
160 145 139
160 145 140
160 146 141
161 146 141
161 147 142
161 148 142
161 148 143
161 148 143
161 149 143
161 149 144
161 150 144
161 150 144
161 150 145
161 151 145
161 151 145
161 151 145
161 151 146
161 152 146
161 152 146
161 152 146
161 152 146
161 153 147
161 153 147
161 153 147
161 153 147
161 153 147
161 154 147
161 154 147
161 154 148
161 154 148
161 154 148
161 154 148
161 155 148
161 155 148
160 155 148
160 155 148
160 155 148
160 155 148
160 155 148
160 155 149
160 155 149
160 156 149
160 156 149
160 156 149
160 156 149
160 156 149
160 156 149
160 156 149
159 156 149
159 156 149
159 156 149
159 156 149
159 156 149
159 156 149
159 156 149
159 156 149
159 157 150
159 157 150
159 157 150
158 157 150
158 157 150
158 157 150
158 157 150
158 157 150
158 157 150
158 157 150
158 157 150
157 157 150
157 157 150
157 157 150
157 157 150
157 157 150
157 157 150
157 157 150
157 157 150
157 157 150
157 157 150
156 157 150
156 157 150
156 157 150
156 157 150
156 157 150
156 157 150
156 157 150
156 157 150
155 157 150
155 157 150
155 157 150
155 157 150
155 157 150
155 157 150
155 157 150
155 157 150
154 157 150
154 157 150
154 157 150
154 157 150
154 158 150
154 158 150
154 158 149
154 158 149
153 158 149
153 158 149
153 158 149
153 158 149
153 158 149
153 158 149
153 158 149
152 158 149
152 158 149
152 158 149
152 158 149
152 158 148
152 158 148
151 158 148
151 158 148
151 158 148
151 158 148
151 158 148
150 158 148
150 158 147
150 158 147
150 158 147
150 158 147
149 158 147
149 158 146
149 158 146
149 158 146
148 158 146
148 158 145
148 158 145
147 158 145
147 158 144
147 158 144
146 158 144
146 158 143
145 158 143
145 158 142
144 158 142
143 158 141
143 157 141
142 157 140
141 157 139
141 157 138
140 157 137
139 156 136
137 156 135
136 155 134
135 155 133
133 155 131
132 154 130
130 153 128
128 152 126
126 151 124
124 150 122
122 147 119
0 154 0
0 155 0
0 156 0
0 156 0
0 156 0
0 156 0
0 156 0
0 155 0
0 155 0
0 154 0
0 154 0
0 153 0
0 153 0
0 152 0
0 152 0
0 151 0
0 151 0
0 150 0
0 150 0
0 149 0
0 149 0
0 148 0
0 147 0
0 147 0
0 146 0
0 145 0
0 145 0
0 144 0
0 143 0
0 143 0
0 142 0
0 141 0
0 140 0
0 139 0
0 138 0
0 137 0
0 136 0
0 135 0
0 134 0
0 133 0
0 131 0
0 130 0
126 0 0
127 0 0
129 0 0
130 0 0
132 0 0
133 0 0
134 0 0
136 0 0
137 0 0
138 0 0
139 0 0
140 0 0
141 0 0
142 0 0
143 0 0
144 0 0
145 0 0
146 0 0
147 0 0
148 0 0
149 0 0
150 0 0
151 0 0
152 0 0
153 0 0
154 0 0
155 0 0
155 0 0
156 0 0
157 0 0
157 0 0
157 0 0
158 0 0
158 0 0
158 0 0
158 0 0
158 0 0
158 0 0
158 0 0
158 0 0
158 0 0
157 0 0
156 0 0
152 0 0
152 125 119
153 127 121
154 129 123
155 131 125
156 132 127
156 134 129
157 135 130
157 137 132
158 138 133
158 139 134
159 140 135
159 141 136
159 142 137
159 143 138
159 144 138
160 144 139
160 145 140
160 146 140
160 146 141
160 147 141
160 147 142
160 148 142
160 148 143
160 148 143
160 149 143
161 149 144
161 150 144
161 150 144
161 150 144
161 151 145
161 151 145
161 151 145
161 151 145
161 152 146
161 152 146
161 152 146
161 152 146
161 152 146
161 153 146
160 153 146
160 153 147
160 153 147
160 153 147
160 154 147
160 154 147
160 154 147
160 154 147
160 154 147
160 154 147
160 154 148
160 154 148
160 155 148
160 155 148
160 155 148
160 155 148
160 155 148
160 155 148
159 155 148
159 155 148
159 155 148
159 155 148
159 156 149
159 156 149
159 156 149
159 156 149
159 156 149
159 156 149
159 156 149
158 156 149
158 156 149
158 156 149
158 156 149
158 156 149
158 156 149
158 156 149
158 156 149
158 156 149
158 156 149
157 156 149
157 157 149
157 156 149
157 157 149
157 156 149
157 157 149
157 157 149
157 157 149
157 157 149
156 157 149
156 157 149
156 157 149
156 157 149
156 157 149
156 157 149
156 157 149
156 157 149
155 157 149
155 157 149
155 157 149
155 157 149
155 157 149
155 157 149
155 157 149
155 157 149
154 157 149
154 157 149
154 157 149
154 157 149
154 157 149
154 157 149
154 157 149
154 157 149
153 157 149
153 157 149
153 157 149
153 157 149
153 157 149
153 157 149
153 157 149
152 157 148
152 157 148
152 157 148
152 157 148
152 157 148
152 157 148
152 157 148
151 157 148
151 157 148
151 157 148
151 158 148
151 157 147
150 157 147
150 157 147
150 158 147
150 157 147
150 158 147
149 158 147
149 158 146
149 158 146
149 158 146
148 158 146
148 158 145
148 158 145
147 158 145
147 157 145
147 158 144
146 157 144
146 157 144
146 157 143
145 157 143
145 157 142
144 157 142
144 157 141
143 157 141
143 157 140
142 157 140
141 157 139
140 156 138
139 156 137
138 156 136
137 156 135
136 155 134
135 155 133
134 154 132
132 154 130
131 153 129
129 152 127
127 152 125
125 151 123
123 149 121
121 147 119
0 153 0
0 155 0
0 155 0
0 156 0
0 156 0
0 155 0
0 155 0
0 155 0
0 154 0
0 154 0
0 153 0
0 153 0
0 152 0
0 152 0
0 152 0
0 151 0
0 150 0
0 150 0
0 149 0
0 149 0
0 148 0
0 148 0
0 147 0
0 146 0
0 146 0
0 145 0
0 144 0
0 144 0
0 143 0
0 142 0
0 141 0
0 141 0
0 140 0
0 139 0
0 138 0
0 137 0
0 136 0
0 135 0
0 133 0
0 132 0
0 131 0
0 130 0
126 0 0
127 0 0
128 0 0
130 0 0
131 0 0
133 0 0
134 0 0
135 0 0
136 0 0
137 0 0
139 0 0
140 0 0
141 0 0
142 0 0
143 0 0
144 0 0
145 0 0
146 0 0
147 0 0
148 0 0
149 0 0
150 0 0
151 0 0
152 0 0
153 0 0
154 0 0
154 0 0
155 0 0
156 0 0
156 0 0
157 0 0
157 0 0
157 0 0
158 0 0
158 0 0
158 0 0
158 0 0
158 0 0
158 0 0
158 0 0
157 0 0
157 0 0
155 0 0
151 0 0
151 124 119
153 126 121
154 128 123
154 130 125
155 132 126
156 133 128
156 134 129
157 136 131
157 137 132
158 138 133
158 139 134
158 140 135
158 141 136
159 142 137
159 143 137
159 143 138
159 144 139
159 145 139
160 145 140
160 146 140
160 146 141
160 147 141
160 147 142
160 148 142
160 148 142
160 149 143
160 149 143
160 149 143
160 150 144
160 150 144
160 150 144
160 150 144
160 151 145
160 151 145
160 151 145
160 151 145
160 152 145
160 152 145
160 152 146
160 152 146
160 152 146
160 153 146
160 153 146
160 153 146
160 153 146
160 153 147
160 153 147
160 154 147
160 154 147
160 154 147
160 154 147
160 154 147
159 154 147
159 154 147
159 154 147
159 155 148
159 155 148
159 155 148
159 155 148
159 155 148
159 155 148
159 155 148
159 155 148
159 155 148
159 155 148
158 155 148
158 155 148
158 156 148
158 156 148
158 156 148
158 156 148
158 156 148
158 156 148
158 156 148
157 156 149
157 156 149
157 156 149
157 156 149
157 156 149
157 156 149
157 156 149
157 156 149
157 156 149
156 156 149
156 156 149
156 156 149
156 156 149
156 156 149
156 156 149
156 156 149
156 156 149
156 156 149
155 156 149
155 156 149
155 156 149
155 156 149
155 156 149
155 156 149
155 156 149
154 156 149
154 157 149
154 156 149
154 156 149
154 157 149
154 156 149
154 157 149
154 157 149
153 157 149
153 157 148
153 157 149
153 157 148
153 157 148
153 157 148
153 157 148
153 157 148
152 157 148
152 157 148
152 157 148
152 157 148
152 157 148
152 157 148
151 157 148
151 157 148
151 157 147
151 157 147
151 157 147
151 157 147
150 157 147
150 157 147
150 157 147
150 157 147
150 157 146
149 157 146
149 157 146
149 157 146
149 157 146
148 157 146
148 157 145
148 157 145
148 157 145
147 157 145
147 157 144
147 157 144
146 157 144
146 157 143
146 157 143
145 157 143
145 157 142
144 157 142
144 157 141
143 157 141
143 156 141
142 156 140
142 156 139
141 156 139
140 156 138
139 156 137
138 155 136
138 155 135
137 155 134
135 155 133
134 154 132
133 154 131
132 153 129
130 152 128
128 152 126
127 151 124
125 150 123
123 149 121
121 146 119
0 152 0
0 154 0
0 155 0
0 155 0
0 155 0
0 155 0
0 155 0
0 154 0
0 154 0
0 153 0
0 153 0
0 153 0
0 152 0
0 152 0
0 151 0
0 151 0
0 150 0
0 150 0
0 149 0
0 148 0
0 148 0
0 147 0
0 147 0
0 146 0
0 145 0
0 145 0
0 144 0
0 143 0
0 143 0
0 142 0
0 141 0
0 140 0
0 139 0
0 138 0
0 137 0
0 136 0
0 135 0
0 134 0
0 133 0
0 132 0
0 130 0
0 129 0
125 0 0
127 0 0
128 0 0
130 0 0
131 0 0
132 0 0
134 0 0
135 0 0
136 0 0
137 0 0
138 0 0
139 0 0
140 0 0
141 0 0
142 0 0
143 0 0
144 0 0
145 0 0
146 0 0
147 0 0
148 0 0
149 0 0
150 0 0
151 0 0
152 0 0
153 0 0
154 0 0
155 0 0
155 0 0
156 0 0
157 0 0
157 0 0
157 0 0
157 0 0
157 0 0
157 0 0
157 0 0
157 0 0
157 0 0
157 0 0
157 0 0
156 0 0
155 0 0
151 0 0
151 124 118
152 126 120
153 128 122
154 129 124
155 131 125
155 132 127
156 134 128
156 135 130
157 136 131
157 137 132
157 138 133
158 139 134
158 140 135
158 141 136
158 142 136
159 143 137
159 143 138
159 144 138
159 144 139
159 145 139
159 146 140
159 146 140
159 147 141
159 147 141
159 147 142
160 148 142
160 148 142
160 148 142
160 149 143
160 149 143
160 149 143
160 150 144
160 150 144
160 150 144
160 151 144
160 151 144
160 151 145
160 151 145
160 151 145
160 152 145
160 152 145
160 152 145
160 152 146
160 152 146
159 153 146
159 153 146
159 153 146
159 153 146
159 153 146
159 153 146
159 154 146
159 154 146
159 154 147
159 154 147
159 154 147
159 154 147
159 154 147
159 154 147
159 154 147
159 154 147
158 155 147
158 155 147
158 155 147
158 155 147
158 155 147
158 155 148
158 155 148
158 155 148
158 155 148
158 155 148
158 155 148
157 155 148
157 155 148
157 155 148
157 155 148
157 155 148
157 155 148
157 155 148
157 156 148
157 156 148
156 156 148
156 156 148
156 156 148
156 156 148
156 156 148
156 156 148
156 156 148
156 156 148
155 156 148
155 156 148
155 156 148
155 156 148
155 156 148
155 156 148
155 156 148
155 156 148
154 156 148
154 156 148
154 156 148
154 156 148
154 156 148
154 156 148
154 156 148
153 156 148
153 156 148
153 156 148
153 156 148
153 156 148
153 156 148
153 156 148
153 156 148
152 156 148
152 156 148
152 156 148
152 156 148
152 156 148
152 156 147
151 156 147
151 156 147
151 156 147
151 156 147
151 156 147
151 156 147
151 156 147
150 156 147
150 156 147
150 156 146
150 156 146
150 156 146
149 156 146
149 156 146
149 156 146
149 156 146
149 156 145
148 156 145
148 157 145
148 157 145
147 156 145
147 156 144
147 156 144
147 156 144
146 156 144
146 156 143
146 156 143
145 156 143
145 156 142
144 156 142
144 156 142
144 156 141
143 156 141
143 156 140
142 156 140
141 156 139
141 156 138
140 155 138
139 155 137
138 155 136
138 155 135
137 154 134
136 154 133
134 154 132
133 153 131
132 153 130
131 152 129
129 152 127
128 151 125
126 150 124
124 149 122
123 148 120
121 146 118
0 152 0
0 154 0
0 154 0
0 155 0
0 155 0
0 154 0
0 154 0
0 154 0
0 153 0
0 153 0
0 153 0
0 152 0
0 152 0
0 151 0
0 151 0
0 150 0
0 150 0
0 149 0
0 149 0
0 148 0
0 148 0
0 147 0
0 146 0
0 146 0
0 145 0
0 144 0
0 144 0
0 143 0
0 142 0
0 141 0
0 141 0
0 140 0
0 139 0
0 138 0
0 137 0
0 136 0
0 135 0
0 134 0
0 133 0
0 131 0
0 130 0
0 129 0
125 0 0
126 0 0
128 0 0
129 0 0
131 0 0
132 0 0
133 0 0
134 0 0
135 0 0
137 0 0
138 0 0
139 0 0
140 0 0
141 0 0
142 0 0
143 0 0
144 0 0
145 0 0
146 0 0
147 0 0
148 0 0
149 0 0
150 0 0
151 0 0
152 0 0
153 0 0
154 0 0
155 0 0
155 0 0
156 0 0
156 0 0
156 0 0
157 0 0
157 0 0
157 0 0
157 0 0
157 0 0
157 0 0
157 0 0
157 0 0
156 0 0
156 0 0
154 0 0
150 0 0
150 124 118
152 125 120
153 127 122
153 129 123
154 130 125
155 132 126
155 133 127
156 134 129
156 135 130
156 136 131
157 138 132
157 138 133
157 139 134
158 140 135
158 141 135
158 142 136
158 142 137
158 143 137
158 144 138
159 144 139
159 145 139
159 145 139
159 146 140
159 146 140
159 147 141
159 147 141
159 147 141
159 148 142
159 148 142
159 148 142
159 149 143
159 149 143
159 149 143
159 150 143
159 150 144
159 150 144
159 150 144
159 151 144
159 151 144
159 151 144
159 151 145
159 152 145
159 152 145
159 152 145
159 152 145
159 152 145
159 152 145
159 153 145
159 153 146
159 153 146
159 153 146
159 153 146
159 153 146
159 153 146
159 153 146
158 154 146
158 154 146
158 154 146
158 154 146
158 154 147
158 154 147
158 154 147
158 154 147
158 154 147
158 154 147
158 154 147
158 155 147
157 155 147
157 155 147
157 155 147
157 155 147
157 155 147
157 155 147
157 155 147
157 155 147
157 155 148
156 155 148
156 155 148
156 155 148
156 155 148
156 155 148
156 155 148
156 155 148
156 155 148
155 155 148
155 155 148
155 155 148
155 155 148
155 155 148
155 155 148
155 155 148
155 155 148
154 155 148
154 156 148
154 156 148
154 155 148
154 156 148
154 156 148
154 156 148
154 156 148
153 156 148
153 156 148
153 156 148
153 156 148
153 156 147
153 156 147
153 156 147
152 156 147
152 156 147
152 156 147
152 156 147
152 156 147
152 156 147
152 156 147
152 156 147
151 156 147
151 156 147
151 156 147
151 156 147
151 156 147
151 156 147
150 156 146
150 156 146
150 156 146
150 156 146
150 156 146
149 156 146
149 156 146
149 156 146
149 156 145
149 156 145
148 156 145
148 156 145
148 156 145
148 156 145
147 156 144
147 156 144
147 156 144
147 156 144
146 156 143
146 156 143
146 156 143
145 156 143
145 156 142
145 156 142
144 156 142
144 156 141
143 156 141
143 156 140
142 155 140
142 155 139
141 155 139
140 155 138
140 155 137
139 155 137
138 155 136
137 154 135
137 154 134
136 154 133
135 154 132
134 153 131
132 153 130
131 152 129
130 152 128
129 151 126
127 151 125
126 150 123
124 149 122
122 148 120
120 145 118
0 151 0
0 153 0
0 154 0
0 154 0
0 154 0
0 154 0
0 154 0
0 153 0
0 153 0
0 153 0
0 152 0
0 152 0
0 151 0
0 151 0
0 150 0
0 150 0
0 149 0
0 149 0
0 148 0
0 148 0
0 147 0
0 147 0
0 146 0
0 145 0
0 145 0
0 144 0
0 143 0
0 143 0
0 142 0
0 141 0
0 140 0
0 139 0
0 139 0
0 138 0
0 137 0
0 136 0
0 135 0
0 133 0
0 132 0
0 131 0
0 130 0
0 128 0
124 0 0
126 0 0
127 0 0
129 0 0
130 0 0
131 0 0
133 0 0
134 0 0
135 0 0
136 0 0
137 0 0
138 0 0
139 0 0
140 0 0
141 0 0
142 0 0
143 0 0
145 0 0
145 0 0
147 0 0
148 0 0
149 0 0
150 0 0
151 0 0
152 0 0
153 0 0
154 0 0
154 0 0
155 0 0
156 0 0
156 0 0
156 0 0
156 0 0
157 0 0
157 0 0
157 0 0
157 0 0
157 0 0
157 0 0
156 0 0
156 0 0
155 0 0
153 0 0
150 0 0
150 123 118
151 125 119
152 127 121
153 128 122
153 130 124
154 131 125
155 132 127
155 133 128
156 135 129
156 136 130
156 137 131
156 138 132
157 139 133
157 139 134
157 140 134
157 141 135
158 142 136
158 142 137
158 143 137
158 143 138
158 144 138
158 145 139
158 145 139
158 146 140
158 146 140
159 146 140
159 147 141
159 147 141
159 148 141
159 148 142
159 148 142
159 148 142
159 149 142
159 149 143
159 149 143
159 150 143
159 150 143
159 150 143
159 150 144
159 151 144
159 151 144
159 151 144
159 151 144
159 151 144
159 152 144
159 152 145
159 152 145
159 152 145
159 152 145
158 152 145
158 152 145
158 153 145
158 153 145
158 153 146
158 153 146
158 153 146
158 153 146
158 153 146
158 153 146
158 154 146
158 154 146
158 154 146
158 154 146
157 154 146
157 154 146
157 154 146
157 154 147
157 154 147
157 154 147
157 154 147
157 154 147
157 154 147
157 154 147
156 154 147
156 155 147
156 155 147
156 155 147
156 155 147
156 155 147
156 155 147
156 155 147
155 155 147
155 155 147
155 155 147
155 155 147
155 155 147
155 155 147
155 155 147
155 155 147
154 155 147
154 155 147
154 155 147
154 155 147
154 155 147
154 155 147
154 155 147
154 155 147
153 155 147
153 155 147
153 155 147
153 155 147
153 155 147
153 155 147
153 155 147
152 155 147
152 155 147
152 155 147
152 155 147
152 155 147
152 155 147
152 155 147
151 155 147
151 155 147
151 155 146
151 155 146
151 155 146
151 155 146
150 155 146
150 155 146
150 155 146
150 155 146
150 155 146
150 155 146
149 155 146
149 155 145
149 155 145
149 155 145
149 155 145
148 155 145
148 155 145
148 155 145
148 155 144
147 155 144
147 155 144
147 155 144
147 155 144
146 155 143
146 155 143
146 155 143
146 155 143
145 155 142
145 155 142
145 155 142
144 155 141
144 155 141
143 155 141
143 155 140
142 155 140
142 155 139
141 155 139
141 155 138
140 155 138
140 155 137
139 154 136
138 154 136
137 154 135
137 154 134
136 153 133
135 153 133
134 153 132
133 153 130
132 152 129
131 152 128
129 151 127
128 151 126
126 150 124
125 149 123
123 148 121
122 147 119
120 145 118
0 150 0
0 152 0
0 153 0
0 153 0
0 153 0
0 153 0
0 153 0
0 153 0
0 152 0
0 152 0
0 152 0
0 151 0
0 151 0
0 150 0
0 150 0
0 149 0
0 149 0
0 148 0
0 148 0
0 147 0
0 147 0
0 146 0
0 146 0
0 145 0
0 144 0
0 144 0
0 143 0
0 142 0
0 141 0
0 141 0
0 140 0
0 139 0
0 138 0
0 137 0
0 136 0
0 135 0
0 134 0
0 133 0
0 132 0
0 131 0
0 129 0
0 128 0
124 0 0
126 0 0
127 0 0
128 0 0
130 0 0
131 0 0
132 0 0
133 0 0
135 0 0
136 0 0
137 0 0
138 0 0
139 0 0
140 0 0
141 0 0
142 0 0
143 0 0
144 0 0
145 0 0
146 0 0
147 0 0
148 0 0
149 0 0
150 0 0
151 0 0
152 0 0
153 0 0
154 0 0
155 0 0
155 0 0
156 0 0
156 0 0
156 0 0
156 0 0
156 0 0
156 0 0
156 0 0
156 0 0
156 0 0
156 0 0
155 0 0
154 0 0
153 0 0
149 0 0
149 123 117
151 125 119
152 126 120
152 128 122
153 129 123
154 130 125
154 132 126
154 133 127
155 134 128
155 135 129
156 136 130
156 137 131
156 138 132
157 139 133
157 139 134
157 140 134
157 141 135
157 141 136
157 142 136
157 143 137
158 143 137
158 144 138
158 144 138
158 145 139
158 145 139
158 146 140
158 146 140
158 146 140
158 147 140
158 147 141
158 148 141
158 148 141
158 148 142
158 149 142
158 149 142
158 149 142
158 149 143
158 150 143
158 150 143
158 150 143
158 150 143
158 150 143
158 151 144
158 151 144
158 151 144
158 151 144
158 151 144
158 152 144
158 152 144
158 152 145
158 152 145
158 152 145
158 152 145
158 152 145
158 153 145
158 153 145
158 153 145
158 153 145
157 153 145
157 153 145
157 153 146
157 153 146
157 153 146
157 153 146
157 154 146
157 154 146
157 154 146
157 154 146
157 154 146
156 154 146
156 154 146
156 154 146
156 154 146
156 154 146
156 154 146
156 154 146
156 154 146
156 154 146
155 154 147
155 154 146
155 154 147
155 154 147
155 154 147
155 154 147
155 154 147
155 155 147
154 155 147
154 155 147
154 155 147
154 155 147
154 155 147
154 155 147
154 155 147
153 155 147
153 155 147
153 155 147
153 155 147
153 155 147
153 155 147
153 155 147
153 155 147
152 155 147
152 155 147
152 155 146
152 155 146
152 155 146
152 155 146
152 155 146
151 155 146
151 155 146
151 155 146
151 155 146
151 155 146
151 155 146
150 155 146
150 155 146
150 155 146
150 155 146
150 155 145
150 155 145
149 155 145
149 155 145
149 155 145
149 155 145
149 155 145
148 155 145
148 155 145
148 155 144
148 155 144
148 155 144
147 155 144
147 155 144
147 155 144
147 155 143
146 155 143
146 155 143
146 155 143
145 155 142
145 155 142
145 155 142
145 155 142
144 155 141
144 155 141
143 155 141
143 155 140
143 155 140
142 154 139
142 154 139
141 154 139
141 154 138
140 154 137
139 154 137
139 154 136
138 154 136
137 154 135
137 153 134
136 153 133
135 153 133
134 153 132
133 152 131
132 152 130
131 152 129
130 151 127
129 151 126
127 150 125
126 149 123
124 149 122
123 148 121
121 147 119
120 145 117
0 150 0
0 152 0
0 153 0
0 153 0
0 153 0
0 153 0
0 153 0
0 152 0
0 152 0
0 152 0
0 151 0
0 151 0
0 151 0
0 150 0
0 150 0
0 149 0
0 149 0
0 148 0
0 148 0
0 147 0
0 146 0
0 146 0
0 145 0
0 145 0
0 144 0
0 143 0
0 143 0
0 142 0
0 141 0
0 140 0
0 139 0
0 139 0
0 138 0
0 137 0
0 136 0
0 135 0
0 134 0
0 133 0
0 131 0
0 130 0
0 129 0
0 128 0
124 0 0
125 0 0
127 0 0
128 0 0
129 0 0
131 0 0
132 0 0
133 0 0
134 0 0
135 0 0
136 0 0
138 0 0
139 0 0
140 0 0
141 0 0
142 0 0
143 0 0
144 0 0
145 0 0
146 0 0
147 0 0
148 0 0
149 0 0
150 0 0
151 0 0
152 0 0
153 0 0
154 0 0
154 0 0
155 0 0
155 0 0
156 0 0
156 0 0
156 0 0
156 0 0
156 0 0
156 0 0
156 0 0
156 0 0
155 0 0
155 0 0
154 0 0
152 0 0
149 0 0
149 123 117
150 124 118
151 126 120
152 127 121
152 128 123
153 130 124
153 131 125
154 132 126
154 133 127
155 134 128
155 135 129
155 136 130
156 137 131
156 138 132
156 139 133
156 139 134
157 140 134
157 141 135
157 141 135
157 142 136
157 143 136
157 143 137
157 144 137
157 144 138
157 145 138
158 145 139
158 145 139
158 146 139
158 146 140
158 147 140
158 147 140
158 147 141
158 148 141
158 148 141
158 148 141
158 149 142
158 149 142
158 149 142
158 149 142
158 149 142
158 150 143
158 150 143
158 150 143
158 150 143
158 151 143
158 151 143
158 151 143
158 151 144
158 151 144
158 151 144
158 152 144
157 152 144
157 152 144
157 152 144
157 152 144
157 152 145
157 152 145
157 152 145
157 153 145
157 153 145
157 153 145
157 153 145
157 153 145
157 153 145
156 153 145
156 153 145
156 153 145
156 153 145
156 153 145
156 153 146
156 153 146
156 154 146
156 154 146
156 154 146
155 154 146
155 154 146
155 154 146
155 154 146
155 154 146
155 154 146
155 154 146
155 154 146
154 154 146
154 154 146
154 154 146
154 154 146
154 154 146
154 154 146
154 154 146
154 154 146
153 154 146
153 154 146
153 154 146
153 154 146
153 154 146
153 154 146
153 154 146
152 154 146
152 154 146
152 154 146
152 154 146
152 154 146
152 154 146
152 154 146
151 154 146
151 154 146
151 154 146
151 154 146
151 154 146
151 154 146
151 154 146
150 154 146
150 154 145
150 154 145
150 154 145
150 154 145
150 154 145
149 154 145
149 154 145
149 154 145
149 154 145
149 154 145
148 154 144
148 154 144
148 154 144
148 154 144
148 155 144
147 154 144
147 154 144
147 155 144
147 154 143
147 155 143
146 155 143
146 155 143
146 154 142
145 154 142
145 154 142
145 154 142
145 154 142
144 154 141
144 154 141
143 154 141
143 154 140
143 154 140
142 154 139
142 154 139
141 154 139
141 154 138
140 154 138
140 154 137
139 154 137
139 153 136
138 153 135
137 153 135
137 153 134
136 153 133
135 152 133
134 152 132
133 152 131
132 152 130
131 151 129
130 151 128
129 151 127
128 150 125
127 149 124
125 149 123
124 148 122
122 147 120
121 146 119
120 144 117
0 149 0
0 151 0
0 152 0
0 152 0
0 152 0
0 152 0
0 152 0
0 152 0
0 152 0
0 151 0
0 151 0
0 151 0
0 150 0
0 150 0
0 149 0
0 149 0
0 148 0
0 148 0
0 147 0
0 147 0
0 146 0
0 145 0
0 145 0
0 144 0
0 144 0
0 143 0
0 142 0
0 141 0
0 141 0
0 140 0
0 139 0
0 138 0
0 137 0
0 136 0
0 135 0
0 134 0
0 133 0
0 132 0
0 131 0
0 130 0
0 129 0
0 127 0
123 0 0
125 0 0
126 0 0
128 0 0
129 0 0
130 0 0
131 0 0
133 0 0
134 0 0
135 0 0
136 0 0
137 0 0
138 0 0
139 0 0
140 0 0
141 0 0
142 0 0
143 0 0
144 0 0
145 0 0
146 0 0
148 0 0
149 0 0
150 0 0
151 0 0
152 0 0
153 0 0
153 0 0
154 0 0
155 0 0
155 0 0
155 0 0
156 0 0
156 0 0
156 0 0
156 0 0
156 0 0
155 0 0
155 0 0
155 0 0
154 0 0
153 0 0
152 0 0
148 0 0
149 122 117
150 124 118
151 125 119
151 127 121
152 128 122
152 129 123
153 130 124
153 131 126
154 132 127
154 134 128
155 134 129
155 135 130
155 136 130
155 137 131
156 138 132
156 139 133
156 139 133
156 140 134
156 141 135
156 141 135
157 142 136
157 142 136
157 143 137
157 143 137
157 144 137
157 144 138
157 145 138
157 145 139
157 146 139
157 146 139
157 146 140
157 147 140
157 147 140
158 147 140
157 148 141
157 148 141
158 148 141
157 148 141
158 149 142
157 149 142
157 149 142
157 149 142
157 150 142
157 150 142
157 150 143
157 150 143
157 150 143
157 151 143
157 151 143
157 151 143
157 151 143
157 151 144
157 151 144
157 152 144
157 152 144
157 152 144
157 152 144
157 152 144
157 152 144
157 152 144
156 152 144
156 152 144
156 152 144
156 153 145
156 153 145
156 153 145
156 153 145
156 153 145
156 153 145
156 153 145
155 153 145
155 153 145
155 153 145
155 153 145
155 153 145
155 153 145
155 153 145
155 153 145
155 153 145
154 153 145
154 153 146
154 154 146
154 154 146
154 154 146
154 154 146
154 154 146
154 154 146
153 154 146
153 154 146
153 154 146
153 154 146
153 154 146
153 154 146
153 154 146
152 154 146
152 154 146
152 154 146
152 154 146
152 154 146
152 154 146
152 154 146
151 154 145
151 154 145
151 154 145
151 154 145
151 154 145
151 154 145
151 154 145
150 154 145
150 154 145
150 154 145
150 154 145
150 154 145
150 154 145
149 154 145
149 154 145
149 154 145
149 154 144
149 154 144
149 154 144
148 154 144
148 154 144
148 154 144
148 154 144
148 154 144
147 154 143
147 154 143
147 154 143
147 154 143
146 154 143
146 154 143
146 154 142
146 154 142
145 154 142
145 154 142
145 154 141
144 154 141
144 154 141
144 154 141
143 154 140
143 154 140
143 154 140
142 154 139
142 154 139
142 154 139
141 153 138
141 153 138
140 153 137
140 153 137
139 153 136
138 153 136
138 153 135
137 153 135
137 153 134
136 152 133
135 152 133
134 152 132
133 152 131
133 151 130
132 151 129
131 151 128
130 150 127
128 150 126
127 149 125
126 149 124
125 148 122
123 148 121
122 147 120
121 146 118
119 144 117
0 149 0
0 151 0
0 152 0
0 152 0
0 152 0
0 152 0
0 152 0
0 152 0
0 151 0
0 151 0
0 150 0
0 150 0
0 150 0
0 149 0
0 149 0
0 148 0
0 148 0
0 147 0
0 147 0
0 146 0
0 146 0
0 145 0
0 144 0
0 144 0
0 143 0
0 142 0
0 142 0
0 141 0
0 140 0
0 139 0
0 139 0
0 138 0
0 137 0
0 136 0
0 135 0
0 134 0
0 133 0
0 132 0
0 131 0
0 130 0
0 128 0
0 127 0
123 0 0
124 0 0
126 0 0
127 0 0
128 0 0
130 0 0
131 0 0
132 0 0
133 0 0
134 0 0
136 0 0
137 0 0
138 0 0
139 0 0
140 0 0
141 0 0
142 0 0
143 0 0
144 0 0
145 0 0
146 0 0
147 0 0
148 0 0
149 0 0
150 0 0
151 0 0
152 0 0
153 0 0
154 0 0
154 0 0
155 0 0
155 0 0
155 0 0
155 0 0
155 0 0
155 0 0
155 0 0
155 0 0
155 0 0
154 0 0
154 0 0
153 0 0
151 0 0
148 0 0
148 122 116
149 123 117
150 125 119
151 126 120
151 127 121
152 128 123
152 130 124
153 131 125
153 132 126
154 133 127
154 134 128
154 135 129
155 136 130
155 136 130
155 137 131
155 138 132
155 139 133
156 139 133
156 140 134
156 141 134
156 141 135
156 142 135
156 142 136
156 143 136
156 143 137
157 144 137
157 144 138
157 145 138
157 145 138
157 145 139
157 146 139
157 146 139
157 146 139
157 147 140
157 147 140
157 147 140
157 148 140
157 148 141
157 148 141
157 148 141
157 149 141
157 149 141
157 149 142
157 149 142
157 149 142
157 150 142
157 150 142
157 150 142
157 150 143
157 150 143
157 151 143
157 151 143
157 151 143
157 151 143
157 151 143
156 151 143
156 151 143
156 152 144
156 152 144
156 152 144
156 152 144
156 152 144
156 152 144
156 152 144
156 152 144
156 152 144
156 152 144
155 152 144
155 152 144
155 153 144
155 153 145
155 153 145
155 153 145
155 153 145
155 153 145
155 153 145
154 153 145
154 153 145
154 153 145
154 153 145
154 153 145
154 153 145
154 153 145
154 153 145
153 153 145
153 153 145
153 153 145
153 153 145
153 153 145
153 153 145
153 153 145
152 153 145
152 153 145
152 153 145
152 153 145
152 153 145
152 153 145
152 153 145
151 153 145
151 153 145
151 153 145
151 153 145
151 153 145
151 153 145
151 153 145
150 153 145
150 153 145
150 153 145
150 153 145
150 153 145
150 153 144
149 153 144
149 153 144
149 153 144
149 154 144
149 154 144
149 153 144
148 154 144
148 153 144
148 154 144
148 153 143
148 154 143
147 154 143
147 153 143
147 154 143
147 154 143
147 154 143
146 154 142
146 153 142
146 154 142
146 153 142
145 154 142
145 153 142
145 153 141
144 153 141
144 153 141
144 153 141
144 153 140
143 153 140
143 153 140
142 153 139
142 153 139
142 153 139
141 153 138
141 153 138
140 153 138
140 153 137
139 153 137
139 153 136
138 153 136
138 152 135
137 152 135
137 152 134
136 152 133
135 152 133
134 152 132
134 151 131
133 151 130
132 151 129
131 151 128
130 150 127
129 150 126
128 149 125
127 149 124
125 148 123
124 148 122
123 147 121
122 146 119
120 145 118
119 143 116
0 148 0
0 150 0
0 151 0
0 151 0
0 151 0
0 151 0
0 151 0
0 151 0
0 151 0
0 150 0
0 150 0
0 150 0
0 149 0
0 149 0
0 148 0
0 148 0
0 147 0
0 147 0
0 146 0
0 146 0
0 145 0
0 145 0
0 144 0
0 143 0
0 143 0
0 142 0
0 141 0
0 141 0
0 140 0
0 139 0
0 138 0
0 137 0
0 137 0
0 136 0
0 135 0
0 134 0
0 133 0
0 131 0
0 130 0
0 129 0
0 128 0
0 127 0
123 0 0
124 0 0
125 0 0
127 0 0
128 0 0
129 0 0
131 0 0
132 0 0
133 0 0
134 0 0
135 0 0
136 0 0
137 0 0
138 0 0
139 0 0
140 0 0
141 0 0
142 0 0
143 0 0
145 0 0
146 0 0
147 0 0
148 0 0
149 0 0
150 0 0
151 0 0
152 0 0
153 0 0
154 0 0
154 0 0
154 0 0
155 0 0
155 0 0
155 0 0
155 0 0
155 0 0
155 0 0
155 0 0
154 0 0
154 0 0
153 0 0
152 0 0
151 0 0
148 0 0
148 122 116
149 123 117
150 124 118
150 126 120
151 127 121
152 128 122
152 129 123
152 130 124
153 131 125
153 132 126
153 133 127
154 134 128
154 135 129
154 136 130
154 137 130
155 137 131
155 138 132
155 139 132
155 139 133
155 140 134
156 140 134
156 141 135
156 142 135
156 142 136
156 143 136
156 143 136
156 144 137
156 144 137
156 144 138
156 145 138
156 145 138
156 145 138
157 146 139
157 146 139
157 147 139
157 147 140
157 147 140
157 147 140
157 148 140
157 148 140
157 148 141
157 148 141
157 149 141
157 149 141
157 149 141
156 149 141
156 149 142
156 150 142
156 150 142
156 150 142
156 150 142
156 150 142
156 150 142
156 151 143
156 151 143
156 151 143
156 151 143
156 151 143
156 151 143
156 151 143
156 151 143
156 151 143
156 152 143
155 152 143
155 152 144
155 152 144
155 152 144
155 152 144
155 152 144
155 152 144
155 152 144
155 152 144
154 152 144
154 152 144
154 152 144
154 152 144
154 152 144
154 152 144
154 153 144
154 153 144
154 153 144
153 153 144
153 153 144
153 153 145
153 153 145
153 153 145
153 153 145
153 153 145
152 153 145
152 153 145
152 153 145
152 153 145
152 153 145
152 153 145
152 153 145
151 153 145
151 153 145
151 153 145
151 153 145
151 153 144
151 153 144
151 153 144
150 153 144
150 153 144
150 153 144
150 153 144
150 153 144
150 153 144
149 153 144
149 153 144
149 153 144
149 153 144
149 153 144
149 153 144
148 153 144
148 153 143
148 153 143
148 153 143
148 153 143
147 153 143
147 153 143
147 153 143
147 153 143
147 153 143
146 153 142
146 153 142
146 153 142
146 153 142
145 153 142
145 153 142
145 153 141
145 153 141
144 153 141
144 153 141
144 153 140
144 153 140
143 153 140
143 153 140
143 153 139
142 153 139
142 153 139
141 153 138
141 153 138
141 153 138
140 153 137
140 152 137
139 152 136
139 152 136
138 152 135
138 152 135
137 152 134
136 152 134
136 152 133
135 151 132
134 151 132
134 151 131
133 151 130
132 150 129
131 150 129
130 150 128
129 150 127
128 149 126
127 149 125
126 148 124
125 148 122
124 147 121
122 147 120
121 146 119
120 145 117
119 143 116
0 148 0
0 149 0
0 150 0
0 151 0
0 151 0
0 151 0
0 151 0
0 151 0
0 150 0
0 150 0
0 150 0
0 149 0
0 149 0
0 148 0
0 148 0
0 148 0
0 147 0
0 147 0
0 146 0
0 145 0
0 145 0
0 144 0
0 144 0
0 143 0
0 142 0
0 142 0
0 141 0
0 140 0
0 140 0
0 139 0
0 138 0
0 137 0
0 136 0
0 135 0
0 134 0
0 133 0
0 132 0
0 131 0
0 130 0
0 129 0
0 128 0
0 126 0
122 0 0
124 0 0
125 0 0
126 0 0
128 0 0
129 0 0
130 0 0
131 0 0
133 0 0
134 0 0
135 0 0
136 0 0
137 0 0
138 0 0
139 0 0
140 0 0
141 0 0
142 0 0
143 0 0
144 0 0
145 0 0
146 0 0
148 0 0
149 0 0
150 0 0
151 0 0
152 0 0
153 0 0
153 0 0
154 0 0
154 0 0
154 0 0
155 0 0
155 0 0
155 0 0
155 0 0
154 0 0
154 0 0
154 0 0
153 0 0
153 0 0
152 0 0
150 0 0
147 0 0
147 121 115
148 123 117
149 124 118
150 125 119
150 126 120
151 127 121
151 129 123
152 130 124
152 131 125
153 132 126
153 133 126
153 133 127
153 134 128
154 135 129
154 136 130
154 137 130
154 137 131
155 138 132
155 139 132
155 139 133
155 140 133
155 140 134
155 141 134
155 141 135
156 142 135
156 142 136
156 143 136
156 143 136
156 144 137
156 144 137
156 144 137
156 145 138
156 145 138
156 146 138
156 146 139
156 146 139
156 147 139
156 147 139
156 147 140
156 147 140
156 148 140
156 148 140
156 148 140
156 148 140
156 149 141
156 149 141
156 149 141
156 149 141
156 149 141
156 149 141
156 150 142
156 150 142
156 150 142
156 150 142
156 150 142
156 150 142
156 150 142
156 151 142
155 151 143
155 151 143
155 151 143
155 151 143
155 151 143
155 151 143
155 151 143
155 151 143
155 151 143
155 151 143
155 152 143
154 152 143
154 152 143
154 152 143
154 152 143
154 152 144
154 152 144
154 152 144
154 152 144
153 152 144
153 152 144
153 152 144
153 152 144
153 152 144
153 152 144
153 152 144
153 152 144
152 152 144
152 152 144
152 152 144
152 152 144
152 152 144
152 152 144
152 152 144
151 153 144
151 152 144
151 153 144
151 153 144
151 152 144
151 153 144
150 153 144
150 153 144
150 153 144
150 153 144
150 153 144
150 153 144
150 153 144
149 153 144
149 153 144
149 153 144
149 153 144
149 153 143
149 153 143
148 153 143
148 153 143
148 153 143
148 153 143
148 153 143
148 153 143
147 153 143
147 153 143
147 153 142
147 153 142
147 153 142
146 153 142
146 153 142
146 153 142
146 153 142
145 153 141
145 153 141
145 153 141
145 153 141
144 153 141
144 153 140
144 153 140
144 153 140
143 152 140
143 152 139
143 152 139
142 152 139
142 152 139
142 152 138
141 152 138
141 152 138
140 152 137
140 152 137
139 152 137
139 152 136
138 152 136
138 152 135
138 152 135
137 151 134
136 151 134
136 151 133
135 151 132
134 151 132
134 151 131
133 150 130
132 150 130
131 150 129
130 150 128
130 149 127
129 149 126
128 149 125
127 148 124
126 148 123
124 147 122
123 147 121
122 146 120
121 145 118
120 144 117
118 143 116
0 147 0
0 149 0
0 150 0
0 150 0
0 151 0
0 151 0
0 150 0
0 150 0
0 150 0
0 150 0
0 149 0
0 149 0
0 148 0
0 148 0
0 148 0
0 147 0
0 147 0
0 146 0
0 146 0
0 145 0
0 145 0
0 144 0
0 143 0
0 143 0
0 142 0
0 141 0
0 141 0
0 140 0
0 139 0
0 138 0
0 138 0
0 137 0
0 136 0
0 135 0
0 134 0
0 133 0
0 132 0
0 131 0
0 130 0
0 128 0
0 127 0
0 126 0
122 0 0
123 0 0
125 0 0
126 0 0
127 0 0
129 0 0
130 0 0
131 0 0
132 0 0
133 0 0
134 0 0
136 0 0
137 0 0
137 0 0
139 0 0
140 0 0
141 0 0
142 0 0
143 0 0
144 0 0
145 0 0
146 0 0
147 0 0
148 0 0
149 0 0
150 0 0
151 0 0
152 0 0
153 0 0
154 0 0
154 0 0
154 0 0
154 0 0
154 0 0
154 0 0
154 0 0
154 0 0
154 0 0
153 0 0
153 0 0
152 0 0
152 0 0
150 0 0
147 0 0
147 121 115
148 122 116
149 124 118
149 125 119
150 126 120
151 127 121
151 128 122
151 129 123
152 130 124
152 131 125
152 132 126
153 133 127
153 134 127
153 134 128
154 135 129
154 136 130
154 137 130
154 137 131
154 138 132
154 139 132
155 139 133
155 140 133
155 140 134
155 141 134
155 141 134
155 142 135
155 142 135
155 143 136
155 143 136
155 144 136
155 144 137
156 144 137
156 145 137
156 145 138
156 145 138
156 146 138
156 146 138
156 146 139
156 147 139
156 147 139
156 147 139
156 147 140
156 148 140
156 148 140
156 148 140
156 148 140
156 148 140
156 149 141
156 149 141
156 149 141
156 149 141
155 149 141
155 149 141
155 150 141
155 150 141
155 150 142
155 150 142
155 150 142
155 150 142
155 150 142
155 151 142
155 151 142
155 151 142
155 151 142
154 151 142
154 151 143
154 151 143
154 151 143
154 151 143
154 151 143
154 151 143
154 151 143
154 151 143
154 151 143
153 152 143
153 152 143
153 152 143
153 152 143
153 152 143
153 152 143
153 152 143
153 152 143
152 152 143
152 152 144
152 152 144
152 152 144
152 152 144
152 152 144
151 152 144
151 152 144
151 152 144
151 152 144
151 152 144
151 152 144
151 152 144
151 152 144
150 152 144
150 152 144
150 152 143
150 152 143
150 152 143
150 152 143
149 152 143
149 152 143
149 152 143
149 152 143
149 152 143
149 152 143
148 152 143
148 152 143
148 152 143
148 152 143
148 152 143
148 152 143
147 152 142
147 152 142
147 152 142
147 152 142
147 152 142
146 152 142
146 152 142
146 152 142
146 152 141
146 152 141
145 152 141
145 152 141
145 152 141
145 152 141
144 152 140
144 152 140
144 152 140
143 152 140
143 152 140
143 152 139
143 152 139
142 152 139
142 152 139
142 152 138
141 152 138
141 152 138
140 152 137
140 152 137
140 152 137
139 152 136
139 151 136
138 151 135
138 151 135
137 151 134
137 151 134
136 151 133
136 151 133
135 151 132
134 150 132
134 150 131
133 150 130
132 150 130
132 150 129
131 149 128
130 149 127
129 149 126
128 148 125
127 148 124
126 148 124
125 147 122
124 147 121
123 146 120
122 146 119
120 145 118
119 144 117
118 142 115
0 147 0
0 148 0
0 149 0
0 150 0
0 150 0
0 150 0
0 150 0
0 150 0
0 149 0
0 149 0
0 149 0
0 148 0
0 148 0
0 148 0
0 147 0
0 147 0
0 146 0
0 146 0
0 145 0
0 145 0
0 144 0
0 144 0
0 143 0
0 142 0
0 142 0
0 141 0
0 140 0
0 140 0
0 139 0
0 138 0
0 137 0
0 136 0
0 135 0
0 134 0
0 134 0
0 132 0
0 131 0
0 130 0
0 129 0
0 128 0
0 127 0
0 126 0
122 0 0
123 0 0
124 0 0
126 0 0
127 0 0
128 0 0
129 0 0
131 0 0
132 0 0
133 0 0
134 0 0
135 0 0
136 0 0
137 0 0
138 0 0
139 0 0
140 0 0
141 0 0
142 0 0
143 0 0
144 0 0
146 0 0
147 0 0
148 0 0
149 0 0
150 0 0
151 0 0
152 0 0
153 0 0
153 0 0
154 0 0
154 0 0
154 0 0
154 0 0
154 0 0
154 0 0
154 0 0
153 0 0
153 0 0
153 0 0
152 0 0
151 0 0
149 0 0
146 0 0
147 121 115
148 122 116
148 123 117
149 124 118
150 125 119
150 126 120
151 127 121
151 128 122
151 129 123
152 130 124
152 131 125
152 132 126
152 133 127
153 134 127
153 135 128
153 135 129
153 136 130
154 137 130
154 137 131
154 138 131
154 138 132
154 139 132
154 140 133
154 140 133
155 141 134
155 141 134
155 142 135
155 142 135
155 143 135
155 143 136
155 143 136
155 144 136
155 144 137
155 144 137
155 145 137
155 145 138
155 145 138
155 146 138
155 146 138
155 146 139
155 147 139
155 147 139
155 147 139
155 147 139
155 147 139
155 148 140
155 148 140
155 148 140
155 148 140
155 149 140
155 149 140
155 149 141
155 149 141
155 149 141
155 149 141
155 149 141
155 150 141
155 150 141
155 150 141
155 150 142
154 150 142
154 150 142
154 150 142
154 150 142
154 150 142
154 151 142
154 150 142
154 151 142
154 151 142
154 151 142
153 151 142
153 151 142
153 151 142
153 151 143
153 151 143
153 151 143
153 151 143
153 151 143
152 151 143
152 151 143
152 151 143
152 151 143
152 151 143
152 151 143
152 151 143
151 151 143
151 152 143
151 152 143
151 152 143
151 152 143
151 152 143
151 152 143
151 152 143
150 152 143
150 152 143
150 152 143
150 152 143
150 152 143
150 152 143
149 152 143
149 152 143
149 152 143
149 152 143
149 152 143
149 152 143
148 152 143
148 152 143
148 152 143
148 152 142
148 152 142
148 152 142
147 152 142
147 152 142
147 152 142
147 152 142
147 152 142
147 152 142
146 152 142
146 152 141
146 152 141
146 152 141
145 152 141
145 152 141
145 152 141
145 152 141
145 152 140
144 152 140
144 152 140
144 152 140
143 152 140
143 152 139
143 152 139
143 152 139
142 151 139
142 151 138
142 151 138
141 151 138
141 151 138
141 151 137
140 151 137
140 151 137
139 151 136
139 151 136
139 151 136
138 151 135
138 151 135
137 151 134
137 151 134
136 150 133
136 150 133
135 150 132
134 150 132
134 150 131
133 150 130
132 150 130
132 149 129
131 149 128
130 149 127
129 149 127
128 148 126
127 148 125
126 148 124
126 147 123
124 147 122
123 146 121
122 146 120
121 145 119
120 144 117
119 143 116
118 142 115
0 146 0
0 148 0
0 149 0
0 149 0
0 150 0
0 150 0
0 149 0
0 149 0
0 149 0
0 149 0
0 148 0
0 148 0
0 148 0
0 147 0
0 147 0
0 146 0
0 146 0
0 145 0
0 145 0
0 144 0
0 144 0
0 143 0
0 142 0
0 142 0
0 141 0
0 141 0
0 140 0
0 139 0
0 138 0
0 138 0
0 137 0
0 136 0
0 135 0
0 134 0
0 133 0
0 132 0
0 131 0
0 130 0
0 129 0
0 128 0
0 126 0
0 125 0
121 0 0
123 0 0
124 0 0
125 0 0
127 0 0
128 0 0
129 0 0
130 0 0
131 0 0
132 0 0
133 0 0
135 0 0
136 0 0
137 0 0
138 0 0
139 0 0
140 0 0
141 0 0
142 0 0
143 0 0
144 0 0
145 0 0
146 0 0
148 0 0
149 0 0
150 0 0
151 0 0
152 0 0
152 0 0
153 0 0
153 0 0
154 0 0
154 0 0
154 0 0
154 0 0
153 0 0
153 0 0
153 0 0
153 0 0
152 0 0
151 0 0
151 0 0
149 0 0
146 0 0
146 120 114
147 122 116
148 123 117
149 124 118
149 125 119
150 126 120
150 127 121
150 128 122
151 129 123
151 130 124
151 131 124
152 131 125
152 132 126
152 133 127
152 134 127
153 135 128
153 135 129
153 136 129
153 137 130
153 137 131
154 138 131
154 139 132
154 139 132
154 140 133
154 140 133
154 141 133
154 141 134
154 141 134
154 142 135
154 142 135
155 143 135
155 143 136
155 143 136
155 144 136
155 144 137
155 145 137
155 145 137
155 145 137
155 145 138
155 146 138
155 146 138
155 146 138
155 147 138
155 147 139
155 147 139
155 147 139
155 147 139
155 148 139
155 148 140
155 148 140
155 148 140
155 148 140
155 149 140
155 149 140
154 149 140
154 149 140
154 149 141
154 149 141
154 149 141
154 149 141
154 150 141
154 150 141
154 150 141
154 150 141
154 150 141
154 150 141
154 150 142
153 150 142
153 150 142
153 150 142
153 150 142
153 150 142
153 150 142
153 151 142
153 151 142
152 151 142
152 151 142
152 151 142
152 151 142
152 151 142
152 151 142
152 151 142
152 151 142
151 151 142
151 151 142
151 151 142
151 151 142
151 151 143
151 151 143
151 151 143
150 151 143
150 151 143
150 151 143
150 151 142
150 151 143
150 151 143
149 151 142
149 151 142
149 151 142
149 151 142
149 151 142
149 151 142
149 151 142
148 151 142
148 151 142
148 151 142
148 151 142
148 151 142
147 151 142
147 151 142
147 151 142
147 151 142
147 151 142
147 151 141
146 151 141
146 151 141
146 151 141
146 151 141
146 151 141
145 151 141
145 151 141
145 151 140
145 151 140
145 151 140
144 151 140
144 151 140
144 151 140
143 151 139
143 151 139
143 151 139
143 151 139
142 151 139
142 151 138
142 151 138
141 151 138
141 151 138
141 151 137
140 151 137
140 151 137
140 151 136
139 151 136
139 151 136
138 151 135
138 150 135
137 150 134
137 150 134
137 150 134
136 150 133
135 150 133
135 150 132
134 150 132
134 150 131
133 149 130
132 149 130
132 149 129
131 149 128
130 148 127
129 148 127
129 148 126
128 148 125
127 147 124
126 147 123
125 147 122
124 146 121
123 146 120
122 145 119
121 145 118
120 144 117
118 143 116
117 141 115
0 146 0
0 147 0
0 148 0
0 149 0
0 149 0
0 149 0
0 149 0
0 149 0
0 149 0
0 148 0
0 148 0
0 148 0
0 147 0
0 147 0
0 146 0
0 146 0
0 146 0
0 145 0
0 145 0
0 144 0
0 143 0
0 143 0
0 142 0
0 142 0
0 141 0
0 140 0
0 139 0
0 139 0
0 138 0
0 137 0
0 136 0
0 136 0
0 135 0
0 134 0
0 133 0
0 132 0
0 131 0
0 130 0
0 128 0
0 127 0
0 126 0
0 125 0
121 0 0
122 0 0
124 0 0
125 0 0
126 0 0
127 0 0
128 0 0
130 0 0
131 0 0
132 0 0
133 0 0
134 0 0
135 0 0
136 0 0
137 0 0
138 0 0
139 0 0
140 0 0
141 0 0
143 0 0
144 0 0
145 0 0
146 0 0
147 0 0
148 0 0
149 0 0
150 0 0
151 0 0
152 0 0
153 0 0
153 0 0
153 0 0
153 0 0
153 0 0
153 0 0
153 0 0
153 0 0
152 0 0
152 0 0
152 0 0
151 0 0
150 0 0
149 0 0
146 0 0
146 120 114
147 121 115
147 122 116
148 123 117
149 124 118
149 125 119
150 126 120
150 127 121
150 128 122
151 129 123
151 130 124
151 131 125
152 132 125
152 133 126
152 133 127
152 134 128
152 135 128
153 135 129
153 136 129
153 137 130
153 137 130
153 138 131
153 138 131
153 139 132
154 140 132
154 140 133
154 140 133
154 141 134
154 141 134
154 142 134
154 142 135
154 143 135
154 143 135
154 143 136
154 144 136
154 144 136
154 144 136
154 145 137
154 145 137
154 145 137
154 146 137
154 146 138
154 146 138
154 146 138
154 146 138
154 147 138
154 147 139
154 147 139
154 147 139
154 148 139
154 148 139
154 148 139
154 148 140
154 148 140
154 148 140
154 149 140
154 149 140
154 149 140
154 149 140
154 149 140
154 149 140
154 149 140
153 149 141
153 149 141
153 150 141
153 150 141
153 150 141
153 150 141
153 150 141
153 150 141
153 150 141
153 150 141
152 150 141
152 150 141
152 150 142
152 150 142
152 150 142
152 150 142
152 150 142
151 150 142
151 150 142
151 151 142
151 151 142
151 151 142
151 151 142
151 151 142
150 151 142
150 151 142
150 151 142
150 151 142
150 151 142
150 151 142
150 151 142
149 151 142
149 151 142
149 151 142
149 151 142
149 151 142
149 151 142
148 151 142
148 151 142
148 151 142
148 151 142
148 151 142
148 151 142
148 151 142
147 151 142
147 151 141
147 151 141
147 151 141
147 151 141
146 151 141
146 151 141
146 151 141
146 151 141
146 151 141
145 151 141
145 151 140
145 151 140
145 151 140
145 151 140
144 151 140
144 151 140
144 151 140
144 151 139
143 151 139
143 151 139
143 151 139
143 151 139
142 151 138
142 151 138
142 151 138
141 150 138
141 150 137
141 150 137
140 150 137
140 150 137
140 150 136
139 150 136
139 150 136
139 150 135
138 150 135
138 150 135
137 150 134
137 150 134
136 150 133
136 150 133
135 150 132
135 149 132
134 149 131
134 149 131
133 149 130
132 149 130
132 149 129
131 148 128
130 148 128
130 148 127
129 148 126
128 148 125
127 147 124
126 147 124
125 147 123
124 146 122
123 146 121
122 145 120
121 145 119
120 144 118
119 144 117
118 143 116
117 141 114
0 145 0
0 147 0
0 148 0
0 148 0
0 149 0
0 149 0
0 149 0
0 148 0
0 148 0
0 148 0
0 148 0
0 147 0
0 147 0
0 147 0
0 146 0
0 146 0
0 145 0
0 145 0
0 144 0
0 144 0
0 143 0
0 142 0
0 142 0
0 141 0
0 140 0
0 140 0
0 139 0
0 138 0
0 138 0
0 137 0
0 136 0
0 135 0
0 134 0
0 133 0
0 132 0
0 131 0
0 130 0
0 129 0
0 128 0
0 127 0
0 126 0
0 124 0
120 0 0
122 0 0
123 0 0
124 0 0
126 0 0
127 0 0
128 0 0
129 0 0
130 0 0
131 0 0
133 0 0
134 0 0
135 0 0
136 0 0
137 0 0
138 0 0
139 0 0
140 0 0
141 0 0
142 0 0
143 0 0
144 0 0
146 0 0
147 0 0
148 0 0
149 0 0
150 0 0
151 0 0
152 0 0
152 0 0
153 0 0
153 0 0
153 0 0
153 0 0
153 0 0
153 0 0
152 0 0
152 0 0
152 0 0
151 0 0
151 0 0
150 0 0
148 0 0
145 0 0
145 120 114
146 121 115
147 122 116
148 123 117
148 124 118
149 125 119
149 126 120
149 127 121
150 128 121
150 129 122
150 130 123
151 130 124
151 131 125
151 132 125
152 133 126
152 133 127
152 134 127
152 135 128
152 135 129
152 136 129
153 137 130
153 137 130
153 138 131
153 138 131
153 139 132
153 139 132
153 140 133
153 140 133
153 141 133
153 141 134
154 142 134
154 142 134
154 142 135
154 143 135
154 143 135
154 143 136
154 144 136
154 144 136
154 144 136
154 145 137
154 145 137
154 145 137
154 145 137
154 146 137
154 146 138
154 146 138
154 146 138
154 147 138
154 147 138
154 147 139
154 147 139
154 147 139
154 148 139
154 148 139
154 148 139
154 148 139
153 148 139
153 148 140
153 148 140
153 149 140
153 149 140
153 149 140
153 149 140
153 149 140
153 149 140
153 149 140
153 149 140
153 149 141
152 149 141
152 149 141
152 150 141
152 150 141
152 150 141
152 150 141
152 150 141
152 150 141
151 150 141
151 150 141
151 150 141
151 150 141
151 150 141
151 150 141
151 150 141
150 150 141
150 150 141
150 150 141
150 150 141
150 150 142
150 150 142
150 150 142
149 150 142
149 150 141
149 150 142
149 150 142
149 150 142
149 150 142
149 150 141
148 150 141
148 150 141
148 150 141
148 150 141
148 150 141
148 150 141
147 150 141
147 150 141
147 150 141
147 150 141
147 150 141
146 150 141
146 150 141
146 150 141
146 150 141
146 150 140
146 150 140
145 150 140
145 150 140
145 150 140
145 150 140
145 150 140
144 150 140
144 150 139
144 150 139
144 150 139
143 150 139
143 150 139
143 150 139
143 150 138
142 150 138
142 150 138
142 150 138
141 150 138
141 150 137
141 150 137
141 150 137
140 150 137
140 150 136
140 150 136
139 150 136
139 150 135
138 150 135
138 150 135
138 150 134
137 149 134
137 149 133
136 149 133
136 149 133
135 149 132
135 149 132
134 149 131
134 149 131
133 149 130
132 148 130
132 148 129
131 148 128
130 148 128
130 148 127
129 147 126
128 147 126
127 147 125
127 147 124
126 146 123
125 146 122
124 146 121
123 145 120
122 145 119
121 144 118
120 144 117
119 143 116
118 142 115
117 141 114
0 145 0
0 146 0
0 147 0
0 148 0
0 148 0
0 148 0
0 148 0
0 148 0
0 148 0
0 147 0
0 147 0
0 147 0
0 147 0
0 146 0
0 146 0
0 145 0
0 145 0
0 144 0
0 144 0
0 143 0
0 143 0
0 142 0
0 141 0
0 141 0
0 140 0
0 139 0
0 139 0
0 138 0
0 137 0
0 136 0
0 136 0
0 135 0
0 134 0
0 133 0
0 132 0
0 131 0
0 130 0
0 129 0
0 128 0
0 127 0
0 125 0
0 124 0
120 0 0
121 0 0
123 0 0
124 0 0
125 0 0
127 0 0
128 0 0
129 0 0
130 0 0
131 0 0
132 0 0
133 0 0
134 0 0
135 0 0
136 0 0
137 0 0
139 0 0
140 0 0
140 0 0
142 0 0
143 0 0
144 0 0
145 0 0
146 0 0
148 0 0
149 0 0
150 0 0
151 0 0
151 0 0
152 0 0
152 0 0
153 0 0
153 0 0
153 0 0
152 0 0
152 0 0
152 0 0
152 0 0
151 0 0
151 0 0
150 0 0
149 0 0
148 0 0
145 0 0
145 119 113
146 120 114
147 121 115
147 122 116
148 124 117
148 125 118
149 125 119
149 126 120
149 127 121
150 128 122
150 129 123
150 130 123
151 131 124
151 131 125
151 132 126
151 133 126
151 134 127
152 134 127
152 135 128
152 136 129
152 136 129
152 137 130
152 137 130
152 138 131
153 138 131
153 139 132
153 139 132
153 140 132
153 140 133
153 141 133
153 141 133
153 141 134
153 142 134
153 142 134
153 143 135
153 143 135
153 143 135
153 144 135
153 144 136
154 144 136
153 144 136
153 145 136
153 145 137
154 145 137
154 146 137
154 146 137
153 146 137
153 146 138
153 146 138
153 147 138
153 147 138
153 147 138
153 147 138
153 147 138
153 148 139
153 148 139
153 148 139
153 148 139
153 148 139
153 148 139
153 148 139
153 148 139
153 148 140
153 148 140
152 149 140
152 149 140
152 149 140
152 149 140
152 149 140
152 149 140
152 149 140
152 149 140
152 149 140
151 149 140
151 149 140
151 149 140
151 149 141
151 149 141
151 149 141
151 149 141
150 150 141
150 150 141
150 150 141
150 150 141
150 150 141
150 150 141
150 150 141
149 150 141
149 150 141
149 150 141
149 150 141
149 150 141
149 150 141
149 150 141
148 150 141
148 150 141
148 150 141
148 150 141
148 150 141
148 150 141
147 150 141
147 150 141
147 150 141
147 150 141
147 150 141
147 150 141
146 150 141
146 150 140
146 150 140
146 150 140
146 150 140
145 150 140
145 150 140
145 150 140
145 150 140
145 150 140
144 150 139
144 150 139
144 150 139
144 150 139
144 150 139
143 150 139
143 150 139
143 150 139
143 150 138
142 150 138
142 150 138
142 150 138
141 150 137
141 150 137
141 150 137
141 150 137
140 150 137
140 149 136
140 150 136
139 149 136
139 149 135
139 149 135
138 149 135
138 149 134
137 149 134
137 149 134
136 149 133
136 149 133
136 149 133
135 149 132
135 149 132
134 148 131
134 148 131
133 148 130
132 148 130
132 148 129
131 148 128
131 148 128
130 147 127
129 147 126
128 147 126
128 147 125
127 146 124
126 146 123
125 146 122
124 145 122
123 145 121
123 145 120
122 144 119
121 144 118
120 143 117
118 143 116
117 142 115
116 140 114
0 144 0
0 146 0
0 147 0
0 147 0
0 148 0
0 148 0
0 148 0
0 148 0
0 147 0
0 147 0
0 147 0
0 146 0
0 146 0
0 146 0
0 145 0
0 145 0
0 144 0
0 144 0
0 143 0
0 143 0
0 142 0
0 142 0
0 141 0
0 140 0
0 140 0
0 139 0
0 138 0
0 138 0
0 137 0
0 136 0
0 135 0
0 134 0
0 134 0
0 133 0
0 132 0
0 131 0
0 130 0
0 129 0
0 127 0
0 126 0
0 125 0
0 124 0
120 0 0
121 0 0
122 0 0
124 0 0
125 0 0
126 0 0
127 0 0
128 0 0
130 0 0
131 0 0
132 0 0
133 0 0
134 0 0
135 0 0
136 0 0
137 0 0
138 0 0
139 0 0
140 0 0
141 0 0
142 0 0
144 0 0
145 0 0
146 0 0
147 0 0
148 0 0
149 0 0
150 0 0
151 0 0
152 0 0
152 0 0
152 0 0
152 0 0
152 0 0
152 0 0
152 0 0
152 0 0
151 0 0
151 0 0
150 0 0
150 0 0
149 0 0
147 0 0
144 0 0
145 119 113
145 120 114
146 121 115
147 122 116
147 123 117
148 124 118
148 125 119
149 126 120
149 127 120
149 128 121
149 128 122
150 129 123
150 130 124
150 131 124
151 132 125
151 132 126
151 133 126
151 134 127
151 134 127
151 135 128
152 136 129
152 136 129
152 137 129
152 137 130
152 138 130
152 138 131
152 139 131
152 139 132
153 140 132
153 140 132
153 140 133
153 141 133
153 141 133
153 142 134
153 142 134
153 142 134
153 143 135
153 143 135
153 143 135
153 144 135
153 144 136
153 144 136
153 144 136
153 145 136
153 145 136
153 145 137
153 145 137
153 146 137
153 146 137
153 146 137
153 146 137
153 146 138
153 147 138
153 147 138
153 147 138
153 147 138
153 147 138
153 147 138
152 148 138
153 148 139
152 148 139
152 148 139
152 148 139
152 148 139
152 148 139
152 148 139
152 148 139
152 148 139
152 149 140
151 149 140
151 149 140
151 149 140
151 149 140
151 149 140
151 149 140
151 149 140
151 149 140
150 149 140
150 149 140
150 149 140
150 149 140
150 149 140
150 149 140
150 149 140
149 149 140
149 149 140
149 149 140
149 149 141
149 149 141
149 149 141
149 149 141
148 149 141
148 149 141
148 149 140
148 149 140
148 149 140
148 149 140
147 149 140
147 149 140
147 149 140
147 149 140
147 149 140
147 149 140
146 149 140
146 149 140
146 149 140
146 149 140
146 149 140
146 149 140
145 149 140
145 149 140
145 149 140
145 149 139
145 149 139
144 149 139
144 149 139
144 149 139
144 149 139
143 149 139
143 149 139
143 149 138
143 149 138
143 149 138
142 149 138
142 149 138
142 149 137
141 149 137
141 149 137
141 149 137
141 149 137
140 149 136
140 149 136
140 149 136
139 149 136
139 149 135
139 149 135
138 149 135
138 149 134
138 149 134
137 149 134
137 149 133
136 149 133
136 148 133
135 148 132
135 148 132
135 148 131
134 148 131
133 148 130
133 148 130
132 148 129
132 148 129
131 147 128
130 147 128
130 147 127
129 147 126
129 147 126
128 146 125
127 146 124
126 146 124
126 146 123
125 145 122
124 145 121
123 145 120
122 144 119
121 144 118
120 143 118
119 143 117
118 142 116
117 141 115
116 140 113
0 144 0
0 145 0
0 146 0
0 147 0
0 147 0
0 147 0
0 147 0
0 147 0
0 147 0
0 147 0
0 146 0
0 146 0
0 146 0
0 145 0
0 145 0
0 144 0
0 144 0
0 143 0
0 143 0
0 142 0
0 142 0
0 141 0
0 141 0
0 140 0
0 139 0
0 139 0
0 138 0
0 137 0
0 136 0
0 136 0
0 135 0
0 134 0
0 133 0
0 132 0
0 131 0
0 130 0
0 129 0
0 128 0
0 127 0
0 126 0
0 125 0
0 123 0
119 0 0
121 0 0
122 0 0
123 0 0
124 0 0
126 0 0
127 0 0
128 0 0
129 0 0
130 0 0
131 0 0
132 0 0
133 0 0
135 0 0
136 0 0
137 0 0
138 0 0
139 0 0
140 0 0
141 0 0
142 0 0
143 0 0
144 0 0
146 0 0
147 0 0
148 0 0
149 0 0
150 0 0
151 0 0
151 0 0
152 0 0
152 0 0
152 0 0
152 0 0
152 0 0
151 0 0
151 0 0
151 0 0
150 0 0
150 0 0
149 0 0
148 0 0
147 0 0
144 0 0
144 119 113
145 120 114
146 121 115
146 122 115
147 123 116
147 124 117
148 124 118
148 125 119
148 126 120
149 127 121
149 128 121
149 129 122
150 130 123
150 130 124
150 131 124
150 132 125
150 132 126
151 133 126
151 134 127
151 134 127
151 135 128
151 135 128
151 136 129
152 137 129
152 137 130
152 138 130
152 138 131
152 139 131
152 139 131
152 139 132
152 140 132
152 140 132
152 141 133
152 141 133
152 141 133
152 142 134
153 142 134
153 142 134
153 143 134
153 143 135
153 143 135
153 144 135
153 144 135
153 144 136
153 144 136
153 145 136
153 145 136
153 145 136
153 145 137
153 146 137
153 146 137
152 146 137
152 146 137
152 146 137
152 147 137
152 147 138
152 147 138
152 147 138
152 147 138
152 147 138
152 147 138
152 147 138
152 148 138
152 148 139
152 148 139
151 148 139
151 148 139
151 148 139
151 148 139
151 148 139
151 148 139
151 148 139
151 148 139
151 148 139
150 148 139
150 148 139
150 149 140
150 149 140
150 149 140
150 149 140
150 149 140
150 149 140
149 149 140
149 149 140
149 149 140
149 149 140
149 149 140
149 149 140
148 149 140
148 149 140
148 149 140
148 149 140
148 149 140
148 149 140
147 149 140
147 149 140
147 149 140
147 149 140
147 149 140
147 149 140
146 149 140
146 149 140
146 149 140
146 149 140
146 149 140
146 149 140
145 149 139
145 149 139
145 149 139
145 149 139
145 149 139
145 149 139
144 149 139
144 149 139
144 149 139
144 149 138
143 149 138
143 149 138
143 149 138
143 149 138
142 149 138
142 149 138
142 149 138
142 149 137
142 149 137
141 149 137
141 149 137
141 149 136
140 149 136
140 149 136
140 149 136
139 149 136
139 148 135
139 148 135
138 148 135
138 148 134
138 148 134
137 148 134
137 148 134
137 148 133
136 148 133
136 148 132
135 148 132
135 148 132
134 148 131
134 148 131
134 148 130
133 147 130
132 147 129
132 147 129
131 147 128
131 147 128
130 147 127
129 146 126
129 146 126
128 146 125
127 146 124
127 146 124
126 145 123
125 145 122
124 145 121
123 145 121
122 144 120
122 144 119
121 143 118
120 143 117
119 142 116
118 142 115
117 141 114
116 139 113
0 143 0
0 145 0
0 146 0
0 146 0
0 147 0
0 147 0
0 147 0
0 147 0
0 146 0
0 146 0
0 146 0
0 146 0
0 145 0
0 145 0
0 144 0
0 144 0
0 144 0
0 143 0
0 143 0
0 142 0
0 141 0
0 141 0
0 140 0
0 140 0
0 139 0
0 138 0
0 138 0
0 137 0
0 136 0
0 135 0
0 135 0
0 134 0
0 133 0
0 132 0
0 131 0
0 130 0
0 129 0
0 128 0
0 127 0
0 125 0
0 124 0
0 123 0
119 0 0
120 0 0
122 0 0
123 0 0
124 0 0
125 0 0
126 0 0
128 0 0
129 0 0
130 0 0
131 0 0
132 0 0
133 0 0
134 0 0
135 0 0
136 0 0
137 0 0
138 0 0
139 0 0
140 0 0
142 0 0
143 0 0
144 0 0
145 0 0
146 0 0
148 0 0
149 0 0
150 0 0
150 0 0
151 0 0
151 0 0
152 0 0
152 0 0
152 0 0
151 0 0
151 0 0
151 0 0
150 0 0
150 0 0
149 0 0
149 0 0
148 0 0
146 0 0
143 0 0
144 118 112
145 119 113
145 120 114
146 121 115
146 122 116
147 123 117
147 124 118
148 125 118
148 126 119
148 127 120
149 127 121
149 128 122
149 129 122
149 130 123
150 130 124
150 131 124
150 132 125
150 132 125
150 133 126
150 134 127
151 134 127
151 135 128
151 136 128
151 136 129
151 137 129
151 137 130
151 137 130
151 138 130
152 138 131
152 139 131
152 139 132
152 140 132
152 140 132
152 140 132
152 141 133
152 141 133
152 142 133
152 142 134
152 142 134
152 143 134
152 143 134
152 143 135
152 143 135
152 144 135
152 144 135
152 144 135
152 144 136
152 145 136
152 145 136
152 145 136
152 145 136
152 146 137
152 146 137
152 146 137
152 146 137
152 146 137
152 146 137
152 147 137
152 147 138
152 147 138
152 147 138
151 147 138
151 147 138
151 147 138
151 147 138
151 147 138
151 147 138
151 148 138
151 148 139
151 148 138
150 148 139
150 148 139
150 148 139
150 148 139
150 148 139
150 148 139
150 148 139
150 148 139
149 148 139
149 148 139
149 148 139
149 148 139
149 148 139
149 148 139
149 148 139
148 148 139
148 148 139
148 148 139
148 148 139
148 148 140
148 148 140
147 148 139
147 149 140
147 149 140
147 149 139
147 148 139
147 148 139
146 148 139
146 148 139
146 149 139
146 149 139
146 149 139
146 149 139
145 149 139
145 148 139
145 148 139
145 149 139
145 148 139
145 148 139
144 148 139
144 148 139
144 148 138
144 148 138
143 148 138
143 148 138
143 148 138
143 148 138
143 148 138
142 148 138
142 148 137
142 148 137
142 148 137
141 148 137
141 148 137
141 148 137
141 148 136
140 148 136
140 148 136
140 148 136
140 148 135
139 148 135
139 148 135
139 148 135
138 148 134
138 148 134
138 148 134
137 148 133
137 148 133
136 148 133
136 148 133
136 148 132
135 147 132
135 147 131
134 147 131
134 147 131
133 147 130
133 147 130
132 147 129
132 147 129
131 147 128
131 146 128
130 146 127
129 146 127
129 146 126
128 146 125
127 146 125
127 145 124
126 145 123
125 145 122
124 145 122
124 144 121
123 144 120
122 144 119
121 143 119
120 143 118
119 142 117
118 142 116
117 141 115
116 140 114
115 139 113
0 143 0
0 144 0
0 145 0
0 146 0
0 146 0
0 146 0
0 146 0
0 146 0
0 146 0
0 146 0
0 145 0
0 145 0
0 145 0
0 144 0
0 144 0
0 144 0
0 143 0
0 143 0
0 142 0
0 142 0
0 141 0
0 141 0
0 140 0
0 139 0
0 139 0
0 138 0
0 137 0
0 136 0
0 136 0
0 135 0
0 134 0
0 133 0
0 132 0
0 131 0
0 130 0
0 130 0
0 129 0
0 127 0
0 126 0
0 125 0
0 124 0
0 123 0
119 0 0
120 0 0
121 0 0
123 0 0
124 0 0
125 0 0
126 0 0
127 0 0
128 0 0
129 0 0
131 0 0
132 0 0
133 0 0
134 0 0
135 0 0
136 0 0
137 0 0
138 0 0
139 0 0
140 0 0
141 0 0
142 0 0
144 0 0
145 0 0
146 0 0
147 0 0
148 0 0
149 0 0
150 0 0
151 0 0
151 0 0
151 0 0
151 0 0
151 0 0
151 0 0
151 0 0
150 0 0
150 0 0
150 0 0
149 0 0
148 0 0
147 0 0
146 0 0
143 0 0
143 118 112
144 119 113
145 120 114
145 121 115
146 122 116
146 123 116
147 124 117
147 124 118
147 125 119
148 126 120
148 127 120
148 128 121
149 128 122
149 129 122
149 130 123
149 131 124
149 131 124
150 132 125
150 133 126
150 133 126
150 134 127
150 134 127
150 135 128
151 136 128
151 136 129
151 136 129
151 137 129
151 137 130
151 138 130
151 138 131
151 139 131
151 139 131
151 140 132
151 140 132
152 140 132
152 141 133
152 141 133
152 141 133
152 142 133
152 142 134
152 142 134
160 160 0
152 143 134
152 143 134
152 143 135
152 144 135
152 144 135
152 144 135
152 144 135
152 145 136
152 145 136
152 145 136
152 145 136
152 145 136
151 146 136
151 146 137
151 146 137
151 146 137
151 146 137
151 146 137
151 146 137
151 147 137
151 147 137
151 147 138
151 147 138
151 147 138
151 147 138
150 147 138
150 147 138
150 147 138
150 147 138
150 147 138
150 147 138
150 148 138
150 147 138
149 148 138
149 148 138
149 148 139
149 148 139
149 148 139
149 148 139
149 148 139
148 148 139
148 148 139
148 148 139
148 148 139
148 148 139
148 148 139
147 148 139
147 148 139
147 148 139
147 148 139
147 148 139
147 148 139
147 148 139
146 148 139
146 148 139
146 148 139
146 148 139
146 148 139
146 148 139
145 148 139
145 148 139
145 148 139
145 148 139
145 148 138
144 148 138
144 148 138
144 148 138
144 148 138
144 148 138
143 148 138
143 148 138
143 148 138
143 148 138
143 148 138
142 148 137
142 148 137
142 148 137
142 148 137
142 148 137
141 148 137
141 148 136
141 148 136
140 148 136
140 148 136
140 148 136
140 148 135
139 148 135
139 148 135
139 148 135
138 148 134
138 148 134
138 147 134
137 147 134
137 147 133
137 147 133
136 147 133
136 147 132
135 147 132
135 147 132
135 147 131
134 147 131
134 147 130
133 147 130
133 147 129
132 147 129
132 146 129
131 146 128
131 146 128
130 146 127
129 146 127
129 146 126
128 145 125
128 145 125
127 145 124
126 145 123
125 145 123
125 144 122
124 144 121
123 144 121
122 143 120
122 143 119
121 143 118
120 142 117
119 142 116
118 141 115
117 141 114
116 140 114
115 138 113
0 142 0
0 144 0
0 145 0
0 145 0
0 146 0
0 146 0
0 146 0
0 146 0
0 146 0
0 145 0
0 145 0
0 145 0
0 145 0
0 144 0
0 144 0
0 143 0
0 143 0
0 142 0
0 142 0
0 141 0
0 141 0
0 140 0
0 139 0
0 139 0
0 138 0
0 137 0
0 137 0
0 136 0
0 135 0
0 135 0
0 134 0
0 133 0
0 132 0
0 131 0
0 130 0
0 129 0
0 128 0
0 127 0
0 126 0
0 125 0
0 124 0
0 122 0
118 0 0
120 0 0
121 0 0
122 0 0
123 0 0
125 0 0
126 0 0
127 0 0
128 0 0
129 0 0
130 0 0
131 0 0
132 0 0
133 0 0
134 0 0
135 0 0
136 0 0
137 0 0
138 0 0
139 0 0
141 0 0
142 0 0
143 0 0
144 0 0
146 0 0
147 0 0
148 0 0
149 0 0
150 0 0
150 0 0
151 0 0
151 0 0
151 0 0
151 0 0
151 0 0
150 0 0
150 0 0
150 0 0
149 0 0
148 0 0
148 0 0
147 0 0
145 0 0
143 0 0
143 118 112
144 119 112
144 119 113
145 120 114
145 121 115
146 122 116
146 123 117
147 124 118
147 125 118
147 126 119
148 126 120
148 127 120
148 128 121
148 129 122
149 129 123
149 130 123
149 131 124
149 131 124
149 132 125
150 133 125
150 133 126
150 134 127
150 134 127
150 135 128
150 135 128
150 136 128
150 136 129
151 137 129
151 137 130
151 138 130
151 138 130
151 139 131
151 139 131
151 139 131
156 153 0
156 154 0
155 150 0
155 150 0
155 150 0
155 151 0
158 152 0
158 152 0
159 160 0
156 156 0
156 156 0
156 156 0
156 156 0
156 156 0
156 156 0
156 157 0
151 144 135
151 145 135
151 145 135
151 145 136
151 145 136
156 155 0
156 155 0
156 155 0
150 156 0
151 146 137
151 146 137
151 146 137
150 146 137
150 146 137
150 146 137
150 147 137
150 147 137
150 147 137
150 147 137
150 147 138
150 147 138
150 147 138
149 147 138
149 147 138
149 147 138
149 147 138
149 147 138
149 147 138
149 147 138
148 147 138
148 147 138
148 147 138
148 147 138
148 147 138
148 147 138
148 148 138
147 148 138
147 148 138
147 148 139
147 148 139
147 148 139
146 148 138
146 148 139
146 148 138
146 148 139
146 148 138
146 148 138
146 148 138
145 148 138
145 148 138
145 148 138
145 148 138
145 148 138
144 148 138
144 148 138
144 148 138
144 148 138
144 148 138
144 148 138
143 147 138
143 148 138
143 148 137
143 147 137
143 147 137
142 148 137
142 147 137
142 147 137
142 147 137
141 147 137
141 147 136
141 147 136
141 147 136
140 147 136
140 147 136
140 147 135
140 147 135
139 147 135
139 147 135
139 147 135
138 147 134
138 147 134
138 147 134
137 147 134
137 147 133
137 147 133
136 147 133
136 147 132
136 147 132
135 147 132
135 147 131
134 147 131
134 147 131
134 146 130
133 146 130
133 146 129
132 146 129
132 146 128
131 146 128
131 146 128
130 146 127
130 145 126
129 145 126
128 145 125
128 145 125
127 145 124
126 145 123
126 144 123
125 144 122
124 144 121
123 144 121
123 143 120
122 143 119
121 143 118
120 142 118
119 142 117
119 141 116
118 141 115
117 140 114
116 139 113
115 138 112
0 142 0
0 143 0
0 144 0
0 145 0
0 145 0
0 145 0
0 145 0
0 145 0
0 145 0
0 145 0
0 145 0
0 144 0
0 144 0
0 144 0
0 143 0
0 143 0
0 142 0
0 142 0
0 141 0
0 141 0
0 140 0
0 140 0
0 139 0
0 138 0
0 138 0
0 137 0
0 136 0
0 136 0
0 135 0
0 134 0
0 133 0
0 132 0
0 132 0
0 131 0
0 130 0
0 129 0
0 128 0
0 127 0
0 126 0
0 125 0
0 123 0
0 122 0
118 0 0
119 0 0
120 0 0
122 0 0
123 0 0
124 0 0
125 0 0
126 0 0
127 0 0
129 0 0
130 0 0
131 0 0
132 0 0
133 0 0
134 0 0
135 0 0
136 0 0
137 0 0
138 0 0
139 0 0
140 0 0
141 0 0
143 0 0
144 0 0
145 0 0
147 0 0
148 0 0
149 0 0
149 0 0
150 0 0
150 0 0
151 0 0
151 0 0
151 0 0
150 0 0
150 0 0
150 0 0
149 0 0
149 0 0
148 0 0
147 0 0
146 0 0
145 0 0
142 0 0
142 117 111
143 118 112
144 119 113
145 120 114
145 121 115
145 122 116
146 123 116
146 123 117
147 124 118
147 125 119
147 126 119
147 127 120
148 127 121
148 128 121
148 129 122
148 129 123
148 130 123
149 131 124
149 131 124
149 132 125
149 133 125
149 133 126
149 134 126
150 134 127
150 135 127
150 135 128
150 136 128
167 159 0
154 148 0
154 148 0
154 148 0
154 148 0
154 149 0
146 132 0
145 132 0
155 153 0
155 153 0
155 153 0
155 154 0
155 154 0
156 154 0
158 152 0
159 160 0
159 160 0
159 160 0
156 156 0
156 156 0
156 156 0
156 156 0
156 157 0
156 157 0
156 157 0
140 129 0
156 155 0
156 155 0
156 155 0
156 155 0
156 155 0
156 155 0
150 156 0
150 146 136
150 146 136
150 146 136
150 146 136
150 146 137
150 146 137
150 146 137
150 146 137
149 146 137
149 146 137
149 146 137
149 146 137
149 147 137
149 147 137
149 147 137
149 147 137
148 147 137
148 147 138
148 147 138
148 147 138
148 147 138
148 147 138
148 147 138
147 147 138
147 147 138
147 147 138
147 147 138
147 147 138
146 147 138
146 147 138
146 147 138
146 147 138
146 147 138
146 147 138
146 147 138
145 147 138
145 147 138
145 147 138
145 147 138
145 147 138
145 147 138
144 147 138
144 147 138
144 147 138
144 147 138
144 147 137
143 147 137
143 147 137
143 147 137
143 147 137
143 147 137
143 147 137
142 147 137
142 147 137
142 147 137
142 147 136
141 147 136
141 147 136
141 147 136
141 147 136
140 147 136
140 147 135
140 147 135
140 147 135
139 147 135
139 147 135
139 147 134
138 147 134
138 147 134
138 147 134
138 147 133
137 147 133
137 147 133
137 147 133
136 147 132
136 146 132
136 146 132
135 146 131
135 146 131
134 146 131
134 146 130
133 146 130
133 146 130
133 146 129
132 146 129
132 146 128
131 145 128
131 145 127
130 145 127
129 145 126
129 145 126
128 145 125
128 145 125
127 144 124
126 144 124
126 144 123
125 144 122
124 144 122
124 143 121
123 143 120
122 143 119
121 142 119
121 142 118
120 142 117
119 141 116
118 141 116
117 141 115
116 140 114
115 139 113
115 138 112
0 142 0
0 143 0
0 144 0
0 144 0
0 145 0
0 145 0
0 145 0
0 145 0
0 145 0
0 145 0
0 144 0
0 144 0
0 144 0
0 143 0
0 143 0
0 142 0
0 142 0
0 142 0
0 141 0
0 140 0
0 140 0
0 139 0
0 139 0
0 138 0
0 137 0
0 137 0
0 136 0
0 135 0
0 135 0
0 134 0
0 133 0
0 132 0
0 131 0
0 130 0
0 129 0
0 128 0
0 127 0
0 126 0
0 125 0
0 124 0
0 123 0
0 122 0
118 0 0
119 0 0
120 0 0
121 0 0
123 0 0
124 0 0
125 0 0
126 0 0
127 0 0
128 0 0
129 0 0
130 0 0
131 0 0
132 0 0
133 0 0
134 0 0
135 0 0
136 0 0
137 0 0
139 0 0
140 0 0
141 0 0
142 0 0
144 0 0
145 0 0
146 0 0
147 0 0
148 0 0
149 0 0
150 0 0
150 0 0
150 0 0
150 0 0
150 0 0
150 0 0
149 0 0
149 0 0
149 0 0
148 0 0
148 0 0
147 0 0
146 0 0
145 0 0
142 0 0
142 117 111
143 118 112
144 119 113
144 120 114
145 120 114
145 121 115
145 122 116
146 123 117
146 124 117
146 125 118
147 125 119
147 126 120
147 127 120
147 128 121
148 128 122
148 129 122
148 130 123
148 130 123
148 131 124
149 131 124
149 132 125
149 133 125
153 130 0
153 131 0
145 125 0
153 146 0
153 147 0
153 147 0
154 147 0
154 148 0
154 148 0
154 148 0
145 131 0
145 131 0
145 131 0
155 152 0
155 153 0
155 153 0
155 153 0
155 154 0
142 147 0
157 152 0
157 152 0
159 160 0
159 160 0
159 160 0
156 156 0
156 156 0
156 156 0
156 156 0
156 157 0
156 157 0
139 129 0
139 129 0
156 155 0
156 155 0
156 155 0
155 154 0
155 154 0
149 155 0
149 155 0
150 145 136
150 145 136
150 145 136
149 146 136
149 146 136
149 146 136
149 146 136
149 146 136
149 146 136
149 146 137
149 146 137
148 146 137
148 146 137
148 146 137
148 146 137
148 146 137
148 146 137
148 146 137
148 146 137
147 146 137
147 146 137
147 147 137
147 147 137
147 147 137
147 147 137
146 147 137
146 147 137
146 147 137
146 147 137
146 147 137
146 147 138
145 147 137
145 147 137
145 147 138
145 147 137
145 147 137
145 147 137
144 147 137
144 147 137
144 147 137
144 147 137
144 147 137
144 147 137
143 147 137
143 147 137
143 147 137
143 147 137
143 147 137
142 147 137
142 147 136
142 147 136
142 147 136
142 147 136
141 147 136
141 146 136
141 147 136
141 147 136
140 146 135
140 146 135
140 146 135
140 146 135
139 146 135
139 146 135
139 146 134
139 146 134
138 146 134
138 146 134
138 146 133
137 146 133
137 146 133
137 146 133
136 146 132
136 146 132
136 146 132
135 146 132
135 146 131
134 146 131
134 146 130
134 146 130
133 146 130
133 145 129
132 145 129
132 145 129
132 145 128
131 145 128
131 145 127
130 145 127
129 145 126
129 145 126
128 144 125
128 144 125
127 144 124
127 144 124
126 144 123
125 144 122
125 143 122
124 143 121
123 143 120
123 143 120
122 142 119
121 142 118
120 142 117
119 141 117
119 141 116
118 141 115
117 140 114
116 139 113
115 139 112
114 137 112
0 141 0
0 142 0
0 143 0
0 144 0
0 144 0
0 144 0
0 144 0
0 144 0
0 144 0
0 144 0
0 144 0
0 144 0
0 143 0
0 143 0
0 143 0
0 142 0
0 142 0
0 141 0
0 141 0
0 140 0
0 140 0
0 139 0
0 138 0
0 138 0
0 137 0
0 136 0
0 136 0
0 135 0
0 134 0
0 133 0
0 133 0
0 132 0
0 131 0
0 130 0
0 129 0
0 128 0
0 127 0
0 126 0
0 125 0
0 124 0
0 123 0
0 121 0
117 0 0
119 0 0
120 0 0
121 0 0
122 0 0
123 0 0
124 0 0
126 0 0
127 0 0
128 0 0
129 0 0
130 0 0
131 0 0
132 0 0
133 0 0
134 0 0
135 0 0
136 0 0
137 0 0
138 0 0
139 0 0
141 0 0
142 0 0
143 0 0
144 0 0
146 0 0
147 0 0
148 0 0
149 0 0
149 0 0
150 0 0
150 0 0
150 0 0
150 0 0
149 0 0
149 0 0
149 0 0
148 0 0
148 0 0
147 0 0
146 0 0
145 0 0
144 0 0
142 0 0
142 116 110
143 117 111
143 118 112
144 119 113
144 120 114
145 121 115
145 122 115
145 123 116
146 123 117
146 124 118
146 125 118
146 126 119
147 126 120
147 127 120
147 128 121
147 128 122
148 129 122
148 130 123
148 130 123
148 131 124
148 132 124
153 129 0
153 130 0
144 120 0
144 124 0
153 146 0
153 146 0
153 147 0
154 147 0
154 147 0
154 148 0
144 130 0
144 130 0
144 130 0
144 131 0
144 131 0
154 152 0
155 153 0
155 153 0
155 153 0
141 147 0
142 147 0
157 152 0
159 159 0
159 160 0
159 160 0
159 160 0
159 160 0
156 156 0
156 157 0
156 157 0
156 157 0
138 129 0
138 128 0
138 128 0
155 154 0
155 154 0
155 154 0
89 102 0
85 93 0
149 155 0
149 155 0
149 145 135
149 145 135
149 145 136
149 145 136
149 145 136
149 145 136
149 145 136
148 146 136
148 146 136
148 146 136
148 146 136
148 146 136
148 146 136
148 146 136
148 146 136
147 146 137
147 146 137
147 146 137
147 146 137
147 146 137
147 146 137
146 146 137
146 146 137
146 146 137
146 146 137
146 146 137
146 146 137
146 146 137
145 146 137
145 146 137
145 146 137
145 146 137
145 146 137
144 146 137
144 146 137
144 146 137
144 146 137
144 146 137
144 146 137
143 146 137
143 146 137
143 146 137
143 146 137
143 146 136
142 146 136
142 146 136
142 146 136
142 146 136
142 146 136
141 146 136
141 146 136
141 146 136
141 146 135
141 146 135
140 146 135
140 146 135
140 146 135
140 146 135
139 146 135
139 146 134
139 146 134
139 146 134
138 146 134
138 146 134
138 146 133
137 146 133
137 146 133
137 146 133
137 146 132
136 146 132
136 146 132
135 146 132
135 145 131
135 145 131
134 145 131
134 145 130
133 145 130
133 145 130
133 145 129
132 145 129
132 145 128
131 145 128
131 145 128
130 145 127
130 144 127
129 144 126
129 144 126
128 144 125
128 144 125
127 144 124
127 144 124
126 143 123
125 143 122
125 143 122
124 143 121
123 143 121
123 142 120
122 142 119
121 142 118
121 142 118
120 141 117
119 141 116
118 140 115
117 140 115
117 140 114
116 139 113
115 138 112
114 137 111
0 141 0
0 142 0
0 143 0
0 143 0
0 144 0
0 144 0
0 144 0
0 144 0
0 144 0
0 144 0
0 143 0
0 143 0
0 143 0
0 142 0
0 142 0
0 142 0
0 141 0
0 141 0
0 140 0
0 140 0
0 139 0
0 139 0
0 138 0
0 137 0
0 137 0
0 136 0
0 135 0
0 135 0
0 134 0
0 133 0
0 132 0
0 131 0
0 131 0
0 130 0
0 129 0
0 128 0
0 127 0
0 126 0
0 125 0
0 123 0
0 122 0
0 121 0
117 0 0
118 0 0
120 0 0
121 0 0
122 0 0
123 0 0
124 0 0
125 0 0
126 0 0
127 0 0
128 0 0
129 0 0
130 0 0
131 0 0
132 0 0
133 0 0
134 0 0
135 0 0
137 0 0
138 0 0
139 0 0
140 0 0
141 0 0
143 0 0
144 0 0
145 0 0
146 0 0
147 0 0
148 0 0
149 0 0
149 0 0
150 0 0
150 0 0
149 0 0
149 0 0
149 0 0
148 0 0
148 0 0
147 0 0
147 0 0
146 0 0
145 0 0
144 0 0
141 0 0
141 116 110
142 117 111
143 118 112
143 119 113
144 120 114
144 120 114
145 121 115
145 122 116
145 123 116
145 124 117
146 124 118
146 125 119
146 126 119
146 127 120
147 127 120
147 128 121
147 129 122
147 129 122
148 130 123
148 130 123
152 128 0
152 128 0
144 119 0
144 120 0
144 124 0
153 146 0
153 146 0
153 147 0
154 147 0
154 147 0
144 129 0
144 129 0
144 130 0
146 133 0
146 133 0
85 91 0
88 85 0
88 85 0
88 85 0
88 85 0
141 146 0
142 147 0
157 152 0
157 152 0
159 159 0
159 160 0
159 160 0
159 160 0
159 160 0
159 160 0
156 157 0
139 130 0
138 129 0
137 128 0
137 127 0
100 114 0
89 101 0
89 101 0
89 101 0
87 100 0
86 93 0
151 157 0
149 155 0
149 145 135
149 145 135
148 145 135
148 145 135
148 145 135
148 145 135
148 145 135
148 145 136
148 145 136
148 145 136
147 145 136
147 145 136
147 145 136
147 145 136
147 145 136
147 145 136
147 146 136
146 146 136
146 146 136
146 146 136
146 146 136
146 146 136
146 146 136
146 146 136
145 146 136
145 146 136
145 146 137
145 146 137
145 146 137
144 146 136
144 146 136
144 146 136
144 146 136
144 146 136
144 146 136
143 146 136
143 146 136
143 146 136
143 146 136
143 146 136
143 146 136
142 146 136
142 146 136
142 146 136
142 146 136
142 146 136
141 146 136
141 146 135
141 146 135
141 146 135
141 146 135
140 146 135
140 146 135
140 146 135
140 146 135
139 146 134
139 146 134
139 145 134
139 145 134
138 145 134
138 145 133
138 145 133
137 145 133
137 145 133
137 145 133
137 145 132
136 145 132
136 145 132
136 145 132
135 145 131
135 145 131
135 145 131
134 145 130
134 145 130
133 145 130
133 145 129
133 145 129
132 144 129
132 144 128
131 144 128
131 144 127
130 144 127
130 144 127
129 144 126
129 144 126
128 144 125
128 144 125
127 143 124
127 143 124
126 143 123
126 143 123
125 143 122
124 143 121
124 142 121
123 142 120
122 142 119
121 142 119
121 141 118
120 141 117
119 141 117
119 140 116
118 140 115
117 140 114
116 139 114
115 139 113
114 138 112
114 136 111
0 140 0
0 141 0
0 142 0
0 143 0
0 143 0
0 143 0
0 143 0
0 143 0
0 143 0
0 143 0
0 143 0
0 143 0
0 142 0
0 142 0
0 142 0
0 141 0
0 141 0
0 140 0
0 140 0
0 139 0
0 139 0
0 138 0
0 138 0
0 137 0
0 136 0
0 136 0
0 135 0
0 134 0
0 133 0
0 133 0
0 132 0
0 131 0
0 130 0
0 129 0
0 128 0
0 127 0
0 126 0
0 125 0
0 124 0
0 123 0
0 122 0
0 121 0
117 0 0
118 0 0
119 0 0
120 0 0
121 0 0
123 0 0
124 0 0
125 0 0
126 0 0
127 0 0
128 0 0
129 0 0
130 0 0
131 0 0
132 0 0
133 0 0
134 0 0
135 0 0
136 0 0
137 0 0
138 0 0
140 0 0
141 0 0
142 0 0
143 0 0
145 0 0
146 0 0
147 0 0
148 0 0
149 0 0
149 0 0
149 0 0
149 0 0
149 0 0
149 0 0
148 0 0
148 0 0
147 0 0
147 0 0
146 0 0
145 0 0
145 0 0
143 0 0
141 0 0
141 116 110
142 117 111
142 118 112
143 118 112
143 119 113
144 120 114
144 121 114
144 122 115
145 122 116
145 123 117
145 124 117
146 125 118
146 125 119
146 126 119
146 127 120
146 127 120
147 128 121
147 129 122
147 129 122
152 127 0
151 127 0
143 118 0
143 118 0
144 123 0
144 124 0
153 146 0
153 146 0
153 147 0
154 147 0
143 128 0
143 128 0
146 132 0
146 132 0
85 91 0
85 91 0
87 84 0
88 85 0
88 85 0
88 85 0
88 84 0
98 86 0
141 146 0
142 146 0
157 152 0
159 159 0
159 159 0
160 160 0
160 160 0
160 160 0
159 160 0
159 161 0
138 130 0
137 129 0
137 128 0
141 131 0
99 114 0
88 101 0
89 101 0
89 101 0
88 100 0
86 93 0
86 93 0
151 156 0
151 157 0
148 144 135
148 144 135
148 144 135
148 144 135
148 145 135
148 145 135
147 145 135
147 145 135
147 145 135
147 145 135
147 145 135
147 145 135
147 145 135
146 145 136
146 145 136
146 145 136
146 145 136
146 145 136
146 145 136
145 145 136
145 145 136
145 145 136
145 145 136
145 145 136
145 145 136
145 145 136
144 145 136
144 145 136
144 145 136
144 145 136
144 145 136
143 145 136
143 145 136
143 145 136
143 145 136
143 145 136
143 145 136
142 145 136
142 145 136
142 145 136
142 145 136
142 145 135
142 145 135
141 145 135
141 145 135
141 145 135
141 145 135
141 145 135
140 145 135
140 145 135
140 145 134
140 145 134
139 145 134
139 145 134
139 145 134
139 145 134
138 145 133
138 145 133
138 145 133
138 145 133
137 145 133
137 145 133
137 145 132
136 145 132
136 145 132
136 145 132
135 145 131
135 145 131
135 145 131
134 144 130
134 144 130
134 144 130
133 144 129
133 144 129
133 144 129
132 144 128
132 144 128
131 144 128
131 144 127
130 144 127
130 144 127
129 144 126
129 143 126
128 143 125
128 143 125
127 143 124
127 143 124
126 143 123
126 143 123
125 142 122
124 142 121
124 142 121
123 142 120
122 142 120
122 141 119
121 141 118
120 141 118
120 141 117
119 140 116
118 140 115
117 140 115
117 139 114
116 139 113
115 138 112
114 137 111
113 136 111
0 140 0
0 141 0
0 142 0
0 142 0
0 143 0
0 143 0
0 143 0
0 143 0
0 143 0
0 143 0
0 143 0
0 142 0
0 142 0
0 142 0
0 141 0
0 141 0
0 140 0
0 140 0
0 139 0
0 139 0
0 138 0
0 138 0
0 137 0
0 137 0
0 136 0
0 135 0
0 135 0
0 134 0
0 133 0
0 132 0
0 131 0
0 131 0
0 130 0
0 129 0
0 128 0
0 127 0
0 126 0
0 125 0
0 124 0
0 123 0
0 122 0
0 121 0
116 0 0
118 0 0
119 0 0
120 0 0
121 0 0
122 0 0
123 0 0
124 0 0
125 0 0
126 0 0
128 0 0
129 0 0
130 0 0
131 0 0
131 0 0
133 0 0
133 0 0
135 0 0
136 0 0
137 0 0
138 0 0
139 0 0
140 0 0
142 0 0
143 0 0
144 0 0
145 0 0
147 0 0
148 0 0
148 0 0
149 0 0
149 0 0
149 0 0
149 0 0
148 0 0
148 0 0
147 0 0
147 0 0
146 0 0
146 0 0
145 0 0
144 0 0
143 0 0
140 0 0
140 115 109
141 116 110
142 117 111
142 118 112
143 119 113
143 120 113
144 120 114
144 121 115
144 122 116
145 123 116
145 123 117
145 124 118
145 125 118
146 126 119
146 126 119
146 127 120
146 128 121
146 128 121
150 123 0
151 126 0
143 117 0
143 117 0
143 118 0
144 123 0
144 124 0
153 146 0
153 146 0
153 147 0
145 130 0
145 131 0
145 131 0
145 131 0
85 91 0
85 91 0
85 90 0
87 84 0
88 85 0
88 85 0
88 84 0
96 84 0
97 85 0
97 85 0
141 146 0
157 152 0
159 158 0
159 158 0
159 159 0
159 159 0
160 160 0
160 160 0
160 160 0
138 130 0
137 128 0
141 132 0
141 131 0
99 113 0
88 101 0
88 101 0
88 101 0
88 100 0
86 93 0
86 93 0
86 93 0
150 156 0
154 159 0
147 144 134
147 144 134
147 144 134
147 144 134
147 144 134
147 144 135
147 144 135
147 144 135
147 144 135
146 144 135
146 144 135
146 145 135
146 145 135
146 145 135
146 145 135
146 145 135
145 145 135
145 145 135
145 145 135
145 145 135
145 145 135
144 145 135
144 145 135
144 145 136
144 145 135
144 145 136
144 145 136
143 145 136
143 145 135
143 145 135
143 145 135
143 145 135
143 145 135
142 145 135
142 145 135
142 145 135
142 145 135
142 145 135
142 145 135
141 145 135
141 145 135
141 145 135
141 145 135
141 145 135
140 145 135
140 145 135
140 145 134
140 145 134
140 145 134
139 145 134
139 145 134
139 145 134
139 145 133
138 145 133
138 145 133
138 145 133
138 145 133
137 145 133
137 144 132
137 144 132
136 144 132
136 144 132
136 144 131
136 144 131
135 144 131
135 144 131
135 144 130
134 144 130
134 144 130
133 144 130
133 144 129
133 144 129
132 144 129
132 144 128
131 144 128
131 144 128
131 144 127
130 143 127
130 143 126
129 143 126
129 143 126
128 143 125
128 143 125
127 143 124
127 143 124
126 142 123
126 142 123
125 142 122
124 142 121
124 142 121
123 141 120
123 141 120
122 141 119
121 141 118
121 141 118
120 140 117
119 140 116
118 140 116
118 139 115
117 139 114
116 139 114
115 138 113
115 138 112
114 137 111
113 136 110
0 139 0
0 141 0
0 141 0
0 142 0
0 142 0
0 143 0
0 143 0
0 143 0
0 143 0
0 142 0
0 142 0
0 142 0
0 142 0
0 141 0
0 141 0
0 141 0
0 140 0
0 140 0
0 139 0
0 139 0
0 138 0
0 137 0
0 137 0
0 136 0
0 135 0
0 135 0
0 134 0
0 133 0
0 133 0
0 132 0
0 131 0
0 130 0
0 129 0
0 129 0
0 128 0
0 127 0
0 126 0
0 125 0
0 124 0
0 122 0
0 121 0
0 120 0
116 0 0
117 0 0
118 0 0
120 0 0
121 0 0
122 0 0
123 0 0
124 0 0
125 0 0
126 0 0
127 0 0
128 0 0
129 0 0
130 0 0
131 0 0
132 0 0
133 0 0
134 0 0
135 0 0
136 0 0
137 0 0
139 0 0
140 0 0
141 0 0
142 0 0
144 0 0
145 0 0
146 0 0
147 0 0
148 0 0
148 0 0
149 0 0
149 0 0
148 0 0
148 0 0
147 0 0
147 0 0
146 0 0
146 0 0
145 0 0
145 0 0
144 0 0
142 0 0
140 0 0
140 115 109
141 116 110
141 117 111
142 118 111
142 118 112
143 119 113
143 120 114
144 121 114
144 121 115
144 122 116
144 123 116
145 124 117
145 124 118
145 125 118
145 126 119
145 126 119
146 127 120
150 122 0
142 115 0
142 116 0
142 116 0
142 117 0
143 122 0
144 123 0
144 124 0
144 125 0
149 136 0
149 136 0
149 136 0
149 136 0
145 130 0
85 90 0
85 90 0
85 90 0
85 90 0
87 84 0
88 85 0
88 85 0
87 84 0
96 85 0
97 85 0
97 85 0
145 149 0
142 145 0
157 152 0
158 157 0
158 157 0
159 157 0
159 158 0
159 158 0
138 131 0
137 129 0
141 132 0
140 131 0
99 113 0
98 113 0
88 101 0
88 101 0
89 101 0
88 100 0
86 93 0
86 94 0
86 93 0
80 90 0
80 89 0
154 159 0
154 159 0
147 144 134
147 144 134
147 144 134
147 144 134
146 144 134
146 144 134
146 144 134
146 144 134
146 144 134
146 144 135
146 144 135
145 144 135
145 144 135
145 144 135
145 144 135
145 144 135
145 144 135
144 144 135
144 144 135
144 144 135
144 144 135
144 144 135
144 144 135
143 144 135
143 144 135
143 144 135
143 144 135
143 144 135
143 144 135
142 144 135
142 144 135
142 144 135
142 144 135
142 144 135
141 144 135
141 144 135
141 144 135
141 144 135
141 144 135
140 144 134
140 144 134
140 144 134
140 144 134
140 144 134
140 144 134
139 144 134
139 144 134
139 144 134
139 144 133
138 144 133
138 144 133
138 144 133
138 144 133
137 144 133
137 144 132
137 144 132
137 144 132
136 144 132
136 144 131
136 144 131
135 144 131
135 144 131
135 144 131
134 144 130
134 144 130
134 144 130
133 144 129
133 144 129
133 143 129
132 143 128
132 143 128
131 143 128
131 143 127
131 143 127
130 143 127
130 143 126
129 143 126
129 143 125
128 143 125
128 142 124
127 142 124
127 142 124
126 142 123
126 142 123
125 142 122
125 142 122
124 141 121
123 141 120
123 141 120
122 141 119
121 141 119
121 140 118
120 140 117
120 140 117
119 140 116
118 139 115
117 139 115
117 139 114
116 138 113
115 138 112
114 137 112
114 137 111
113 135 110
0 139 0
0 140 0
0 141 0
0 141 0
0 142 0
0 142 0
0 142 0
0 142 0
0 142 0
0 142 0
0 142 0
0 141 0
0 141 0
0 141 0
0 141 0
0 140 0
0 140 0
0 139 0
0 139 0
0 138 0
0 138 0
0 137 0
0 136 0
0 136 0
0 135 0
0 134 0
0 134 0
0 133 0
0 132 0
0 131 0
0 131 0
0 130 0
0 129 0
0 128 0
0 127 0
0 126 0
0 125 0
0 124 0
0 123 0
0 122 0
0 121 0
0 120 0
116 0 0
117 0 0
118 0 0
119 0 0
120 0 0
121 0 0
123 0 0
124 0 0
125 0 0
126 0 0
127 0 0
128 0 0
129 0 0
130 0 0
131 0 0
132 0 0
133 0 0
134 0 0
135 0 0
136 0 0
137 0 0
138 0 0
139 0 0
141 0 0
142 0 0
143 0 0
144 0 0
146 0 0
147 0 0
148 0 0
148 0 0
148 0 0
148 0 0
148 0 0
147 0 0
147 0 0
147 0 0
146 0 0
145 0 0
145 0 0
144 0 0
143 0 0
142 0 0
140 0 0
140 115 109
141 116 110
141 116 110
142 117 111
142 118 112
142 119 113
143 119 113
143 120 114
143 121 115
144 122 115
144 122 116
144 123 117
144 124 117
145 125 118
145 125 118
145 126 119
149 121 0
141 114 0
142 115 0
142 115 0
142 116 0
142 117 0
143 122 0
144 123 0
144 124 0
148 135 0
148 135 0
148 135 0
148 135 0
148 135 0
80 84 0
80 83 0
86 90 0
86 90 0
86 90 0
88 85 0
88 85 0
88 85 0
87 84 0
96 85 0
96 85 0
96 85 0
96 85 0
145 148 0
156 151 0
157 155 0
157 155 0
157 155 0
157 156 0
157 156 0
137 131 0
141 133 0
140 132 0
140 131 0
98 113 0
98 113 0
97 111 0
89 101 0
89 101 0
89 100 0
87 94 0
87 94 0
82 91 0
81 90 0
81 90 0
80 89 0
153 158 0
153 159 0
146 143 133
146 143 134
146 143 134
146 143 134
146 143 134
146 143 134
145 144 134
145 144 134
145 144 134
145 144 134
145 144 134
145 144 134
145 144 134
144 144 134
144 144 134
144 144 134
144 144 134
144 144 134
144 144 134
143 144 134
143 144 135
143 144 135
143 144 134
143 144 135
142 144 134
142 144 135
142 144 135
142 144 134
142 144 134
142 144 135
141 144 134
141 144 134
141 144 134
141 144 134
141 144 134
141 144 134
140 144 134
140 144 134
140 144 134
140 144 134
140 144 134
139 144 134
139 144 134
139 144 133
139 144 133
139 144 133
138 144 133
138 144 133
138 144 133
138 144 133
137 144 132
137 144 132
137 144 132
137 144 132
136 144 132
136 144 131
136 143 131
135 143 131
135 143 131
135 143 131
134 143 130
134 143 130
134 143 130
134 143 129
133 143 129
133 143 129
132 143 129
132 143 128
132 143 128
131 143 128
131 143 127
131 143 127
130 143 126
130 142 126
129 142 126
129 142 125
128 142 125
128 142 124
127 142 124
127 142 124
126 142 123
126 142 123
125 141 122
125 141 122
124 141 121
124 141 120
123 141 120
122 141 119
122 140 119
121 140 118
120 140 118
120 140 117
119 139 116
118 139 116
118 139 115
117 138 114
116 138 113
115 138 113
115 137 112
114 137 111
113 136 110
112 135 110
0 138 0
0 140 0
0 140 0
0 141 0
0 141 0
0 142 0
0 142 0
0 142 0
0 142 0
0 141 0
0 141 0
0 141 0
0 141 0
0 140 0
0 140 0
0 140 0
0 139 0
0 139 0
0 138 0
0 138 0
0 137 0
0 137 0
0 136 0
0 135 0
0 135 0
0 134 0
0 133 0
0 133 0
0 132 0
0 131 0
0 130 0
0 130 0
0 129 0
0 128 0
0 127 0
0 126 0
0 125 0
0 124 0
0 123 0
0 122 0
0 121 0
0 120 0
115 0 0
116 0 0
118 0 0
119 0 0
120 0 0
121 0 0
122 0 0
123 0 0
124 0 0
125 0 0
126 0 0
127 0 0
128 0 0
129 0 0
130 0 0
131 0 0
132 0 0
133 0 0
134 0 0
135 0 0
136 0 0
138 0 0
139 0 0
140 0 0
141 0 0
143 0 0
144 0 0
145 0 0
146 0 0
147 0 0
148 0 0
148 0 0
148 0 0
148 0 0
147 0 0
146 0 0
146 0 0
146 0 0
145 0 0
144 0 0
144 0 0
143 0 0
141 0 0
139 0 0
139 114 108
140 115 109
141 116 110
141 117 111
142 118 111
142 118 112
142 119 113
143 120 113
143 121 114
143 121 115
143 122 115
144 123 116
144 123 117
144 124 117
144 125 118
149 119 0
152 138 0
141 115 0
142 115 0
142 116 0
142 116 0
142 117 0
143 122 0
148 133 0
148 134 0
148 134 0
148 134 0
148 134 0
79 83 0
80 83 0
80 84 0
81 83 0
82 84 0
87 90 0
87 90 0
89 85 0
89 86 0
88 85 0
95 85 0
96 85 0
96 85 0
96 85 0
96 85 0
143 147 0
145 147 0
143 141 0
153 151 0
153 151 0
153 150 0
152 150 0
141 135 0
140 133 0
139 131 0
98 112 0
98 113 0
98 113 0
97 112 0
89 102 0
90 102 0
90 102 0
88 95 0
85 93 0
84 92 0
83 92 0
82 91 0
81 90 0
80 90 0
79 89 0
153 158 0
153 159 0
146 143 133
145 143 133
145 143 133
145 143 133
145 143 133
145 143 133
145 143 133
145 143 134
144 143 134
144 143 134
144 143 134
144 143 134
144 143 134
144 143 134
143 143 134
143 143 134
143 143 134
143 143 134
143 143 134
143 143 134
142 143 134
142 143 134
142 143 134
142 143 134
142 143 134
142 143 134
141 143 134
141 143 134
141 143 134
141 143 134
141 143 134
140 143 134
140 143 134
140 143 134
140 143 134
140 143 134
139 143 133
139 143 133
139 143 133
139 143 133
139 143 133
139 143 133
138 143 133
138 143 133
138 143 133
138 143 132
137 143 132
137 143 132
137 143 132
137 143 132
136 143 132
136 143 131
136 143 131
136 143 131
135 143 131
135 143 130
135 143 130
134 143 130
134 143 130
134 143 129
133 143 129
133 143 129
133 143 129
132 143 128
132 142 128
132 142 128
131 142 127
131 142 127
130 142 127
130 142 126
130 142 126
129 142 126
129 142 125
128 142 125
128 142 124
127 142 124
127 141 124
126 141 123
126 141 122
125 141 122
125 141 121
124 141 121
124 141 121
123 140 120
122 140 119
122 140 119
121 140 118
121 140 118
120 139 117
119 139 116
119 139 116
118 139 115
117 138 114
117 138 114
116 138 113
115 137 112
114 137 112
114 136 111
113 136 110
112 134 109
0 138 0
0 139 0
0 140 0
0 141 0
0 141 0
0 141 0
0 141 0
0 141 0
0 141 0
0 141 0
0 141 0
0 141 0
0 140 0
0 140 0
0 140 0
0 139 0
0 139 0
0 138 0
0 138 0
0 137 0
0 137 0
0 136 0
0 136 0
0 135 0
0 134 0
0 134 0
0 133 0
0 132 0
0 131 0
0 131 0
0 130 0
0 129 0
0 128 0
0 127 0
0 126 0
0 126 0
0 125 0
0 124 0
0 122 0
0 122 0
0 120 0
0 119 0
115 0 0
116 0 0
117 0 0
118 0 0
120 0 0
121 0 0
122 0 0
123 0 0
124 0 0
125 0 0
126 0 0
127 0 0
128 0 0
129 0 0
130 0 0
131 0 0
132 0 0
133 0 0
134 0 0
135 0 0
136 0 0
137 0 0
138 0 0
140 0 0
141 0 0
142 0 0
144 0 0
145 0 0
146 0 0
147 0 0
147 0 0
148 0 0
148 0 0
147 0 0
147 0 0
146 0 0
146 0 0
145 0 0
145 0 0
144 0 0
143 0 0
142 0 0
141 0 0
139 0 0
139 114 108
140 115 109
140 116 110
141 116 110
141 117 111
141 118 112
142 119 112
142 119 113
142 120 114
143 121 114
143 121 115
143 122 116
143 123 116
144 124 117
152 128 0
152 139 0
151 137 0
141 115 0
141 115 0
142 116 0
142 116 0
147 132 0
147 132 0
147 133 0
147 133 0
147 133 0
78 81 0
78 82 0
79 83 0
81 84 0
82 85 0
83 85 0
85 86 0
85 86 0
89 91 0
91 86 0
90 86 0
89 86 0
96 86 0
96 86 0
96 86 0
96 85 0
96 85 0
95 84 0
142 147 0
149 150 0
142 140 0
141 138 0
150 148 0
146 143 0
145 141 0
139 133 0
139 130 0
97 112 0
97 112 0
97 113 0
97 112 0
91 104 0
118 125 0
117 124 0
87 97 0
88 96 0
88 96 0
86 94 0
84 93 0
82 91 0
81 91 0
80 90 0
79 89 0
78 89 0
153 158 0
153 159 0
145 143 133
145 143 133
145 143 133
144 143 133
144 143 133
144 143 133
144 143 133
144 143 133
144 143 133
143 143 133
143 143 133
143 143 133
143 143 133
143 143 134
143 143 134
142 143 134
142 143 134
142 143 134
142 143 134
142 143 134
141 143 134
141 143 134
141 143 134
141 143 134
141 143 133
141 143 133
141 143 133
140 143 133
140 143 133
140 143 133
140 143 133
140 143 133
139 143 133
139 143 133
139 143 133
139 143 133
139 143 133
138 143 133
138 143 132
138 143 132
138 143 132
138 143 132
137 143 132
137 143 132
137 143 132
137 143 131
136 143 131
136 143 131
136 143 131
135 143 131
135 143 131
135 142 130
135 142 130
134 142 130
134 142 130
134 142 129
133 142 129
133 142 129
133 142 129
132 142 128
132 142 128
132 142 128
131 142 127
131 142 127
131 142 127
130 142 127
130 142 126
129 142 126
129 142 125
129 141 125
128 141 125
128 141 124
127 141 124
127 141 123
126 141 123
126 141 123
125 141 122
125 141 122
124 140 121
124 140 121
123 140 120
123 140 119
122 140 119
121 140 118
121 139 118
120 139 117
120 139 117
119 139 116
118 138 115
118 138 115
117 138 114
116 138 113
116 137 113
115 137 112
114 136 111
113 136 110
112 135 110
112 134 109
0 137 0
0 139 0
0 140 0
0 140 0
0 140 0
0 141 0
0 141 0
0 141 0
0 141 0
0 141 0
0 140 0
0 140 0
0 140 0
0 140 0
0 139 0
0 139 0
0 138 0
0 138 0
0 137 0
0 137 0
0 136 0
0 136 0
0 135 0
0 135 0
0 134 0
0 133 0
0 133 0
0 132 0
0 131 0
0 130 0
0 130 0
0 129 0
0 128 0
0 127 0
0 126 0
0 125 0
0 124 0
0 123 0
0 122 0
0 121 0
0 120 0
0 119 0
115 0 0
116 0 0
117 0 0
118 0 0
119 0 0
120 0 0
121 0 0
122 0 0
123 0 0
124 0 0
125 0 0
126 0 0
127 0 0
128 0 0
129 0 0
130 0 0
131 0 0
132 0 0
133 0 0
134 0 0
135 0 0
136 0 0
138 0 0
139 0 0
140 0 0
142 0 0
143 0 0
144 0 0
146 0 0
147 0 0
147 0 0
147 0 0
147 0 0
147 0 0
146 0 0
146 0 0
145 0 0
145 0 0
144 0 0
143 0 0
143 0 0
142 0 0
141 0 0
138 0 0
139 114 108
139 114 109
140 115 109
140 116 110
141 117 111
141 117 111
141 118 112
142 119 113
142 120 113
142 120 114
143 121 115
143 122 115
143 122 116
152 127 0
152 138 0
152 138 0
151 137 0
141 116 0
141 116 0
141 116 0
146 131 0
147 131 0
146 132 0
146 132 0
146 132 0
77 81 0
78 81 0
79 82 0
81 83 0
83 84 0
86 86 0
88 88 0
90 89 0
111 106 0
116 111 0
118 115 0
119 116 0
119 116 0
113 111 0
81 73 0
80 72 0
79 70 0
77 68 0
76 66 0
75 65 0
147 150 0
148 149 0
142 139 0
146 144 0
145 142 0
145 140 0
144 138 0
98 114 0
76 97 0
78 98 0
81 99 0
116 122 0
119 124 0
124 130 0
123 129 0
121 129 0
118 126 0
94 102 0
92 100 0
88 97 0
84 94 0
82 92 0
80 91 0
79 90 0
78 89 0
77 88 0
152 158 0
152 158 0
139 146 0
144 142 132
144 142 132
144 142 132
144 142 133
143 142 133
143 142 133
143 142 133
143 142 133
143 142 133
143 142 133
142 142 133
142 142 133
142 142 133
142 142 133
142 142 133
142 142 133
141 142 133
141 142 133
141 142 133
141 142 133
141 142 133
141 142 133
140 142 133
140 142 133
140 142 133
140 142 133
140 142 133
139 142 133
139 142 133
139 142 133
139 142 133
139 142 133
139 142 132
138 142 132
138 142 132
138 142 132
138 142 132
138 142 132
137 142 132
137 142 132
137 142 132
137 142 131
136 142 131
136 142 131
136 142 131
136 142 131
135 142 131
135 142 130
135 142 130
134 142 130
134 142 130
134 142 129
134 142 129
133 142 129
133 142 129
133 142 128
132 142 128
132 142 128
132 142 128
131 142 127
131 142 127
130 141 127
130 141 126
130 141 126
129 141 126
129 141 125
129 141 125
128 141 125
128 141 124
127 141 124
127 141 123
126 141 123
126 140 122
125 140 122
125 140 121
124 140 121
124 140 121
123 140 120
123 140 119
122 139 119
122 139 119
121 139 118
120 139 117
120 139 117
119 138 116
118 138 116
118 138 115
117 138 114
116 137 114
116 137 113
115 137 112
114 136 112
114 136 111
113 135 110
112 135 109
111 133 109
0 137 0
0 138 0
0 139 0
0 140 0
0 140 0
0 140 0
0 140 0
0 140 0
0 140 0
0 140 0
0 140 0
0 140 0
0 140 0
0 139 0
0 139 0
0 139 0
0 138 0
0 138 0
0 137 0
0 137 0
0 136 0
0 135 0
0 135 0
0 134 0
0 133 0
0 133 0
0 132 0
0 131 0
0 131 0
0 130 0
0 129 0
0 128 0
0 128 0
0 127 0
0 126 0
0 125 0
0 124 0
0 123 0
0 122 0
0 121 0
0 120 0
0 119 0
114 0 0
115 0 0
117 0 0
118 0 0
119 0 0
120 0 0
121 0 0
122 0 0
123 0 0
124 0 0
125 0 0
126 0 0
127 0 0
128 0 0
129 0 0
130 0 0
131 0 0
132 0 0
133 0 0
134 0 0
135 0 0
136 0 0
137 0 0
138 0 0
140 0 0
141 0 0
143 0 0
144 0 0
145 0 0
146 0 0
147 0 0
147 0 0
147 0 0
147 0 0
146 0 0
145 0 0
145 0 0
144 0 0
144 0 0
143 0 0
142 0 0
141 0 0
140 0 0
138 0 0
138 113 108
139 114 108
139 115 109
140 116 110
140 116 110
141 117 111
141 118 112
141 118 112
142 119 113
142 120 113
142 121 114
142 121 115
150 125 0
151 138 0
151 138 0
151 138 0
151 137 0
150 136 0
135 123 0
146 130 0
146 130 0
146 131 0
146 131 0
76 79 0
77 80 0
78 80 0
79 81 0
81 82 0
83 83 0
88 86 0
92 89 0
113 108 0
117 112 0
120 115 0
122 116 0
122 119 0
123 119 0
120 120 0
118 118 0
115 113 0
105 102 0
78 71 0
92 79 0
94 81 0
80 82 0
80 82 0
148 150 0
150 149 0
147 145 0
146 143 0
146 141 0
80 93 0
80 94 0
96 113 0
105 114 0
116 122 0
119 124 0
122 125 0
107 116 0
105 115 0
104 108 0
87 89 0
135 139 0
132 136 0
79 91 0
81 91 0
74 86 0
70 83 0
67 80 0
64 78 0
63 77 0
62 75 0
76 88 0
139 146 0
139 146 0
138 146 0
143 142 132
143 142 132
143 142 132
143 142 132
143 142 132
142 142 132
142 142 132
142 142 132
142 142 133
142 142 132
142 142 133
141 142 132
141 142 133
141 142 133
141 142 133
141 142 133
141 142 133
140 142 133
140 142 133
140 142 133
140 142 133
140 142 132
140 142 132
139 142 132
139 142 132
139 142 132
139 142 132
139 142 132
138 142 132
138 142 132
138 142 132
138 142 132
138 142 132
137 142 132
137 142 132
137 142 131
137 142 131
137 142 131
136 142 131
136 142 131
136 142 131
136 142 131
135 142 130
135 142 130
135 142 130
135 142 130
134 142 130
134 142 129
134 142 129
133 141 129
133 141 129
133 141 128
132 141 128
132 141 128
132 141 128
131 141 127
131 141 127
131 141 127
130 141 126
130 141 126
130 141 126
129 141 125
129 141 125
128 141 125
128 141 124
128 141 124
127 140 124
127 140 123
126 140 123
126 140 122
125 140 122
125 140 121
124 140 121
124 140 121
123 139 120
123 139 120
122 139 119
122 139 118
121 139 118
120 139 117
120 138 117
119 138 116
119 138 116
118 138 115
117 137 114
117 137 114
116 137 113
115 137 113
115 136 112
114 136 111
113 135 111
113 135 110
112 134 109
111 133 108
0 136 0
0 138 0
0 139 0
0 139 0
0 139 0
0 140 0
0 140 0
0 140 0
0 140 0
0 140 0
0 139 0
0 139 0
0 139 0
0 139 0
0 138 0
0 138 0
0 138 0
0 137 0
0 137 0
0 136 0
0 136 0
0 135 0
0 134 0
0 134 0
0 133 0
0 133 0
0 132 0
0 131 0
0 130 0
0 130 0
0 129 0
0 128 0
0 127 0
0 126 0
0 125 0
0 124 0
0 124 0
0 123 0
0 122 0
0 120 0
0 119 0
0 118 0
114 0 0
115 0 0
116 0 0
117 0 0
118 0 0
120 0 0
120 0 0
121 0 0
123 0 0
124 0 0
124 0 0
125 0 0
126 0 0
127 0 0
128 0 0
129 0 0
130 0 0
131 0 0
132 0 0
133 0 0
134 0 0
135 0 0
137 0 0
138 0 0
139 0 0
141 0 0
142 0 0
143 0 0
145 0 0
146 0 0
147 0 0
147 0 0
147 0 0
146 0 0
145 0 0
145 0 0
144 0 0
144 0 0
143 0 0
143 0 0
142 0 0
141 0 0
140 0 0
137 0 0
138 113 107
138 114 108
139 114 109
139 115 109
140 116 110
140 117 111
141 117 111
141 118 112
141 119 112
141 119 113
142 120 114
150 124 0
151 137 0
151 137 0
151 137 0
151 137 0
134 122 0
134 122 0
133 119 0
131 104 0
131 104 0
75 78 0
75 78 0
62 65 0
64 66 0
66 67 0
70 68 0
75 71 0
82 76 0
110 103 0
119 111 0
128 118 0
85 88 0
93 96 0
105 107 0
106 102 0
105 101 0
102 103 0
93 88 0
119 119 0
116 114 0
100 100 0
94 84 0
95 83 0
80 82 0
80 82 0
80 82 0
147 150 0
147 145 0
145 141 0
80 93 0
80 93 0
80 94 0
98 113 0
103 109 0
119 124 0
122 125 0
101 108 0
69 77 0
128 130 0
132 134 0
127 133 0
25 43 0
86 91 0
78 89 0
117 126 0
94 107 0
73 85 0
68 81 0
65 79 0
63 77 0
58 74 0
57 73 0
57 72 0
138 145 0
138 145 0
138 145 0
143 141 132
142 141 132
142 141 132
142 141 132
142 142 132
142 141 132
142 141 132
141 141 132
141 142 132
141 141 132
141 142 132
141 141 132
141 141 132
140 142 132
140 142 132
140 141 132
140 141 132
140 141 132
140 142 132
139 142 132
139 141 132
139 142 132
139 142 132
139 141 132
138 141 132
138 141 132
138 142 132
138 141 132
138 141 132
138 141 131
137 141 131
137 141 131
137 141 131
137 141 131
136 141 131
136 141 131
136 141 131
136 141 131
136 141 130
135 141 130
135 141 130
135 141 130
135 141 130
134 141 130
134 141 129
134 141 129
133 141 129
133 141 129
133 141 128
133 141 128
132 141 128
132 141 128
132 141 127
131 141 127
131 141 127
131 141 127
130 141 126
130 140 126
129 140 126
129 140 125
129 140 125
128 140 125
128 140 124
128 140 124
127 140 123
127 140 123
126 140 123
126 140 122
125 140 122
125 139 121
124 139 121
124 139 121
123 139 120
123 139 120
122 139 119
122 139 119
121 138 118
121 138 118
120 138 117
119 138 116
119 138 116
118 137 115
118 137 115
117 137 114
116 137 114
116 136 113
115 136 112
114 136 112
114 135 111
113 135 110
112 135 110
112 134 109
111 133 108
0 136 0
0 137 0
0 138 0
0 139 0
0 139 0
0 139 0
0 139 0
0 139 0
0 139 0
0 139 0
0 139 0
0 139 0
0 139 0
0 138 0
0 138 0
0 138 0
0 137 0
0 137 0
0 136 0
0 136 0
0 135 0
0 135 0
0 134 0
0 133 0
0 133 0
0 132 0
0 131 0
0 131 0
0 130 0
0 129 0
0 128 0
0 128 0
0 127 0
0 126 0
0 125 0
0 124 0
0 123 0
0 122 0
0 121 0
0 120 0
0 119 0
0 118 0
114 0 0
115 0 0
116 0 0
117 0 0
118 0 0
119 0 0
120 0 0
121 0 0
122 0 0
123 0 0
124 0 0
125 0 0
126 0 0
127 0 0
128 0 0
129 0 0
130 0 0
131 0 0
132 0 0
133 0 0
134 0 0
135 0 0
136 0 0
137 0 0
139 0 0
140 0 0
141 0 0
143 0 0
144 0 0
145 0 0
146 0 0
146 0 0
146 0 0
146 0 0
145 0 0
144 0 0
144 0 0
143 0 0
143 0 0
142 0 0
141 0 0
140 0 0
139 0 0
137 0 0
137 112 107
138 113 108
139 114 108
139 115 109
139 115 109
140 116 110
140 117 111
140 118 111
141 118 112
141 119 113
127 72 0
123 70 0
156 145 0
133 120 0
133 120 0
133 120 0
133 120 0
133 120 0
131 117 0
130 103 0
57 53 0
58 53 0
62 63 0
64 64 0
66 66 0
70 67 0
75 69 0
105 97 0
114 105 0
124 114 0
77 68 0
24 25 0
96 94 0
127 122 0
122 115 0
123 121 0
129 128 0
124 124 0
101 101 0
91 88 0
108 111 0
104 107 0
93 85 0
95 84 0
80 82 0
80 82 0
79 82 0
79 82 0
146 148 0
79 92 0
80 92 0
80 93 0
80 93 0
98 111 0
105 110 0
112 114 0
102 110 0
131 133 0
133 135 0
137 137 0
125 129 0
125 130 0
125 132 0
125 132 0
93 106 0
74 89 0
70 86 0
112 123 0
94 107 0
64 79 0
58 76 0
57 74 0
56 73 0
56 72 0
98 115 0
99 115 0
99 115 0
142 141 131
142 141 131
142 141 131
142 141 131
141 141 131
141 141 131
141 141 131
141 141 131
141 141 131
141 141 132
140 141 132
140 141 132
140 141 132
140 141 132
140 141 132
140 141 132
139 141 132
139 141 132
139 141 132
139 141 132
139 141 132
139 141 132
138 141 131
138 141 131
138 141 131
138 141 131
138 141 131
137 141 131
137 141 131
137 141 131
137 141 131
137 141 131
136 141 131
136 141 131
136 141 131
136 141 130
136 141 130
135 141 130
135 141 130
135 141 130
135 141 130
134 141 129
134 141 129
134 141 129
134 141 129
133 141 129
133 141 128
133 140 128
132 140 128
132 140 128
132 140 127
131 140 127
131 140 127
131 140 127
130 140 126
130 140 126
130 140 126
129 140 125
129 140 125
129 140 125
128 140 124
128 140 124
127 140 124
127 140 123
127 139 123
126 139 123
126 139 122
125 139 122
125 139 121
124 139 121
124 139 120
123 139 120
123 138 120
122 138 119
122 138 119
121 138 118
121 138 118
120 138 117
120 138 117
119 137 116
118 137 116
118 137 115
117 137 114
117 137 114
116 136 113
115 136 112
115 136 112
114 135 111
113 135 111
113 135 110
112 134 109
111 133 109
110 132 108
0 136 0
0 137 0
0 138 0
0 138 0
0 139 0
0 139 0
0 139 0
0 139 0
0 139 0
0 139 0
0 139 0
0 138 0
0 138 0
0 138 0
0 138 0
0 137 0
0 137 0
0 136 0
0 136 0
0 135 0
0 135 0
0 134 0
0 134 0
0 133 0
0 132 0
0 132 0
0 131 0
0 130 0
0 130 0
0 129 0
0 128 0
0 127 0
0 126 0
0 126 0
0 125 0
0 124 0
0 123 0
0 122 0
0 121 0
0 120 0
0 119 0
0 118 0
113 0 0
114 0 0
115 0 0
117 0 0
118 0 0
119 0 0
120 0 0
121 0 0
122 0 0
123 0 0
124 0 0
125 0 0
126 0 0
126 0 0
127 0 0
128 0 0
129 0 0
130 0 0
131 0 0
132 0 0
133 0 0
134 0 0
135 0 0
137 0 0
138 0 0
139 0 0
140 0 0
142 0 0
143 0 0
145 0 0
146 0 0
146 0 0
146 0 0
145 0 0
144 0 0
144 0 0
143 0 0
143 0 0
142 0 0
142 0 0
141 0 0
140 0 0
139 0 0
137 0 0
137 112 107
138 113 107
138 114 108
139 114 109
139 115 109
139 116 110
140 116 111
140 117 111
140 118 112
123 61 0
126 71 0
121 74 0
121 75 0
92 52 0
96 70 0
96 70 0
132 119 0
131 118 0
129 104 0
57 52 0
57 53 0
58 54 0
59 54 0
64 62 0
67 61 0
101 93 0
111 103 0
119 109 0
71 58 0
60 54 0
108 99 0
123 114 0
122 114 0
122 115 0
122 115 0
123 120 0
123 121 0
123 121 0
132 132 0
106 109 0
96 90 0
110 114 0
101 103 0
94 86 0
80 82 0
79 82 0
79 82 0
89 89 0
90 89 0
90 102 0
79 92 0
80 93 0
81 93 0
102 108 0
111 112 0
113 114 0
111 112 0
117 114 0
121 116 0
124 129 0
125 129 0
125 129 0
125 132 0
124 132 0
124 132 0
112 125 0
70 87 0
68 86 0
107 121 0
95 111 0
89 102 0
88 101 0
90 103 0
90 104 0
98 114 0
98 114 0
93 111 0
142 140 131
141 140 131
141 140 131
141 140 131
141 140 131
141 140 131
141 140 131
140 140 131
140 140 131
140 141 131
140 140 131
140 141 131
140 141 131
139 141 131
139 141 131
139 140 131
139 140 131
139 140 131
139 141 131
138 140 131
138 141 131
138 141 131
138 141 131
138 141 131
137 141 131
137 141 131
137 141 131
137 140 131
137 141 131
136 140 131
136 140 130
136 140 130
136 141 130
136 140 130
136 140 130
135 140 130
135 140 130
135 140 130
135 140 129
134 140 129
134 140 129
134 140 129
133 140 129
133 140 129
133 140 128
133 140 128
132 140 128
132 140 128
132 140 128
132 140 127
131 140 127
131 140 127
131 140 126
130 140 126
130 140 126
130 140 126
129 140 125
129 140 125
128 139 125
128 139 124
128 139 124
127 139 124
127 139 123
127 139 123
126 139 123
126 139 122
125 139 122
125 139 121
124 139 121
124 138 120
123 138 120
123 138 120
122 138 119
122 138 119
121 138 118
121 138 118
120 137 117
120 137 117
119 137 116
119 137 115
118 137 115
117 136 114
117 136 114
116 136 113
116 136 113
115 135 112
114 135 111
113 135 111
113 134 110
112 134 110
111 134 109
111 133 108
110 132 108
0 135 0
0 136 0
0 137 0
0 138 0
0 138 0
0 138 0
0 138 0
0 139 0
0 139 0
0 138 0
0 138 0
0 138 0
0 138 0
0 138 0
0 137 0
0 137 0
0 136 0
0 136 0
0 135 0
0 135 0
0 134 0
0 134 0
0 133 0
0 133 0
0 132 0
0 131 0
0 131 0
0 130 0
0 129 0
0 128 0
0 128 0
0 127 0
0 126 0
0 125 0
0 124 0
0 123 0
0 122 0
0 122 0
0 120 0
0 119 0
0 118 0
0 117 0
113 0 0
114 0 0
115 0 0
116 0 0
117 0 0
118 0 0
119 0 0
120 0 0
121 0 0
122 0 0
123 0 0
124 0 0
125 0 0
126 0 0
127 0 0
128 0 0
129 0 0
130 0 0
130 0 0
132 0 0
133 0 0
134 0 0
135 0 0
136 0 0
137 0 0
138 0 0
140 0 0
141 0 0
143 0 0
144 0 0
145 0 0
145 0 0
145 0 0
145 0 0
144 0 0
143 0 0
143 0 0
142 0 0
142 0 0
141 0 0
140 0 0
139 0 0
138 0 0
136 0 0
136 112 106
137 112 107
138 113 107
138 114 108
138 115 109
139 115 109
139 116 110
139 117 111
140 117 111
123 62 0
125 71 0
120 73 0
120 74 0
92 51 0
96 69 0
95 70 0
95 70 0
95 70 0
89 81 0
85 80 0
82 79 0
83 80 0
86 82 0
88 84 0
99 85 0
105 91 0
68 59 0
70 57 0
96 78 0
111 94 0
116 99 0
115 105 0
121 114 0
121 114 0
121 115 0
123 120 0
123 120 0
123 120 0
115 117 0
115 121 0
93 93 0
112 117 0
109 114 0
93 87 0
79 83 0
89 89 0
89 89 0
89 89 0
89 89 0
90 102 0
90 102 0
90 102 0
81 92 0
109 111 0
112 113 0
103 108 0
115 114 0
116 112 0
115 118 0
116 119 0
124 129 0
124 129 0
124 132 0
124 132 0
118 128 0
118 128 0
110 124 0
92 101 0
98 105 0
106 121 0
96 108 0
96 108 0
91 105 0
93 106 0
98 114 0
98 114 0
93 110 0
141 140 130
141 140 130
141 140 130
140 140 130
140 140 130
140 140 130
140 140 130
140 140 130
140 140 131
139 140 131
139 140 131
139 140 131
139 140 131
139 140 131
139 140 131
139 140 131
138 140 131
138 140 131
138 140 131
138 140 131
138 140 131
137 140 131
137 140 130
137 140 131
137 140 130
137 140 130
137 140 130
136 140 130
136 140 130
136 140 130
136 140 130
136 140 130
135 140 130
135 140 130
135 140 130
135 140 129
135 140 129
134 140 129
134 140 129
134 140 129
134 140 129
133 140 128
133 140 128
133 140 128
133 140 128
132 140 128
132 140 127
132 140 127
131 140 127
131 139 127
131 139 126
130 139 126
130 139 126
130 139 126
129 139 125
129 139 125
129 139 125
128 139 124
128 139 124
128 139 124
127 139 124
127 139 123
126 139 123
126 139 122
126 138 122
125 138 122
125 138 121
124 138 121
124 138 120
123 138 120
123 138 120
122 138 119
122 138 119
121 137 118
121 137 118
120 137 117
120 137 117
119 137 116
119 137 116
118 136 115
118 136 115
117 136 114
116 136 114
116 136 113
115 135 112
115 135 112
114 135 111
113 134 110
113 134 110
112 134 109
111 133 108
110 133 108
110 131 107
0 135 0
0 136 0
0 137 0
0 137 0
0 138 0
0 138 0
0 138 0
0 138 0
0 138 0
0 138 0
0 138 0
0 138 0
0 137 0
0 137 0
0 137 0
0 136 0
0 136 0
0 136 0
0 135 0
0 134 0
0 134 0
0 133 0
0 133 0
0 132 0
0 132 0
0 131 0
0 130 0
0 130 0
0 129 0
0 128 0
0 127 0
0 127 0
0 126 0
0 125 0
0 124 0
0 123 0
0 122 0
0 121 0
0 120 0
0 119 0
0 118 0
0 117 0
113 0 0
114 0 0
115 0 0
116 0 0
117 0 0
118 0 0
119 0 0
120 0 0
121 0 0
122 0 0
123 0 0
124 0 0
125 0 0
126 0 0
126 0 0
127 0 0
128 0 0
129 0 0
130 0 0
131 0 0
132 0 0
133 0 0
134 0 0
135 0 0
136 0 0
137 0 0
139 0 0
140 0 0
142 0 0
143 0 0
145 0 0
145 0 0
144 0 0
144 0 0
143 0 0
143 0 0
142 0 0
142 0 0
141 0 0
141 0 0
140 0 0
139 0 0
138 0 0
136 0 0
136 111 106
137 112 107
137 113 107
138 113 108
138 114 108
138 115 109
139 115 110
139 116 110
139 117 111
125 70 0
124 70 0
120 73 0
120 74 0
91 51 0
91 51 0
95 69 0
94 69 0
94 69 0
91 83 0
89 82 0
93 89 0
93 89 0
94 89 0
100 85 0
105 89 0
98 99 0
91 88 0
102 87 0
111 95 0
114 96 0
115 96 0
115 104 0
115 105 0
121 114 0
121 114 0
122 120 0
122 120 0
114 116 0
114 117 0
114 117 0
109 111 0
104 100 0
108 115 0
102 106 0
89 90 0
89 89 0
89 89 0
89 89 0
89 89 0
90 101 0
90 102 0
91 102 0
105 110 0
108 108 0
110 110 0
110 112 0
116 113 0
115 109 0
115 118 0
115 118 0
115 118 0
124 129 0
124 131 0
118 128 0
118 128 0
118 128 0
117 130 0
18 18 0
96 104 0
112 126 0
108 122 0
92 106 0
93 106 0
93 106 0
97 113 0
92 110 0
93 110 0
140 139 130
140 139 130
140 139 130
140 139 130
140 139 130
140 139 130
139 139 130
139 139 130
139 139 130
139 139 130
139 139 130
139 139 130
139 140 130
138 139 130
138 140 130
138 140 130
138 140 130
138 139 130
137 139 130
137 140 130
137 140 130
137 140 130
137 139 130
137 140 130
136 140 130
136 140 130
136 140 130
136 139 130
136 139 130
136 140 130
135 139 129
135 139 129
135 139 129
135 139 129
135 139 129
134 139 129
134 139 129
134 139 129
134 139 129
133 139 128
133 139 128
133 139 128
133 139 128
132 139 128
132 139 127
132 139 127
131 139 127
131 139 127
131 139 127
131 139 126
130 139 126
130 139 126
130 139 126
129 139 125
129 139 125
129 139 125
128 138 124
128 139 124
127 138 124
127 138 123
127 138 123
126 138 123
126 138 122
125 138 122
125 138 122
125 138 121
124 138 121
124 138 120
123 138 120
123 137 119
122 137 119
122 137 119
121 137 118
121 137 118
120 137 117
120 137 117
119 136 116
119 136 116
118 136 115
118 136 115
117 136 114
116 136 114
116 135 113
115 135 113
115 135 112
114 135 111
113 134 111
113 134 110
112 134 109
111 133 109
111 133 108
110 132 107
110 131 107
0 134 0
0 135 0
0 136 0
0 137 0
0 137 0
0 137 0
0 137 0
0 138 0
0 138 0
0 137 0
0 137 0
0 137 0
0 137 0
0 137 0
0 136 0
0 136 0
0 136 0
0 135 0
0 135 0
0 134 0
0 134 0
0 133 0
0 132 0
0 132 0
0 131 0
0 131 0
0 130 0
0 129 0
0 129 0
0 128 0
0 127 0
0 126 0
0 125 0
0 125 0
0 124 0
0 123 0
0 122 0
0 121 0
0 120 0
0 119 0
0 118 0
0 117 0
112 0 0
113 0 0
114 0 0
115 0 0
116 0 0
118 0 0
118 0 0
119 0 0
120 0 0
121 0 0
122 0 0
123 0 0
124 0 0
125 0 0
126 0 0
127 0 0
128 0 0
129 0 0
129 0 0
130 0 0
131 0 0
132 0 0
133 0 0
134 0 0
136 0 0
137 0 0
138 0 0
139 0 0
141 0 0
143 0 0
144 0 0
144 0 0
144 0 0
143 0 0
143 0 0
142 0 0
142 0 0
141 0 0
141 0 0
140 0 0
139 0 0
138 0 0
137 0 0
135 0 0
136 111 106
136 112 106
137 112 107
137 113 107
138 114 108
138 114 109
138 115 109
138 116 110
139 116 110
124 70 0
120 67 0
119 72 0
119 73 0
91 50 0
90 51 0
90 51 0
94 69 0
94 69 0
94 69 0
91 83 0
90 83 0
90 83 0
97 92 0
105 89 0
108 92 0
96 96 0
55 54 0
110 95 0
113 97 0
115 98 0
114 93 0
114 104 0
114 104 0
114 104 0
114 105 0
122 119 0
114 116 0
114 116 0
114 116 0
114 116 0
117 123 0
102 101 0
110 116 0
102 107 0
103 106 0
102 105 0
89 89 0
89 89 0
89 89 0
90 101 0
91 101 0
104 110 0
105 110 0
99 96 0
110 110 0
107 109 0
116 111 0
113 107 0
114 117 0
114 117 0
111 115 0
111 115 0
110 121 0
117 127 0
117 128 0
117 128 0
120 132 0
116 128 0
110 116 0
105 119 0
104 119 0
93 106 0
93 106 0
93 106 0
97 113 0
92 109 0
93 109 0
140 139 129
140 139 129
140 139 129
139 139 129
139 139 129
139 139 130
139 139 130
139 139 130
139 139 130
139 139 130
138 139 130
138 139 130
138 139 130
138 139 130
138 139 130
137 139 130
137 139 130
137 139 130
137 139 130
137 139 130
137 139 130
136 139 130
136 139 130
136 139 130
136 139 130
136 139 129
136 139 129
135 139 129
135 139 129
135 139 129
135 139 129
135 139 129
134 139 129
134 139 129
134 139 129
134 139 128
134 139 128
133 139 128
133 139 128
133 139 128
133 139 128
132 139 128
132 139 127
132 139 127
132 139 127
131 139 127
131 139 126
131 139 126
130 139 126
130 138 126
130 138 126
129 138 125
129 138 125
129 138 125
128 138 124
128 138 124
128 138 124
127 138 124
127 138 123
127 138 123
126 138 123
126 138 122
125 138 122
125 138 121
125 137 121
124 137 121
124 137 120
123 137 120
123 137 120
122 137 119
122 137 119
122 137 118
121 137 118
121 136 117
120 136 117
119 136 116
119 136 116
118 136 115
118 136 115
117 135 114
117 135 114
116 135 113
116 135 113
115 135 112
114 134 112
114 134 111
113 134 110
113 134 110
112 133 109
111 133 109
111 132 108
110 132 107
109 131 106
0 134 0
0 135 0
0 136 0
0 136 0
0 137 0
0 137 0
0 137 0
0 137 0
0 137 0
0 137 0
0 137 0
0 137 0
0 137 0
0 136 0
0 136 0
0 136 0
0 135 0
0 135 0
0 134 0
0 134 0
0 133 0
0 133 0
0 132 0
0 131 0
0 131 0
0 130 0
0 130 0
0 129 0
0 128 0
0 127 0
0 127 0
0 126 0
0 125 0
0 124 0
0 123 0
0 122 0
0 121 0
0 121 0
0 119 0
0 119 0
0 117 0
0 116 0
112 0 0
113 0 0
114 0 0
115 0 0
116 0 0
117 0 0
118 0 0
119 0 0
120 0 0
121 0 0
122 0 0
123 0 0
124 0 0
125 0 0
125 0 0
126 0 0
127 0 0
128 0 0
129 0 0
130 0 0
131 0 0
132 0 0
133 0 0
134 0 0
135 0 0
136 0 0
137 0 0
138 0 0
140 0 0
142 0 0
143 0 0
143 0 0
143 0 0
143 0 0
142 0 0
141 0 0
141 0 0
141 0 0
140 0 0
140 0 0
139 0 0
138 0 0
137 0 0
135 0 0
135 110 105
136 111 106
136 112 107
137 113 107
137 113 108
137 114 108
138 115 109
138 115 109
125 73 0
124 69 0
120 66 0
118 72 0
118 72 0
90 50 0
90 50 0
89 50 0
94 68 0
93 68 0
93 69 0
91 83 0
91 83 0
91 83 0
101 86 0
100 81 0
102 82 0
110 109 0
109 98 0
112 96 0
114 97 0
115 97 0
114 103 0
114 103 0
114 104 0
106 96 0
106 96 0
99 92 0
110 112 0
110 113 0
110 113 0
110 113 0
99 111 0
97 98 0
102 113 0
102 107 0
104 107 0
104 107 0
103 106 0
88 89 0
88 89 0
90 101 0
105 110 0
105 110 0
105 110 0
100 97 0
101 97 0
93 97 0
96 91 0
91 83 0
111 114 0
110 114 0
111 114 0
100 108 0
101 113 0
109 121 0
109 121 0
109 121 0
101 117 0
100 116 0
106 114 0
105 119 0
105 120 0
106 120 0
93 106 0
93 106 0
96 112 0
92 109 0
130 139 0
130 139 0
136 143 0
139 138 129
139 138 129
139 138 129
139 138 129
138 138 129
138 138 129
138 138 129
138 138 129
138 138 129
138 138 129
137 138 129
137 138 129
137 138 129
137 139 129
137 138 129
137 139 129
136 138 129
136 138 129
136 139 129
136 139 129
136 139 129
136 139 129
135 139 129
135 139 129
135 139 129
135 138 129
135 139 129
135 139 129
134 139 129
134 139 129
134 138 128
134 139 128
134 138 128
133 138 128
133 138 128
133 138 128
133 138 128
132 138 127
132 138 127
132 138 127
132 138 127
131 138 127
131 138 126
131 138 126
131 138 126
130 138 126
130 138 126
130 138 125
129 138 125
129 138 125
129 138 125
128 138 124
128 138 124
128 138 124
127 138 123
127 138 123
126 137 123
126 137 122
126 137 122
125 137 122
125 137 121
125 137 121
124 137 121
124 137 120
123 137 120
123 137 119
122 137 119
122 137 119
122 136 118
121 136 118
121 136 117
120 136 117
120 136 116
119 136 116
119 136 115
118 135 115
117 135 114
117 135 114
116 135 113
116 135 113
115 134 112
115 134 112
114 134 111
113 134 111
113 133 110
112 133 109
111 133 109
111 132 108
110 132 108
109 131 107
109 130 106
0 133 0
0 134 0
0 135 0
0 136 0
0 136 0
0 136 0
0 137 0
0 137 0
0 137 0
0 137 0
0 136 0
0 136 0
0 136 0
0 136 0
0 136 0
0 135 0
0 135 0
0 134 0
0 134 0
0 133 0
0 133 0
0 132 0
0 132 0
0 131 0
0 130 0
0 130 0
0 129 0
0 128 0
0 128 0
0 127 0
0 126 0
0 126 0
0 125 0
0 124 0
0 123 0
0 122 0
0 121 0
0 120 0
0 119 0
0 118 0
0 117 0
0 116 0
112 0 0
113 0 0
114 0 0
115 0 0
116 0 0
117 0 0
118 0 0
119 0 0
120 0 0
121 0 0
121 0 0
122 0 0
123 0 0
124 0 0
125 0 0
126 0 0
127 0 0
127 0 0
128 0 0
129 0 0
130 0 0
131 0 0
132 0 0
133 0 0
134 0 0
135 0 0
136 0 0
137 0 0
139 0 0
141 0 0
143 0 0
142 0 0
142 0 0
142 0 0
141 0 0
141 0 0
140 0 0
140 0 0
140 0 0
139 0 0
138 0 0
138 0 0
136 0 0
134 0 0
135 110 105
135 111 106
136 111 106
136 112 107
137 113 107
137 113 108
137 114 109
137 115 109
138 115 110
123 68 0
119 66 0
118 71 0
118 72 0
118 72 0
89 50 0
89 50 0
89 50 0
93 68 0
93 68 0
91 84 0
91 83 0
102 87 0
102 88 0
101 81 0
101 83 0
105 103 0
111 98 0
114 96 0
97 74 0
96 72 0
86 48 0
106 95 0
106 95 0
106 96 0
98 91 0
98 92 0
98 98 0
109 112 0
109 112 0
109 113 0
97 109 0
98 99 0
97 108 0
102 107 0
104 108 0
104 107 0
104 107 0
104 107 0
103 105 0
105 110 0
105 110 0
105 110 0
105 110 0
103 107 0
95 92 0
104 109 0
94 91 0
90 83 0
79 68 0
110 114 0
110 114 0
99 108 0
100 112 0
100 113 0
109 121 0
109 121 0
100 116 0
101 117 0
104 112 0
105 119 0
106 121 0
107 120 0
107 120 0
93 106 0
91 108 0
92 108 0
130 139 0
135 143 0
135 143 0
139 138 128
138 138 128
138 138 128
138 138 129
138 138 128
138 138 129
138 138 129
137 138 129
137 138 129
137 138 129
137 138 129
137 138 129
136 138 129
136 138 129
136 138 129
136 138 129
136 138 129
136 138 129
136 138 129
135 138 129
135 138 129
135 138 129
135 138 129
135 138 128
134 138 128
134 138 128
134 138 128
134 138 128
134 138 128
134 138 128
133 138 128
133 138 128
133 138 128
133 138 128
133 138 127
132 138 127
132 138 127
132 138 127
132 138 127
131 138 127
131 138 126
131 138 126
131 138 126
130 138 126
130 138 126
130 138 125
129 138 125
129 137 125
129 137 125
128 137 124
128 137 124
128 137 124
128 137 124
127 137 123
127 137 123
126 137 123
126 137 122
126 137 122
125 137 122
125 137 121
124 137 121
124 137 120
124 136 120
123 136 120
123 136 119
122 136 119
122 136 119
122 136 118
121 136 118
121 136 117
120 136 117
120 135 116
119 135 116
119 135 115
118 135 115
118 135 115
117 135 114
116 134 113
116 134 113
115 134 112
115 134 112
114 134 111
114 133 111
113 133 110
112 133 110
112 133 109
111 132 108
110 132 108
110 131 107
109 131 107
109 130 106
0 133 0
0 134 0
0 135 0
0 135 0
0 136 0
0 136 0
0 136 0
0 136 0
0 136 0
0 136 0
0 136 0
0 136 0
0 136 0
0 135 0
0 135 0
0 135 0
0 134 0
0 134 0
0 133 0
0 133 0
0 132 0
0 132 0
0 131 0
0 131 0
0 130 0
0 129 0
0 129 0
0 128 0
0 127 0
0 127 0
0 126 0
0 125 0
0 124 0
0 123 0
0 123 0
0 122 0
0 121 0
0 120 0
0 119 0
0 118 0
0 117 0
0 116 0
111 0 0
112 0 0
113 0 0
114 0 0
115 0 0
116 0 0
117 0 0
118 0 0
119 0 0
120 0 0
121 0 0
122 0 0
123 0 0
124 0 0
124 0 0
125 0 0
126 0 0
127 0 0
128 0 0
129 0 0
129 0 0
130 0 0
131 0 0
132 0 0
133 0 0
134 0 0
135 0 0
136 0 0
138 0 0
140 0 0
142 0 0
141 0 0
141 0 0
141 0 0
140 0 0
140 0 0
124 94 0
124 94 0
124 95 0
124 95 0
124 96 0
124 96 0
124 96 0
124 97 0
130 103 0
135 110 105
135 111 106
136 112 106
136 112 107
136 113 108
137 114 108
137 114 109
137 115 109
122 68 0
118 65 0
117 70 0
117 71 0
117 72 0
89 49 0
89 49 0
88 50 0
88 50 0
92 68 0
91 83 0
102 88 0
103 88 0
103 88 0
102 81 0
101 83 0
104 102 0
95 80 0
96 75 0
96 73 0
95 71 0
90 61 0
105 95 0
105 95 0
98 91 0
98 91 0
98 91 0
97 98 0
97 98 0
109 112 0
91 105 0
96 107 0
96 97 0
97 108 0
102 107 0
104 107 0
104 107 0
104 107 0
96 101 0
97 102 0
96 101 0
96 101 0
105 109 0
104 109 0
103 107 0
89 85 0
96 92 0
93 94 0
92 86 0
84 76 0
109 113 0
99 107 0
99 107 0
99 108 0
100 112 0
100 112 0
108 120 0
100 116 0
102 118 0
123 130 0
89 106 0
105 119 0
108 121 0
108 121 0
108 121 0
91 107 0
92 107 0
93 106 0
106 110 0
135 142 0
135 142 0
138 137 128
138 137 128
137 137 128
137 137 128
137 137 128
137 137 128
137 137 128
137 137 128
136 137 128
136 137 128
136 137 128
136 138 128
136 137 128
136 137 128
136 137 128
135 137 128
135 137 128
135 138 128
135 137 128
135 138 128
135 137 128
134 138 128
134 138 128
134 138 128
134 138 128
134 137 128
134 138 128
133 138 128
133 137 128
133 137 127
133 137 127
132 137 127
132 137 127
132 138 127
132 137 127
132 137 127
131 137 127
131 137 126
131 137 126
131 137 126
130 137 126
130 137 126
130 137 125
130 137 125
129 137 125
129 137 125
129 137 124
128 137 124
128 137 124
128 137 124
127 137 123
127 137 123
127 137 123
126 137 122
126 137 122
126 136 122
125 136 122
125 136 121
124 136 121
124 136 120
124 136 120
123 136 120
123 136 119
122 136 119
122 136 119
122 136 118
121 135 118
121 135 117
120 135 117
120 135 116
119 135 116
119 135 116
118 135 115
118 135 115
117 134 114
117 134 114
116 134 113
115 134 113
115 134 112
114 133 111
114 133 111
113 133 110
113 133 110
112 132 109
111 132 109
111 132 108
110 131 108
109 131 107
109 130 106
108 129 106
0 132 0
0 134 0
0 134 0
0 135 0
0 135 0
0 135 0
0 136 0
0 136 0
0 136 0
0 136 0
0 136 0
0 135 0
0 135 0
0 135 0
0 135 0
0 134 0
0 134 0
0 133 0
0 133 0
0 132 0
0 132 0
0 131 0
0 131 0
0 130 0
0 130 0
0 129 0
0 128 0
0 128 0
0 127 0
0 126 0
0 126 0
0 125 0
0 124 0
0 123 0
0 122 0
0 121 0
0 121 0
0 120 0
0 119 0
0 118 0
0 117 0
0 116 0
111 0 0
112 0 0
113 0 0
114 0 0
115 0 0
116 0 0
117 0 0
118 0 0
119 0 0
120 0 0
121 0 0
121 0 0
122 0 0
123 0 0
124 0 0
125 0 0
125 0 0
126 0 0
127 0 0
128 0 0
129 0 0
130 0 0
130 0 0
131 0 0
132 0 0
133 0 0
134 0 0
135 0 0
137 0 0
139 0 0
140 0 0
140 0 0
140 0 0
140 0 0
139 0 0
128 103 0
128 103 0
123 94 0
123 94 0
123 95 0
123 95 0
129 102 0
129 102 0
129 102 0
129 102 0
131 107 0
130 106 0
130 105 0
129 104 0
136 112 107
136 113 108
136 114 108
137 114 109
118 64 0
117 65 0
116 70 0
116 70 0
122 77 0
88 49 0
88 49 0
88 49 0
87 49 0
87 50 0
90 83 0
103 88 0
103 88 0
103 88 0
102 81 0
101 82 0
101 83 0
117 110 0
97 78 0
96 73 0
94 71 0
92 66 0
105 94 0
97 90 0
97 90 0
97 90 0
97 90 0
97 97 0
97 98 0
97 98 0
93 106 0
97 106 0
95 96 0
91 104 0
102 106 0
103 107 0
96 101 0
96 101 0
96 101 0
96 101 0
96 101 0
96 101 0
96 101 0
96 101 0
103 107 0
98 101 0
89 85 0
111 114 0
95 91 0
88 83 0
51 58 0
49 55 0
98 107 0
98 107 0
99 112 0
99 112 0
70 90 0
100 116 0
120 128 0
82 102 0
89 106 0
100 113 0
101 115 0
102 115 0
88 105 0
91 107 0
91 107 0
93 103 0
102 107 0
125 132 0
134 142 0
134 142 0
137 137 128
137 137 128
137 137 128
137 137 128
136 137 128
136 137 128
136 137 128
136 137 128
136 137 128
136 137 128
136 137 128
135 137 128
135 137 128
135 137 128
135 137 128
135 137 128
135 137 128
134 137 128
134 137 128
134 137 128
134 137 128
134 137 128
133 137 128
133 137 127
133 137 127
133 137 127
133 137 127
133 137 127
132 137 127
132 137 127
132 137 127
132 137 127
132 137 127
131 137 126
131 137 126
131 137 126
131 137 126
130 137 126
130 137 126
130 137 125
130 137 125
129 137 125
129 137 125
129 137 124
128 137 124
128 136 124
128 136 124
127 136 123
127 136 123
127 136 123
126 136 123
126 136 122
126 136 122
125 136 122
125 136 121
125 136 121
124 136 121
124 136 120
124 136 120
123 136 120
123 135 119
122 135 119
122 135 118
121 135 118
121 135 118
121 135 117
120 135 117
120 135 116
119 135 116
119 135 116
118 134 115
118 134 115
117 134 114
117 134 114
116 134 113
116 134 113
115 133 112
115 133 112
114 133 111
113 133 110
113 132 110
112 132 109
112 132 109
111 132 108
110 131 108
110 131 107
109 131 107
109 130 106
108 129 105
0 132 0
0 133 0
0 134 0
0 134 0
0 135 0
0 135 0
0 135 0
0 135 0
0 135 0
0 135 0
0 135 0
0 135 0
0 135 0
0 135 0
0 134 0
0 134 0
0 133 0
0 133 0
0 133 0
0 132 0
0 132 0
0 131 0
0 131 0
0 130 0
0 129 0
0 129 0
0 128 0
0 127 0
0 127 0
0 126 0
0 125 0
0 124 0
0 124 0
0 123 0
0 122 0
0 121 0
0 120 0
0 119 0
0 118 0
0 117 0
0 116 0
0 115 0
111 0 0
112 0 0
113 0 0
114 0 0
115 0 0
116 0 0
117 0 0
117 0 0
118 0 0
119 0 0
120 0 0
121 0 0
122 0 0
123 0 0
123 0 0
124 0 0
125 0 0
126 0 0
127 0 0
127 0 0
128 0 0
129 0 0
129 0 0
130 0 0
131 0 0
132 0 0
133 0 0
134 0 0
135 0 0
138 0 0
139 0 0
139 0 0
139 0 0
139 0 0
139 0 0
127 102 0
127 103 0
127 103 0
92 53 0
92 52 0
91 52 0
91 52 0
91 52 0
90 52 0
90 51 0
97 51 0
136 114 0
136 113 0
135 111 0
133 109 0
126 103 0
136 113 108
136 114 108
117 64 0
116 68 0
116 69 0
121 76 0
121 76 0
88 48 0
88 48 0
87 49 0
87 49 0
87 49 0
98 81 0
98 81 0
97 81 0
97 82 0
97 82 0
86 68 0
86 67 0
80 50 0
116 108 0
96 76 0
94 71 0
93 68 0
65 47 0
54 37 0
97 90 0
97 90 0
96 90 0
96 97 0
44 64 0
56 71 0
94 107 0
109 110 0
84 101 0
96 103 0
94 100 0
95 101 0
96 101 0
96 101 0
96 101 0
96 101 0
96 101 0
96 101 0
96 101 0
96 100 0
95 100 0
96 99 0
79 78 0
82 76 0
108 112 0
66 76 0
52 65 0
45 58 0
44 57 0
39 69 0
50 77 0
64 86 0
72 91 0
101 117 0
82 101 0
88 105 0
99 112 0
100 113 0
101 115 0
101 115 0
87 104 0
88 104 0
91 106 0
92 98 0
101 106 0
105 109 0
124 132 0
124 132 0
134 141 0
136 136 127
136 136 127
136 136 127
136 136 127
136 136 127
136 136 127
135 136 127
135 136 127
135 136 127
135 136 127
135 136 127
135 136 127
134 136 127
134 136 127
134 136 127
134 136 127
134 137 127
134 136 127
133 136 127
133 137 127
133 137 127
133 137 127
133 137 127
133 137 127
133 137 127
132 136 127
132 136 127
132 137 127
132 136 126
131 136 126
131 136 126
131 136 126
131 136 126
131 136 126
130 136 126
130 136 125
130 136 125
130 136 125
129 136 125
129 136 125
129 136 125
129 136 124
128 136 124
128 136 124
128 136 124
127 136 123
127 136 123
127 136 123
126 136 122
126 136 122
126 136 122
125 136 122
125 136 121
125 135 121
124 135 121
124 135 120
124 135 120
123 135 120
123 135 119
122 135 119
122 135 119
121 135 118
121 135 118
121 135 117
120 135 117
120 134 116
119 134 116
119 134 116
118 134 115
118 134 115
117 134 114
117 134 114
116 133 113
116 133 113
115 133 112
115 133 112
114 133 111
114 133 111
113 132 110
112 132 110
112 132 109
111 131 108
111 131 108
110 131 107
109 131 107
109 130 106
108 130 106
108 129 105
0 131 0
0 133 0
0 133 0
0 134 0
0 134 0
0 135 0
0 135 0
0 135 0
0 135 0
0 135 0
0 135 0
0 135 0
0 134 0
0 134 0
0 134 0
0 134 0
0 133 0
0 133 0
0 132 0
0 132 0
0 131 0
0 131 0
0 130 0
0 129 0
0 129 0
0 128 0
0 128 0
0 127 0
0 126 0
0 125 0
0 125 0
0 124 0
0 123 0
0 122 0
0 122 0
0 121 0
0 120 0
0 119 0
0 118 0
0 117 0
0 116 0
0 115 0
110 0 0
111 0 0
112 0 0
113 0 0
114 0 0
115 0 0
116 0 0
117 0 0
118 0 0
119 0 0
120 0 0
121 0 0
121 0 0
122 0 0
123 0 0
124 0 0
124 0 0
125 0 0
126 0 0
126 0 0
127 0 0
128 0 0
129 0 0
129 0 0
130 0 0
131 0 0
131 0 0
132 0 0
134 0 0
136 0 0
138 0 0
138 0 0
138 0 0
138 0 0
126 101 0
126 102 0
126 102 0
119 97 0
90 62 0
93 59 0
90 53 0
90 52 0
90 52 0
90 52 0
90 52 0
95 49 0
96 51 0
96 51 0
95 50 0
126 105 0
124 101 0
122 97 0
136 113 108
116 63 0
115 68 0
115 68 0
120 75 0
120 74 0
87 48 0
87 48 0
87 48 0
85 47 0
84 47 0
84 47 0
97 81 0
97 81 0
97 81 0
97 81 0
95 83 0
85 67 0
84 65 0
79 50 0
114 107 0
95 74 0
93 69 0
66 51 0
60 42 0
53 38 0
52 40 0
42 59 0
49 65 0
56 71 0
65 73 0
95 95 0
113 111 0
80 95 0
94 101 0
97 103 0
95 101 0
96 101 0
96 101 0
96 101 0
96 101 0
96 101 0
96 101 0
96 101 0
96 101 0
98 101 0
96 100 0
92 95 0
81 76 0
59 70 0
56 68 0
85 95 0
58 71 0
51 67 0
59 82 0
66 87 0
72 92 0
81 99 0
81 100 0
81 101 0
96 111 0
98 112 0
99 112 0
100 114 0
87 104 0
87 104 0
88 104 0
89 104 0
66 71 0
101 106 0
103 108 0
123 131 0
123 131 0
123 131 0
136 136 127
136 136 127
135 136 127
135 136 127
135 136 127
135 136 127
135 136 127
135 136 127
135 136 127
134 136 127
134 136 127
134 136 127
134 136 127
134 136 127
134 136 127
133 136 127
133 136 127
133 136 127
133 136 127
133 136 127
133 136 127
132 136 127
132 136 127
132 136 127
132 136 126
132 136 126
132 136 126
131 136 126
131 136 126
131 136 126
131 136 126
131 136 126
130 136 126
130 136 125
130 136 125
130 136 125
129 136 125
129 136 125
129 136 124
129 136 124
128 136 124
128 136 124
128 136 124
127 135 123
127 135 123
127 135 123
127 135 123
126 135 122
126 135 122
126 135 122
125 135 121
125 135 121
125 135 121
124 135 120
124 135 120
123 135 120
123 135 119
123 135 119
122 135 119
122 134 118
121 134 118
121 134 118
121 134 117
120 134 117
120 134 116
119 134 116
119 134 116
118 134 115
118 134 115
117 133 114
117 133 114
116 133 113
116 133 113
115 133 112
115 133 112
114 132 111
114 132 111
113 132 110
113 132 110
112 132 109
111 131 109
111 131 108
110 131 108
110 130 107
109 130 106
108 130 106
108 129 105
107 128 105
0 131 0
0 132 0
0 133 0
0 133 0
0 134 0
0 134 0
0 134 0
0 134 0
0 134 0
0 134 0
0 134 0
0 134 0
0 134 0
0 134 0
0 133 0
0 133 0
0 133 0
0 132 0
0 132 0
0 131 0
0 131 0
0 130 0
0 130 0
0 129 0
0 129 0
0 128 0
0 127 0
0 127 0
0 126 0
0 125 0
0 124 0
0 124 0
0 123 0
0 122 0
0 121 0
0 120 0
0 119 0
0 119 0
0 118 0
0 117 0
0 116 0
0 115 0
110 0 0
111 0 0
112 0 0
113 0 0
114 0 0
115 0 0
116 0 0
117 0 0
118 0 0
118 0 0
119 0 0
120 0 0
121 0 0
122 0 0
122 0 0
123 0 0
124 0 0
124 0 0
125 0 0
126 0 0
127 0 0
127 0 0
128 0 0
128 0 0
129 0 0
130 0 0
130 0 0
131 0 0
132 0 0
134 0 0
135 0 0
136 0 0
137 0 0
137 0 0
125 101 0
125 101 0
118 96 0
98 86 0
87 64 0
91 61 0
92 59 0
92 58 0
92 58 0
89 53 0
89 52 0
94 50 0
94 49 0
95 51 0
94 50 0
89 48 0
107 81 0
105 77 0
103 70 0
115 63 0
114 67 0
120 74 0
119 74 0
119 73 0
87 47 0
87 48 0
85 46 0
84 47 0
84 47 0
84 47 0
83 47 0
97 81 0
96 81 0
96 81 0
95 83 0
94 82 0
84 66 0
82 63 0
78 50 0
78 50 0
79 68 0
72 60 0
67 55 0
63 50 0
59 48 0
54 67 0
59 70 0
83 82 0
53 65 0
54 66 0
54 66 0
91 98 0
96 102 0
97 103 0
98 103 0
99 104 0
96 101 0
96 101 0
96 101 0
96 101 0
96 101 0
99 103 0
98 102 0
98 102 0
97 101 0
116 115 0
94 104 0
52 65 0
52 67 0
49 65 0
52 67 0
52 66 0
73 92 0
97 107 0
66 87 0
64 86 0
80 100 0
94 109 0
97 111 0
98 111 0
99 112 0
86 103 0
86 103 0
87 103 0
88 103 0
114 122 0
76 78 0
101 106 0
103 107 0
104 108 0
123 130 0
118 127 0
118 127 0
135 135 126
135 135 126
135 135 126
135 135 126
134 135 126
134 135 126
134 135 127
134 135 126
134 135 126
134 135 126
133 135 126
133 135 126
133 135 126
133 135 127
133 135 126
133 135 126
133 135 126
132 135 126
132 135 126
132 135 126
132 136 126
132 135 126
132 135 126
131 135 126
131 135 126
131 136 126
131 135 126
131 135 126
130 135 125
130 135 125
130 135 125
130 135 125
130 135 125
129 135 125
129 135 125
129 135 124
129 135 124
128 135 124
128 135 124
128 135 123
128 135 123
127 135 123
127 135 123
127 135 123
126 135 122
126 135 122
126 135 122
125 135 122
125 135 121
125 135 121
124 135 121
124 135 120
124 134 120
123 134 120
123 134 119
123 134 119
122 134 119
122 134 118
121 134 118
121 134 118
121 134 117
120 134 117
120 134 116
119 134 116
119 133 116
118 133 115
118 133 115
117 133 114
117 133 114
116 133 113
116 133 113
115 132 112
115 132 112
114 132 111
114 132 111
113 132 111
113 132 110
112 131 110
112 131 109
111 131 108
110 131 108
110 130 107
109 130 107
109 130 106
108 129 106
108 129 105
107 128 104
0 131 0
0 132 0
0 132 0
0 133 0
0 133 0
0 134 0
0 134 0
0 134 0
0 134 0
0 134 0
0 134 0
0 134 0
0 133 0
0 133 0
0 133 0
0 133 0
0 132 0
0 132 0
0 131 0
0 131 0
0 130 0
0 130 0
0 129 0
0 129 0
0 128 0
0 127 0
0 127 0
0 126 0
0 126 0
0 125 0
0 124 0
0 123 0
0 122 0
0 122 0
0 121 0
0 120 0
0 119 0
0 118 0
0 117 0
0 116 0
0 115 0
0 114 0
110 0 0
111 0 0
112 0 0
113 0 0
114 0 0
114 0 0
115 0 0
116 0 0
117 0 0
118 0 0
119 0 0
120 0 0
120 0 0
121 0 0
122 0 0
122 0 0
123 0 0
124 0 0
124 0 0
125 0 0
126 0 0
126 0 0
127 0 0
127 0 0
128 0 0
128 0 0
129 0 0
130 0 0
130 0 0
132 0 0
132 0 0
135 0 0
136 0 0
124 100 0
117 95 0
117 96 0
117 95 0
96 84 0
90 76 0
90 62 0
91 60 0
92 59 0
92 59 0
91 58 0
79 48 0
93 51 0
94 50 0
93 49 0
89 49 0
89 48 0
89 48 0
88 46 0
100 68 0
95 35 0
119 73 0
119 74 0
118 73 0
118 72 0
85 46 0
85 46 0
84 46 0
84 46 0
84 47 0
83 47 0
83 47 0
83 47 0
96 80 0
96 80 0
95 83 0
94 82 0
93 81 0
90 77 0
78 50 0
78 50 0
64 47 0
65 52 0
65 52 0
92 87 0
72 62 0
94 84 0
50 63 0
54 67 0
59 70 0
62 69 0
88 85 0
103 99 0
120 124 0
121 125 0
121 125 0
99 104 0
99 104 0
99 104 0
97 102 0
97 101 0
99 103 0
121 121 0
121 121 0
121 121 0
121 120 0
121 120 0
105 115 0
93 105 0
66 80 0
54 68 0
65 79 0
66 79 0
60 74 0
66 86 0
64 85 0
64 86 0
86 102 0
95 109 0
97 110 0
98 111 0
98 111 0
85 102 0
86 102 0
87 103 0
129 137 0
119 128 0
112 119 0
57 59 0
103 108 0
104 109 0
118 126 0
118 126 0
135 135 126
135 135 126
134 135 126
134 135 126
134 135 126
134 135 126
134 135 126
134 135 126
133 135 126
133 135 126
133 135 126
133 135 126
133 135 126
133 135 126
132 135 126
132 135 126
132 135 126
132 135 126
132 135 126
132 135 126
132 135 126
131 135 126
131 135 126
131 135 126
131 135 126
131 135 126
131 135 125
130 135 125
130 135 125
130 135 125
130 135 125
130 135 125
129 135 125
129 135 124
129 135 124
129 135 124
128 135 124
128 135 124
128 135 124
128 135 123
127 135 123
127 135 123
116 0 115
127 135 123
126 134 122
126 134 122
125 134 122
125 134 121
125 134 121
125 134 121
124 134 121
124 134 120
124 134 120
123 134 120
123 134 119
123 134 119
122 134 119
122 134 118
121 134 118
121 134 117
120 133 117
120 133 117
120 133 116
119 133 116
119 133 116
118 133 115
118 133 115
117 133 114
117 132 114
117 132 113
116 132 113
115 132 112
115 132 112
114 132 112
114 132 111
113 131 111
113 131 110
112 131 110
112 131 109
111 131 109
111 130 108
110 130 108
110 130 107
109 130 106
108 129 106
108 129 105
107 128 105
107 127 104
0 130 0
0 131 0
0 132 0
0 132 0
0 133 0
0 133 0
0 133 0
0 133 0
0 133 0
0 133 0
0 133 0
0 133 0
0 133 0
0 133 0
0 133 0
0 132 0
0 132 0
0 131 0
0 131 0
0 130 0
0 130 0
0 129 0
0 129 0
0 128 0
0 128 0
0 127 0
0 126 0
0 126 0
0 125 0
0 124 0
0 124 0
0 123 0
0 122 0
0 121 0
0 120 0
0 120 0
0 119 0
0 118 0
0 117 0
0 116 0
0 115 0
0 114 0
109 0 0
110 0 0
111 0 0
112 0 0
113 0 0
114 0 0
115 0 0
116 0 0
117 0 0
118 0 0
118 0 0
119 0 0
120 0 0
120 0 0
121 0 0
122 0 0
123 0 0
123 0 0
124 0 0
124 0 0
125 0 0
125 0 0
126 0 0
126 0 0
127 0 0
127 0 0
128 0 0
128 0 0
128 0 0
129 0 0
128 0 0
132 0 0
123 99 0
116 95 0
116 95 0
116 95 0
98 87 0
95 83 0
51 44 0
68 46 0
72 44 0
71 40 0
69 32 0
71 29 0
83 45 0
85 45 0
85 45 0
85 44 0
100 62 0
99 60 0
98 59 0
98 58 0
95 54 0
90 49 0
93 30 0
93 29 0
92 28 0
92 28 0
92 27 0
84 45 0
84 46 0
84 46 0
83 46 0
83 46 0
82 47 0
82 46 0
82 47 0
95 80 0
94 83 0
94 82 0
93 82 0
91 80 0
89 77 0
64 48 0
64 48 0
64 48 0
65 52 0
65 52 0
60 71 0
66 75 0
66 75 0
60 69 0
69 73 0
90 85 0
99 94 0
105 100 0
122 126 0
123 126 0
123 126 0
123 126 0
123 126 0
122 126 0
122 125 0
122 122 0
122 122 0
122 122 0
122 122 0
122 122 0
123 122 0
123 123 0
109 119 0
103 114 0
96 108 0
86 99 0
70 84 0
52 68 0
60 75 0
64 85 0
82 99 0
84 100 0
88 103 0
89 104 0
90 105 0
91 105 0
69 88 0
85 102 0
86 102 0
116 125 0
119 126 0
123 132 0
121 128 0
106 112 0
49 53 0
116 120 0
117 125 0
117 125 0
134 134 125
134 134 125
134 134 125
134 134 126
133 134 126
133 134 125
133 134 126
133 134 126
133 134 126
133 134 126
133 134 126
132 134 126
132 134 126
132 134 126
132 134 126
132 134 126
132 134 126
132 134 126
131 134 126
131 134 125
131 134 125
131 134 125
131 135 125
131 134 125
130 134 125
130 135 125
130 134 125
130 134 125
130 134 125
130 134 125
129 134 124
129 134 124
129 134 124
129 134 124
128 134 124
128 134 124
128 134 123
128 134 123
127 134 123
127 134 123
127 134 123
146 0 144
79 0 79
126 134 122
126 134 122
125 134 122
125 134 121
125 134 121
124 134 121
124 134 121
124 134 120
123 134 120
123 134 119
123 134 119
122 133 119
122 133 119
122 133 118
121 133 118
121 133 117
121 133 117
120 133 117
120 133 116
119 133 116
119 133 116
118 132 115
118 132 115
117 132 114
117 132 114
117 132 113
116 132 113
116 132 113
115 132 112
115 132 112
114 131 111
113 131 111
113 131 110
113 131 110
112 131 109
111 130 109
111 130 108
110 130 108
110 130 107
109 129 107
109 129 106
108 129 105
107 128 105
107 128 104
106 127 104
0 130 0
0 131 0
0 132 0
0 132 0
0 132 0
0 133 0
0 133 0
0 133 0
0 133 0
0 133 0
0 133 0
0 133 0
0 133 0
0 132 0
0 132 0
0 132 0
0 131 0
0 131 0
0 130 0
0 130 0
0 130 0
0 129 0
0 128 0
0 128 0
0 127 0
0 127 0
0 126 0
0 125 0
0 125 0
0 124 0
0 123 0
0 123 0
0 122 0
0 121 0
0 120 0
0 119 0
0 118 0
0 118 0
0 117 0
0 116 0
0 115 0
0 114 0
109 0 0
110 0 0
111 0 0
112 0 0
113 0 0
114 0 0
115 0 0
116 0 0
116 0 0
117 0 0
118 0 0
119 0 0
119 0 0
120 0 0
121 0 0
121 0 0
122 0 0
122 0 0
123 0 0
124 0 0
124 0 0
125 0 0
125 0 0
125 0 0
126 0 0
126 0 0
126 0 0
127 0 0
126 0 0
125 0 0
125 0 0
130 0 0
112 89 0
115 94 0
115 94 0
115 94 0
97 86 0
95 83 0
90 79 0
103 81 0
111 89 0
111 87 0
111 86 0
106 83 0
104 72 0
104 69 0
101 63 0
91 51 0
85 44 0
87 44 0
98 61 0
95 57 0
94 53 0
90 52 0
93 35 0
92 29 0
92 28 0
91 28 0
91 27 0
91 26 0
76 22 0
83 46 0
83 46 0
82 46 0
82 46 0
82 46 0
81 46 0
81 46 0
94 83 0
88 77 0
87 77 0
86 76 0
85 75 0
84 74 0
80 69 0
78 67 0
63 48 0
63 48 0
60 70 0
52 65 0
70 75 0
86 80 0
93 86 0
99 92 0
104 97 0
107 101 0
109 103 0
124 127 0
124 127 0
124 127 0
123 127 0
123 127 0
110 118 0
108 106 0
123 122 0
123 123 0
123 123 0
124 123 0
124 123 0
124 124 0
111 121 0
108 119 0
104 116 0
99 111 0
93 106 0
73 87 0
73 87 0
83 100 0
84 100 0
87 102 0
88 103 0
89 104 0
68 87 0
68 87 0
69 87 0
85 101 0
86 101 0
116 125 0
119 126 0
125 134 0
125 133 0
108 116 0
69 71 0
116 120 0
116 124 0
116 124 0
133 133 125
133 133 125
133 133 125
133 133 125
133 133 125
133 133 125
133 134 125
132 134 125
132 134 125
132 134 125
132 134 125
132 134 125
132 134 125
132 134 125
131 134 125
131 134 125
131 134 125
131 134 125
131 134 125
131 134 125
131 134 125
130 134 125
130 134 125
130 134 125
130 134 125
130 134 125
130 134 124
129 134 124
129 134 124
129 134 124
129 134 124
129 134 124
128 134 124
128 134 124
128 134 123
128 134 123
127 134 123
127 134 123
127 134 123
127 134 122
156 0 151
110 0 109
70 0 71
96 0 96
125 133 121
125 133 121
125 133 121
124 133 121
124 133 120
124 133 120
123 133 120
123 133 119
123 133 119
122 133 119
122 133 118
122 133 118
121 133 118
121 133 117
120 133 117
120 133 117
120 132 116
119 132 116
119 132 116
118 132 115
118 132 115
118 132 114
117 132 114
117 132 113
116 132 113
116 131 113
115 131 112
115 131 112
114 131 111
114 131 111
113 131 110
113 131 110
112 130 109
112 130 109
111 130 108
110 130 108
110 130 107
110 129 107
109 129 106
108 129 106
108 128 105
107 128 105
106 127 104
106 126 103
0 129 0
0 130 0
0 131 0
0 132 0
0 132 0
0 132 0
0 132 0
0 132 0
0 132 0
0 132 0
0 132 0
0 132 0
0 132 0
0 132 0
0 132 0
0 131 0
0 131 0
0 130 0
0 130 0
0 130 0
0 129 0
0 129 0
0 128 0
0 128 0
0 127 0
0 126 0
0 126 0
0 125 0
0 124 0
0 124 0
0 123 0
0 122 0
0 121 0
0 121 0
0 120 0
0 119 0
0 118 0
0 117 0
0 116 0
0 115 0
0 114 0
0 114 0
109 0 0
110 0 0
111 0 0
112 0 0
112 0 0
113 0 0
114 0 0
115 0 0
116 0 0
117 0 0
117 0 0
118 0 0
119 0 0
119 0 0
120 0 0
121 0 0
121 0 0
122 0 0
122 0 0
123 0 0
123 0 0
124 0 0
124 0 0
124 0 0
125 0 0
125 0 0
125 0 0
125 0 0
123 0 0
120 0 0
122 0 0
97 23 0
98 23 0
111 88 0
111 88 0
110 86 0
96 86 0
71 67 0
104 88 0
110 88 0
111 85 0
113 84 0
109 85 0
112 91 0
109 86 0
108 76 0
103 72 0
101 68 0
93 56 0
83 39 0
87 44 0
87 48 0
93 53 0
91 47 0
92 39 0
92 29 0
91 28 0
91 28 0
90 27 0
90 26 0
75 23 0
74 22 0
82 45 0
82 46 0
82 46 0
81 46 0
81 46 0
81 46 0
67 49 0
67 49 0
67 49 0
86 76 0
85 76 0
84 75 0
83 74 0
81 71 0
81 71 0
81 71 0
73 77 0
73 77 0
91 84 0
96 88 0
100 92 0
103 96 0
106 99 0
108 101 0
110 103 0
111 104 0
124 127 0
124 127 0
124 127 0
111 120 0
111 119 0
109 107 0
109 105 0
109 105 0
124 123 0
124 124 0
124 124 0
125 124 0
112 122 0
111 121 0
109 119 0
106 117 0
103 116 0
101 113 0
75 88 0
85 101 0
87 102 0
87 102 0
67 87 0
67 87 0
68 87 0
68 87 0
69 87 0
85 101 0
118 127 0
119 128 0
100 109 0
100 108 0
112 120 0
108 115 0
115 118 0
116 119 0
115 124 0
115 123 0
133 133 124
133 133 124
133 133 125
132 133 125
132 133 125
132 133 125
132 133 125
132 133 125
132 133 125
132 133 125
131 133 125
131 133 125
159 0 155
145 0 143
131 133 125
131 133 125
131 133 125
130 133 125
130 133 125
130 133 125
130 133 124
130 133 124
130 133 124
130 133 124
129 133 124
129 133 124
129 133 124
129 133 124
129 133 124
128 133 124
128 133 124
128 133 123
128 133 123
128 133 123
127 133 123
127 133 123
127 133 123
127 133 122
126 133 122
156 0 151
97 0 97
69 0 70
79 0 79
95 0 95
125 133 121
124 133 121
124 133 120
124 133 120
124 133 120
123 133 120
123 133 119
123 133 119
122 133 119
122 132 118
122 133 118
121 132 118
121 132 117
120 132 117
120 132 117
120 132 116
119 132 116
119 132 115
118 132 115
118 132 115
117 132 114
117 131 114
117 131 113
116 131 113
116 131 113
115 131 112
115 131 112
114 131 111
114 131 111
113 130 110
113 130 110
112 130 109
112 130 109
111 130 108
111 129 108
110 129 108
110 129 107
109 129 106
108 129 106
108 128 105
107 128 105
107 127 104
106 127 104
106 126 103
0 129 0
0 130 0
0 131 0
0 131 0
0 131 0
0 132 0
0 132 0
0 132 0
0 132 0
0 132 0
0 132 0
0 132 0
0 132 0
0 131 0
0 131 0
0 131 0
0 131 0
0 130 0
0 130 0
0 129 0
0 129 0
0 128 0
0 128 0
0 127 0
0 127 0
0 126 0
0 125 0
0 125 0
0 124 0
0 123 0
0 123 0
0 122 0
0 121 0
0 120 0
0 119 0
0 119 0
0 118 0
0 117 0
0 116 0
0 115 0
0 114 0
0 113 0
108 0 0
109 0 0
110 0 0
111 0 0
112 0 0
113 0 0
114 0 0
115 0 0
115 0 0
116 0 0
117 0 0
118 0 0
118 0 0
119 0 0
120 0 0
120 0 0
121 0 0
121 0 0
122 0 0
122 0 0
122 0 0
123 0 0
123 0 0
123 0 0
123 0 0
124 0 0
123 0 0
123 0 0
121 0 0
115 0 0
119 0 0
94 24 0
96 23 0
109 88 0
110 88 0
109 85 0
96 87 0
96 87 0
109 92 0
113 90 0
115 89 0
114 85 0
110 87 0
108 84 0
106 81 0
105 76 0
104 74 0
103 71 0
100 68 0
94 58 0
80 37 0
86 45 0
87 46 0
85 43 0
83 38 0
91 36 0
91 29 0
90 28 0
90 27 0
89 26 0
75 24 0
74 22 0
73 22 0
81 45 0
81 46 0
81 46 0
81 46 0
80 46 0
67 48 0
67 49 0
66 49 0
66 49 0
66 49 0
85 76 0
84 76 0
84 75 0
82 72 0
82 73 0
74 77 0
97 88 0
100 90 0
102 92 0
104 95 0
106 97 0
108 99 0
109 101 0
110 103 0
111 103 0
125 128 0
125 128 0
124 128 0
111 120 0
112 119 0
109 108 0
109 106 0
109 105 0
109 104 0
124 124 0
125 124 0
114 124 0
113 123 0
112 122 0
111 121 0
110 120 0
108 119 0
107 118 0
106 118 0
85 101 0
66 86 0
66 86 0
67 86 0
67 86 0
68 86 0
68 86 0
69 86 0
113 122 0
114 123 0
110 119 0
109 118 0
101 109 0
112 120 0
107 113 0
115 118 0
115 123 0
115 123 0
115 122 0
132 132 124
132 132 124
132 132 124
132 132 124
132 132 124
132 132 124
131 132 124
131 132 124
131 132 124
131 133 124
131 133 124
151 0 143
155 0 151
155 0 151
145 0 143
136 0 135
130 133 124
130 133 124
130 133 124
130 133 124
130 133 124
129 133 124
129 133 124
129 133 124
129 133 124
129 133 124
129 133 124
129 133 124
128 133 123
128 133 123
128 133 123
128 133 123
127 133 123
127 133 123
127 133 123
127 133 122
127 133 122
156 0 150
146 0 143
139 0 137
92 0 92
69 0 70
88 0 88
94 0 94
104 0 103
124 132 120
124 132 120
123 132 120
123 132 120
123 132 119
122 132 119
122 132 119
122 132 118
121 132 118
121 132 118
121 132 117
120 132 117
120 132 116
120 132 116
119 132 116
119 131 115
118 131 115
118 131 115
118 131 114
117 131 114
117 131 114
116 131 113
116 131 113
115 131 112
115 131 112
114 130 111
114 130 111
113 130 111
113 130 110
112 130 110
112 130 109
111 129 109
111 129 108
110 129 108
110 129 107
109 129 107
109 128 106
108 128 106
108 128 105
107 127 105
106 127 104
106 126 103
105 126 103
0 128 0
0 130 0
0 130 0
0 131 0
0 131 0
0 131 0
0 131 0
0 131 0
0 131 0
0 131 0
0 131 0
0 131 0
0 131 0
0 131 0
0 131 0
0 130 0
0 130 0
0 130 0
0 129 0
0 129 0
0 128 0
0 128 0
0 127 0
0 127 0
0 126 0
0 125 0
0 125 0
0 124 0
0 124 0
0 123 0
0 122 0
0 122 0
0 121 0
0 120 0
0 119 0
0 118 0
0 117 0
0 117 0
0 116 0
0 115 0
0 114 0
0 113 0
108 0 0
109 0 0
110 0 0
111 0 0
112 0 0
113 0 0
113 0 0
114 0 0
115 0 0
116 0 0
117 0 0
117 0 0
118 0 0
118 0 0
119 0 0
120 0 0
120 0 0
120 0 0
121 0 0
121 0 0
122 0 0
122 0 0
122 0 0
122 0 0
122 0 0
122 0 0
122 0 0
121 0 0
119 0 0
112 0 0
116 0 0
124 0 0
93 23 0
108 87 0
108 87 0
108 84 0
110 101 0
105 93 0
112 94 0
115 92 0
116 90 0
116 90 0
109 88 0
108 84 0
109 83 0
108 81 0
104 75 0
103 73 0
101 71 0
94 64 0
88 54 0
83 37 0
87 47 0
84 44 0
83 41 0
91 40 0
90 28 0
90 28 0
89 27 0
89 26 0
74 24 0
73 22 0
73 22 0
72 22 0
71 23 0
80 45 0
80 45 0
67 48 0
67 48 0
66 48 0
66 49 0
66 49 0
66 49 0
65 49 0
65 50 0
65 50 0
84 76 0
74 77 0
101 90 0
102 92 0
103 93 0
105 95 0
106 97 0
107 98 0
108 100 0
110 101 0
110 102 0
111 103 0
111 104 0
125 128 0
111 120 0
111 120 0
112 119 0
109 108 0
110 107 0
110 105 0
109 104 0
109 104 0
125 124 0
114 124 0
114 124 0
113 123 0
49 74 0
49 73 0
49 73 0
50 72 0
50 72 0
50 72 0
54 76 0
55 76 0
55 76 0
55 75 0
56 75 0
56 75 0
115 123 0
117 125 0
114 122 0
110 119 0
110 119 0
110 118 0
103 110 0
104 109 0
115 118 0
114 122 0
114 122 0
114 121 0
132 132 123
132 132 123
131 132 123
131 132 124
131 132 124
131 132 124
131 132 124
131 132 124
131 132 124
130 132 124
130 132 124
142 0 133
151 0 146
154 0 151
150 0 148
137 0 135
130 132 124
129 132 124
129 132 124
129 132 124
129 132 124
129 132 124
129 132 124
129 132 123
128 132 123
128 132 123
128 132 123
128 132 123
128 132 123
128 132 123
127 132 123
127 132 123
127 132 123
127 132 122
126 132 122
126 132 122
154 0 149
150 0 146
150 0 146
121 0 120
69 0 70
78 0 78
91 0 91
93 0 93
108 0 108
124 132 120
123 132 120
123 132 119
123 132 119
122 132 119
122 132 118
122 132 118
121 131 118
121 132 118
121 131 117
120 131 117
120 131 116
120 131 116
119 131 116
119 131 115
118 131 115
118 131 115
118 131 114
117 131 114
117 131 113
116 130 113
116 130 113
115 130 112
115 130 112
114 130 111
114 130 111
113 130 111
113 130 110
112 129 110
112 129 109
111 129 109
111 129 108
110 129 108
110 129 107
109 128 107
109 128 106
108 128 106
108 128 105
107 127 105
107 127 104
106 127 104
105 126 103
105 125 103
0 128 0
0 129 0
0 130 0
0 130 0
0 130 0
0 131 0
0 131 0
0 131 0
0 131 0
0 131 0
0 131 0
0 131 0
0 131 0
0 131 0
0 130 0
0 130 0
0 130 0
0 129 0
0 129 0
0 128 0
0 128 0
0 127 0
0 127 0
0 126 0
0 126 0
0 125 0
0 125 0
0 124 0
0 123 0
0 123 0
0 122 0
0 121 0
0 120 0
0 120 0
0 119 0
0 118 0
0 117 0
0 116 0
0 115 0
0 114 0
0 114 0
0 113 0
108 0 0
109 0 0
110 0 0
110 0 0
111 0 0
112 0 0
113 0 0
114 0 0
115 0 0
115 0 0
116 0 0
117 0 0
117 0 0
118 0 0
119 0 0
119 0 0
119 0 0
120 0 0
120 0 0
121 0 0
121 0 0
121 0 0
121 0 0
121 0 0
121 0 0
121 0 0
120 0 0
119 0 0
117 0 0
110 0 0
113 0 0
122 0 0
91 24 0
93 23 0
107 86 0
107 84 0
107 83 0
87 77 0
99 81 0
102 78 0
103 75 0
93 68 0
93 67 0
93 67 0
106 79 0
105 78 0
104 76 0
104 74 0
103 75 0
101 71 0
97 64 0
91 54 0
77 36 0
85 46 0
84 43 0
89 41 0
90 36 0
89 28 0
89 27 0
88 26 0
74 24 0
73 23 0
72 22 0
72 22 0
71 23 0
70 23 0
80 45 0
67 47 0
66 48 0
66 48 0
66 48 0
56 39 0
56 40 0
56 40 0
55 40 0
55 41 0
55 41 0
50 42 0
54 39 0
54 39 0
54 40 0
54 41 0
54 41 0
54 42 0
55 42 0
55 43 0
55 43 0
55 43 0
56 43 0
54 67 0
111 121 0
112 121 0
113 120 0
110 109 0
111 108 0
111 107 0
110 106 0
110 104 0
59 72 0
52 77 0
52 76 0
51 75 0
51 74 0
50 74 0
50 73 0
49 72 0
50 72 0
50 72 0
55 76 0
55 76 0
55 75 0
56 75 0
70 83 0
72 84 0
115 123 0
117 125 0
112 121 0
111 119 0
111 120 0
112 119 0
111 118 0
93 96 0
115 119 0
114 121 0
114 121 0
131 131 123
131 131 123
131 131 123
131 131 123
131 131 123
131 131 123
130 131 123
130 131 123
130 131 123
130 131 123
130 131 123
130 131 123
121 0 108
150 0 145
150 0 145
151 0 146
154 0 151
136 0 135
129 132 123
129 132 123
129 132 123
128 132 123
128 132 123
128 132 123
128 132 123
128 132 123
128 132 123
128 132 123
127 132 123
127 132 123
127 132 122
127 132 122
127 132 122
126 132 122
126 132 122
126 132 122
152 0 148
149 0 146
149 0 145
123 0 122
71 0 72
76 0 77
87 0 87
91 0 91
106 0 106
107 0 107
123 131 119
123 131 119
123 131 119
122 131 119
122 131 118
122 131 118
121 131 118
121 131 117
120 131 117
120 131 117
120 131 116
119 131 116
119 131 116
119 131 116
118 131 115
118 130 115
117 130 114
117 130 114
117 130 113
116 130 113
116 130 113
115 130 112
115 130 112
114 130 111
114 129 111
113 129 111
113 129 110
113 129 110
112 129 109
112 129 109
111 129 108
111 129 108
110 128 107
110 128 107
109 128 106
108 128 106
108 127 105
107 127 105
107 127 104
106 127 104
106 126 103
105 126 103
105 125 102
0 128 0
0 129 0
0 129 0
0 130 0
0 130 0
0 130 0
0 130 0
0 130 0
0 130 0
0 130 0
0 130 0
0 130 0
0 130 0
0 130 0
0 130 0
0 129 0
0 129 0
0 129 0
0 128 0
0 128 0
0 127 0
0 127 0
0 126 0
0 126 0
0 125 0
0 125 0
0 124 0
0 124 0
0 123 0
0 122 0
0 122 0
0 121 0
0 120 0
0 119 0
0 118 0
0 118 0
0 117 0
0 116 0
0 115 0
0 114 0
0 113 0
0 112 0
107 0 0
108 0 0
109 0 0
110 0 0
111 0 0
112 0 0
113 0 0
113 0 0
114 0 0
115 0 0
116 0 0
116 0 0
117 0 0
117 0 0
118 0 0
118 0 0
119 0 0
119 0 0
119 0 0
120 0 0
120 0 0
120 0 0
120 0 0
120 0 0
120 0 0
120 0 0
119 0 0
117 0 0
115 0 0
108 0 0
110 0 0
119 0 0
89 24 0
91 23 0
106 85 0
106 83 0
106 83 0
108 98 0
96 81 0
101 79 0
93 70 0
93 69 0
100 74 0
101 73 0
101 72 0
104 78 0
103 77 0
105 76 0
104 77 0
102 73 0
99 69 0
92 62 0
84 52 0
72 31 0
81 42 0
88 41 0
88 39 0
88 28 0
88 27 0
88 26 0
73 24 0
73 23 0
72 22 0
72 22 0
71 22 0
60 28 0
59 28 0
59 28 0
57 38 0
57 38 0
56 39 0
56 39 0
56 39 0
56 39 0
56 40 0
56 40 0
55 40 0
51 42 0
50 41 0
55 38 0
55 39 0
55 39 0
55 40 0
55 40 0
55 41 0
56 41 0
56 40 0
57 37 0
69 21 0
67 81 0
64 69 0
77 80 0
134 134 0
115 119 0
114 112 0
125 120 0
132 133 0
106 108 0
56 60 0
53 77 0
53 76 0
52 75 0
52 75 0
51 74 0
51 73 0
51 73 0
51 73 0
51 72 0
55 76 0
55 75 0
55 75 0
56 65 0
71 83 0
111 119 0
113 120 0
112 121 0
113 122 0
112 120 0
112 121 0
113 120 0
108 116 0
131 135 0
135 139 0
121 127 0
113 120 0
131 130 122
130 130 122
130 130 122
130 130 122
130 130 123
130 131 123
130 131 123
130 131 123
130 131 123
129 131 123
129 131 123
129 131 123
129 131 123
128 0 119
150 0 145
149 0 143
153 0 149
154 0 151
128 131 123
128 131 123
128 131 123
128 131 123
128 131 123
128 131 123
128 131 123
127 131 122
127 131 122
127 131 122
127 131 122
127 131 122
127 131 122
126 131 122
126 131 122
126 131 122
126 131 121
152 0 147
149 0 145
148 0 145
135 0 133
121 0 120
74 0 75
85 0 86
90 0 90
104 0 104
104 0 104
105 0 105
103 0 103
122 131 119
122 131 118
122 131 118
121 131 118
121 131 118
121 131 117
120 130 117
120 131 117
120 130 116
119 130 116
119 130 116
119 130 115
118 130 115
118 130 115
117 130 114
117 130 114
117 130 114
116 130 113
116 130 113
115 130 112
115 129 112
115 129 112
114 129 111
114 129 111
113 129 110
113 129 110
112 129 109
112 128 109
111 128 108
111 128 108
110 128 108
110 128 107
109 128 107
109 127 106
108 127 106
108 127 105
107 127 105
107 126 104
106 126 104
105 126 103
105 125 103
104 124 102
0 127 0
0 128 0
0 129 0
0 129 0
0 129 0
0 130 0
0 130 0
0 130 0
0 130 0
0 130 0
0 130 0
0 130 0
0 130 0
0 130 0
0 129 0
0 129 0
0 129 0
0 128 0
0 128 0
0 128 0
0 127 0
0 127 0
0 126 0
0 126 0
0 125 0
0 124 0
0 124 0
0 123 0
0 123 0
0 122 0
0 121 0
0 120 0
0 120 0
0 119 0
0 118 0
0 117 0
0 116 0
0 116 0
0 115 0
0 114 0
0 113 0
0 112 0
107 0 0
108 0 0
109 0 0
110 0 0
111 0 0
111 0 0
112 0 0
113 0 0
114 0 0
115 0 0
115 0 0
116 0 0
116 0 0
117 0 0
117 0 0
118 0 0
118 0 0
118 0 0
119 0 0
119 0 0
119 0 0
119 0 0
119 0 0
119 0 0
119 0 0
118 0 0
118 0 0
116 0 0
112 0 0
106 0 0
109 0 0
117 0 0
123 0 0
90 24 0
105 84 0
105 82 0
105 82 0
107 97 0
92 79 0
100 80 0
94 73 0
100 76 0
101 75 0
101 74 0
100 73 0
100 72 0
106 78 0
105 77 0
104 77 0
102 75 0
97 69 0
94 65 0
91 59 0
84 51 0
73 34 0
71 31 0
88 39 0
88 36 0
87 27 0
87 26 0
73 24 0
72 23 0
72 22 0
71 21 0
59 27 0
59 27 0
59 27 0
59 27 0
59 27 0
63 26 0
56 38 0
56 38 0
56 39 0
56 39 0
56 39 0
56 40 0
52 41 0
52 40 0
52 40 0
51 39 0
55 37 0
56 37 0
56 38 0
56 38 0
57 38 0
57 37 0
57 35 0
68 16 0
87 56 0
47 45 0
111 96 0
117 118 0
117 118 0
130 133 0
127 124 0
126 121 0
118 121 0
117 120 0
113 125 0
53 77 0
54 77 0
54 76 0
53 74 0
52 74 0
52 74 0
52 73 0
52 73 0
51 72 0
55 76 0
55 65 0
55 65 0
56 64 0
57 64 0
113 122 0
122 128 0
122 131 0
115 123 0
113 122 0
113 121 0
113 119 0
133 138 0
136 140 0
120 126 0
120 127 0
121 127 0
130 130 122
130 130 122
130 130 122
130 130 122
129 130 122
129 130 122
129 130 122
129 130 122
129 130 122
129 130 122
129 130 122
129 130 123
128 130 122
127 0 118
127 0 118
146 0 140
146 0 141
151 0 147
151 0 147
152 0 149
128 131 122
127 131 122
127 131 122
127 131 122
127 131 122
127 131 122
127 131 122
127 131 122
126 131 122
126 131 122
126 131 122
126 131 121
126 131 121
125 131 121
152 0 147
146 0 142
146 0 142
136 0 134
102 0 102
73 0 74
83 0 84
87 0 87
103 0 102
105 0 105
105 0 104
118 0 118
120 0 120
122 130 118
122 130 118
121 130 118
121 130 118
121 130 117
120 130 117
120 130 117
120 130 116
119 130 116
119 130 116
119 130 115
118 130 115
118 130 115
117 130 114
117 130 114
117 129 113
116 129 113
116 129 113
115 129 112
115 129 112
115 129 112
114 129 111
114 129 111
113 129 110
113 128 110
112 128 109
112 128 109
111 128 109
111 128 108
110 128 108
110 128 107
109 127 107
109 127 106
108 127 106
108 127 105
107 127 105
107 126 104
106 126 104
106 126 103
105 125 103
104 125 102
104 124 102
0 127 0
0 128 0
0 128 0
0 129 0
0 129 0
0 129 0
0 129 0
0 129 0
0 129 0
0 129 0
0 130 0
0 129 0
0 129 0
0 129 0
0 129 0
0 129 0
0 128 0
0 128 0
0 127 0
0 127 0
0 127 0
0 126 0
0 126 0
0 125 0
0 124 0
0 124 0
0 123 0
0 123 0
0 122 0
0 122 0
0 121 0
0 120 0
0 119 0
0 119 0
0 118 0
0 117 0
0 116 0
0 115 0
0 114 0
0 113 0
0 113 0
0 112 0
107 0 0
108 0 0
109 0 0
109 0 0
110 0 0
111 0 0
112 0 0
113 0 0
113 0 0
114 0 0
115 0 0
115 0 0
116 0 0
116 0 0
117 0 0
117 0 0
117 0 0
118 0 0
118 0 0
118 0 0
118 0 0
118 0 0
118 0 0
118 0 0
118 0 0
117 0 0
116 0 0
114 0 0
110 0 0
106 0 0
108 0 0
116 0 0
121 0 0
88 24 0
89 23 0
104 81 0
104 81 0
104 81 0
84 77 0
92 76 0
100 80 0
101 78 0
101 77 0
101 76 0
101 74 0
100 72 0
101 72 0
101 70 0
105 76 0
103 75 0
99 71 0
96 68 0
94 64 0
90 60 0
87 53 0
98 52 0
95 41 0
87 32 0
86 27 0
86 26 0
72 24 0
72 23 0
59 26 0
59 26 0
59 26 0
59 26 0
59 26 0
58 26 0
58 26 0
62 24 0
62 25 0
62 25 0
56 38 0
56 38 0
56 39 0
52 40 0
52 40 0
52 39 0
52 39 0
53 38 0
53 37 0
53 36 0
57 35 0
58 34 0
58 34 0
58 32 0
57 25 0
79 44 0
68 65 0
40 35 0
112 96 0
116 117 0
117 118 0
117 118 0
130 128 0
117 120 0
117 121 0
117 121 0
117 120 0
65 78 0
55 76 0
55 75 0
54 75 0
54 74 0
53 74 0
53 73 0
52 73 0
53 65 0
54 64 0
55 64 0
56 64 0
57 61 0
105 111 0
119 125 0
124 133 0
124 133 0
125 133 0
116 125 0
116 119 0
133 137 0
102 110 0
103 111 0
119 125 0
120 125 0
129 129 121
129 129 121
129 129 121
129 129 121
129 129 121
129 129 122
129 129 122
129 129 122
128 129 122
128 129 122
128 130 122
128 130 122
128 130 122
128 130 122
128 130 122
118 0 109
135 0 128
134 0 126
145 0 139
150 0 146
151 0 147
151 0 149
127 130 122
127 130 122
127 130 122
126 130 122
126 130 122
126 130 122
126 130 122
126 130 121
126 130 121
126 130 121
125 130 121
125 130 121
151 0 145
149 0 145
145 0 142
136 0 133
112 0 112
102 0 102
75 0 76
86 0 86
102 0 101
105 0 104
114 0 114
116 0 116
118 0 118
120 0 120
121 130 118
121 130 118
121 130 117
120 130 117
120 130 117
120 130 117
120 130 116
119 130 116
119 129 116
119 129 115
118 129 115
118 129 115
117 129 114
117 129 114
117 129 113
116 129 113
116 129 113
115 129 112
115 129 112
115 129 112
114 128 111
114 128 111
113 128 110
113 128 110
112 128 109
112 128 109
111 128 109
111 127 108
111 127 108
110 127 107
109 127 107
109 127 106
108 127 106
108 127 105
107 126 105
107 126 105
106 126 104
106 126 103
105 125 103
105 125 102
104 124 102
104 123 101
0 126 0
0 127 0
0 128 0
0 128 0
0 129 0
0 129 0
0 129 0
0 129 0
0 129 0
0 129 0
0 129 0
0 129 0
0 129 0
0 129 0
0 128 0
0 128 0
0 128 0
0 127 0
0 127 0
0 127 0
0 126 0
0 126 0
0 125 0
0 125 0
0 124 0
0 124 0
0 123 0
0 122 0
0 122 0
0 121 0
0 120 0
0 120 0
0 119 0
0 118 0
0 117 0
0 117 0
0 116 0
0 115 0
0 114 0
0 113 0
0 112 0
0 112 0
106 0 0
107 0 0
108 0 0
109 0 0
110 0 0
111 0 0
111 0 0
112 0 0
113 0 0
114 0 0
114 0 0
115 0 0
115 0 0
116 0 0
116 0 0
116 0 0
117 0 0
117 0 0
117 0 0
118 0 0
118 0 0
118 0 0
117 0 0
117 0 0
117 0 0
116 0 0
115 0 0
112 0 0
109 0 0
105 0 0
107 0 0
114 0 0
119 0 0
87 24 0
88 24 0
103 80 0
103 80 0
103 80 0
108 98 0
94 81 0
99 82 0
101 81 0
101 79 0
101 77 0
101 76 0
102 74 0
102 73 0
101 72 0
101 70 0
101 76 0
99 73 0
98 70 0
97 68 0
91 62 0
103 64 0
101 57 0
82 42 0
92 37 0
93 35 0
86 26 0
72 24 0
59 25 0
59 25 0
59 25 0
59 25 0
58 25 0
58 25 0
58 25 0
58 25 0
58 25 0
62 23 0
62 24 0
62 24 0
62 25 0
64 24 0
52 39 0
53 38 0
53 38 0
53 37 0
53 36 0
54 35 0
54 34 0
55 32 0
58 31 0
59 29 0
58 23 0
76 36 0
86 54 0
60 54 0
91 60 0
112 96 0
116 117 0
116 117 0
52 72 0
80 85 0
51 64 0
52 64 0
117 120 0
117 121 0
65 80 0
55 75 0
56 76 0
55 75 0
48 67 0
58 72 0
56 67 0
53 64 0
54 64 0
54 64 0
56 61 0
89 99 0
94 103 0
126 133 0
121 127 0
128 135 0
130 137 0
131 138 0
136 142 0
133 138 0
101 109 0
102 110 0
118 124 0
129 128 120
129 128 120
129 128 121
129 128 121
129 128 121
128 129 121
128 129 121
128 129 121
128 129 121
128 129 121
128 129 121
128 129 121
128 129 121
128 129 121
127 129 121
127 129 121
127 129 122
127 129 122
124 0 115
134 0 127
133 0 126
147 0 142
149 0 145
150 0 148
150 0 148
126 130 121
126 130 121
126 130 121
126 130 121
126 130 121
125 130 121
125 130 121
125 130 121
125 130 121
125 130 121
125 130 121
149 0 144
144 0 141
136 0 133
113 0 112
112 0 111
78 0 79
92 0 92
99 0 99
114 0 114
118 0 118
120 0 120
122 0 122
124 0 124
126 0 125
121 129 118
121 129 117
120 129 117
120 129 117
120 129 116
119 129 116
119 129 116
119 129 115
118 129 115
118 129 115
118 129 114
117 129 114
117 129 114
116 129 113
116 129 113
116 128 113
115 128 112
115 128 112
115 128 112
114 128 111
114 128 111
113 128 110
113 128 110
112 127 109
112 128 109
111 127 109
111 127 108
110 127 108
110 127 107
110 127 107
109 127 106
109 126 106
108 126 105
107 126 105
107 126 105
106 126 104
106 125 104
105 125 103
105 125 103
104 124 102
104 124 102
103 123 101
0 126 0
0 127 0
0 127 0
0 128 0
0 128 0
0 128 0
0 128 0
0 128 0
0 128 0
0 129 0
0 128 0
0 129 0
0 129 0
0 128 0
0 128 0
0 128 0
0 127 0
0 127 0
0 127 0
0 126 0
0 126 0
0 125 0
0 125 0
0 124 0
0 124 0
0 123 0
0 123 0
0 122 0
0 121 0
0 121 0
0 120 0
0 119 0
0 119 0
0 118 0
0 117 0
0 116 0
0 115 0
0 115 0
0 114 0
0 113 0
0 112 0
0 111 0
106 0 0
107 0 0
108 0 0
109 0 0
109 0 0
110 0 0
111 0 0
112 0 0
112 0 0
113 0 0
114 0 0
114 0 0
115 0 0
115 0 0
116 0 0
116 0 0
116 0 0
116 0 0
117 0 0
117 0 0
117 0 0
117 0 0
117 0 0
116 0 0
116 0 0
115 0 0
113 0 0
111 0 0
107 0 0
105 0 0
106 0 0
112 0 0
118 0 0
86 23 0
87 24 0
102 80 0
108 85 0
108 85 0
108 85 0
94 61 0
121 105 0
98 83 0
100 81 0
101 80 0
101 78 0
102 77 0
102 75 0
109 79 0
109 78 0
109 77 0
106 84 0
98 74 0
104 69 0
88 57 0
87 54 0
86 50 0
97 51 0
94 42 0
69 34 0
68 30 0
59 26 0
59 25 0
59 25 0
59 25 0
58 25 0
58 25 0
58 24 0
58 24 0
58 24 0
58 24 0
57 24 0
61 22 0
61 23 0
61 23 0
64 22 0
64 23 0
64 24 0
53 27 0
52 27 0
51 25 0
50 23 0
49 20 0
55 30 0
55 27 0
57 19 0
73 30 0
82 46 0
90 59 0
74 64 0
71 41 0
53 49 0
52 71 0
52 71 0
78 84 0
81 86 0
81 92 0
76 88 0
52 65 0
45 71 0
54 66 0
45 65 0
46 67 0
48 69 0
58 72 0
55 67 0
53 64 0
53 64 0
55 61 0
55 60 0
82 93 0
89 98 0
92 101 0
95 104 0
99 107 0
87 97 0
100 109 0
101 110 0
102 110 0
102 110 0
101 108 0
116 122 0
128 127 120
128 127 120
128 128 120
128 128 120
128 128 120
128 128 120
128 128 120
128 128 120
128 128 120
127 128 121
127 128 121
127 128 121
127 128 121
127 128 121
127 128 121
127 128 121
127 129 121
127 129 121
127 129 121
67 0 64
112 0 103
126 0 118
132 0 124
145 0 140
146 0 142
150 0 147
148 0 146
126 129 121
125 129 121
125 129 121
125 129 121
125 129 121
125 129 121
125 129 120
125 129 120
124 129 120
149 0 144
149 0 144
145 0 141
131 0 129
117 0 116
116 0 116
79 0 79
105 0 105
115 0 115
119 0 119
121 0 121
123 0 123
126 0 126
121 0 121
79 0 79
121 129 117
120 129 117
120 129 117
120 129 116
119 129 116
119 129 116
119 129 115
118 129 115
118 128 115
117 128 114
117 128 114
117 128 114
116 128 113
116 128 113
116 128 113
115 128 112
115 128 112
115 128 112
114 128 111
114 128 111
113 127 110
113 127 110
112 127 109
112 127 109
112 127 109
111 127 108
111 127 108
110 127 107
110 126 107
109 126 107
109 126 106
108 126 106
108 126 105
107 126 105
107 125 104
106 125 104
106 125 103
105 125 103
105 124 102
104 124 102
103 123 101
103 123 101
0 125 0
0 126 0
0 127 0
0 127 0
0 127 0
0 128 0
0 128 0
0 128 0
0 128 0
0 128 0
0 128 0
0 128 0
0 128 0
0 128 0
0 128 0
0 127 0
0 127 0
0 127 0
0 126 0
0 126 0
0 125 0
0 125 0
0 124 0
0 124 0
0 123 0
0 123 0
0 122 0
0 122 0
0 121 0
0 120 0
0 120 0
0 119 0
0 118 0
0 118 0
0 117 0
0 116 0
0 115 0
0 114 0
0 114 0
0 113 0
0 112 0
0 111 0
106 0 0
107 0 0
108 0 0
108 0 0
109 0 0
110 0 0
111 0 0
111 0 0
112 0 0
113 0 0
113 0 0
114 0 0
114 0 0
115 0 0
115 0 0
115 0 0
116 0 0
116 0 0
116 0 0
116 0 0
116 0 0
116 0 0
116 0 0
115 0 0
115 0 0
114 0 0
112 0 0
109 0 0
105 0 0
104 0 0
105 0 0
111 0 0
116 0 0
120 0 0
70 20 0
70 20 0
69 21 0
107 84 0
107 84 0
107 84 0
93 61 0
93 60 0
121 103 0
118 100 0
100 81 0
103 80 0
110 83 0
110 82 0
110 82 0
110 81 0
110 80 0
106 83 0
91 72 0
57 33 0
99 64 0
102 65 0
100 59 0
75 44 0
68 34 0
62 29 0
64 28 0
58 26 0
58 26 0
58 25 0
58 25 0
58 25 0
58 24 0
58 24 0
57 24 0
57 23 0
57 23 0
61 21 0
61 21 0
64 20 0
64 20 0
64 20 0
64 21 0
64 22 0
54 25 0
54 24 0
53 22 0
52 19 0
52 15 0
51 11 0
73 34 0
82 50 0
91 63 0
92 61 0
71 55 0
67 47 0
53 51 0
55 54 0
77 83 0
80 85 0
81 86 0
81 93 0
79 91 0
55 78 0
57 80 0
75 96 0
48 70 0
49 72 0
58 72 0
52 64 0
54 61 0
55 61 0
55 60 0
62 77 0
75 87 0
82 93 0
88 98 0
92 101 0
94 103 0
86 96 0
87 96 0
88 97 0
88 97 0
101 109 0
102 109 0
114 120 0
128 126 119
128 127 119
127 127 119
127 127 119
127 127 119
127 127 120
127 127 119
127 127 120
127 127 120
127 127 120
127 127 120
127 127 120
127 127 120
126 128 120
126 128 120
126 128 120
126 128 120
126 128 120
126 128 121
126 128 120
95 0 82
107 0 97
116 0 106
125 0 117
126 0 118
146 0 141
146 0 141
148 0 146
140 0 139
125 129 120
125 129 120
125 129 120
125 129 120
124 129 120
124 129 120
124 129 120
149 0 144
149 0 144
144 0 141
132 0 131
131 0 129
117 0 116
91 0 91
106 0 106
113 0 113
127 0 127
131 0 130
128 0 128
129 0 128
88 0 88
82 0 82
120 128 117
120 128 117
120 128 116
119 128 116
119 128 116
119 128 116
119 128 115
118 128 115
118 128 115
117 128 114
117 128 114
117 128 114
116 128 113
116 128 113
116 128 113
115 127 112
115 127 112
114 127 111
114 127 111
114 127 111
113 127 110
113 127 110
112 127 110
112 127 109
112 127 109
111 126 108
111 126 108
110 126 108
110 126 107
109 126 107
109 126 106
108 126 106
108 126 105
107 125 105
107 125 104
106 125 104
106 125 103
105 124 103
105 124 103
104 124 102
104 124 102
103 123 101
103 122 100
0 125 0
0 126 0
0 126 0
0 127 0
0 127 0
0 127 0
0 127 0
0 127 0
0 128 0
0 128 0
0 128 0
0 128 0
0 128 0
0 127 0
0 127 0
0 127 0
0 127 0
0 126 0
0 126 0
0 125 0
0 125 0
0 124 0
0 124 0
0 124 0
0 123 0
0 123 0
0 122 0
0 121 0
0 121 0
0 120 0
0 119 0
0 119 0
0 118 0
0 117 0
0 116 0
0 116 0
0 115 0
0 114 0
0 113 0
0 112 0
0 111 0
0 111 0
106 0 0
106 0 0
107 0 0
108 0 0
109 0 0
109 0 0
110 0 0
111 0 0
112 0 0
112 0 0
113 0 0
113 0 0
114 0 0
114 0 0
114 0 0
115 0 0
115 0 0
115 0 0
115 0 0
115 0 0
115 0 0
115 0 0
115 0 0
114 0 0
114 0 0
112 0 0
110 0 0
108 0 0
104 0 0
104 0 0
104 0 0
109 0 0
114 0 0
118 0 0
121 0 0
123 0 0
69 20 0
68 21 0
70 20 0
106 83 0
106 82 0
104 80 0
92 60 0
92 59 0
92 59 0
120 96 0
120 94 0
120 93 0
117 88 0
116 87 0
115 86 0
114 84 0
113 81 0
111 78 0
104 76 0
85 62 0
81 56 0
76 48 0
71 39 0
63 30 0
54 23 0
61 25 0
58 26 0
58 26 0
58 25 0
57 25 0
57 25 0
57 24 0
57 24 0
57 23 0
57 22 0
57 22 0
60 20 0
64 19 0
64 19 0
64 19 0
64 19 0
64 19 0
64 19 0
55 22 0
55 20 0
55 18 0
55 15 0
76 34 0
84 52 0
91 63 0
94 67 0
93 83 0
88 76 0
67 50 0
69 41 0
56 58 0
56 59 0
56 59 0
56 60 0
56 78 0
56 78 0
50 74 0
88 104 0
97 110 0
101 116 0
59 73 0
53 61 0
54 61 0
54 61 0
55 60 0
56 72 0
66 80 0
76 87 0
83 93 0
88 97 0
92 101 0
84 95 0
55 55 0
56 55 0
56 56 0
57 56 0
58 57 0
127 125 118
127 125 118
127 126 118
127 126 118
127 126 118
127 126 118
126 126 119
126 126 119
126 126 119
126 126 119
126 126 119
126 127 119
126 127 119
126 127 119
126 127 119
126 127 120
126 127 120
126 127 120
126 127 120
125 127 120
125 127 120
125 127 120
103 0 90
90 0 76
106 0 96
125 0 117
130 0 122
133 0 126
148 0 144
148 0 143
150 0 148
129 0 127
124 128 120
124 128 120
124 128 120
124 128 120
124 128 120
124 128 120
151 0 147
145 0 142
145 0 141
131 0 130
115 0 115
99 0 99
93 0 94
122 0 122
128 0 128
74 0 76
75 0 76
75 0 76
75 0 76
80 0 80
120 128 117
120 128 117
120 128 116
119 128 116
119 128 116
119 128 116
118 128 115
118 128 115
118 128 115
117 128 114
117 127 114
117 127 114
116 127 113
116 127 113
116 127 113
115 127 112
115 127 112
114 127 112
114 127 111
114 127 111
113 127 110
113 127 110
112 127 110
112 126 109
112 126 109
111 126 108
111 126 108
110 126 108
110 126 107
109 126 107
109 125 106
108 125 106
108 125 105
107 125 105
107 125 104
106 125 104
106 124 104
105 124 103
105 124 103
104 124 102
104 123 102
103 123 101
103 123 101
102 122 100
0 124 0
0 125 0
0 126 0
0 126 0
0 127 0
0 127 0
0 127 0
0 127 0
0 127 0
0 127 0
0 127 0
0 127 0
0 127 0
0 127 0
0 127 0
0 126 0
0 126 0
0 126 0
0 125 0
0 125 0
0 125 0
0 124 0
0 124 0
0 123 0
0 123 0
0 122 0
0 122 0
0 121 0
0 120 0
0 120 0
0 119 0
0 118 0
0 118 0
0 117 0
0 116 0
0 115 0
0 115 0
0 114 0
0 113 0
0 112 0
0 111 0
0 110 0
105 0 0
106 0 0
107 0 0
108 0 0
108 0 0
109 0 0
110 0 0
110 0 0
111 0 0
112 0 0
112 0 0
113 0 0
113 0 0
114 0 0
114 0 0
114 0 0
114 0 0
114 0 0
114 0 0
114 0 0
114 0 0
114 0 0
114 0 0
113 0 0
112 0 0
111 0 0
109 0 0
106 0 0
103 0 0
103 0 0
103 0 0
108 0 0
113 0 0
117 0 0
119 0 0
121 0 0
123 0 0
124 0 0
67 21 0
67 21 0
69 20 0
105 81 0
103 79 0
91 59 0
91 58 0
91 58 0
92 57 0
92 57 0
92 56 0
91 56 0
91 55 0
90 54 0
81 44 0
80 44 0
80 43 0
85 63 0
81 57 0
78 52 0
73 44 0
67 34 0
61 26 0
54 21 0
56 26 0
57 26 0
57 26 0
57 25 0
57 25 0
57 25 0
57 24 0
57 24 0
56 23 0
56 22 0
56 21 0
63 19 0
63 19 0
63 18 0
64 18 0
64 18 0
64 17 0
64 18 0
56 19 0
57 18 0
58 16 0
85 53 0
89 58 0
93 65 0
97 70 0
94 85 0
90 80 0
82 70 0
69 55 0
35 38 0
51 52 0
54 56 0
56 60 0
56 78 0
33 64 0
68 84 0
88 103 0
97 109 0
100 112 0
58 74 0
53 61 0
54 61 0
126 121 113
126 122 114
126 122 114
126 122 114
126 122 114
126 123 115
126 123 115
126 123 115
126 123 115
126 123 116
126 124 116
126 124 116
126 124 116
126 124 117
126 124 117
126 124 117
126 125 117
126 125 117
126 125 117
126 125 118
126 125 118
125 125 118
125 125 118
125 125 118
125 126 118
125 126 118
125 126 119
125 126 119
125 126 119
125 126 119
125 126 119
125 126 119
125 126 119
125 126 119
125 127 119
125 127 119
103 0 90
92 0 79
88 0 73
95 0 86
112 0 103
141 0 135
141 0 135
143 0 137
154 0 150
154 0 150
152 0 149
151 0 148
152 0 149
152 0 149
152 0 149
151 0 149
151 0 148
149 0 147
150 0 148
118 0 118
105 0 105
98 0 99
107 0 107
107 0 107
82 0 82
77 0 77
75 0 76
77 0 77
120 127 117
120 127 117
120 127 116
119 127 116
119 127 116
119 127 116
119 127 115
118 127 115
118 127 115
118 127 115
117 127 114
117 127 114
117 127 114
116 127 113
116 127 113
116 127 113
115 127 112
115 127 112
114 127 112
114 126 111
114 126 111
113 126 110
113 126 110
112 126 110
112 126 109
111 126 109
111 126 108
111 126 108
110 126 108
110 126 107
109 125 107
109 125 106
108 125 106
108 125 105
107 125 105
107 125 105
107 124 104
106 124 104
106 124 103
105 124 103
105 124 102
104 123 102
103 123 101
103 123 101
102 122 100
102 121 100
0 124 0
0 125 0
0 125 0
0 126 0
0 126 0
0 126 0
0 126 0
0 126 0
0 126 0
0 126 0
0 127 0
0 127 0
0 127 0
0 127 0
0 126 0
0 126 0
0 126 0
0 125 0
0 125 0
0 124 0
0 124 0
0 124 0
0 123 0
0 123 0
0 122 0
0 122 0
0 121 0
0 121 0
0 120 0
0 119 0
0 119 0
0 118 0
0 117 0
0 116 0
0 116 0
0 115 0
0 114 0
0 113 0
0 113 0
0 112 0
0 111 0
0 110 0
105 0 0
106 0 0
107 0 0
107 0 0
108 0 0
109 0 0
109 0 0
110 0 0
111 0 0
111 0 0
112 0 0
112 0 0
113 0 0
113 0 0
113 0 0
114 0 0
114 0 0
114 0 0
114 0 0
114 0 0
114 0 0
113 0 0
113 0 0
112 0 0
111 0 0
110 0 0
108 0 0
105 0 0
102 0 0
103 0 0
102 0 0
106 0 0
111 0 0
115 0 0
118 0 0
120 0 0
122 0 0
123 0 0
124 0 0
124 0 0
124 0 0
66 21 0
68 21 0
102 78 0
90 58 0
90 57 0
91 56 0
91 56 0
91 55 0
81 45 0
81 45 0
81 45 0
80 44 0
80 43 0
79 43 0
79 42 0
81 59 0
79 54 0
75 48 0
69 39 0
64 30 0
58 22 0
54 21 0
57 25 0
57 25 0
57 25 0
57 25 0
57 25 0
56 24 0
56 24 0
56 23 0
56 23 0
63 20 0
66 18 0
66 18 0
66 18 0
66 17 0
66 17 0
64 17 0
64 17 0
65 17 0
66 17 0
61 19 0
91 61 0
95 68 0
99 74 0
102 78 0
94 87 0
92 85 0
89 81 0
85 78 0
74 77 0
50 55 0
36 44 0
35 66 0
54 73 0
73 86 0
84 94 0
93 106 0
96 109 0
99 111 0
103 116 0
125 120 112
125 120 112
125 120 112
125 120 113
125 121 113
125 121 113
125 121 113
125 121 114
125 122 114
125 122 114
125 122 115
125 122 115
125 123 115
125 123 115
125 123 115
125 123 116
125 123 116
125 124 116
125 124 116
125 124 116
125 124 117
125 124 117
125 124 117
125 124 117
125 125 117
125 125 118
125 125 118
125 125 118
124 125 118
124 125 118
124 125 118
124 125 118
124 125 118
124 126 119
124 126 119
124 126 119
124 126 119
124 126 119
95 0 83
102 0 89
104 0 90
87 0 72
90 0 80
153 0 148
149 0 144
149 0 145
149 0 145
149 0 144
149 0 146
146 0 143
146 0 143
148 0 145
147 0 145
147 0 145
144 0 142
146 0 144
146 0 144
144 0 142
143 0 142
143 0 142
107 0 107
84 0 85
75 0 76
77 0 78
120 127 117
120 127 117
120 127 117
120 127 116
119 127 116
119 127 116
119 127 116
118 127 115
118 127 115
118 127 115
117 127 114
117 127 114
117 127 114
116 127 114
116 126 113
116 126 113
115 126 113
115 126 112
115 126 112
114 126 111
114 126 111
114 126 111
113 126 110
113 126 110
112 126 110
112 126 109
112 126 109
111 125 108
111 125 108
110 125 108
110 125 107
109 125 107
109 125 107
109 125 106
108 125 106
108 124 105
107 124 105
107 124 104
106 124 104
106 124 103
105 124 103
105 123 102
104 123 102
104 123 101
103 123 101
103 122 101
102 122 100
101 121 99
0 123 0
0 124 0
0 125 0
0 125 0
0 126 0
0 126 0
0 126 0
0 126 0
0 126 0
0 126 0
0 126 0
0 126 0
0 126 0
0 126 0
0 126 0
0 126 0
0 125 0
0 125 0
0 124 0
0 124 0
0 124 0
0 123 0
0 123 0
0 122 0
0 122 0
0 121 0
0 121 0
0 120 0
0 120 0
0 119 0
0 118 0
0 118 0
0 117 0
0 116 0
0 115 0
0 115 0
0 114 0
0 113 0
0 112 0
0 111 0
0 111 0
0 110 0
105 0 0
105 0 0
106 0 0
107 0 0
108 0 0
108 0 0
109 0 0
110 0 0
110 0 0
111 0 0
111 0 0
112 0 0
112 0 0
113 0 0
113 0 0
113 0 0
113 0 0
113 0 0
113 0 0
113 0 0
113 0 0
113 0 0
112 0 0
111 0 0
110 0 0
109 0 0
107 0 0
104 0 0
102 0 0
103 0 0
102 0 0
105 0 0
110 0 0
114 0 0
117 0 0
119 0 0
121 0 0
122 0 0
123 0 0
123 0 0
123 0 0
123 0 0
123 0 0
65 22 0
67 21 0
67 21 0
57 31 0
57 31 0
57 31 0
57 31 0
56 31 0
56 31 0
56 31 0
55 31 0
55 31 0
55 31 0
53 34 0
124 103 99
124 104 99
124 104 100
124 104 100
124 105 100
124 105 101
124 105 101
124 106 101
124 106 101
56 24 0
56 23 0
56 23 0
56 23 0
56 22 0
62 20 0
62 20 0
66 19 0
66 18 0
66 18 0
66 17 0
66 17 0
66 17 0
66 17 0
67 16 0
67 16 0
68 14 0
95 67 0
96 69 0
98 72 0
100 75 0
96 91 0
94 88 0
93 87 0
91 86 0
87 92 0
83 88 0
78 85 0
77 85 0
81 90 0
87 95 0
91 98 0
96 108 0
98 110 0
100 111 0
108 120 0
124 119 111
124 119 111
124 119 111
124 119 112
124 120 112
124 120 112
124 120 113
124 120 113
124 121 113
124 121 113
124 121 114
124 121 114
124 122 114
124 122 114
124 122 115
124 122 115
124 122 115
124 123 115
124 123 115
124 123 116
124 123 116
124 123 116
124 123 116
124 123 116
124 124 117
124 124 117
124 124 117
124 124 117
124 124 117
124 124 117
124 124 118
123 125 118
123 125 118
123 125 118
123 125 118
123 125 118
123 125 118
123 125 118
123 125 118
107 0 94
107 0 95
110 0 98
136 0 129
142 0 136
142 0 136
139 0 134
144 0 139
144 0 139
144 0 140
144 0 140
144 0 140
142 0 139
143 0 139
142 0 140
142 0 140
135 0 133
134 0 132
128 0 127
122 0 121
119 0 119
79 0 80
75 0 76
78 0 79
120 126 117
120 126 116
120 126 116
119 126 116
119 126 116
119 126 116
119 126 115
118 126 115
118 126 115
118 126 115
117 126 114
117 126 114
117 126 114
116 126 113
116 126 113
116 126 113
115 126 113
115 126 112
115 126 112
114 126 111
114 126 111
114 126 111
113 126 110
113 125 110
112 125 110
112 125 109
112 125 109
111 125 108
111 125 108
110 125 108
110 125 107
109 125 107
109 124 106
109 124 106
108 124 106
108 124 105
107 124 105
107 124 104
106 124 104
106 123 103
105 123 103
105 123 102
104 123 102
104 123 102
103 122 101
103 122 101
102 122 100
102 121 100
101 120 99
0 123 0
0 124 0
0 125 0
0 125 0
0 125 0
0 125 0
0 125 0
0 125 0
0 125 0
0 125 0
0 126 0
0 126 0
0 126 0
0 126 0
0 125 0
0 125 0
0 125 0
0 124 0
0 124 0
0 124 0
0 123 0
0 123 0
0 122 0
0 122 0
0 122 0
0 121 0
0 120 0
0 120 0
0 119 0
0 119 0
0 118 0
0 117 0
0 117 0
0 116 0
0 115 0
0 114 0
0 114 0
0 113 0
0 112 0
0 111 0
0 110 0
0 109 0
104 0 0
105 0 0
106 0 0
107 0 0
107 0 0
108 0 0
109 0 0
109 0 0
110 0 0
110 0 0
111 0 0
111 0 0
112 0 0
112 0 0
112 0 0
112 0 0
112 0 0
113 0 0
112 0 0
112 0 0
112 0 0
112 0 0
111 0 0
111 0 0
109 0 0
108 0 0
106 0 0
103 0 0
101 0 0
102 0 0
101 0 0
104 0 0
109 0 0
113 0 0
116 0 0
118 0 0
120 0 0
121 0 0
122 0 0
122 0 0
123 0 0
123 0 0
122 0 0
121 0 0
121 97 94
121 98 95
121 98 95
122 99 96
122 99 96
122 99 96
122 100 96
122 100 97
122 100 97
122 101 97
123 101 98
123 102 98
123 102 98
123 102 99
123 103 99
123 103 99
123 103 99
123 104 100
123 104 100
123 104 100
123 105 100
123 105 101
123 106 101
123 106 101
56 22 0
56 21 0
62 19 0
62 19 0
62 19 0
65 18 0
66 19 0
66 18 0
65 18 0
65 18 0
66 17 0
66 17 0
66 16 0
67 15 0
97 73 0
96 67 0
98 71 0
99 73 0
101 76 0
98 93 0
97 92 0
95 90 0
94 89 0
93 98 0
92 97 0
92 97 0
92 98 0
93 99 0
93 99 0
95 101 0
98 110 0
100 111 0
101 112 0
102 112 0
110 122 0
123 118 110
123 118 110
123 118 111
123 119 111
123 119 111
123 119 112
123 119 112
123 120 112
123 120 112
123 120 113
123 120 113
123 120 113
123 121 113
123 121 114
123 121 114
123 121 114
123 122 114
123 122 115
123 122 115
123 122 115
123 122 115
123 122 115
123 123 116
123 123 116
123 123 116
123 123 116
123 123 116
123 123 117
123 124 117
123 124 117
123 124 117
123 124 117
123 124 117
123 124 118
123 124 118
123 125 118
123 125 118
123 125 118
102 0 90
102 0 91
128 0 119
137 0 130
129 0 122
130 0 124
138 0 133
138 0 133
138 0 133
137 0 133
137 0 133
141 0 136
142 0 138
137 0 134
135 0 133
137 0 135
134 0 132
134 0 132
106 0 106
104 0 104
89 0 90
76 0 76
82 0 82
120 126 117
120 126 116
119 126 116
119 126 116
119 126 116
119 126 116
118 126 115
118 126 115
118 126 115
118 126 115
117 126 114
117 126 114
117 126 114
116 126 113
116 126 113
116 125 113
115 125 112
115 125 112
115 125 112
114 125 111
114 125 111
114 125 111
113 125 110
113 125 110
112 125 110
112 125 109
111 125 109
111 125 109
111 124 108
110 124 108
110 124 107
109 124 107
109 124 107
109 124 106
108 124 106
108 124 105
107 124 105
107 123 104
106 123 104
106 123 104
105 123 103
105 123 103
104 123 102
104 122 102
103 122 101
103 122 101
102 122 100
102 121 100
101 121 99
101 120 99
0 123 0
0 124 0
0 124 0
0 124 0
0 125 0
0 125 0
0 125 0
0 125 0
0 125 0
0 125 0
0 125 0
0 125 0
0 125 0
0 125 0
0 125 0
0 124 0
0 124 0
0 124 0
0 124 0
0 123 0
0 123 0
0 122 0
0 122 0
0 122 0
0 121 0
0 121 0
0 120 0
0 119 0
0 119 0
0 118 0
0 118 0
0 117 0
0 116 0
0 115 0
0 115 0
0 114 0
0 113 0
0 112 0
0 112 0
0 111 0
0 110 0
0 109 0
104 0 0
105 0 0
106 0 0
106 0 0
107 0 0
108 0 0
108 0 0
109 0 0
109 0 0
110 0 0
110 0 0
111 0 0
111 0 0
111 0 0
112 0 0
112 0 0
112 0 0
112 0 0
112 0 0
112 0 0
111 0 0
111 0 0
110 0 0
110 0 0
108 0 0
107 0 0
104 0 0
102 0 0
100 0 0
102 0 0
101 0 0
103 0 0
107 0 0
111 0 0
114 0 0
117 0 0
119 0 0
120 0 0
121 0 0
122 0 0
122 0 0
122 0 0
121 0 0
120 0 0
120 97 94
120 97 94
121 97 95
121 98 95
121 98 95
121 99 96
121 99 96
121 99 96
122 100 96
122 100 97
122 100 97
122 101 97
122 101 97
122 101 98
122 102 98
122 102 98
122 103 99
122 103 99
122 103 99
122 104 99
122 104 100
122 104 100
122 105 100
122 105 100
122 105 101
122 106 101
62 18 0
62 18 0
62 18 0
65 17 0
65 17 0
66 18 0
66 18 0
65 18 0
65 18 0
65 17 0
66 16 0
67 15 0
100 77 0
102 80 0
99 72 0
100 74 0
101 76 0
98 94 0
98 94 0
97 94 0
96 91 0
96 92 0
96 101 0
96 101 0
96 101 0
96 102 0
97 103 0
97 102 0
99 110 0
101 111 0
101 112 0
102 112 0
114 125 0
110 122 0
122 117 109
122 117 110
122 117 110
122 118 110
122 118 111
122 118 111
122 118 111
122 119 111
122 119 112
122 119 112
122 119 112
122 120 112
122 120 113
122 120 113
122 120 113
122 121 113
122 121 114
122 121 114
122 121 114
122 121 114
122 122 115
122 122 115
122 122 115
122 122 115
122 122 115
122 122 116
122 123 116
122 123 116
122 123 116
122 123 116
122 123 117
122 123 117
122 123 117
122 124 117
122 124 117
122 124 117
122 124 117
122 124 117
122 124 118
108 0 97
110 0 101
110 0 101
129 0 123
130 0 123
130 0 123
136 0 130
136 0 131
137 0 132
137 0 132
133 0 129
137 0 134
135 0 132
131 0 129
124 0 122
122 0 121
106 0 106
89 0 90
77 0 79
120 125 117
120 125 116
119 125 116
119 125 116
119 125 116
119 125 116
118 125 115
118 125 115
118 125 115
118 125 115
117 125 114
117 125 114
117 125 114
116 125 114
116 125 113
116 125 113
115 125 113
115 125 112
115 125 112
114 125 112
114 125 111
114 125 111
113 125 111
113 125 110
113 125 110
112 125 110
112 124 109
112 124 109
111 124 109
111 124 108
110 124 108
110 124 107
110 124 107
109 124 106
109 124 106
108 123 106
108 123 105
107 123 105
107 123 104
106 123 104
106 123 104
105 123 103
105 123 103
104 122 102
104 122 102
104 122 101
103 122 101
103 121 101
102 121 100
101 121 99
101 120 99
100 120 99
0 122 0
0 123 0
0 124 0
0 124 0
0 124 0
0 124 0
0 124 0
0 124 0
0 124 0
0 125 0
0 125 0
0 125 0
0 125 0
0 125 0
0 124 0
0 124 0
0 124 0
0 123 0
0 123 0
0 123 0
0 122 0
0 122 0
0 122 0
0 121 0
0 121 0
0 120 0
0 120 0
0 119 0
0 118 0
0 118 0
0 117 0
0 116 0
0 116 0
0 115 0
0 114 0
0 114 0
0 113 0
0 112 0
0 111 0
0 110 0
0 110 0
0 109 0
104 0 0
104 0 0
105 0 0
106 0 0
107 0 0
107 0 0
108 0 0
108 0 0
109 0 0
109 0 0
110 0 0
110 0 0
111 0 0
111 0 0
111 0 0
111 0 0
111 0 0
111 0 0
111 0 0
111 0 0
110 0 0
110 0 0
110 0 0
109 0 0
107 0 0
106 0 0
103 0 0
101 0 0
99 0 0
102 0 0
100 0 0
102 0 0
106 0 0
110 0 0
113 0 0
116 0 0
118 0 0
119 0 0
120 0 0
121 0 0
121 0 0
121 0 0
121 0 0
119 0 0
119 96 93
120 96 94
120 97 94
120 97 94
120 97 95
120 98 95
121 98 95
121 99 96
121 99 96
121 99 96
121 100 96
121 100 97
121 100 97
121 101 97
121 101 97
121 101 98
121 102 98
121 102 98
121 102 98
121 103 99
121 103 99
121 103 99
121 104 99
121 104 99
121 104 100
121 105 100
121 105 100
62 18 0
61 17 0
61 16 0
65 16 0
65 16 0
65 18 0
65 19 0
65 19 0
65 18 0
65 17 0
66 15 0
103 80 0
104 83 0
106 85 0
101 75 0
102 77 0
99 94 0
98 95 0
99 95 0
98 95 0
97 92 0
98 102 0
98 103 0
98 103 0
98 103 0
98 104 0
99 104 0
101 111 0
101 112 0
102 112 0
102 112 0
116 127 0
114 125 0
121 116 108
121 116 109
121 116 109
121 116 109
121 117 110
121 117 110
121 117 110
121 118 110
121 118 111
121 118 111
121 118 111
121 119 111
121 119 112
121 119 112
121 119 112
121 120 113
121 120 113
121 120 113
121 120 113
121 121 114
121 121 114
121 121 114
121 121 114
121 121 115
121 121 115
121 122 115
121 122 115
121 122 115
121 122 116
121 122 116
121 122 116
121 123 116
121 123 116
121 123 116
121 123 117
121 123 117
121 123 117
121 124 117
121 124 117
111 0 100
111 0 102
112 0 102
113 0 104
129 0 122
129 0 122
129 0 122
133 0 128
133 0 128
131 0 127
131 0 127
131 0 127
127 0 125
131 0 128
122 0 121
122 0 121
102 0 102
67 0 70
76 0 77
119 125 116
119 125 116
119 125 116
119 125 116
118 125 115
118 125 115
118 125 115
118 125 115
117 125 115
117 125 114
117 125 114
117 125 114
116 125 113
116 125 113
116 125 113
115 125 113
115 125 112
115 124 112
114 124 112
114 124 111
114 124 111
113 124 111
113 124 110
113 124 110
112 124 110
112 124 109
112 124 109
111 124 109
111 124 108
110 124 108
110 124 107
110 124 107
109 123 107
109 123 106
108 123 106
108 123 105
107 123 105
107 123 104
107 123 104
106 123 104
106 122 103
105 122 103
105 122 102
104 122 102
104 122 101
103 122 101
103 121 101
102 121 100
102 121 100
101 120 99
101 120 99
100 119 98
0 122 0
0 123 0
0 123 0
0 124 0
0 124 0
0 124 0
0 124 0
0 124 0
0 124 0
0 124 0
0 124 0
0 124 0
0 124 0
0 124 0
0 124 0
0 124 0
0 123 0
0 123 0
0 123 0
0 122 0
0 122 0
0 122 0
0 121 0
0 121 0
0 120 0
0 120 0
0 119 0
0 119 0
0 118 0
0 117 0
0 117 0
0 116 0
0 115 0
0 115 0
0 114 0
0 113 0
0 113 0
0 112 0
0 111 0
0 110 0
0 109 0
0 109 0
103 0 0
104 0 0
105 0 0
106 0 0
106 0 0
107 0 0
107 0 0
108 0 0
108 0 0
109 0 0
109 0 0
110 0 0
110 0 0
110 0 0
111 0 0
111 0 0
111 0 0
111 0 0
110 0 0
110 0 0
110 0 0
109 0 0
109 0 0
108 0 0
106 0 0
104 0 0
102 0 0
100 0 0
99 0 0
101 0 0
100 0 0
101 0 0
105 0 0
109 0 0
112 0 0
115 0 0
117 0 0
118 0 0
120 0 0
120 0 0
120 0 0
120 0 0
120 0 0
119 0 0
119 95 93
119 95 93
119 96 93
119 96 94
119 97 94
120 97 94
120 97 95
120 98 95
120 98 95
120 99 95
120 99 96
120 99 96
120 99 96
120 100 96
120 100 97
120 101 97
120 101 97
120 101 97
120 101 98
120 102 98
120 102 98
121 102 98
120 103 98
120 103 99
121 103 99
121 104 99
121 104 99
121 104 100
61 16 0
61 16 0
65 15 0
65 14 0
65 14 0
65 18 0
65 19 0
64 19 0
65 18 0
103 81 0
105 83 0
106 85 0
107 87 0
108 88 0
99 95 0
99 95 0
99 95 0
95 91 0
95 92 0
94 92 0
91 97 0
91 98 0
91 98 0
92 98 0
92 98 0
92 99 0
97 108 0
97 108 0
97 108 0
97 109 0
97 109 0
104 117 0
103 116 0
120 115 108
120 115 108
120 115 108
120 116 109
120 116 109
120 116 109
120 116 109
120 117 110
120 117 110
120 117 110
120 118 111
120 118 111
120 118 111
120 118 111
120 119 112
120 119 112
120 119 112
120 119 113
120 120 113
120 120 113
120 120 113
120 120 114
120 120 114
120 121 114
120 121 114
120 121 115
120 121 115
120 121 115
121 122 115
121 122 115
121 122 116
121 122 116
121 122 116
121 122 116
121 123 116
121 123 116
121 123 116
121 123 117
87 0 77
88 0 78
101 0 91
92 0 83
118 0 110
119 0 112
128 0 121
133 0 127
129 0 124
129 0 124
130 0 126
130 0 126
127 0 124
127 0 124
120 0 119
120 0 119
102 0 102
74 0 76
73 0 75
119 124 116
119 124 116
118 124 115
118 124 115
118 124 115
118 124 115
117 124 115
117 124 114
117 124 114
117 124 114
116 124 114
116 124 113
116 124 113
115 124 113
115 124 113
115 124 112
115 124 112
114 124 112
114 124 111
114 124 111
113 124 111
113 124 110
112 124 110
112 124 110
112 124 109
111 123 109
111 123 108
111 123 108
110 123 108
110 123 107
110 123 107
109 123 107
109 123 106
108 123 106
108 123 105
107 123 105
107 122 105
106 122 104
106 122 104
106 122 103
105 122 103
105 122 103
104 122 102
104 121 102
103 121 101
103 121 101
102 121 100
102 121 100
101 120 99
101 120 99
100 120 98
100 119 98
0 121 0
0 122 0
0 123 0
0 123 0
0 123 0
0 123 0
0 123 0
0 123 0
0 123 0
0 123 0
0 124 0
0 124 0
0 124 0
0 124 0
0 123 0
0 123 0
0 123 0
0 123 0
0 122 0
0 122 0
0 122 0
0 121 0
0 121 0
0 120 0
0 120 0
0 119 0
0 119 0
0 118 0
0 118 0
0 117 0
0 116 0
0 116 0
0 115 0
0 114 0
0 114 0
0 113 0
0 112 0
0 112 0
0 111 0
0 110 0
0 109 0
0 108 0
103 0 0
104 0 0
104 0 0
105 0 0
106 0 0
106 0 0
107 0 0
108 0 0
108 0 0
109 0 0
109 0 0
109 0 0
110 0 0
110 0 0
110 0 0
110 0 0
110 0 0
110 0 0
110 0 0
109 0 0
109 0 0
108 0 0
108 0 0
107 0 0
105 0 0
103 0 0
101 0 0
99 0 0
98 0 0
100 0 0
99 0 0
101 0 0
104 0 0
108 0 0
111 0 0
114 0 0
116 0 0
117 0 0
119 0 0
119 0 0
119 0 0
119 0 0
119 0 0
118 0 0
118 94 92
118 95 92
118 95 93
119 96 93
119 96 93
119 96 94
119 97 94
119 97 94
119 97 94
119 98 95
119 98 95
119 98 95
119 99 95
119 99 96
119 99 96
119 100 96
120 100 97
119 100 97
120 101 97
119 101 97
119 101 97
119 101 98
119 102 98
120 102 98
120 102 98
120 103 98
120 103 99
120 103 99
120 104 99
60 15 0
64 13 0
64 12 0
64 12 0
64 12 0
65 17 0
64 19 0
64 20 0
105 83 0
95 71 0
96 71 0
96 73 0
97 73 0
93 89 0
95 91 0
94 91 0
94 91 0
94 92 0
94 92 0
92 98 0
91 98 0
92 98 0
91 98 0
91 98 0
92 99 0
96 108 0
97 108 0
97 108 0
97 108 0
96 108 0
104 117 0
104 116 0
119 114 107
119 114 107
119 114 107
119 115 108
119 115 108
119 115 108
119 115 109
119 116 109
119 116 109
119 116 109
119 117 110
119 117 110
119 117 110
119 117 111
119 118 111
119 118 111
119 118 111
119 118 112
119 119 112
119 119 112
119 119 113
119 119 113
119 120 113
120 120 113
120 120 114
120 120 114
120 120 114
120 121 114
120 121 115
120 121 115
120 121 115
120 121 115
120 122 115
120 122 115
120 122 116
120 122 116
120 122 116
120 122 116
84 0 75
76 0 68
77 0 68
100 0 89
118 0 109
119 0 111
122 0 115
123 0 117
128 0 123
128 0 124
130 0 126
128 0 124
126 0 124
122 0 120
118 0 117
108 0 107
101 0 101
78 0 80
59 0 63
92 0 92
118 124 115
118 124 115
118 124 115
118 124 115
117 124 114
117 124 114
117 124 114
116 124 114
116 124 114
116 124 113
116 124 113
115 124 113
115 124 112
115 124 112
114 124 112
114 124 112
114 123 111
113 123 111
113 123 111
113 123 110
113 123 110
112 123 110
112 123 109
111 123 109
111 123 109
111 123 108
110 123 108
110 123 107
110 123 107
109 123 107
109 123 106
108 122 106
108 122 105
107 122 105
107 122 105
107 122 104
106 122 104
106 122 103
105 122 103
105 121 103
104 121 102
104 121 102
103 121 101
103 121 101
102 121 100
102 120 100
101 120 99
101 120 99
100 120 99
100 119 98
99 118 98
0 121 0
0 122 0
0 122 0
0 123 0
0 123 0
0 123 0
0 123 0
0 123 0
0 123 0
0 123 0
0 123 0
0 123 0
0 123 0
0 123 0
0 123 0
0 123 0
0 122 0
0 122 0
0 122 0
0 121 0
0 121 0
0 121 0
0 120 0
0 120 0
0 119 0
0 119 0
0 118 0
0 118 0
0 117 0
0 117 0
0 116 0
0 115 0
0 115 0
0 114 0
0 113 0
0 113 0
0 112 0
0 111 0
0 110 0
0 110 0
0 109 0
0 108 0
103 0 0
103 0 0
104 0 0
105 0 0
105 0 0
106 0 0
107 0 0
107 0 0
108 0 0
108 0 0
108 0 0
109 0 0
109 0 0
109 0 0
109 0 0
109 0 0
109 0 0
109 0 0
109 0 0
109 0 0
108 0 0
108 0 0
107 0 0
106 0 0
104 0 0
103 0 0
100 0 0
99 0 0
98 0 0
100 0 0
99 0 0
100 0 0
103 0 0
106 0 0
110 0 0
112 0 0
115 0 0
116 0 0
118 0 0
118 0 0
119 0 0
119 0 0
118 0 0
117 0 0
117 94 92
117 94 92
118 95 92
118 95 92
118 95 93
118 96 93
118 96 93
118 96 94
118 97 94
118 97 94
118 97 94
118 97 94
118 98 95
118 98 95
119 98 95
118 99 95
119 99 96
119 99 96
119 100 96
119 100 96
119 100 97
119 101 97
119 101 97
119 101 97
119 101 97
119 102 98
119 102 98
119 102 98
119 103 98
119 103 99
49 12 0
48 10 0
47 9 0
46 8 0
45 9 0
45 12 0
44 26 0
97 75 0
95 71 0
96 71 0
96 72 0
96 73 0
93 88 0
94 91 0
94 91 0
94 91 0
94 92 0
94 92 0
91 98 0
91 98 0
91 98 0
91 98 0
91 98 0
92 98 0
96 107 0
96 108 0
96 108 0
97 108 0
96 108 0
104 117 0
104 117 0
118 112 106
118 113 106
118 113 106
118 113 107
118 114 107
118 114 107
118 114 108
118 115 108
118 115 108
118 115 109
118 116 109
118 116 109
118 116 109
118 117 110
118 117 110
118 117 110
118 117 111
119 118 111
118 118 111
118 118 112
119 118 112
119 118 112
119 119 112
119 119 113
119 119 113
119 119 113
119 120 114
119 120 114
119 120 114
119 120 114
119 121 114
119 121 114
119 121 115
119 121 115
119 121 115
119 121 115
119 122 115
119 122 115
90 0 79
85 0 76
78 0 68
92 0 80
105 0 95
118 0 110
118 0 111
122 0 116
122 0 116
121 0 116
128 0 123
128 0 124
121 0 117
121 0 119
111 0 110
106 0 106
94 0 95
68 0 70
82 0 83
92 0 92
118 123 115
117 123 115
117 123 114
117 123 114
117 123 114
116 123 114
116 123 114
116 123 113
116 123 113
115 123 113
115 123 113
115 123 112
115 123 112
114 123 112
114 123 112
114 123 111
113 123 111
113 123 111
113 123 110
112 123 110
112 123 110
112 123 109
111 123 109
111 123 109
111 122 108
110 123 108
110 122 107
109 122 107
109 122 107
109 122 106
108 122 106
108 122 106
107 122 105
107 122 105
107 122 104
106 121 104
106 121 103
105 121 103
105 121 103
104 121 102
104 121 102
103 121 101
103 121 101
103 120 101
102 120 100
102 120 100
101 120 99
101 119 99
100 119 98
100 119 98
99 118 97
0 120 0
0 121 0
0 122 0
0 122 0
0 122 0
0 122 0
0 123 0
0 122 0
0 122 0
0 123 0
0 123 0
0 123 0
0 123 0
0 123 0
0 123 0
0 122 0
0 122 0
0 122 0
0 121 0
0 121 0
0 121 0
0 120 0
0 120 0
0 120 0
0 119 0
0 119 0
0 118 0
0 118 0
0 117 0
0 116 0
0 116 0
0 115 0
0 115 0
0 114 0
0 113 0
0 112 0
0 112 0
0 111 0
0 110 0
0 109 0
0 109 0
0 108 0
102 0 0
103 0 0
104 0 0
104 0 0
105 0 0
106 0 0
106 0 0
107 0 0
107 0 0
108 0 0
108 0 0
108 0 0
109 0 0
109 0 0
109 0 0
109 0 0
109 0 0
109 0 0
108 0 0
108 0 0
108 0 0
107 0 0
106 0 0
105 0 0
103 0 0
102 0 0
100 0 0
98 0 0
98 0 0
99 0 0
98 0 0
99 0 0
102 0 0
105 0 0
109 0 0
111 0 0
114 0 0
115 0 0
117 0 0
118 0 0
118 0 0
118 0 0
117 0 0
117 0 0
116 93 91
116 93 91
117 94 91
117 94 92
117 94 92
117 95 92
117 95 93
117 95 93
117 96 93
117 96 93
118 96 94
117 97 94
118 97 94
118 97 94
118 98 94
118 98 95
118 98 95
118 99 95
118 99 95
118 99 96
118 99 96
118 100 96
118 100 96
118 100 97
118 101 97
118 101 97
118 101 97
118 101 97
118 102 98
118 102 98
118 102 98
118 102 98
118 103 98
118 103 98
32 11 0
30 9 0
28 7 0
97 75 0
95 71 0
95 71 0
96 72 0
96 73 0
93 88 0
93 88 0
94 91 0
94 91 0
94 91 0
94 92 0
91 97 0
91 97 0
91 98 0
91 98 0
91 98 0
91 98 0
91 98 0
96 107 0
96 108 0
96 108 0
95 108 0
104 117 0
104 116 0
117 111 105
117 112 105
117 112 105
117 112 106
117 113 106
117 113 106
117 113 107
117 114 107
117 114 107
117 114 108
117 115 108
117 115 108
117 115 109
117 116 109
117 116 109
117 116 110
118 116 110
118 117 110
118 117 111
118 117 111
118 117 111
118 118 111
118 118 112
118 118 112
118 118 112
118 119 113
118 119 113
118 119 113
118 119 113
118 119 114
118 120 114
119 120 114
119 120 114
119 120 114
119 121 114
119 121 115
119 121 115
119 121 115
86 0 75
95 0 85
92 0 81
92 0 81
107 0 97
113 0 105
113 0 105
118 0 112
119 0 113
119 0 113
121 0 116
119 0 114
120 0 117
115 0 113
111 0 110
105 0 105
94 0 94
85 0 85
90 0 90
92 0 93
117 123 115
117 123 114
117 123 114
116 123 114
116 123 114
116 123 113
116 123 113
115 123 113
115 123 113
115 123 112
115 123 112
114 123 112
114 123 112
114 123 111
113 122 111
113 123 111
113 122 111
113 122 110
112 122 110
112 122 110
112 122 109
111 122 109
111 122 109
111 122 108
110 122 108
110 122 107
109 122 107
109 122 107
109 122 106
108 122 106
108 121 105
107 121 105
107 121 105
107 121 104
106 121 104
106 121 103
105 121 103
105 121 103
104 121 102
104 120 102
104 120 101
103 120 101
103 120 101
102 120 100
102 120 100
101 120 99
101 119 99
100 119 98
100 119 98
99 118 98
99 118 97
0 120 0
0 121 0
0 121 0
0 122 0
0 122 0
0 122 0
0 122 0
0 122 0
0 122 0
0 122 0
0 122 0
0 122 0
0 122 0
0 122 0
0 122 0
0 122 0
0 121 0
0 121 0
0 121 0
0 121 0
0 120 0
0 120 0
0 119 0
0 119 0
0 119 0
0 118 0
0 118 0
0 117 0
0 117 0
0 116 0
0 115 0
0 115 0
0 114 0
0 113 0
0 113 0
0 112 0
0 111 0
0 111 0
0 110 0
0 109 0
0 108 0
0 108 0
102 0 0
103 0 0
103 0 0
104 0 0
105 0 0
105 0 0
106 0 0
106 0 0
107 0 0
107 0 0
108 0 0
108 0 0
108 0 0
108 0 0
108 0 0
108 0 0
108 0 0
108 0 0
108 0 0
107 0 0
107 0 0
106 0 0
105 0 0
104 0 0
103 0 0
101 0 0
99 0 0
97 0 0
97 0 0
99 0 0
98 0 0
99 0 0
101 0 0
104 0 0
108 0 0
110 0 0
113 0 0
115 0 0
116 0 0
117 0 0
117 0 0
117 0 0
117 0 0
116 0 0
115 92 90
116 93 91
116 93 91
116 93 91
116 94 91
116 94 92
116 94 92
117 95 92
117 95 92
117 95 93
117 96 93
117 96 93
117 96 93
117 97 94
117 97 94
117 97 94
117 97 94
117 98 94
117 98 95
117 98 95
117 98 95
117 99 95
117 99 96
117 99 96
117 100 96
117 100 96
117 100 96
117 100 97
117 101 97
117 101 97
117 101 97
117 101 97
117 102 97
117 102 98
116 102 98
117 102 98
116 103 98
97 75 0
95 70 0
95 71 0
96 72 0
96 72 0
92 88 0
92 88 0
94 91 0
93 91 0
94 91 0
93 91 0
91 97 0
91 97 0
91 97 0
91 98 0
91 98 0
91 98 0
91 98 0
96 107 0
96 107 0
95 107 0
95 107 0
104 117 0
103 116 0
105 118 0
116 111 104
116 111 104
116 111 105
116 112 105
116 112 106
116 112 106
116 113 106
116 113 106
116 113 107
116 113 107
116 114 107
116 114 108
116 115 108
116 115 109
116 115 109
117 116 109
117 116 110
117 116 110
117 116 110
117 117 111
117 117 111
117 117 111
117 117 111
117 118 112
117 118 112
117 118 112
118 118 113
118 119 113
118 119 113
118 119 113
118 119 113
118 119 114
118 120 114
118 120 114
118 120 114
118 120 114
118 0 107
112 0 100
94 0 84
113 0 102
109 0 97
107 0 97
112 0 104
113 0 104
112 0 104
118 0 112
119 0 113
118 0 114
118 0 114
115 0 113
111 0 110
109 0 108
95 0 96
93 0 94
89 0 89
100 0 100
109 0 109
104 0 104
116 122 114
116 122 114
116 122 113
116 122 113
116 122 113
115 122 113
115 122 113
115 122 112
115 122 112
114 122 112
114 122 112
114 122 111
113 122 111
113 122 111
113 122 110
112 122 110
112 122 110
112 122 110
112 122 109
111 122 109
111 122 109
110 122 108
110 122 108
110 121 107
109 121 107
109 121 107
109 121 106
108 121 106
108 121 106
107 121 105
107 121 105
107 121 104
106 121 104
106 121 104
105 121 103
105 120 103
104 120 102
104 120 102
104 120 101
103 120 101
103 120 101
102 120 100
102 119 100
101 119 99
101 119 99
100 119 99
100 119 98
99 118 98
99 118 97
98 117 97
0 119 0
0 120 0
0 121 0
0 121 0
0 121 0
0 122 0
0 122 0
0 122 0
0 122 0
0 122 0
0 122 0
0 122 0
0 122 0
0 122 0
0 122 0
0 121 0
0 121 0
0 121 0
0 120 0
0 120 0
0 120 0
0 119 0
0 119 0
0 119 0
0 118 0
0 118 0
0 117 0
0 117 0
0 116 0
0 116 0
0 115 0
0 114 0
0 114 0
0 113 0
0 112 0
0 112 0
0 111 0
0 110 0
0 109 0
0 109 0
0 108 0
0 107 0
102 0 0
102 0 0
103 0 0
104 0 0
104 0 0
105 0 0
105 0 0
106 0 0
106 0 0
107 0 0
107 0 0
107 0 0
108 0 0
108 0 0
108 0 0
108 0 0
108 0 0
107 0 0
107 0 0
107 0 0
106 0 0
105 0 0
105 0 0
103 0 0
102 0 0
100 0 0
98 0 0
96 0 0
97 0 0
98 0 0
97 0 0
98 0 0
100 0 0
103 0 0
107 0 0
109 0 0
112 0 0
114 0 0
115 0 0
116 0 0
116 0 0
116 0 0
116 0 0
115 0 0
115 92 90
115 92 90
115 92 90
115 93 91
115 93 91
116 93 91
116 94 91
116 94 92
116 94 92
116 95 92
116 95 92
116 95 93
116 95 93
116 96 93
116 96 93
116 96 93
116 97 94
116 97 94
116 97 94
116 97 94
116 98 94
116 98 95
116 98 95
116 98 95
116 99 95
116 99 95
55 12 14
54 11 14
53 10 15
53 9 15
53 8 15
53 8 15
53 8 15
54 9 16
36 24 25
35 23 24
34 22 23
97 75 0
97 75 0
95 71 0
95 71 0
95 72 0
92 87 0
92 88 0
92 88 0
93 91 0
93 91 0
93 91 0
90 97 0
90 97 0
90 97 0
90 97 0
90 98 0
91 98 0
91 98 0
95 107 0
95 107 0
94 107 0
95 107 0
95 107 0
103 116 0
105 117 0
115 110 103
115 110 104
115 110 104
115 111 104
115 111 105
115 111 105
115 112 105
115 112 106
115 112 106
115 113 106
115 113 107
115 113 107
115 114 107
116 114 108
116 114 108
116 115 108
116 115 109
116 115 109
116 116 110
116 116 110
116 116 110
116 116 110
116 117 111
116 117 111
117 117 111
117 117 112
117 118 112
117 118 112
117 118 112
117 118 113
117 119 113
117 119 113
117 119 113
117 119 113
117 119 114
117 120 114
117 0 106
119 0 108
117 0 107
120 0 110
110 0 99
100 0 88
106 0 96
112 0 104
112 0 104
117 0 111
117 0 111
112 0 108
112 0 108
103 0 101
111 0 109
108 0 107
95 0 95
91 0 92
96 0 96
101 0 101
110 0 110
102 0 102
116 122 114
116 122 113
115 122 113
115 122 113
115 122 113
115 122 112
115 122 112
114 122 112
114 122 112
114 122 111
113 122 111
113 122 111
113 122 111
113 122 110
112 121 110
112 121 110
112 121 110
111 121 109
111 121 109
111 121 108
110 121 108
110 121 108
110 121 107
109 121 107
109 121 107
109 121 106
108 121 106
108 121 106
107 121 105
107 120 105
107 120 104
106 120 104
106 120 104
105 120 103
105 120 103
105 120 102
104 120 102
104 120 102
103 120 101
103 119 101
102 119 100
102 119 100
101 119 100
101 119 99
100 119 99
100 118 98
99 118 98
99 118 97
98 117 97
98 117 96
0 119 0
0 120 0
0 120 0
0 121 0
0 121 0
0 121 0
0 121 0
0 121 0
0 121 0
0 121 0
0 121 0
0 121 0
0 121 0
0 121 0
0 121 0
0 121 0
0 121 0
0 120 0
0 120 0
0 120 0
0 119 0
0 119 0
0 119 0
0 118 0
0 118 0
0 117 0
0 117 0
0 116 0
0 116 0
0 115 0
0 115 0
0 114 0
0 113 0
0 113 0
0 112 0
0 111 0
0 111 0
0 110 0
0 109 0
0 108 0
0 108 0
0 107 0
101 0 0
102 0 0
103 0 0
103 0 0
104 0 0
104 0 0
105 0 0
105 0 0
106 0 0
106 0 0
107 0 0
107 0 0
107 0 0
107 0 0
107 0 0
107 0 0
107 0 0
107 0 0
107 0 0
106 0 0
105 0 0
105 0 0
104 0 0
102 0 0
101 0 0
99 0 0
97 0 0
96 0 0
96 0 0
97 0 0
97 0 0
97 0 0
99 0 0
102 0 0
106 0 0
108 0 0
111 0 0
113 0 0
114 0 0
115 0 0
116 0 0
116 0 0
115 0 0
114 0 0
114 91 89
114 91 89
114 92 90
114 92 90
115 92 90
115 93 90
115 93 91
115 93 91
115 94 91
115 94 91
115 94 92
115 94 92
115 95 92
115 95 92
115 95 92
115 95 93
115 96 93
115 96 93
115 96 93
115 97 94
115 97 94
115 97 94
115 97 94
115 97 94
115 98 94
115 98 95
55 12 15
54 11 15
54 10 15
53 9 15
53 9 15
54 9 15
54 9 16
54 11 17
37 26 28
36 26 27
35 25 26
97 74 0
97 75 0
95 71 0
95 71 0
95 72 0
92 87 0
91 87 0
91 87 0
93 90 0
93 90 0
90 96 0
90 97 0
90 97 0
90 97 0
90 97 0
90 97 0
90 97 0
90 97 0
95 106 0
95 107 0
94 107 0
94 107 0
94 107 0
103 116 0
105 117 0
114 109 103
114 109 103
114 109 103
114 110 104
114 110 104
114 110 104
114 111 105
114 111 105
114 111 105
114 112 106
114 112 106
114 112 106
115 113 107
115 113 107
115 113 107
115 114 108
115 114 108
115 114 108
115 115 109
115 115 109
115 115 109
115 116 110
116 116 110
116 116 110
116 116 111
116 116 111
116 117 111
116 117 111
116 117 112
116 118 112
116 118 112
116 118 112
117 118 113
117 118 113
117 119 113
103 0 92
108 0 97
116 0 106
116 0 107
112 0 102
114 0 103
111 0 100
106 0 96
111 0 103
111 0 103
102 0 97
102 0 97
108 0 104
111 0 107
102 0 101
102 0 100
92 0 93
92 0 93
95 0 95
95 0 95
98 0 98
100 0 100
102 0 102
105 0 104
115 121 113
115 121 113
115 121 113
115 121 112
114 121 112
114 121 112
114 121 112
114 121 111
113 121 111
113 121 111
113 121 111
113 121 110
112 121 110
112 121 110
112 121 109
111 121 109
111 121 109
111 121 108
141 0 139
140 0 138
140 0 138
139 0 137
109 121 107
109 120 106
108 120 106
108 120 106
107 120 105
107 120 105
107 120 104
106 120 104
106 120 104
105 120 103
105 120 103
105 120 103
104 119 102
104 119 102
103 119 101
103 119 101
102 119 100
102 119 100
101 119 100
101 119 99
101 118 99
100 118 98
100 118 98
99 118 97
98 117 97
98 117 97
97 116 96
0 119 0
0 119 0
0 120 0
0 120 0
0 121 0
0 121 0
0 121 0
0 121 0
0 121 0
0 121 0
0 121 0
0 121 0
0 121 0
0 121 0
0 121 0
0 120 0
0 120 0
0 120 0
0 119 0
0 119 0
0 119 0
0 119 0
0 118 0
0 118 0
0 117 0
0 117 0
0 117 0
0 116 0
0 116 0
0 115 0
0 114 0
0 114 0
0 113 0
0 112 0
0 112 0
0 111 0
0 110 0
0 110 0
0 109 0
0 108 0
0 107 0
0 107 0
101 0 0
102 0 0
102 0 0
103 0 0
104 0 0
104 0 0
105 0 0
105 0 0
105 0 0
106 0 0
106 0 0
106 0 0
107 0 0
107 0 0
107 0 0
107 0 0
107 0 0
106 0 0
106 0 0
105 0 0
105 0 0
104 0 0
103 0 0
102 0 0
100 0 0
98 0 0
97 0 0
95 0 0
96 0 0
97 0 0
96 0 0
97 0 0
99 0 0
101 0 0
105 0 0
108 0 0
110 0 0
112 0 0
113 0 0
114 0 0
115 0 0
115 0 0
115 0 0
114 0 0
113 90 89
113 91 89
114 91 89
114 91 89
114 92 90
114 92 90
114 92 90
114 92 90
114 93 91
114 93 91
114 93 91
114 94 91
114 94 91
114 94 92
114 94 92
114 95 92
114 95 92
114 95 92
114 95 93
114 96 93
114 96 93
114 96 93
114 96 93
114 96 93
114 97 94
114 97 94
55 12 15
54 11 15
54 10 15
54 9 15
54 9 16
54 9 16
54 10 17
55 14 19
38 29 30
37 28 29
36 28 28
97 74 0
97 75 0
97 75 0
95 71 0
95 71 0
91 87 0
91 87 0
91 87 0
91 87 0
92 90 0
90 96 0
90 96 0
90 97 0
90 97 0
90 97 0
90 97 0
90 97 0
90 97 0
90 98 0
94 106 0
94 106 0
94 106 0
94 106 0
103 116 0
105 117 0
113 108 102
113 108 102
113 108 102
113 108 103
113 109 103
113 109 103
113 110 104
113 110 104
113 110 105
113 111 105
113 111 105
113 111 105
114 112 106
114 112 106
114 112 107
114 113 107
114 113 107
114 113 108
114 114 108
114 114 108
114 114 109
115 115 109
115 115 109
115 115 110
115 115 110
115 116 110
115 116 110
115 116 111
115 116 111
115 117 111
116 117 112
116 117 112
116 117 112
116 118 112
116 118 112
102 0 91
109 0 99
110 0 100
116 0 107
112 0 102
114 0 104
114 0 104
116 0 107
103 0 96
103 0 96
100 0 94
107 0 100
108 0 103
80 0 80
100 0 99
100 0 99
81 0 83
81 0 83
94 0 95
95 0 95
92 0 93
100 0 100
97 0 97
94 0 94
115 121 113
115 121 112
114 121 112
114 121 112
114 121 112
114 121 112
113 121 111
113 121 111
113 121 111
113 121 111
112 120 110
112 120 110
140 0 138
140 0 138
140 0 138
141 0 139
138 0 136
137 0 136
139 0 137
138 0 136
133 0 132
133 0 132
132 0 130
131 0 130
135 0 133
130 0 129
107 120 105
107 120 104
106 120 104
106 119 104
105 119 103
105 119 103
104 119 102
104 119 102
104 119 102
103 119 101
103 119 101
102 119 101
102 118 100
101 118 100
101 118 99
101 118 99
100 118 98
100 118 98
99 117 98
99 117 97
98 117 97
98 117 96
97 116 96
0 118 0
0 119 0
0 120 0
0 120 0
0 120 0
0 120 0
0 120 0
0 120 0
0 120 0
0 120 0
0 120 0
0 120 0
0 120 0
0 120 0
0 120 0
0 120 0
0 120 0
0 119 0
0 119 0
0 119 0
0 118 0
0 118 0
0 118 0
0 117 0
0 117 0
0 117 0
0 116 0
0 116 0
0 115 0
0 115 0
0 114 0
0 113 0
0 113 0
0 112 0
0 111 0
0 111 0
0 110 0
0 109 0
0 109 0
0 108 0
0 107 0
0 106 0
101 0 0
101 0 0
102 0 0
103 0 0
103 0 0
104 0 0
104 0 0
105 0 0
105 0 0
105 0 0
106 0 0
106 0 0
106 0 0
106 0 0
106 0 0
106 0 0
106 0 0
106 0 0
105 0 0
105 0 0
104 0 0
103 0 0
102 0 0
101 0 0
99 0 0
98 0 0
96 0 0
95 0 0
95 0 0
96 0 0
96 0 0
96 0 0
98 0 0
100 0 0
104 0 0
107 0 0
109 0 0
111 0 0
112 0 0
113 0 0
114 0 0
114 0 0
114 0 0
113 0 0
112 90 88
113 90 88
113 90 89
113 91 89
113 91 89
113 91 89
113 91 90
113 92 90
113 92 90
113 92 90
113 93 90
113 93 91
113 93 91
113 93 91
113 94 91
113 94 91
113 94 92
113 94 92
113 95 92
113 95 92
113 95 92
113 95 92
113 95 93
113 96 93
113 96 93
113 96 93
55 12 15
55 11 15
54 10 15
54 10 16
54 10 16
54 10 16
55 12 18
55 15 20
39 31 31
38 30 30
36 30 29
96 74 0
96 75 0
96 75 0
94 71 0
94 71 0
90 86 0
91 86 0
91 87 0
91 87 0
92 90 0
89 96 0
89 96 0
89 96 0
89 96 0
89 96 0
89 97 0
89 97 0
89 97 0
89 97 0
93 106 0
93 106 0
93 106 0
93 106 0
102 116 0
105 117 0
105 117 0
112 107 101
112 107 102
112 108 102
112 108 102
112 108 103
112 109 103
112 109 103
112 109 104
112 110 104
112 110 104
112 110 105
113 111 105
113 111 105
113 111 106
113 112 106
113 112 107
113 112 107
113 113 107
114 113 108
114 113 108
114 114 108
114 114 109
114 114 109
114 115 109
114 115 110
114 115 110
115 115 110
115 116 110
115 116 111
115 116 111
115 116 111
115 117 111
115 117 112
115 117 112
106 0 96
107 0 97
106 0 97
107 0 97
113 0 103
114 0 104
114 0 104
108 0 100
107 0 100
103 0 96
100 0 94
82 0 80
79 0 80
79 0 79
78 0 79
57 0 66
80 0 83
89 0 90
91 0 91
91 0 91
99 0 99
100 0 100
100 0 100
93 0 93
122 0 121
125 0 125
127 0 126
113 120 111
113 120 111
113 120 111
113 120 111
113 120 111
137 0 135
137 0 136
138 0 136
138 0 136
136 0 135
135 0 134
136 0 134
137 0 136
137 0 136
137 0 135
134 0 133
134 0 133
133 0 131
129 0 127
127 0 126
127 0 126
126 0 125
126 0 125
124 0 123
121 0 120
106 119 104
105 119 103
105 119 103
104 119 102
104 119 102
104 119 102
103 118 101
103 118 101
102 118 100
102 118 100
102 118 100
101 118 99
101 118 99
100 118 99
100 117 98
99 117 98
99 117 97
98 117 97
98 116 96
97 116 96
97 115 96
0 118 0
0 119 0
0 119 0
0 119 0
0 120 0
0 120 0
0 120 0
0 120 0
0 120 0
0 120 0
0 120 0
0 120 0
0 120 0
0 120 0
0 120 0
0 119 0
0 119 0
0 119 0
0 119 0
0 118 0
0 118 0
0 118 0
0 117 0
0 117 0
0 117 0
0 116 0
0 116 0
0 115 0
0 115 0
0 114 0
0 114 0
0 113 0
0 112 0
0 112 0
0 111 0
0 111 0
0 110 0
0 109 0
0 108 0
0 108 0
0 107 0
0 106 0
100 0 0
101 0 0
102 0 0
102 0 0
103 0 0
103 0 0
104 0 0
104 0 0
105 0 0
105 0 0
105 0 0
105 0 0
106 0 0
106 0 0
106 0 0
106 0 0
105 0 0
105 0 0
105 0 0
104 0 0
103 0 0
103 0 0
101 0 0
100 0 0
98 0 0
97 0 0
95 0 0
94 0 0
95 0 0
95 0 0
95 0 0
96 0 0
97 0 0
100 0 0
103 0 0
106 0 0
108 0 0
110 0 0
111 0 0
113 0 0
113 0 0
113 0 0
113 0 0
112 0 0
112 89 88
112 89 88
112 90 88
112 90 88
112 90 89
112 91 89
112 91 89
112 91 89
112 91 89
112 91 89
112 92 90
113 92 90
112 92 90
112 92 90
112 93 90
112 93 91
112 93 91
112 93 91
112 94 91
112 94 91
112 94 92
112 94 92
112 95 92
112 95 92
112 95 92
112 95 92
55 12 15
55 11 15
54 11 16
54 10 16
54 10 17
54 11 17
55 13 19
56 17 21
39 32 32
38 32 31
37 31 31
96 74 0
96 75 0
96 75 0
96 75 0
94 71 0
90 86 0
90 86 0
90 86 0
90 87 0
90 87 0
89 96 0
89 96 0
89 96 0
89 96 0
93 100 0
93 100 0
93 100 0
93 100 0
93 100 0
89 103 0
93 106 0
93 106 0
93 106 0
93 106 0
104 117 0
104 116 0
111 106 100
111 106 101
111 107 101
111 107 101
111 107 102
111 108 102
111 108 103
111 108 103
111 109 103
111 109 104
112 110 104
112 110 104
112 110 105
112 111 105
112 111 105
112 111 106
112 112 106
112 112 107
113 112 107
113 112 107
113 113 108
113 113 108
113 113 108
113 114 109
114 114 109
114 114 109
114 115 109
114 115 110
114 115 110
114 116 110
114 116 111
114 116 111
114 116 111
115 116 111
93 0 82
91 0 81
101 0 92
91 0 83
98 0 88
108 0 98
115 0 106
108 0 100
107 0 100
93 0 89
89 0 85
86 0 84
79 0 79
79 0 79
56 0 66
56 0 66
56 0 66
89 0 90
89 0 90
90 0 91
97 0 97
92 0 92
83 0 85
90 0 90
88 0 89
123 0 123
125 0 125
128 0 127
129 0 129
130 0 130
130 0 129
136 0 134
135 0 133
135 0 134
136 0 135
135 0 134
135 0 133
135 0 134
135 0 134
136 0 134
133 0 131
132 0 130
132 0 130
128 0 127
129 0 127
125 0 124
125 0 124
125 0 124
125 0 123
125 0 124
118 0 117
117 0 116
116 0 115
121 0 120
104 118 102
104 118 102
104 118 102
103 118 101
103 118 101
102 118 101
102 118 100
102 118 100
101 117 99
100 117 99
100 117 99
100 117 98
99 117 98
99 117 97
98 116 97
98 116 96
97 116 96
97 116 96
96 115 95
0 117 0
0 118 0
0 119 0
0 119 0
0 119 0
0 119 0
0 119 0
0 119 0
0 119 0
0 119 0
0 119 0
0 120 0
0 120 0
0 120 0
0 119 0
0 119 0
0 119 0
0 118 0
0 118 0
0 118 0
0 118 0
0 117 0
0 117 0
0 117 0
0 116 0
0 116 0
0 115 0
0 115 0
0 114 0
0 114 0
0 113 0
0 113 0
0 112 0
0 111 0
0 111 0
0 110 0
0 110 0
0 109 0
0 108 0
0 107 0
0 107 0
0 106 0
100 0 0
101 0 0
101 0 0
102 0 0
102 0 0
103 0 0
103 0 0
104 0 0
104 0 0
105 0 0
105 0 0
105 0 0
105 0 0
105 0 0
105 0 0
105 0 0
105 0 0
105 0 0
104 0 0
103 0 0
103 0 0
102 0 0
101 0 0
99 0 0
98 0 0
96 0 0
95 0 0
94 0 0
95 0 0
95 0 0
95 0 0
95 0 0
97 0 0
99 0 0
102 0 0
105 0 0
107 0 0
109 0 0
111 0 0
112 0 0
112 0 0
112 0 0
112 0 0
111 0 0
111 88 87
111 89 87
111 89 88
111 89 88
111 89 88
111 90 88
111 90 88
112 90 89
112 91 89
111 91 89
112 91 89
112 91 89
112 91 89
112 92 90
112 92 90
112 92 90
112 92 90
112 92 90
112 93 91
111 93 91
111 93 91
111 93 91
111 93 91
111 94 91
111 94 91
111 94 91
55 12 16
55 11 16
55 11 16
54 11 17
54 11 17
55 12 18
55 15 20
56 18 22
39 34 33
38 33 32
37 33 31
96 74 0
96 74 0
96 75 0
96 75 0
93 70 0
90 86 0
90 86 0
90 86 0
87 84 0
87 84 0
93 99 0
93 99 0
93 99 0
93 99 0
93 99 0
93 99 0
93 100 0
93 100 0
93 100 0
89 103 0
84 99 0
84 99 0
84 100 0
84 100 0
96 110 0
96 110 0
110 105 100
110 105 100
110 105 100
110 106 101
110 106 101
110 107 101
110 107 102
110 107 102
110 108 103
110 108 103
111 108 103
111 109 104
111 109 104
111 110 104
111 110 105
111 110 105
112 111 105
112 111 106
112 111 106
112 112 107
112 112 107
112 112 107
112 113 108
112 113 108
113 113 108
113 114 109
113 114 109
113 114 109
113 114 109
113 115 110
113 115 110
114 115 110
114 115 110
114 116 111
92 0 81
90 0 81
87 0 79
90 0 83
98 0 88
107 0 97
102 0 94
107 0 99
92 0 89
92 0 88
89 0 85
86 0 83
46 0 61
47 0 60
45 0 59
55 0 65
71 0 75
77 0 80
88 0 89
100 0 100
93 0 94
88 0 89
88 0 89
79 0 81
79 0 80
121 0 120
124 0 124
126 0 126
124 0 124
125 0 124
126 0 125
130 0 130
133 0 132
133 0 132
134 0 133
134 0 133
134 0 133
135 0 133
132 0 130
128 0 127
132 0 131
132 0 131
128 0 127
126 0 125
126 0 125
121 0 120
121 0 120
125 0 123
112 0 111
112 0 111
114 0 113
117 0 116
116 0 115
105 0 104
115 0 115
108 0 108
103 118 101
103 118 101
102 118 101
102 117 100
102 117 100
101 117 99
101 117 99
100 117 99
100 117 98
99 117 98
99 116 97
98 116 97
98 116 96
97 116 96
97 116 96
97 115 95
96 115 95
0 117 0
0 118 0
0 118 0
0 119 0
0 119 0
0 119 0
0 119 0
0 119 0
0 119 0
0 119 0
0 119 0
0 119 0
0 119 0
0 119 0
0 119 0
0 119 0
0 118 0
0 118 0
0 118 0
0 117 0
0 117 0
0 117 0
0 116 0
0 116 0
0 116 0
0 115 0
0 115 0
0 114 0
0 114 0
0 114 0
0 113 0
0 112 0
0 112 0
0 111 0
0 110 0
0 110 0
0 109 0
0 108 0
0 108 0
0 107 0
0 106 0
0 105 0
100 0 0
100 0 0
101 0 0
102 0 0
102 0 0
102 0 0
103 0 0
103 0 0
104 0 0
104 0 0
104 0 0
105 0 0
105 0 0
105 0 0
105 0 0
105 0 0
104 0 0
104 0 0
103 0 0
103 0 0
102 0 0
101 0 0
100 0 0
99 0 0
97 0 0
96 0 0
94 0 0
93 0 0
94 0 0
94 0 0
94 0 0
95 0 0
96 0 0
98 0 0
101 0 0
104 0 0
106 0 0
108 0 0
110 0 0
111 0 0
112 0 0
112 0 0
111 0 0
111 0 0
110 88 87
110 88 87
110 88 87
111 89 87
111 89 87
111 89 88
111 89 88
111 89 88
111 90 88
111 90 88
111 90 88
111 90 89
111 91 89
111 91 89
111 91 89
111 91 89
111 92 90
111 92 90
111 92 90
111 92 90
111 92 90
110 92 90
110 93 90
110 93 90
110 93 90
110 93 91
55 12 16
55 12 16
55 12 17
55 12 17
55 12 18
55 14 19
56 16 21
56 19 23
40 35 34
38 34 33
37 34 32
95 74 0
95 74 0
88 66 0
88 66 0
88 67 0
82 79 0
82 79 0
82 79 0
82 79 0
81 80 0
80 79 0
58 68 0
93 99 0
92 99 0
92 99 0
93 99 0
92 99 0
59 80 0
72 82 0
81 97 0
84 99 0
84 99 0
84 99 0
84 99 0
95 110 0
96 110 0
109 104 99
109 104 99
109 105 100
109 105 100
109 105 100
109 106 101
109 106 101
109 106 101
109 107 102
110 107 102
110 108 102
110 108 103
110 108 103
110 109 104
110 109 104
110 109 104
111 110 105
111 110 105
111 110 105
111 111 106
111 111 106
111 111 107
111 112 107
112 112 107
112 112 108
112 113 108
112 113 108
112 113 109
112 114 109
112 114 109
113 114 109
113 114 109
113 115 110
113 115 110
92 0 81
77 0 71
71 0 68
87 0 79
97 0 87
101 0 91
101 0 93
79 0 76
92 0 88
92 0 88
92 0 88
47 0 61
47 0 61
54 0 64
55 0 64
65 0 70
65 0 70
72 0 75
77 0 80
61 0 67
73 0 75
71 0 74
53 0 61
62 0 67
78 0 80
119 0 119
117 0 117
118 0 117
117 0 116
117 0 117
121 0 121
130 0 129
127 0 126
128 0 127
131 0 130
130 0 129
130 0 129
131 0 129
128 0 127
129 0 127
129 0 128
128 0 127
123 0 122
123 0 122
115 0 114
117 0 116
117 0 116
112 0 111
112 0 111
112 0 111
114 0 113
102 0 101
96 0 95
104 0 104
114 0 113
105 0 104
107 0 107
102 117 101
102 117 100
102 117 100
101 117 99
101 117 99
100 116 98
100 116 98
99 116 98
99 116 97
98 116 97
98 116 97
98 116 96
97 115 96
97 115 95
96 115 95
96 114 95
0 116 0
0 117 0
0 118 0
0 118 0
0 118 0
0 118 0
0 118 0
0 118 0
0 118 0
0 118 0
0 118 0
0 118 0
0 118 0
0 118 0
0 118 0
0 118 0
0 118 0
0 117 0
0 117 0
0 117 0
0 117 0
0 116 0
0 116 0
0 116 0
0 115 0
0 115 0
0 115 0
0 114 0
0 114 0
0 113 0
0 113 0
0 112 0
0 111 0
0 111 0
0 110 0
0 109 0
0 109 0
0 108 0
0 107 0
0 106 0
0 106 0
0 105 0
100 0 0
100 0 0
101 0 0
101 0 0
102 0 0
102 0 0
102 0 0
103 0 0
103 0 0
104 0 0
104 0 0
104 0 0
104 0 0
104 0 0
104 0 0
104 0 0
104 0 0
103 0 0
103 0 0
102 0 0
101 0 0
100 0 0
99 0 0
98 0 0
97 0 0
95 0 0
94 0 0
93 0 0
94 0 0
94 0 0
94 0 0
94 0 0
96 0 0
98 0 0
100 0 0
103 0 0
105 0 0
107 0 0
109 0 0
110 0 0
111 0 0
111 0 0
111 0 0
110 0 0
109 87 86
110 87 86
110 87 86
110 88 87
110 88 87
110 88 87
110 89 87
110 89 87
110 89 87
110 89 88
110 89 88
110 90 88
110 90 88
110 90 88
110 90 89
110 91 89
110 91 89
110 91 89
110 91 89
110 91 89
110 91 89
110 92 90
110 92 90
109 92 90
109 92 90
109 92 90
55 13 17
55 12 17
55 12 17
55 12 18
55 13 19
55 15 20
56 17 22
56 19 24
40 36 35
39 36 34
37 35 33
88 65 0
88 65 0
88 66 0
88 66 0
88 66 0
81 78 0
81 79 0
81 79 0
81 79 0
79 78 0
79 79 0
35 62 0
41 61 0
39 58 0
92 99 0
58 79 0
37 65 0
29 36 0
76 85 0
81 97 0
81 97 0
83 99 0
83 99 0
83 99 0
95 110 0
93 108 0
108 103 98
108 103 98
108 104 99
108 104 99
108 104 100
108 105 100
108 105 100
109 106 101
109 106 101
109 106 101
109 107 102
109 107 102
109 107 103
109 108 103
109 108 103
110 109 104
110 109 104
110 109 104
110 110 105
110 110 105
110 110 106
111 111 106
111 111 106
111 111 107
111 112 107
111 112 107
111 112 108
112 113 108
112 113 108
112 113 108
112 113 109
112 114 109
112 114 109
112 114 109
79 0 71
77 0 70
71 0 68
79 0 72
77 0 70
79 0 72
73 0 71
73 0 71
78 0 76
91 0 88
68 0 72
66 0 72
55 0 65
55 0 65
56 0 65
65 0 70
64 0 70
58 0 67
60 0 68
61 0 67
57 0 64
47 0 58
54 0 61
60 0 65
71 0 74
113 0 112
116 0 116
117 0 116
118 0 117
119 0 118
117 0 116
121 0 121
124 0 124
127 0 126
131 0 130
131 0 130
118 0 118
118 0 118
117 0 116
117 0 116
117 0 116
117 0 116
115 0 114
114 0 113
114 0 113
114 0 113
114 0 112
112 0 111
111 0 110
111 0 110
104 0 104
101 0 101
96 0 95
95 0 94
94 0 94
107 0 106
94 0 94
99 0 98
101 116 100
101 116 99
101 116 99
100 116 99
100 116 98
99 116 98
99 116 97
98 116 97
98 116 97
98 115 96
97 115 96
97 115 95
96 115 95
96 114 95
95 114 94
0 116 0
0 117 0
0 117 0
0 117 0
0 118 0
0 118 0
0 118 0
0 118 0
0 118 0
0 118 0
0 118 0
0 118 0
0 118 0
0 118 0
0 118 0
0 117 0
0 117 0
0 117 0
0 117 0
0 116 0
0 116 0
0 116 0
0 116 0
0 115 0
0 115 0
0 115 0
0 114 0
0 114 0
0 113 0
0 113 0
0 112 0
0 112 0
0 111 0
0 110 0
0 110 0
0 109 0
0 109 0
0 108 0
0 107 0
0 106 0
0 106 0
0 105 0
99 0 0
100 0 0
100 0 0
101 0 0
101 0 0
102 0 0
102 0 0
103 0 0
103 0 0
103 0 0
103 0 0
104 0 0
104 0 0
104 0 0
104 0 0
104 0 0
103 0 0
103 0 0
102 0 0
102 0 0
101 0 0
100 0 0
99 0 0
97 0 0
96 0 0
94 0 0
93 0 0
93 0 0
93 0 0
93 0 0
93 0 0
94 0 0
95 0 0
97 0 0
100 0 0
102 0 0
105 0 0
106 0 0
108 0 0
109 0 0
110 0 0
110 0 0
110 0 0
109 0 0
109 86 86
109 87 86
109 87 86
109 87 86
109 87 86
109 87 86
109 88 87
109 88 87
109 88 87
109 89 87
109 89 87
109 89 88
109 89 88
109 89 88
109 90 88
109 90 88
109 90 88
109 90 88
109 90 89
109 90 89
109 91 89
109 91 89
109 91 89
109 91 89
108 91 89
108 91 89
55 13 17
55 13 18
55 13 18
55 13 18
55 14 20
55 16 21
56 18 23
57 20 24
40 37 36
39 37 35
86 61 0
86 61 0
87 65 0
87 65 0
87 66 0
81 78 0
81 78 0
81 78 0
79 78 0
79 78 0
79 78 0
79 78 0
32 56 0
33 56 0
43 63 0
43 67 0
34 51 0
35 42 0
32 34 0
76 85 0
81 97 0
81 97 0
81 97 0
81 97 0
83 99 0
95 109 0
93 107 0
93 107 0
107 102 98
107 103 98
107 103 98
107 104 99
107 104 99
107 104 99
108 105 100
108 105 100
108 105 101
108 106 101
108 106 101
108 107 102
108 107 102
109 107 103
109 108 103
109 108 103
109 108 104
109 109 104
109 109 105
110 109 105
110 110 105
110 110 106
110 110 106
110 111 106
111 111 107
111 111 107
111 112 107
111 112 107
111 112 108
111 113 108
111 113 108
111 113 108
112 113 109
74 0 68
60 0 62
53 0 61
64 0 63
76 0 69
70 0 67
69 0 69
69 0 69
69 0 69
58 0 66
67 0 72
66 0 72
55 0 66
57 0 67
75 0 75
65 0 70
64 0 70
57 0 67
59 0 67
61 0 67
43 0 54
44 0 57
46 0 59
56 0 63
71 0 73
111 0 111
115 0 115
115 0 115
116 0 116
117 0 116
110 0 110
110 0 110
121 0 120
122 0 121
123 0 122
117 0 117
117 0 117
120 0 119
119 0 118
119 0 118
116 0 115
112 0 111
112 0 111
112 0 111
112 0 111
113 0 112
103 0 102
103 0 103
111 0 110
106 0 105
106 0 105
101 0 100
95 0 95
95 0 95
94 0 94
91 0 91
83 0 83
93 0 93
98 0 98
101 116 99
100 116 99
100 116 98
99 116 98
99 115 97
98 115 97
98 115 97
98 115 96
97 115 96
97 115 95
96 114 95
96 114 95
95 114 94
95 113 94
0 115 0
0 116 0
0 117 0
0 117 0
0 117 0
0 117 0
0 117 0
0 117 0
0 117 0
0 117 0
0 117 0
0 117 0
0 117 0
0 117 0
0 117 0
0 117 0
0 117 0
0 116 0
0 116 0
0 116 0
0 116 0
0 115 0
0 115 0
0 115 0
0 114 0
0 114 0
0 114 0
0 113 0
0 113 0
0 112 0
0 112 0
0 111 0
0 111 0
0 110 0
0 110 0
0 109 0
0 108 0
0 107 0
0 107 0
0 106 0
0 105 0
0 105 0
99 0 0
99 0 0
100 0 0
100 0 0
101 0 0
101 0 0
102 0 0
102 0 0
103 0 0
103 0 0
103 0 0
103 0 0
103 0 0
103 0 0
103 0 0
103 0 0
103 0 0
102 0 0
102 0 0
101 0 0
100 0 0
99 0 0
98 0 0
97 0 0
95 0 0
94 0 0
92 0 0
92 0 0
93 0 0
93 0 0
93 0 0
93 0 0
94 0 0
97 0 0
99 0 0
101 0 0
104 0 0
106 0 0
107 0 0
108 0 0
109 0 0
109 0 0
109 0 0
108 0 0
108 86 85
108 86 85
108 86 85
108 86 86
108 87 86
108 87 86
108 87 86
108 87 86
108 88 86
108 88 87
108 88 87
108 88 87
108 88 87
108 89 87
108 89 87
108 89 87
108 89 88
108 89 88
108 89 88
108 90 88
108 90 88
108 90 88
108 90 88
108 90 88
108 90 88
107 90 89
55 14 18
55 13 18
55 13 19
55 14 19
55 15 20
56 17 22
56 19 23
57 21 25
40 38 36
39 37 35
85 61 0
85 61 0
85 61 0
85 62 0
87 65 0
80 78 0
80 78 0
79 77 0
78 77 0
78 78 0
78 78 0
78 78 0
37 58 0
37 59 0
37 58 0
37 56 0
41 51 0
41 42 0
34 32 0
76 85 0
80 96 0
80 96 0
80 97 0
80 97 0
81 97 0
94 109 0
92 107 0
93 107 0
106 101 97
106 102 97
106 102 98
106 103 98
106 103 98
107 103 99
107 104 99
107 104 100
107 105 100
107 105 100
107 105 101
107 106 101
108 106 102
108 106 102
108 107 102
108 107 103
108 108 103
108 108 104
109 108 104
109 109 104
109 109 105
109 109 105
109 110 105
109 110 106
110 110 106
110 111 106
110 111 107
110 111 107
110 111 107
110 112 107
111 112 108
111 112 108
111 113 108
111 113 108
59 0 62
53 0 62
53 0 62
46 0 63
65 0 64
65 0 65
63 0 66
63 0 66
41 0 59
41 0 59
34 0 58
24 0 56
25 0 56
40 0 60
41 0 59
36 0 57
33 0 56
33 0 55
28 0 54
38 0 55
45 0 58
52 0 57
66 0 68
98 0 98
110 0 110
113 0 112
114 0 114
110 0 110
109 0 109
109 0 109
110 0 109
110 0 110
115 0 114
118 0 117
118 0 117
119 0 118
119 0 118
119 0 118
119 0 118
119 0 118
113 0 112
113 0 112
106 0 105
106 0 105
103 0 103
102 0 102
102 0 102
103 0 102
92 0 92
94 0 94
90 0 90
89 0 89
84 0 85
84 0 84
91 0 91
90 0 90
93 0 93
93 0 92
100 115 99
100 115 98
99 115 98
99 115 97
98 115 97
98 115 97
98 115 96
97 114 96
97 114 95
96 114 95
96 114 95
95 114 94
95 113 94
94 113 94
0 115 0
0 115 0
0 116 0
0 116 0
0 117 0
0 117 0
0 117 0
0 117 0
0 117 0
0 117 0
0 117 0
0 117 0
0 117 0
0 117 0
0 117 0
0 116 0
0 116 0
0 116 0
0 116 0
0 115 0
0 115 0
0 115 0
0 115 0
0 115 0
0 114 0
0 114 0
0 113 0
0 113 0
0 113 0
0 112 0
0 112 0
0 111 0
0 110 0
0 110 0
0 109 0
0 108 0
0 108 0
0 107 0
0 106 0
0 106 0
0 105 0
0 104 0
99 0 0
99 0 0
100 0 0
100 0 0
101 0 0
101 0 0
101 0 0
102 0 0
102 0 0
102 0 0
103 0 0
103 0 0
103 0 0
103 0 0
103 0 0
103 0 0
102 0 0
102 0 0
101 0 0
100 0 0
99 0 0
99 0 0
97 0 0
96 0 0
95 0 0
93 0 0
92 0 0
92 0 0
92 0 0
92 0 0
92 0 0
93 0 0
94 0 0
96 0 0
98 0 0
101 0 0
103 0 0
105 0 0
106 0 0
108 0 0
108 0 0
109 0 0
108 0 0
108 0 0
107 85 84
107 85 85
107 85 85
107 86 85
107 86 85
107 86 85
107 86 86
107 86 86
108 87 86
107 87 86
107 87 86
107 87 86
107 88 86
107 88 87
107 88 87
107 88 87
107 88 87
107 88 87
107 89 87
107 89 87
107 89 87
107 89 88
107 89 88
107 89 88
107 89 88
107 90 88
55 14 19
55 14 19
55 14 19
55 15 20
55 16 21
56 18 22
56 19 24
57 21 25
40 38 37
39 38 36
85 61 0
85 61 0
85 61 0
85 61 0
84 62 0
80 77 0
78 77 0
78 77 0
78 77 0
78 77 0
78 78 0
75 89 0
85 100 0
45 61 0
47 61 0
50 60 0
52 54 0
46 45 0
56 54 0
76 85 0
39 69 0
60 83 0
60 83 0
60 83 0
60 84 0
61 86 0
92 107 0
92 106 0
105 101 96
105 101 97
106 101 97
106 102 98
106 102 98
106 102 98
106 103 99
106 103 99
106 104 99
106 104 100
106 104 100
107 105 101
107 105 101
107 106 101
107 106 102
107 106 102
107 107 102
108 107 103
108 108 103
108 108 104
108 108 104
108 109 104
109 109 105
109 109 105
109 110 105
109 110 106
109 110 106
109 111 106
110 111 107
110 111 107
110 111 107
110 111 107
110 112 107
110 112 108
54 0 62
46 0 62
46 0 62
47 0 62
45 0 63
55 0 62
42 0 62
36 0 60
36 0 60
36 0 60
33 0 58
24 0 56
33 0 57
39 0 59
34 0 58
28 0 60
25 0 58
27 0 55
35 0 58
39 0 55
44 0 54
72 0 74
90 0 90
100 0 100
109 0 109
107 0 107
108 0 108
109 0 109
108 0 108
110 0 110
109 0 109
112 0 112
113 0 112
114 0 114
115 0 114
118 0 117
118 0 117
118 0 117
109 0 108
112 0 112
112 0 112
103 0 103
105 0 105
105 0 105
105 0 104
103 0 102
102 0 101
102 0 101
92 0 92
93 0 93
89 0 89
89 0 89
71 0 72
99 0 98
93 0 93
90 0 90
93 0 93
89 0 89
92 0 92
99 115 98
99 115 97
98 115 97
98 114 97
98 114 96
97 114 96
97 114 96
96 114 95
96 114 95
95 113 94
95 113 94
94 113 93
94 112 93
0 114 0
0 115 0
0 115 0
0 116 0
0 116 0
0 116 0
0 116 0
0 116 0
0 116 0
0 116 0
0 116 0
0 116 0
0 116 0
0 116 0
0 116 0
0 116 0
0 116 0
0 115 0
0 115 0
0 115 0
0 115 0
0 115 0
0 114 0
0 114 0
0 114 0
0 113 0
0 113 0
0 113 0
0 112 0
0 112 0
0 111 0
0 111 0
0 110 0
0 109 0
0 109 0
0 108 0
0 108 0
0 107 0
0 106 0
0 105 0
0 105 0
0 104 0
98 0 0
99 0 0
99 0 0
100 0 0
100 0 0
100 0 0
101 0 0
101 0 0
102 0 0
102 0 0
102 0 0
102 0 0
102 0 0
102 0 0
102 0 0
102 0 0
102 0 0
101 0 0
101 0 0
100 0 0
99 0 0
98 0 0
97 0 0
96 0 0
94 0 0
93 0 0
92 0 0
91 0 0
92 0 0
92 0 0
92 0 0
92 0 0
93 0 0
96 0 0
98 0 0
100 0 0
102 0 0
104 0 0
106 0 0
107 0 0
108 0 0
108 0 0
108 0 0
107 0 0
106 84 84
106 85 84
106 85 84
106 85 84
106 85 84
106 85 85
106 86 85
107 86 85
107 86 85
107 86 85
107 86 86
106 87 86
107 87 86
106 87 86
106 87 86
106 87 86
106 87 86
106 88 86
106 88 87
106 88 87
106 88 87
106 88 87
106 88 87
106 88 87
106 89 87
106 89 87
55 15 19
55 14 19
55 15 20
55 16 21
55 17 22
56 18 23
56 20 24
57 21 26
40 39 37
39 39 37
84 60 0
84 61 0
84 61 0
84 61 0
60 46 0
60 62 0
59 62 0
59 62 0
59 62 0
59 63 0
59 63 0
45 57 0
76 89 0
57 69 0
59 68 0
59 65 0
57 58 0
67 66 0
83 83 0
44 73 0
44 73 0
39 69 0
60 83 0
60 83 0
60 83 0
61 85 0
61 85 0
92 106 0
104 100 96
105 100 96
105 100 96
105 101 97
105 101 97
105 102 97
105 102 98
105 102 98
105 103 99
105 103 99
106 104 100
106 104 100
106 104 100
106 105 101
106 105 101
107 106 102
107 106 102
107 106 102
107 107 103
107 107 103
107 107 103
108 108 104
108 108 104
108 108 104
108 109 105
108 109 105
109 109 105
109 110 106
109 110 106
109 110 106
109 110 106
109 111 107
109 111 107
109 111 107
109 111 107
48 0 64
47 0 61
46 0 61
46 0 61
42 0 62
41 0 64
41 0 64
32 0 62
31 0 62
31 0 62
27 0 55
27 0 60
27 0 60
28 0 61
27 0 61
32 0 62
39 0 58
36 0 49
53 0 58
69 0 72
82 0 84
90 0 91
99 0 100
104 0 104
108 0 108
110 0 110
111 0 111
107 0 107
108 0 108
88 0 89
112 0 111
112 0 112
114 0 113
114 0 114
114 0 114
109 0 109
109 0 109
108 0 108
112 0 111
102 0 102
102 0 102
105 0 105
105 0 104
105 0 104
90 0 90
102 0 101
92 0 92
84 0 85
84 0 84
75 0 75
72 0 73
72 0 73
99 0 99
92 0 92
92 0 92
91 0 91
93 0 92
83 0 83
76 0 76
98 114 97
98 114 97
97 114 96
97 114 96
97 114 96
96 114 95
96 113 95
95 113 94
95 113 94
95 113 94
94 112 93
94 112 93
0 114 0
0 115 0
0 115 0
0 115 0
0 116 0
0 116 0
0 116 0
0 116 0
0 116 0
0 116 0
0 116 0
0 116 0
0 116 0
0 116 0
0 115 0
0 115 0
0 115 0
0 115 0
0 115 0
0 114 0
0 114 0
0 114 0
0 114 0
0 114 0
0 113 0
0 113 0
0 113 0
0 112 0
0 112 0
0 111 0
0 111 0
0 110 0
0 110 0
0 109 0
0 109 0
0 108 0
0 107 0
0 106 0
0 106 0
0 105 0
0 104 0
0 104 0
98 0 0
99 0 0
99 0 0
99 0 0
100 0 0
100 0 0
101 0 0
101 0 0
101 0 0
102 0 0
102 0 0
102 0 0
102 0 0
102 0 0
102 0 0
102 0 0
101 0 0
101 0 0
100 0 0
99 0 0
98 0 0
97 0 0
96 0 0
95 0 0
94 0 0
92 0 0
91 0 0
91 0 0
91 0 0
91 0 0
91 0 0
92 0 0
93 0 0
95 0 0
97 0 0
99 0 0
102 0 0
103 0 0
105 0 0
106 0 0
107 0 0
107 0 0
107 0 0
106 0 0
105 83 83
105 84 83
105 84 84
106 84 84
106 84 84
106 85 84
106 85 84
106 85 84
106 85 84
106 85 85
106 86 85
106 86 85
106 86 85
106 86 85
106 86 85
106 86 86
105 87 86
105 87 86
105 87 86
105 87 86
105 87 86
105 87 86
105 87 86
105 88 86
105 88 86
105 88 86
55 15 20
55 15 20
55 16 21
55 17 21
56 18 22
56 19 24
56 20 25
57 22 26
40 40 37
39 39 37
84 60 0
84 60 0
84 60 0
59 46 0
59 46 0
59 46 0
59 62 0
59 62 0
59 62 0
40 58 0
39 58 0
44 57 0
44 58 0
86 100 0
97 105 0
85 94 0
86 94 0
98 101 0
28 63 0
43 73 0
43 73 0
38 69 0
39 69 0
59 83 0
59 83 0
60 85 0
61 85 0
61 84 0
104 99 95
104 99 95
104 100 96
104 100 96
104 100 96
104 101 97
104 101 97
104 102 98
104 102 98
105 102 98
105 103 99
105 103 99
105 104 100
105 104 100
106 105 101
106 105 101
106 105 101
106 106 102
106 106 102
107 106 102
107 107 103
107 107 103
107 107 104
107 108 104
107 108 104
108 108 105
108 108 105
108 109 105
108 109 105
108 109 106
108 110 106
108 110 106
108 110 106
108 110 106
108 111 106
108 111 106
51 0 58
52 0 58
52 0 58
54 0 56
48 0 54
44 0 58
41 0 60
35 0 65
33 0 64
33 0 64
29 0 62
31 0 63
31 0 62
32 0 59
24 0 53
23 0 49
50 0 55
63 0 66
74 0 76
85 0 86
92 0 93
96 0 97
104 0 104
106 0 106
109 0 109
106 0 106
107 0 106
107 0 107
104 0 104
106 0 106
111 0 111
113 0 113
105 0 105
106 0 105
109 0 109
109 0 109
108 0 107
102 0 102
102 0 102
102 0 102
105 0 104
93 0 93
93 0 93
90 0 90
89 0 90
81 0 82
81 0 82
75 0 76
75 0 76
81 0 81
96 0 96
99 0 98
98 0 98
92 0 91
91 0 91
83 0 83
80 0 80
71 0 71
98 114 97
97 114 96
97 113 96
97 113 96
96 113 95
96 113 95
95 113 94
95 113 94
95 113 94
94 112 93
94 112 93
93 111 93
0 113 0
0 114 0
0 114 0
0 115 0
0 115 0
0 115 0
0 115 0
0 115 0
0 115 0
0 115 0
0 115 0
0 115 0
0 115 0
0 115 0
0 115 0
0 115 0
0 114 0
0 114 0
0 114 0
0 114 0
0 114 0
0 114 0
0 114 0
0 113 0
0 113 0
0 113 0
0 112 0
0 112 0
0 111 0
0 111 0
0 110 0
0 110 0
0 109 0
0 109 0
0 108 0
0 108 0
0 107 0
0 106 0
0 106 0
0 105 0
0 104 0
0 103 0
97 0 0
98 0 0
99 0 0
99 0 0
99 0 0
100 0 0
100 0 0
100 0 0
101 0 0
101 0 0
101 0 0
101 0 0
101 0 0
101 0 0
101 0 0
101 0 0
101 0 0
100 0 0
99 0 0
99 0 0
98 0 0
97 0 0
96 0 0
94 0 0
93 0 0
92 0 0
91 0 0
91 0 0
91 0 0
91 0 0
91 0 0
91 0 0
92 0 0
94 0 0
96 0 0
99 0 0
101 0 0
103 0 0
104 0 0
105 0 0
106 0 0
106 0 0
106 0 0
105 0 0
104 83 82
104 83 83
105 83 83
105 83 83
105 84 83
105 84 83
105 84 84
105 84 84
105 84 84
105 85 84
105 85 84
105 85 84
105 85 84
105 85 85
105 86 85
105 86 85
104 86 85
104 86 85
104 86 85
104 86 85
104 86 85
104 87 86
104 87 86
104 87 86
104 87 86
104 87 86
55 16 20
55 16 20
55 16 21
55 17 22
56 18 23
56 19 24
56 21 25
57 22 26
40 40 38
39 40 37
84 60 0
84 60 0
59 45 0
59 46 0
59 46 0
59 46 0
59 62 0
59 62 0
40 58 0
39 58 0
44 57 0
44 57 0
30 56 0
30 57 0
33 62 0
33 62 0
33 62 0
28 63 0
28 63 0
28 63 0
43 73 0
38 69 0
38 69 0
38 69 0
60 85 0
53 80 0
53 80 0
54 79 0
103 98 95
103 99 95
103 99 95
103 99 96
103 100 96
103 100 96
103 100 97
104 101 97
104 101 97
104 102 98
104 102 98
104 103 99
104 103 99
105 103 100
105 104 100
105 104 100
105 104 101
105 105 101
106 105 102
106 106 102
106 106 102
106 106 103
106 107 103
106 107 103
107 107 104
107 107 104
107 108 104
107 108 104
107 108 105
107 109 105
107 109 105
107 109 105
108 109 105
107 109 105
108 110 106
87 0 74
72 0 58
72 0 60
68 0 59
66 0 57
59 0 52
50 0 52
47 0 51
40 0 57
39 0 58
35 0 58
25 0 59
27 0 57
18 0 46
14 0 42
17 0 39
40 0 49
56 0 61
70 0 73
79 0 81
83 0 85
96 0 97
91 0 92
93 0 94
98 0 99
99 0 100
100 0 101
106 0 106
87 0 88
103 0 103
106 0 106
104 0 105
104 0 104
105 0 105
105 0 105
108 0 108
109 0 108
98 0 99
95 0 95
95 0 95
82 0 83
88 0 89
89 0 90
90 0 90
90 0 90
90 0 90
81 0 82
82 0 82
75 0 75
75 0 75
76 0 76
97 0 97
99 0 98
100 0 99
92 0 91
91 0 91
83 0 83
79 0 79
79 0 79
68 0 68
97 113 96
97 113 96
96 113 95
96 113 95
95 112 94
95 112 94
95 112 94
94 112 93
94 112 93
93 112 92
93 111 92
0 113 0
0 114 0
0 114 0
0 114 0
0 114 0
0 115 0
0 115 0
0 115 0
0 114 0
0 115 0
0 115 0
0 115 0
0 114 0
0 114 0
0 114 0
0 114 0
0 114 0
0 114 0
0 114 0
0 114 0
0 113 0
0 113 0
0 113 0
0 113 0
0 113 0
0 112 0
0 112 0
0 111 0
0 111 0
0 111 0
0 110 0
0 110 0
0 109 0
0 108 0
0 108 0
0 107 0
0 107 0
0 106 0
0 105 0
0 105 0
0 104 0
0 103 0
97 0 0
98 0 0
98 0 0
99 0 0
99 0 0
100 0 0
100 0 0
100 0 0
100 0 0
101 0 0
101 0 0
101 0 0
101 0 0
101 0 0
101 0 0
100 0 0
100 0 0
100 0 0
99 0 0
98 0 0
97 0 0
96 0 0
95 0 0
94 0 0
93 0 0
91 0 0
90 0 0
90 0 0
91 0 0
91 0 0
90 0 0
91 0 0
92 0 0
94 0 0
96 0 0
98 0 0
100 0 0
102 0 0
103 0 0
105 0 0
105 0 0
106 0 0
105 0 0
105 0 0
103 82 82
104 82 82
104 82 82
104 82 82
104 83 83
104 83 83
104 83 83
104 83 83
104 84 83
104 84 83
104 84 84
104 84 84
104 84 84
104 84 84
104 85 84
104 85 84
104 85 84
104 85 84
103 85 85
103 85 85
103 86 85
103 86 85
103 86 85
103 86 85
103 86 85
103 86 85
55 16 21
55 16 21
55 17 22
55 18 23
56 19 24
56 20 25
56 21 26
57 22 27
39 40 38
39 40 38
83 59 0
59 45 0
59 45 0
59 46 0
59 46 0
58 46 0
58 62 0
40 58 0
39 58 0
39 58 0
30 56 0
30 56 0
30 56 0
30 57 0
30 57 0
33 62 0
28 63 0
28 63 0
28 63 0
28 64 0
28 64 0
23 61 0
23 62 0
24 62 0
24 62 0
25 62 0
53 80 0
102 97 94
102 97 94
102 98 94
102 98 95
102 98 95
102 99 95
102 99 96
103 100 96
103 100 97
103 100 97
103 101 97
103 101 98
104 102 98
104 102 99
104 103 99
104 103 100
104 103 100
104 104 100
105 104 101
105 105 101
105 105 101
105 105 102
105 105 102
106 106 102
106 106 103
106 106 103
106 107 103
106 107 104
106 107 104
107 108 104
106 108 104
106 108 104
107 108 105
107 108 105
107 109 105
107 109 105
85 0 74
82 0 69
77 0 68
76 0 66
71 0 63
65 0 59
59 0 53
53 0 47
48 0 43
43 0 50
43 0 51
25 0 50
24 0 50
12 0 43
21 0 38
32 0 43
49 0 54
61 0 65
70 0 73
81 0 83
87 0 88
88 0 89
92 0 93
92 0 93
87 0 89
92 0 93
99 0 99
85 0 86
92 0 93
99 0 100
103 0 104
104 0 104
103 0 104
104 0 104
104 0 104
107 0 107
102 0 102
98 0 98
98 0 98
95 0 95
82 0 83
88 0 89
90 0 90
78 0 79
82 0 82
81 0 82
82 0 82
82 0 82
76 0 76
77 0 77
111 0 110
114 0 113
116 0 115
117 0 115
108 0 107
106 0 105
93 0 92
86 0 86
74 0 75
72 0 72
97 113 96
96 112 95
96 112 95
95 112 95
95 112 94
94 112 94
94 112 93
94 112 93
93 111 93
93 111 92
92 111 92
0 112 0
0 113 0
0 113 0
0 114 0
0 114 0
0 114 0
0 114 0
0 114 0
0 114 0
0 114 0
0 114 0
0 114 0
0 114 0
0 114 0
0 114 0
0 114 0
0 113 0
0 113 0
0 113 0
0 113 0
0 113 0
0 113 0
0 113 0
0 112 0
0 112 0
0 112 0
0 111 0
0 111 0
0 111 0
0 110 0
0 110 0
0 109 0
0 109 0
0 108 0
0 108 0
0 107 0
0 106 0
0 106 0
0 105 0
0 104 0
0 104 0
0 103 0
97 0 0
97 0 0
98 0 0
98 0 0
99 0 0
99 0 0
99 0 0
100 0 0
100 0 0
100 0 0
100 0 0
100 0 0
100 0 0
100 0 0
100 0 0
100 0 0
100 0 0
99 0 0
98 0 0
97 0 0
97 0 0
96 0 0
94 0 0
93 0 0
92 0 0
91 0 0
90 0 0
90 0 0
90 0 0
90 0 0
90 0 0
90 0 0
91 0 0
93 0 0
95 0 0
97 0 0
99 0 0
101 0 0
103 0 0
104 0 0
105 0 0
105 0 0
105 0 0
104 0 0
103 81 81
103 81 81
103 81 82
103 82 82
103 82 82
103 82 82
103 82 82
103 83 82
103 83 82
103 83 83
103 83 83
103 83 83
103 84 83
103 84 83
103 84 83
103 84 83
103 84 84
103 84 84
103 85 84
102 85 84
103 85 84
102 85 84
102 85 84
102 85 84
102 85 85
102 85 84
55 17 21
55 17 22
55 17 22
55 18 23
56 19 24
56 20 25
56 21 26
57 23 27
39 41 38
39 41 38
62 23 0
54 41 0
54 42 0
54 42 0
53 43 0
34 49 0
33 49 0
32 51 0
32 51 0
30 53 0
28 54 0
28 54 0
28 55 0
28 55 0
28 55 0
27 56 0
23 60 0
23 60 0
23 61 0
23 61 0
23 61 0
23 61 0
24 62 0
24 62 0
25 62 0
101 95 93
101 96 93
101 96 93
101 96 93
101 97 94
101 97 94
102 98 95
102 98 95
102 99 95
102 99 96
102 99 96
102 100 97
102 100 97
103 101 97
103 101 98
103 101 98
103 102 99
103 102 99
103 103 99
104 103 100
104 103 100
104 104 101
104 104 101
104 104 101
105 105 101
105 105 102
105 105 102
105 106 103
105 106 103
105 106 103
106 106 103
106 107 103
106 107 104
106 107 104
106 107 104
106 108 104
106 108 104
106 108 104
90 0 79
88 0 76
85 0 75
83 0 73
77 0 69
72 0 64
65 0 59
58 0 54
50 0 48
45 0 44
43 0 44
26 0 49
33 0 41
32 0 41
29 0 39
43 0 49
53 0 57
64 0 67
72 0 74
77 0 79
87 0 88
91 0 92
91 0 92
90 0 91
98 0 98
91 0 92
92 0 93
84 0 86
91 0 92
101 0 102
102 0 102
102 0 103
103 0 103
103 0 103
106 0 106
93 0 94
101 0 101
98 0 98
89 0 90
91 0 91
92 0 92
86 0 87
86 0 86
80 0 80
77 0 77
73 0 72
82 0 82
85 0 84
74 0 74
105 0 104
107 0 105
112 0 111
113 0 111
101 0 100
100 0 100
108 0 107
91 0 91
92 0 91
86 0 85
71 0 71
67 0 67
96 112 95
95 112 95
95 112 94
95 112 94
94 111 93
94 111 93
93 111 93
93 111 92
92 111 92
92 110 91
0 112 0
0 113 0
0 113 0
0 113 0
0 114 0
0 114 0
0 114 0
0 114 0
0 114 0
0 114 0
0 114 0
0 113 0
0 113 0
0 113 0
0 113 0
0 113 0
0 113 0
0 113 0
0 113 0
0 112 0
0 112 0
0 112 0
0 112 0
0 112 0
0 112 0
0 111 0
0 111 0
0 111 0
0 110 0
0 110 0
0 109 0
0 109 0
0 108 0
0 108 0
0 107 0
0 107 0
0 106 0
0 105 0
0 105 0
0 104 0
0 103 0
0 103 0
97 0 0
97 0 0
98 0 0
98 0 0
98 0 0
99 0 0
99 0 0
99 0 0
100 0 0
100 0 0
100 0 0
100 0 0
100 0 0
100 0 0
100 0 0
100 0 0
99 0 0
98 0 0
98 0 0
97 0 0
96 0 0
95 0 0
94 0 0
93 0 0
91 0 0
90 0 0
90 0 0
90 0 0
90 0 0
90 0 0
90 0 0
90 0 0
91 0 0
93 0 0
95 0 0
97 0 0
99 0 0
100 0 0
102 0 0
103 0 0
104 0 0
104 0 0
104 0 0
103 0 0
102 80 80
102 81 81
102 81 81
102 81 81
102 81 81
102 81 81
102 82 81
102 82 82
102 82 82
102 82 82
102 83 82
102 83 82
102 83 82
102 83 83
102 83 83
102 83 83
102 83 83
102 84 83
102 84 83
102 84 83
102 84 84
101 84 84
101 84 84
101 84 84
101 85 84
101 85 84
55 17 22
55 18 22
55 18 23
55 19 24
56 20 25
56 21 25
56 22 26
56 23 27
39 41 39
39 41 38
38 41 38
61 23 0
54 42 0
34 47 0
34 48 0
34 48 0
33 49 0
33 50 0
30 52 0
30 52 0
30 53 0
29 53 0
29 54 0
28 55 0
28 56 0
23 60 0
23 60 0
23 60 0
23 60 0
23 60 0
49 58 52
50 58 52
100 93 91
100 94 91
100 94 92
100 95 92
100 95 92
101 95 93
101 96 93
101 96 93
101 96 94
101 97 94
101 97 94
101 98 95
101 98 95
101 99 96
101 99 96
102 99 96
102 100 97
102 100 97
102 101 98
102 101 98
103 101 98
103 102 99
103 102 99
103 103 100
103 103 100
104 103 100
104 104 101
104 104 101
104 104 101
104 105 102
104 105 102
105 105 102
105 105 102
105 106 103
105 106 103
105 106 103
105 106 103
105 107 103
105 107 103
105 107 104
105 107 104
93 0 82
88 0 80
86 0 77
85 0 76
81 0 73
72 0 67
67 0 63
63 0 58
56 0 53
52 0 48
47 0 44
42 0 44
36 0 40
36 0 41
40 0 46
50 0 54
57 0 61
63 0 67
68 0 72
76 0 78
82 0 83
82 0 84
85 0 87
90 0 91
92 0 93
91 0 92
81 0 83
80 0 82
85 0 87
100 0 101
101 0 101
102 0 102
100 0 101
101 0 101
93 0 94
93 0 94
94 0 95
87 0 88
88 0 89
91 0 91
93 0 93
94 0 94
88 0 88
93 0 92
93 0 92
93 0 92
93 0 92
80 0 79
106 0 105
108 0 106
112 0 110
113 0 111
113 0 112
100 0 100
100 0 99
85 0 86
85 0 85
84 0 84
83 0 83
86 0 85
67 0 67
95 112 95
95 111 94
94 111 94
94 111 93
94 111 93
93 111 93
93 111 92
92 110 92
92 110 92
92 110 91
0 112 0
0 112 0
0 113 0
0 113 0
0 113 0
0 113 0
0 113 0
0 113 0
0 113 0
0 113 0
0 113 0
0 113 0
0 113 0
0 112 0
0 112 0
0 112 0
0 112 0
0 112 0
0 112 0
0 112 0
0 112 0
0 112 0
0 112 0
0 112 0
0 111 0
0 111 0
0 111 0
0 110 0
0 110 0
0 109 0
0 109 0
0 108 0
0 108 0
0 107 0
0 107 0
0 106 0
0 106 0
0 105 0
0 104 0
0 104 0
0 103 0
0 102 0
96 0 0
97 0 0
97 0 0
98 0 0
98 0 0
98 0 0
99 0 0
99 0 0
99 0 0
99 0 0
100 0 0
100 0 0
100 0 0
100 0 0
99 0 0
99 0 0
99 0 0
98 0 0
97 0 0
96 0 0
96 0 0
94 0 0
94 0 0
92 0 0
91 0 0
90 0 0
89 0 0
89 0 0
89 0 0
89 0 0
89 0 0
90 0 0
91 0 0
92 0 0
94 0 0
96 0 0
98 0 0
100 0 0
101 0 0
102 0 0
103 0 0
103 0 0
103 0 0
102 0 0
101 79 80
101 80 80
101 80 80
101 80 80
101 80 81
101 81 81
101 81 81
101 81 81
101 81 81
101 81 81
101 82 82
101 82 82
101 82 82
101 82 82
101 82 82
101 82 82
101 82 82
101 83 82
101 83 83
101 83 83
101 83 83
101 83 83
101 83 83
100 84 83
100 84 83
100 84 83
55 18 22
55 18 23
55 19 23
55 19 24
56 20 25
56 21 26
56 22 27
56 23 28
39 42 39
39 41 39
38 42 38
38 42 38
37 42 38
37 42 38
37 43 38
37 43 38
37 44 38
37 45 39
38 46 39
39 47 40
39 48 41
40 49 42
42 51 43
43 52 45
44 53 46
45 54 47
46 55 48
47 56 49
48 56 50
48 57 51
49 58 52
50 58 52
100 93 91
100 93 91
100 93 91
100 94 91
100 94 92
100 95 92
100 95 92
100 95 93
100 96 93
100 96 94
100 97 94
100 97 94
100 97 95
101 98 95
101 98 96
101 99 96
101 99 96
101 100 97
102 100 97
102 100 98
102 101 98
102 101 98
102 102 99
102 102 99
103 102 99
103 103 100
103 103 100
103 103 100
103 103 101
104 104 101
104 104 101
104 104 101
104 105 102
104 105 102
104 105 102
104 105 102
104 106 103
104 106 102
104 106 103
104 106 103
104 106 103
93 0 84
89 0 82
87 0 79
83 0 76
78 0 73
74 0 70
70 0 66
66 0 63
62 0 58
58 0 54
52 0 51
51 0 51
50 0 51
51 0 53
55 0 58
60 0 63
65 0 67
67 0 70
71 0 74
74 0 77
82 0 84
83 0 84
85 0 86
89 0 90
92 0 92
91 0 92
80 0 83
79 0 82
84 0 86
92 0 94
90 0 92
100 0 100
97 0 98
98 0 98
86 0 88
93 0 94
94 0 95
88 0 89
88 0 89
93 0 92
94 0 93
121 0 119
121 0 120
122 0 121
123 0 122
122 0 120
125 0 123
124 0 123
123 0 122
119 0 118
122 0 121
112 0 112
87 0 87
86 0 86
84 0 84
77 0 77
76 0 77
74 0 74
83 0 83
76 0 76
79 0 79
95 111 94
94 111 94
94 111 93
94 111 93
93 111 93
93 110 92
92 110 92
92 110 92
92 110 91
91 109 91
0 111 0
0 112 0
0 112 0
0 112 0
0 112 0
0 113 0
0 113 0
0 113 0
0 113 0
0 113 0
0 113 0
0 112 0
0 112 0
0 112 0
0 112 0
0 112 0
0 112 0
0 112 0
0 112 0
0 111 0
0 111 0
0 111 0
0 111 0
0 111 0
0 111 0
0 111 0
0 110 0
0 110 0
0 110 0
0 109 0
0 109 0
0 108 0
0 108 0
0 107 0
0 107 0
0 106 0
0 105 0
0 105 0
0 104 0
0 103 0
0 103 0
0 102 0
96 0 0
96 0 0
97 0 0
97 0 0
98 0 0
98 0 0
98 0 0
98 0 0
99 0 0
99 0 0
99 0 0
99 0 0
99 0 0
99 0 0
99 0 0
99 0 0
98 0 0
98 0 0
97 0 0
96 0 0
95 0 0
94 0 0
93 0 0
92 0 0
91 0 0
89 0 0
89 0 0
89 0 0
89 0 0
89 0 0
89 0 0
89 0 0
90 0 0
92 0 0
94 0 0
96 0 0
97 0 0
99 0 0
100 0 0
101 0 0
102 0 0
102 0 0
102 0 0
101 0 0
100 79 79
100 79 79
100 79 80
100 79 80
100 79 80
100 80 80
100 80 80
100 80 80
100 80 81
100 81 81
100 81 81
100 81 81
100 81 81
100 81 81
100 81 81
100 82 82
100 82 82
100 82 82
100 82 82
100 82 82
100 82 82
100 83 82
100 83 82
100 83 83
100 83 83
99 83 83
55 18 23
55 19 23
55 19 24
55 20 25
55 21 25
56 21 26
56 22 27
56 23 28
39 42 39
39 42 39
38 42 39
38 42 38
37 42 38
37 42 38
37 43 38
37 43 38
37 44 38
37 45 39
38 46 39
38 47 40
39 48 41
40 49 42
41 51 44
43 52 45
44 53 46
45 54 47
46 55 48
46 55 49
47 56 50
48 57 51
49 57 52
49 58 52
99 92 90
99 92 90
99 93 91
99 93 91
99 93 91
99 94 92
99 94 92
99 95 92
99 95 93
99 95 93
100 96 94
100 96 94
100 97 94
100 97 95
100 98 95
100 98 95
100 98 96
101 99 96
101 99 97
101 100 97
101 100 97
101 100 98
102 101 98
102 101 99
102 101 99
102 102 99
102 102 100
103 103 100
103 103 100
103 103 101
103 103 101
103 104 101
103 104 101
103 104 101
103 104 101
103 105 102
103 105 102
103 105 102
104 105 102
104 105 102
84 0 76
84 0 77
77 0 72
86 0 79
82 0 76
80 0 75
76 0 72
73 0 69
70 0 66
68 0 65
63 0 62
62 0 62
61 0 61
64 0 62
64 0 64
66 0 67
68 0 70
64 0 69
72 0 75
74 0 77
79 0 80
78 0 81
76 0 80
78 0 81
82 0 84
83 0 85
91 0 92
74 0 78
70 0 75
75 0 80
92 0 93
89 0 91
90 0 92
91 0 92
97 0 98
86 0 88
74 0 78
75 0 79
77 0 80
106 0 105
117 0 116
123 0 122
125 0 123
124 0 123
126 0 124
127 0 125
123 0 122
123 0 122
123 0 122
116 0 115
115 0 114
115 0 114
105 0 104
104 0 104
102 0 101
84 0 84
72 0 73
66 0 68
75 0 76
75 0 75
73 0 73
68 0 68
59 0 59
94 110 93
94 110 93
93 110 93
93 110 92
92 110 92
92 110 92
91 109 91
91 109 91
91 109 90
0 110 0
0 111 0
0 111 0
0 112 0
0 112 0
0 112 0
0 112 0
0 112 0
0 112 0
0 112 0
0 112 0
0 112 0
0 112 0
0 111 0
0 111 0
0 111 0
0 111 0
0 111 0
0 111 0
0 111 0
0 111 0
0 111 0
0 111 0
0 111 0
0 110 0
0 110 0
0 110 0
0 109 0
0 109 0
0 109 0
0 108 0
0 108 0
0 107 0
0 107 0
0 106 0
0 106 0
0 105 0
0 104 0
0 104 0
0 103 0
0 103 0
0 102 0
96 0 0
96 0 0
97 0 0
97 0 0
97 0 0
98 0 0
98 0 0
98 0 0
98 0 0
99 0 0
99 0 0
99 0 0
99 0 0
99 0 0
98 0 0
98 0 0
98 0 0
97 0 0
96 0 0
95 0 0
94 0 0
94 0 0
92 0 0
91 0 0
90 0 0
89 0 0
89 0 0
88 0 0
89 0 0
89 0 0
89 0 0
89 0 0
90 0 0
91 0 0
93 0 0
95 0 0
97 0 0
98 0 0
100 0 0
101 0 0
101 0 0
102 0 0
102 0 0
101 0 0
99 78 79
99 78 79
99 78 79
99 79 79
99 79 79
99 79 79
99 79 80
99 79 80
99 80 80
99 80 80
99 80 80
99 80 80
99 80 81
99 81 81
99 81 81
99 81 81
99 81 81
99 81 81
99 81 81
99 81 82
99 82 82
99 82 82
99 82 82
99 82 82
99 82 82
99 82 82
55 19 23
55 19 24
55 19 24
55 20 25
55 21 26
56 22 26
56 23 27
56 24 28
39 42 39
38 42 39
38 42 39
37 42 39
37 42 38
37 43 38
37 43 38
37 44 38
37 44 39
37 45 39
38 46 40
38 47 40
39 48 41
40 49 42
41 51 44
42 52 45
44 53 46
45 54 47
45 54 48
46 55 49
47 56 50
48 57 51
48 57 52
49 58 52
98 91 90
98 92 90
98 92 90
98 92 91
98 93 91
98 93 91
98 94 92
99 94 92
99 94 92
99 95 93
99 95 93
99 96 93
99 96 94
99 97 94
99 97 95
100 97 95
100 98 95
100 98 96
100 98 96
100 99 97
100 99 97
101 100 97
101 100 98
101 100 98
101 101 98
102 101 99
102 101 99
102 102 99
102 102 100
102 102 100
102 103 100
102 103 100
102 103 100
102 103 101
103 104 101
102 104 101
103 104 101
103 104 101
103 104 101
103 105 102
83 0 76
76 0 72
86 0 79
88 0 81
87 0 80
76 0 74
76 0 73
75 0 72
73 0 71
69 0 69
69 0 68
68 0 67
70 0 68
71 0 69
71 0 71
72 0 73
74 0 75
68 0 72
70 0 74
77 0 79
81 0 82
79 0 81
80 0 82
78 0 81
79 0 82
83 0 85
84 0 86
82 0 84
70 0 74
73 0 79
75 0 80
75 0 80
90 0 91
66 0 73
67 0 73
81 0 83
86 0 88
87 0 88
108 0 107
108 0 107
123 0 121
124 0 122
125 0 123
120 0 118
121 0 119
117 0 116
118 0 116
118 0 116
110 0 109
110 0 109
102 0 101
109 0 108
109 0 108
106 0 106
103 0 103
96 0 96
86 0 86
70 0 72
71 0 73
67 0 69
66 0 66
63 0 64
56 0 56
94 110 93
93 110 93
93 110 92
92 109 92
92 109 92
92 109 91
91 109 91
91 109 90
90 108 90
0 110 0
0 111 0
0 111 0
0 111 0
0 111 0
0 112 0
0 111 0
0 112 0
0 112 0
0 111 0
0 111 0
0 111 0
0 111 0
0 111 0
0 111 0
0 111 0
0 110 0
0 111 0
0 110 0
0 110 0
0 110 0
0 110 0
0 110 0
0 110 0
0 110 0
0 110 0
0 109 0
0 109 0
0 109 0
0 108 0
0 108 0
0 107 0
0 107 0
0 106 0
0 106 0
0 105 0
0 105 0
0 104 0
0 103 0
0 103 0
0 102 0
0 102 0
95 0 0
96 0 0
96 0 0
96 0 0
97 0 0
97 0 0
97 0 0
98 0 0
98 0 0
98 0 0
98 0 0
98 0 0
98 0 0
98 0 0
98 0 0
98 0 0
97 0 0
96 0 0
96 0 0
95 0 0
94 0 0
93 0 0
92 0 0
91 0 0
90 0 0
89 0 0
88 0 0
88 0 0
88 0 0
88 0 0
88 0 0
88 0 0
89 0 0
91 0 0
93 0 0
94 0 0
96 0 0
98 0 0
99 0 0
100 0 0
101 0 0
101 0 0
101 0 0
100 0 0
98 77 78
98 78 78
99 78 78
98 78 79
98 78 79
99 78 79
98 78 79
98 79 79
98 79 79
99 79 80
98 79 80
98 79 80
98 80 80
98 80 80
98 80 80
98 80 80
98 80 81
98 80 81
98 80 81
98 81 81
98 81 81
98 81 81
98 81 81
98 81 81
98 81 81
98 82 82
55 19 24
55 19 24
55 20 25
55 20 25
55 21 26
55 22 27
56 23 27
56 24 28
39 42 40
38 42 39
38 42 39
37 42 39
37 43 39
37 43 39
36 43 38
36 44 39
37 44 39
37 45 39
37 46 40
38 47 41
39 48 41
40 49 42
41 50 44
42 51 45
43 52 46
44 53 47
45 54 48
46 55 49
47 56 50
47 56 51
48 57 52
49 57 52
97 91 89
98 91 90
97 91 90
97 92 90
98 92 91
98 93 91
98 93 91
98 93 92
98 94 92
98 94 92
98 95 93
98 95 93
98 95 94
99 96 94
99 96 94
99 97 95
99 97 95
99 97 95
99 98 96
100 98 96
100 99 96
100 99 97
100 99 97
100 100 98
101 100 98
101 100 98
101 101 99
101 101 99
101 101 99
101 102 99
101 102 100
101 102 100
102 102 100
102 102 100
102 103 100
102 103 100
102 103 101
102 103 101
102 104 101
102 104 101
79 0 72
80 0 74
81 0 76
81 0 76
77 0 75
77 0 75
75 0 74
77 0 75
73 0 72
72 0 72
71 0 71
72 0 72
72 0 72
72 0 72
71 0 74
72 0 74
64 0 71
71 0 75
79 0 80
79 0 80
80 0 82
83 0 85
84 0 85
74 0 78
74 0 78
69 0 74
69 0 75
65 0 70
65 0 71
72 0 78
74 0 79
75 0 80
80 0 83
80 0 83
80 0 83
81 0 83
88 0 89
109 0 108
112 0 111
114 0 112
123 0 121
124 0 122
119 0 118
120 0 118
114 0 112
106 0 105
106 0 104
99 0 99
102 0 101
102 0 101
95 0 94
94 0 93
84 0 85
82 0 83
92 0 91
93 0 93
88 0 88
58 0 59
70 0 72
67 0 69
57 0 58
63 0 64
58 0 59
93 109 93
93 109 92
92 109 92
92 109 92
92 109 91
91 109 91
91 109 90
90 108 90
90 108 90
0 109 0
0 110 0
0 111 0
0 111 0
0 111 0
0 111 0
0 111 0
0 111 0
0 111 0
0 111 0
0 111 0
0 111 0
0 110 0
0 110 0
0 110 0
0 110 0
0 110 0
0 110 0
0 110 0
0 110 0
0 110 0
0 110 0
0 110 0
0 110 0
0 110 0
0 109 0
0 109 0
0 109 0
0 108 0
0 108 0
0 108 0
0 107 0
0 107 0
0 106 0
0 106 0
0 105 0
0 104 0
0 104 0
0 103 0
0 102 0
0 102 0
0 101 0
95 0 0
95 0 0
96 0 0
96 0 0
97 0 0
97 0 0
97 0 0
97 0 0
98 0 0
98 0 0
98 0 0
98 0 0
98 0 0
98 0 0
97 0 0
97 0 0
97 0 0
96 0 0
95 0 0
94 0 0
93 0 0
92 0 0
91 0 0
90 0 0
89 0 0
88 0 0
88 0 0
88 0 0
88 0 0
88 0 0
88 0 0
88 0 0
89 0 0
91 0 0
92 0 0
94 0 0
96 0 0
97 0 0
98 0 0
99 0 0
100 0 0
100 0 0
100 0 0
99 0 0
97 77 78
98 77 78
97 77 78
98 77 78
98 77 78
98 77 78
98 78 79
98 78 79
98 78 79
98 78 79
98 79 79
98 79 79
98 79 79
97 79 79
98 79 80
98 79 80
97 80 80
97 80 80
97 80 80
97 80 80
97 80 80
97 80 81
97 80 81
97 80 81
97 81 81
97 81 81
54 19 24
55 20 24
55 20 25
55 21 26
55 21 26
55 22 27
56 23 28
56 24 28
39 43 40
38 43 39
38 43 39
37 43 39
37 43 39
37 43 39
36 43 39
36 44 39
36 44 39
37 45 39
37 46 40
38 47 41
39 48 41
39 49 42
41 50 44
42 51 45
43 52 46
44 53 47
45 54 48
46 55 49
46 55 50
47 56 51
48 56 51
49 57 52
97 90 89
97 90 89
97 91 90
97 91 90
97 92 90
97 92 91
97 92 91
97 93 91
97 93 92
97 94 92
98 94 92
98 94 93
98 95 93
98 95 93
98 96 94
98 96 94
98 96 95
99 97 95
99 97 95
99 98 96
99 98 96
99 98 96
99 99 97
100 99 97
100 99 98
100 100 98
100 100 98
100 100 98
100 100 98
100 101 99
101 101 99
101 101 99
101 102 99
101 102 100
101 102 100
101 102 100
101 102 100
101 103 100
101 103 100
101 103 100
89 0 80
80 0 74
81 0 76
72 0 72
72 0 72
76 0 75
70 0 72
70 0 72
70 0 72
74 0 74
73 0 73
73 0 73
75 0 75
75 0 75
73 0 75
74 0 76
65 0 72
80 0 81
81 0 82
80 0 82
86 0 86
81 0 83
84 0 86
85 0 86
74 0 78
73 0 77
69 0 75
60 0 67
64 0 70
72 0 78
74 0 79
77 0 82
78 0 82
58 0 67
59 0 68
61 0 69
64 0 71
100 0 100
111 0 110
113 0 112
114 0 113
110 0 108
114 0 112
110 0 109
110 0 109
106 0 105
106 0 105
86 0 87
86 0 86
78 0 79
76 0 78
70 0 72
70 0 72
82 0 82
91 0 91
92 0 92
79 0 80
58 0 59
69 0 71
58 0 60
56 0 58
40 0 45
59 0 60
93 109 92
92 109 92
92 109 92
91 109 91
91 108 91
91 108 91
90 108 90
90 108 90
89 107 89
0 109 0
0 110 0
0 110 0
0 110 0
0 110 0
0 111 0
0 111 0
0 111 0
0 111 0
0 110 0
0 110 0
0 110 0
0 110 0
0 110 0
0 109 0
0 109 0
0 109 0
0 109 0
0 109 0
0 110 0
0 110 0
0 109 0
0 109 0
0 109 0
0 109 0
0 109 0
0 109 0
0 108 0
0 108 0
0 108 0
0 107 0
0 107 0
0 106 0
0 106 0
0 105 0
0 105 0
0 104 0
0 103 0
0 103 0
0 102 0
0 102 0
0 101 0
95 0 0
95 0 0
95 0 0
96 0 0
96 0 0
96 0 0
97 0 0
97 0 0
97 0 0
97 0 0
97 0 0
98 0 0
97 0 0
97 0 0
97 0 0
97 0 0
96 0 0
96 0 0
95 0 0
94 0 0
93 0 0
92 0 0
91 0 0
90 0 0
89 0 0
88 0 0
87 0 0
87 0 0
88 0 0
87 0 0
88 0 0
88 0 0
89 0 0
90 0 0
92 0 0
93 0 0
95 0 0
96 0 0
98 0 0
99 0 0
99 0 0
99 0 0
99 0 0
98 0 0
96 76 77
97 76 77
97 76 77
97 76 77
97 77 78
97 77 78
97 77 78
97 77 78
97 77 78
97 78 78
97 78 78
97 78 79
97 78 79
97 78 79
97 78 79
97 78 79
97 79 79
97 79 80
97 79 80
96 79 80
96 79 80
96 79 80
96 80 80
96 80 80
96 80 80
96 80 80
54 19 24
54 20 25
55 20 25
55 21 26
55 21 27
55 22 27
55 23 28
56 24 29
38 43 40
38 43 40
37 43 39
37 43 39
37 43 39
36 43 39
36 43 39
36 44 39
36 45 39
37 45 40
37 46 40
38 47 41
38 48 42
39 49 43
40 50 44
42 51 45
43 52 46
44 53 47
45 54 48
45 54 49
46 55 50
47 56 51
48 56 51
48 57 52
96 89 88
96 90 89
96 90 89
96 90 89
96 91 90
96 91 90
96 92 90
96 92 91
97 93 91
97 93 92
97 93 92
97 94 92
97 94 93
97 94 93
97 95 93
98 95 94
98 96 94
98 96 94
98 96 95
98 97 95
99 97 96
99 98 96
99 98 96
99 98 97
99 99 97
99 99 97
99 99 98
99 99 98
100 100 98
100 100 98
100 100 98
100 101 99
100 101 99
100 101 99
100 101 99
100 101 99
100 102 99
100 102 99
100 102 100
100 102 100
83 0 76
66 0 66
62 0 65
74 0 73
74 0 73
69 0 71
71 0 73
71 0 73
71 0 73
70 0 72
75 0 75
74 0 75
75 0 75
74 0 76
65 0 71
67 0 73
67 0 73
78 0 79
78 0 80
66 0 73
60 0 69
60 0 69
56 0 66
53 0 64
53 0 64
83 0 85
83 0 85
72 0 75
63 0 70
72 0 78
73 0 78
51 0 63
53 0 64
55 0 66
56 0 66
64 0 71
98 0 99
99 0 99
99 0 99
101 0 101
102 0 101
102 0 101
100 0 99
100 0 99
87 0 88
86 0 87
71 0 74
74 0 77
73 0 76
78 0 79
77 0 79
70 0 72
82 0 83
83 0 84
79 0 80
72 0 73
79 0 79
59 0 60
70 0 72
59 0 61
57 0 60
40 0 45
39 0 47
92 108 92
92 108 92
91 108 91
91 108 91
91 108 91
90 108 90
90 108 90
89 107 89
89 107 89
0 109 0
0 109 0
0 110 0
0 110 0
0 110 0
0 110 0
0 110 0
0 110 0
0 110 0
0 110 0
0 110 0
0 110 0
0 109 0
0 109 0
0 109 0
0 109 0
0 109 0
0 109 0
0 109 0
0 109 0
0 109 0
0 109 0
0 109 0
0 109 0
0 109 0
0 108 0
0 108 0
0 108 0
0 108 0
0 107 0
0 107 0
0 106 0
0 106 0
0 106 0
0 105 0
0 104 0
0 104 0
0 103 0
0 103 0
0 102 0
0 101 0
0 101 0
94 0 0
95 0 0
95 0 0
95 0 0
96 0 0
96 0 0
96 0 0
97 0 0
97 0 0
97 0 0
97 0 0
97 0 0
97 0 0
97 0 0
97 0 0
96 0 0
96 0 0
95 0 0
94 0 0
93 0 0
92 0 0
91 0 0
91 0 0
89 0 0
88 0 0
88 0 0
87 0 0
87 0 0
87 0 0
87 0 0
87 0 0
88 0 0
88 0 0
90 0 0
91 0 0
93 0 0
94 0 0
96 0 0
97 0 0
98 0 0
98 0 0
99 0 0
98 0 0
98 0 0
96 75 76
96 75 76
96 75 77
96 76 77
96 76 77
96 76 77
96 76 77
96 76 77
96 77 78
96 77 78
96 77 78
96 77 78
96 77 78
96 78 78
96 78 79
96 78 79
96 78 79
96 78 79
96 78 79
96 78 79
96 79 79
96 79 80
95 79 80
95 79 80
95 79 80
95 79 80
54 20 25
54 20 25
54 21 26
55 21 26
55 22 27
55 22 28
55 23 28
56 24 29
38 43 40
38 43 40
37 43 39
37 43 39
37 43 39
36 43 39
36 44 39
36 44 39
36 45 39
36 45 40
37 46 40
37 47 41
38 48 42
39 49 43
40 50 44
41 51 45
42 52 46
43 53 47
44 54 48
45 54 49
46 55 50
47 55 51
47 56 51
48 56 52
95 89 88
96 89 89
96 89 89
96 90 89
96 90 89
96 91 90
96 91 90
96 91 90
96 92 91
96 92 91
96 93 91
96 93 92
97 93 92
97 94 93
97 94 93
97 95 93
97 95 94
97 95 94
97 96 94
98 96 95
98 97 95
98 97 95
98 97 96
98 98 96
98 98 97
99 98 97
99 99 97
99 99 97
99 99 97
99 99 98
99 100 98
99 100 98
99 100 98
99 100 98
99 101 99
99 101 99
100 101 99
100 101 99
99 101 99
100 101 99
66 0 65
60 0 64
58 0 64
58 0 65
61 0 67
68 0 71
71 0 73
71 0 73
71 0 73
75 0 75
72 0 74
73 0 75
73 0 75
63 0 71
65 0 72
65 0 72
69 0 75
79 0 80
65 0 73
66 0 73
56 0 67
56 0 67
52 0 64
71 0 76
74 0 78
75 0 79
73 0 77
72 0 75
73 0 76
71 0 77
71 0 77
70 0 75
38 0 57
39 0 58
62 0 70
75 0 80
80 0 84
99 0 99
98 0 98
101 0 100
99 0 98
99 0 98
102 0 100
87 0 88
84 0 85
70 0 74
69 0 72
73 0 76
73 0 76
64 0 68
64 0 68
71 0 74
83 0 83
83 0 83
79 0 80
72 0 73
58 0 61
42 0 46
71 0 72
59 0 61
59 0 61
42 0 45
39 0 46
92 108 92
91 108 91
91 108 91
91 108 91
90 107 90
90 107 90
89 107 89
89 107 89
89 106 89
0 108 0
0 109 0
0 109 0
0 109 0
0 109 0
0 109 0
0 109 0
0 110 0
0 109 0
0 110 0
0 109 0
0 109 0
0 109 0
0 108 0
0 108 0
0 108 0
0 108 0
0 108 0
0 108 0
0 108 0
0 109 0
0 109 0
0 108 0
0 108 0
0 108 0
0 108 0
0 108 0
0 108 0
0 107 0
0 107 0
0 107 0
0 106 0
0 106 0
0 105 0
0 105 0
0 104 0
0 104 0
0 103 0
0 102 0
0 102 0
0 101 0
0 100 0
94 0 0
94 0 0
95 0 0
95 0 0
96 0 0
96 0 0
96 0 0
96 0 0
96 0 0
96 0 0
97 0 0
97 0 0
96 0 0
96 0 0
96 0 0
96 0 0
95 0 0
95 0 0
94 0 0
93 0 0
92 0 0
91 0 0
90 0 0
89 0 0
88 0 0
87 0 0
87 0 0
87 0 0
87 0 0
87 0 0
87 0 0
87 0 0
88 0 0
89 0 0
91 0 0
92 0 0
94 0 0
95 0 0
96 0 0
97 0 0
98 0 0
98 0 0
98 0 0
97 0 0
95 74 76
95 74 76
95 75 76
95 75 76
95 75 76
95 75 77
95 75 77
95 76 77
95 76 77
95 76 77
95 76 77
95 76 77
95 77 78
95 77 78
95 77 78
95 77 78
95 77 78
95 77 78
95 78 79
95 78 79
95 78 79
95 78 79
95 78 79
95 78 79
95 78 79
94 78 79
54 20 25
54 20 25
54 21 26
54 21 26
55 22 27
55 23 28
55 23 28
55 24 29
38 43 40
38 43 40
37 43 40
37 43 39
36 43 39
36 44 39
36 44 39
36 44 39
36 45 39
36 45 40
37 46 40
37 47 41
38 48 42
39 49 43
40 50 44
41 51 45
42 52 46
43 52 47
44 53 48
45 54 49
46 55 50
46 55 51
47 56 51
48 56 52
95 88 88
95 89 88
95 89 88
95 89 89
95 90 89
95 90 89
95 90 90
95 91 90
95 91 90
95 92 91
96 92 91
96 92 92
96 93 92
96 93 92
96 94 93
96 94 93
96 94 93
97 95 94
97 95 94
97 95 94
97 96 95
97 96 95
98 97 96
98 97 96
98 97 96
98 97 96
98 98 97
98 98 97
98 98 97
98 98 97
98 99 97
98 99 98
98 99 98
98 99 98
99 100 98
99 100 98
99 100 98
99 100 98
99 101 98
99 101 98
58 0 63
51 0 63
48 0 63
48 0 63
58 0 66
59 0 67
59 0 67
75 0 76
75 0 76
73 0 75
72 0 75
74 0 76
63 0 71
63 0 71
63 0 71
63 0 71
79 0 80
56 0 68
65 0 73
66 0 73
56 0 67
49 0 63
50 0 63
62 0 71
74 0 78
67 0 74
67 0 74
65 0 70
64 0 69
68 0 76
70 0 77
69 0 75
66 0 71
38 0 57
44 0 61
76 0 80
83 0 86
86 0 88
88 0 89
99 0 98
98 0 98
91 0 92
87 0 88
87 0 88
63 0 69
69 0 74
68 0 72
73 0 76
72 0 76
62 0 68
63 0 68
70 0 73
70 0 73
70 0 73
51 0 57
39 0 48
41 0 46
60 0 62
71 0 72
59 0 61
58 0 61
39 0 42
40 0 45
29 0 31
91 107 91
91 107 91
90 107 90
90 107 90
89 107 89
89 107 89
89 106 89
88 106 88
0 107 0
0 108 0
0 108 0
0 109 0
0 109 0
0 109 0
0 109 0
0 109 0
0 109 0
0 109 0
0 109 0
0 108 0
0 108 0
0 108 0
0 107 0
0 107 0
0 107 0
0 108 0
0 108 0
0 108 0
0 108 0
0 108 0
0 108 0
0 108 0
0 108 0
0 108 0
0 108 0
0 107 0
0 107 0
0 107 0
0 106 0
0 106 0
0 105 0
0 105 0
0 104 0
0 104 0
0 103 0
0 103 0
0 102 0
0 101 0
0 101 0
0 100 0
94 0 0
94 0 0
95 0 0
95 0 0
95 0 0
95 0 0
96 0 0
96 0 0
96 0 0
96 0 0
96 0 0
96 0 0
96 0 0
96 0 0
96 0 0
95 0 0
95 0 0
94 0 0
93 0 0
92 0 0
91 0 0
90 0 0
90 0 0
88 0 0
87 0 0
87 0 0
86 0 0
86 0 0
86 0 0
86 0 0
86 0 0
87 0 0
88 0 0
89 0 0
90 0 0
92 0 0
93 0 0
94 0 0
96 0 0
96 0 0
97 0 0
97 0 0
97 0 0
96 0 0
94 74 75
94 74 75
94 74 75
94 74 76
94 74 76
94 74 76
94 75 76
94 75 76
94 75 76
94 75 77
94 76 77
94 76 77
94 76 77
94 76 77
94 76 78
94 76 78
94 77 78
94 77 78
94 77 78
94 77 78
94 77 78
94 77 79
94 78 79
94 78 79
94 78 79
94 78 79
54 20 25
54 20 26
54 21 26
54 21 27
54 22 27
55 23 28
55 23 28
55 24 29
38 43 40
37 43 40
37 43 40
37 43 40
36 43 39
36 44 39
36 44 39
36 44 39
36 45 40
36 45 40
36 46 40
37 47 41
38 48 42
39 48 43
40 49 44
41 50 45
42 51 46
43 52 47
44 53 48
45 54 49
45 54 50
46 55 50
47 55 51
47 56 52
94 88 88
94 88 88
94 88 88
94 89 88
94 89 89
94 89 89
95 90 90
95 90 90
95 91 90
95 91 91
95 91 91
95 92 91
95 92 92
95 93 92
95 93 92
96 93 93
96 94 93
96 94 93
96 95 94
96 95 94
97 95 94
97 96 95
97 96 95
97 96 95
97 96 95
97 97 96
97 97 96
97 97 96
97 98 96
98 98 97
98 98 97
98 98 97
98 98 97
98 99 97
98 99 97
98 99 97
98 99 98
98 99 98
98 100 98
98 100 98
98 100 98
53 0 63
72 0 65
63 0 65
54 0 65
54 0 65
66 0 70
65 0 70
65 0 70
73 0 75
62 0 70
61 0 70
57 0 69
57 0 69
57 0 68
57 0 68
52 0 66
52 0 66
56 0 68
53 0 66
53 0 65
49 0 63
50 0 63
61 0 71
69 0 75
45 0 60
45 0 60
41 0 56
43 0 55
63 0 73
69 0 76
57 0 66
56 0 65
50 0 63
52 0 65
69 0 75
70 0 76
85 0 87
88 0 89
89 0 90
84 0 85
91 0 91
87 0 88
87 0 88
63 0 67
62 0 69
65 0 71
73 0 76
54 0 60
62 0 67
64 0 69
71 0 74
71 0 74
49 0 57
50 0 57
38 0 47
30 0 41
62 0 64
62 0 64
59 0 62
43 0 47
38 0 42
45 0 49
26 0 29
90 107 90
90 107 90
90 107 90
89 107 89
89 106 89
89 106 89
88 106 88
88 105 88
0 107 0
0 108 0
0 108 0
0 108 0
0 108 0
0 108 0
0 108 0
0 108 0
0 108 0
0 108 0
0 108 0
0 108 0
0 108 0
0 107 0
0 107 0
0 107 0
0 107 0
0 107 0
0 107 0
0 107 0
0 107 0
0 108 0
0 108 0
0 108 0
0 107 0
0 107 0
0 107 0
0 107 0
0 106 0
0 106 0
0 106 0
0 105 0
0 105 0
0 104 0
0 104 0
0 103 0
0 103 0
0 102 0
0 102 0
0 101 0
0 101 0
0 100 0
93 0 0
94 0 0
94 0 0
95 0 0
95 0 0
95 0 0
95 0 0
95 0 0
96 0 0
96 0 0
96 0 0
96 0 0
96 0 0
96 0 0
95 0 0
95 0 0
94 0 0
94 0 0
93 0 0
92 0 0
91 0 0
90 0 0
89 0 0
88 0 0
87 0 0
86 0 0
86 0 0
86 0 0
86 0 0
86 0 0
86 0 0
87 0 0
87 0 0
89 0 0
90 0 0
91 0 0
93 0 0
94 0 0
95 0 0
96 0 0
96 0 0
96 0 0
96 0 0
95 0 0
93 73 75
93 73 75
93 73 75
93 73 75
93 74 75
93 74 76
93 74 76
93 74 76
93 74 76
93 75 76
93 75 76
93 75 76
93 75 77
93 75 77
93 76 77
93 76 77
93 76 77
93 76 77
93 76 78
93 76 78
93 77 78
93 77 78
93 77 78
93 77 78
93 77 78
93 77 79
54 20 25
54 21 26
54 21 26
54 22 27
54 22 27
55 23 28
55 23 29
55 24 29
38 43 40
37 43 40
37 43 40
36 43 40
36 44 39
36 44 39
36 44 39
36 44 39
36 45 40
36 45 40
36 46 41
37 47 41
38 47 42
38 48 43
39 49 44
40 50 45
42 51 46
43 52 47
44 53 48
44 53 49
45 54 50
46 55 50
46 55 51
47 55 51
94 87 87
94 87 87
94 88 88
94 88 88
94 88 89
94 89 89
94 89 89
94 90 89
94 90 90
94 90 90
94 91 90
94 91 91
95 92 91
95 92 92
95 92 92
95 93 92
95 93 93
95 93 93
96 94 93
96 94 94
96 95 94
96 95 94
96 95 94
96 96 95
96 96 95
96 96 95
96 96 95
97 97 96
97 97 96
97 97 96
97 97 96
97 98 97
97 98 97
97 98 97
97 98 97
97 98 97
97 99 97
97 99 97
97 99 97
97 99 97
97 99 97
54 0 64
68 0 66
64 0 66
54 0 65
61 0 66
65 0 70
64 0 69
65 0 70
58 0 68
58 0 68
53 0 67
52 0 67
52 0 67
57 0 69
57 0 69
52 0 66
43 0 63
43 0 63
37 0 60
42 0 61
42 0 60
62 0 72
68 0 75
48 0 62
44 0 60
40 0 56
39 0 55
56 0 65
62 0 72
59 0 70
56 0 66
55 0 64
51 0 63
52 0 65
69 0 75
69 0 75
72 0 77
73 0 77
88 0 89
83 0 85
61 0 69
62 0 70
47 0 60
62 0 66
66 0 72
66 0 72
65 0 70
63 0 68
68 0 72
65 0 69
64 0 69
44 0 54
43 0 53
34 0 47
38 0 47
51 0 56
63 0 65
68 0 70
59 0 61
43 0 47
44 0 47
25 0 33
27 0 30
90 106 90
90 106 90
89 106 89
89 106 89
89 106 89
88 106 88
88 105 88
87 105 88
0 107 0
0 107 0
0 107 0
0 108 0
0 108 0
0 108 0
0 108 0
0 107 0
0 107 0
0 107 0
0 107 0
0 107 0
0 107 0
0 106 0
0 106 0
0 106 0
0 106 0
0 106 0
0 107 0
0 107 0
0 107 0
0 107 0
0 107 0
0 107 0
0 107 0
0 107 0
0 107 0
0 106 0
0 106 0
0 106 0
0 105 0
0 105 0
0 105 0
0 104 0
0 104 0
0 103 0
0 103 0
0 102 0
0 101 0
0 101 0
0 100 0
0 100 0
93 0 0
94 0 0
94 0 0
94 0 0
95 0 0
95 0 0
95 0 0
95 0 0
95 0 0
95 0 0
95 0 0
95 0 0
95 0 0
95 0 0
95 0 0
94 0 0
94 0 0
93 0 0
92 0 0
91 0 0
90 0 0
89 0 0
88 0 0
87 0 0
87 0 0
86 0 0
86 0 0
86 0 0
86 0 0
86 0 0
86 0 0
86 0 0
87 0 0
88 0 0
89 0 0
91 0 0
92 0 0
93 0 0
94 0 0
95 0 0
96 0 0
96 0 0
95 0 0
95 0 0
92 72 74
92 72 74
93 73 75
92 73 74
92 73 75
92 73 75
93 73 75
93 74 75
93 74 75
93 74 76
93 74 76
93 74 76
93 75 76
93 75 76
93 75 77
93 75 77
93 75 77
92 75 77
93 75 77
92 76 77
92 76 77
92 76 78
92 76 78
92 76 78
92 76 78
92 77 78
53 20 26
54 21 26
54 21 27
54 22 27
54 22 28
54 23 28
55 23 29
55 24 29
37 44 40
37 44 40
36 44 40
36 44 40
36 44 40
36 44 39
35 44 39
35 44 40
35 45 40
36 45 40
36 46 41
37 47 41
37 47 42
38 48 43
39 49 44
40 50 45
41 51 46
42 52 47
43 53 48
44 53 49
45 54 49
45 54 50
46 55 51
47 55 51
93 86 87
93 87 87
93 87 87
93 87 88
93 88 88
93 88 88
93 89 89
93 89 89
93 89 89
93 90 90
94 90 90
94 90 90
94 91 91
94 91 91
94 92 92
94 92 92
95 92 92
95 93 93
95 93 93
95 94 93
95 94 94
95 94 94
95 95 94
95 95 94
96 95 95
96 95 95
96 96 95
96 96 95
96 96 95
96 96 96
96 96 96
96 97 96
96 97 96
96 97 96
96 97 96
96 98 96
96 98 96
96 98 97
96 98 97
97 98 97
97 98 97
97 99 97
51 0 63
54 0 64
53 0 64
49 0 64
49 0 64
45 0 64
45 0 64
46 0 64
46 0 64
43 0 64
49 0 66
49 0 66
49 0 65
49 0 65
43 0 63
43 0 63
43 0 63
38 0 60
38 0 60
59 0 70
53 0 66
37 0 59
48 0 61
32 0 54
46 0 59
47 0 59
43 0 58
66 0 73
59 0 69
55 0 65
52 0 61
54 0 65
62 0 72
68 0 75
71 0 77
71 0 76
60 0 68
60 0 69
61 0 70
60 0 69
62 0 70
46 0 60
27 0 46
56 0 66
66 0 71
63 0 68
62 0 68
68 0 72
64 0 69
64 0 66
44 0 54
43 0 53
34 0 47
53 0 57
61 0 64
64 0 67
68 0 70
36 0 43
43 0 47
44 0 47
23 0 32
27 0 30
89 106 90
89 106 89
89 106 89
88 106 89
88 105 88
88 105 88
87 105 88
87 105 88
0 106 0
0 107 0
0 107 0
0 107 0
0 107 0
0 107 0
0 107 0
0 107 0
0 106 0
0 107 0
0 107 0
0 106 0
0 106 0
0 106 0
0 105 0
0 105 0
0 106 0
0 106 0
0 106 0
0 106 0
0 106 0
0 107 0
0 107 0
0 107 0
0 107 0
0 106 0
0 106 0
0 106 0
0 106 0
0 105 0
0 105 0
0 105 0
0 104 0
0 104 0
0 103 0
0 103 0
0 102 0
0 102 0
0 101 0
0 100 0
0 100 0
0 99 0
93 0 0
93 0 0
94 0 0
94 0 0
94 0 0
94 0 0
95 0 0
95 0 0
95 0 0
95 0 0
95 0 0
95 0 0
95 0 0
95 0 0
94 0 0
94 0 0
93 0 0
93 0 0
92 0 0
91 0 0
90 0 0
89 0 0
88 0 0
87 0 0
86 0 0
86 0 0
85 0 0
85 0 0
85 0 0
85 0 0
86 0 0
86 0 0
87 0 0
88 0 0
89 0 0
90 0 0
91 0 0
93 0 0
94 0 0
94 0 0
95 0 0
95 0 0
95 0 0
94 0 0
91 72 74
92 72 74
92 72 74
92 72 74
92 72 74
92 72 74
92 73 75
92 73 75
92 73 75
92 73 75
92 74 75
92 74 75
92 74 76
92 74 76
92 74 76
92 74 76
92 74 76
92 75 77
92 75 77
92 75 77
92 75 77
92 75 77
92 75 77
92 76 78
92 76 78
92 76 78
53 20 26
53 21 26
54 21 27
54 22 27
54 22 28
54 23 28
54 23 29
55 24 29
37 44 40
37 44 40
36 44 40
36 44 40
36 44 40
35 44 40
35 44 40
35 44 40
35 45 40
35 45 40
36 46 41
36 47 41
37 47 42
38 48 43
39 49 44
40 50 45
41 51 46
42 51 47
43 52 48
44 53 49
45 54 49
45 54 50
46 55 51
46 55 51
92 86 87
92 86 87
92 86 87
92 87 88
93 87 88
93 88 88
93 88 89
93 88 89
93 89 89
93 89 90
93 90 90
93 90 90
93 90 91
93 91 91
94 91 91
94 91 92
94 92 92
94 92 92
94 93 93
94 93 93
95 93 93
95 94 93
95 94 94
95 94 94
95 94 94
95 95 94
95 95 95
95 95 95
95 95 95
95 96 95
95 96 95
95 96 95
95 96 96
95 97 96
95 97 96
96 97 96
96 97 96
96 97 96
96 97 96
96 98 96
96 98 96
96 98 97
52 0 63
51 0 63
49 0 64
49 0 64
49 0 64
46 0 64
45 0 64
41 0 64
46 0 64
43 0 64
43 0 64
43 0 64
49 0 65
39 0 62
39 0 62
39 0 62
42 0 63
38 0 60
51 0 65
52 0 66
37 0 59
32 0 57
32 0 55
45 0 61
46 0 59
44 0 56
63 0 71
67 0 74
58 0 69
47 0 60
47 0 59
54 0 65
48 0 62
50 0 64
52 0 65
55 0 66
56 0 66
57 0 66
60 0 69
44 0 60
35 0 56
45 0 59
49 0 61
55 0 65
57 0 66
50 0 60
49 0 60
67 0 72
68 0 72
68 0 72
66 0 68
54 0 60
54 0 59
53 0 59
62 0 66
55 0 60
39 0 48
31 0 40
31 0 40
15 0 33
23 0 32
27 0 30
89 105 89
89 105 89
88 105 89
88 105 88
87 105 88
87 105 88
87 105 88
87 104 87
0 106 0
0 106 0
0 106 0
0 107 0
0 107 0
0 107 0
0 106 0
0 106 0
0 106 0
0 106 0
0 106 0
0 105 0
0 105 0
0 105 0
0 105 0
0 105 0
0 105 0
0 105 0
0 105 0
0 106 0
0 106 0
0 106 0
0 106 0
0 106 0
0 106 0
0 106 0
0 106 0
0 106 0
0 105 0
0 105 0
0 105 0
0 104 0
0 104 0
0 103 0
0 103 0
0 102 0
0 102 0
0 101 0
0 101 0
0 100 0
0 100 0
0 99 0
92 0 0
93 0 0
93 0 0
94 0 0
94 0 0
94 0 0
94 0 0
94 0 0
95 0 0
95 0 0
95 0 0
95 0 0
94 0 0
94 0 0
94 0 0
94 0 0
93 0 0
92 0 0
91 0 0
90 0 0
90 0 0
88 0 0
88 0 0
87 0 0
86 0 0
85 0 0
85 0 0
85 0 0
85 0 0
85 0 0
85 0 0
86 0 0
86 0 0
87 0 0
88 0 0
90 0 0
91 0 0
92 0 0
93 0 0
94 0 0
94 0 0
94 0 0
94 0 0
93 0 0
91 71 73
91 71 73
91 71 73
91 71 74
91 72 74
91 72 74
91 72 74
91 72 74
91 72 74
91 73 75
91 73 75
91 73 75
91 73 75
91 73 75
91 74 76
91 74 76
91 74 76
91 74 76
91 74 76
91 74 77
91 75 77
91 75 77
91 75 77
91 75 77
91 75 77
91 75 78
53 21 26
53 21 27
53 22 27
54 22 28
54 22 28
54 23 29
54 24 29
54 24 30
37 44 40
37 44 40
36 44 40
36 44 40
36 44 40
35 44 40
35 44 40
35 45 40
35 45 40
35 45 40
36 46 41
36 46 41
37 47 42
38 48 43
39 49 44
40 50 45
41 50 46
42 51 47
43 52 48
44 53 49
44 53 49
45 54 50
46 54 51
46 55 51
92 85 86
92 85 87
92 86 87
92 86 87
92 87 88
92 87 88
92 87 88
92 88 88
92 88 89
92 89 89
92 89 89
93 89 90
93 90 90
93 90 91
93 90 91
93 91 91
93 91 92
94 92 92
94 92 92
94 92 92
94 93 93
94 93 93
94 93 93
94 93 93
94 94 94
94 94 94
94 94 94
94 95 94
95 95 94
94 95 95
95 95 95
95 95 95
95 96 95
95 96 95
95 96 95
95 96 95
95 96 95
95 97 96
95 97 96
95 97 96
95 97 96
95 97 96
96 98 96
50 0 63
47 0 62
41 0 64
45 0 63
43 0 63
39 0 64
41 0 63
42 0 64
40 0 63
45 0 64
45 0 64
45 0 64
38 0 62
38 0 62
38 0 62
38 0 62
33 0 60
36 0 60
36 0 60
32 0 57
33 0 57
39 0 59
46 0 62
43 0 59
53 0 63
57 0 68
52 0 64
48 0 60
47 0 60
46 0 58
52 0 64
50 0 63
49 0 63
52 0 64
54 0 65
52 0 64
48 0 62
48 0 62
44 0 60
35 0 56
52 0 63
44 0 59
49 0 61
49 0 61
49 0 60
65 0 71
67 0 72
74 0 76
74 0 76
33 0 44
48 0 57
54 0 59
52 0 58
30 0 45
30 0 45
20 0 41
31 0 40
15 0 32
17 0 33
23 0 32
90 0 90
96 0 96
102 0 102
88 105 88
87 105 88
87 104 88
87 104 87
86 104 87
86 104 87
0 105 0
0 106 0
0 106 0
0 106 0
0 106 0
0 106 0
0 106 0
0 105 0
0 105 0
0 105 0
0 105 0
0 105 0
0 104 0
0 104 0
0 104 0
0 104 0
0 104 0
0 105 0
0 105 0
0 105 0
0 105 0
0 106 0
0 106 0
0 106 0
0 106 0
0 106 0
0 105 0
0 105 0
0 105 0
0 105 0
0 104 0
0 104 0
0 104 0
0 103 0
0 103 0
0 102 0
0 102 0
0 101 0
0 101 0
0 100 0
0 99 0
0 99 0
92 0 0
93 0 0
93 0 0
93 0 0
93 0 0
94 0 0
94 0 0
94 0 0
94 0 0
94 0 0
94 0 0
94 0 0
94 0 0
94 0 0
93 0 0
93 0 0
92 0 0
92 0 0
91 0 0
90 0 0
89 0 0
88 0 0
87 0 0
86 0 0
85 0 0
85 0 0
85 0 0
85 0 0
85 0 0
85 0 0
85 0 0
85 0 0
86 0 0
87 0 0
88 0 0
89 0 0
90 0 0
91 0 0
92 0 0
93 0 0
93 0 0
94 0 0
93 0 0
92 0 0
90 70 73
90 70 73
90 71 73
90 71 73
90 71 73
90 71 73
90 71 74
90 72 74
90 72 74
90 72 74
90 72 74
90 72 75
90 73 75
90 73 75
90 73 75
90 73 75
90 73 76
90 73 76
90 74 76
90 74 76
90 74 76
90 74 77
90 74 77
90 75 77
90 75 77
90 75 77
53 21 26
53 21 27
53 22 27
53 22 28
54 23 28
54 23 29
54 24 29
54 24 30
37 44 40
36 44 40
36 44 40
36 44 40
35 44 40
35 44 40
35 44 40
35 44 40
35 45 40
35 45 40
36 46 41
36 46 41
37 47 42
38 48 43
39 49 44
40 50 45
41 50 46
42 51 47
42 52 48
43 53 48
44 53 49
45 54 50
45 54 50
46 54 51
91 85 86
91 85 86
91 85 87
91 86 87
91 86 87
91 86 88
92 87 88
92 87 88
92 88 89
92 88 89
92 88 89
92 89 90
92 89 90
92 89 90
92 90 91
93 90 91
93 91 91
93 91 92
93 91 92
93 91 92
93 92 92
93 92 93
93 93 93
93 93 93
94 93 93
94 93 93
94 94 94
94 94 94
94 94 94
94 94 94
94 94 94
94 95 94
94 95 95
94 95 95
94 95 95
94 95 95
94 96 95
94 96 95
94 96 95
94 96 95
95 96 96
95 97 96
95 97 96
50 0 64
49 0 63
51 0 63
45 0 63
44 0 64
44 0 64
40 0 64
42 0 64
42 0 64
40 0 63
45 0 64
36 0 62
36 0 62
36 0 62
38 0 62
34 0 61
34 0 60
34 0 60
32 0 58
32 0 58
39 0 60
29 0 57
29 0 56
30 0 55
54 0 64
58 0 69
52 0 64
48 0 60
48 0 60
55 0 64
49 0 60
42 0 59
50 0 64
52 0 64
52 0 64
52 0 64
52 0 64
48 0 62
36 0 57
52 0 64
54 0 64
44 0 59
40 0 58
45 0 59
55 0 65
63 0 70
64 0 70
54 0 63
38 0 51
45 0 52
47 0 54
50 0 59
52 0 58
39 0 47
29 0 45
20 0 41
22 0 37
10 0 30
15 0 35
28 0 36
82 0 82
89 0 89
89 0 89
88 0 88
87 104 88
87 104 88
86 104 87
86 104 87
86 103 86
0 105 0
0 105 0
0 105 0
0 105 0
0 105 0
0 105 0
0 105 0
0 105 0
0 104 0
0 104 0
0 104 0
0 103 0
0 103 0
0 103 0
0 103 0
0 103 0
0 104 0
0 104 0
0 104 0
0 105 0
0 105 0
0 105 0
0 105 0
0 105 0
0 105 0
0 105 0
0 105 0
0 105 0
0 105 0
0 104 0
0 104 0
0 104 0
0 103 0
0 103 0
0 102 0
0 102 0
0 101 0
0 101 0
0 100 0
0 100 0
0 99 0
0 99 0
92 0 0
92 0 0
93 0 0
93 0 0
93 0 0
93 0 0
93 0 0
94 0 0
94 0 0
94 0 0
94 0 0
94 0 0
94 0 0
93 0 0
93 0 0
93 0 0
92 0 0
91 0 0
91 0 0
89 0 0
89 0 0
88 0 0
87 0 0
86 0 0
85 0 0
85 0 0
84 0 0
84 0 0
84 0 0
84 0 0
84 0 0
85 0 0
86 0 0
87 0 0
87 0 0
89 0 0
90 0 0
91 0 0
92 0 0
92 0 0
93 0 0
93 0 0
93 0 0
92 0 0
89 70 72
89 70 72
89 70 73
89 70 73
89 70 73
89 71 73
89 71 73
89 71 74
89 71 74
89 71 74
90 72 74
90 72 74
89 72 74
90 72 74
90 72 75
90 72 75
90 73 75
89 73 75
90 73 76
90 73 76
90 73 76
90 74 76
90 74 76
90 74 77
90 74 77
90 74 77
53 21 26
53 21 27
53 22 27
53 22 28
53 23 28
53 23 29
54 24 29
54 24 30
37 44 40
36 44 40
36 44 40
36 44 40
35 44 40
35 44 40
35 44 40
35 45 40
35 45 40
35 45 40
35 46 41
36 47 42
37 47 42
38 48 43
39 49 44
40 49 45
41 50 46
41 51 47
42 52 48
43 52 48
44 53 49
44 53 50
45 54 50
46 54 51
91 84 86
91 84 86
91 85 86
91 85 87
91 85 87
91 86 87
91 86 88
91 87 88
91 87 88
91 87 89
91 88 89
91 88 89
92 88 90
92 89 90
92 89 90
92 89 91
92 90 91
92 90 91
92 91 92
92 91 92
92 91 92
93 91 92
93 92 92
93 92 93
93 92 93
93 93 93
93 93 93
93 93 93
93 93 94
93 93 94
93 94 94
93 94 94
93 94 94
93 94 94
93 94 94
93 95 94
93 95 94
94 95 95
94 95 95
94 96 95
94 96 95
94 96 95
94 96 95
94 96 95
94 97 96
45 0 64
49 0 63
45 0 63
44 0 64
44 0 64
40 0 64
40 0 64
40 0 63
35 0 63
30 0 63
30 0 61
30 0 61
29 0 61
29 0 61
30 0 60
30 0 60
28 0 58
28 0 58
28 0 57
29 0 59
30 0 58
36 0 59
41 0 61
52 0 64
52 0 63
48 0 60
55 0 64
55 0 64
50 0 60
42 0 58
50 0 64
54 0 65
55 0 66
53 0 64
57 0 66
57 0 66
52 0 64
54 0 64
44 0 59
44 0 58
38 0 57
41 0 58
52 0 63
52 0 63
54 0 63
44 0 57
38 0 51
27 0 45
27 0 45
43 0 55
39 0 48
39 0 48
37 0 46
26 0 39
22 0 37
12 0 34
26 0 38
29 0 37
58 0 58
77 0 77
82 0 82
86 0 86
82 0 82
86 104 87
86 103 87
86 103 87
85 103 86
0 104 0
0 105 0
0 105 0
0 105 0
0 105 0
0 105 0
0 104 0
0 104 0
0 103 0
0 103 0
0 103 0
0 103 0
0 102 0
0 102 0
0 102 0
0 103 0
0 103 0
0 103 0
0 104 0
0 104 0
0 104 0
0 105 0
0 105 0
0 105 0
0 105 0
0 105 0
0 105 0
0 104 0
0 104 0
0 104 0
0 104 0
0 103 0
0 103 0
0 102 0
0 102 0
0 101 0
0 101 0
0 100 0
0 100 0
0 99 0
0 99 0
0 98 0
92 0 0
92 0 0
92 0 0
93 0 0
93 0 0
93 0 0
93 0 0
93 0 0
93 0 0
93 0 0
94 0 0
93 0 0
93 0 0
93 0 0
93 0 0
92 0 0
92 0 0
91 0 0
90 0 0
89 0 0
88 0 0
87 0 0
86 0 0
85 0 0
85 0 0
84 0 0
84 0 0
84 0 0
84 0 0
84 0 0
84 0 0
85 0 0
85 0 0
86 0 0
87 0 0
88 0 0
89 0 0
90 0 0
91 0 0
92 0 0
92 0 0
92 0 0
92 0 0
91 0 0
88 69 72
88 69 72
88 69 72
89 69 72
89 70 72
89 70 73
88 70 73
89 70 73
89 71 73
89 71 73
89 71 74
89 71 74
89 71 74
89 72 74
89 72 75
89 72 75
89 72 75
89 72 75
89 72 75
89 73 76
89 73 76
89 73 76
89 73 76
89 74 76
89 74 77
89 74 77
52 21 27
53 21 27
53 22 28
53 22 28
53 23 29
53 23 29
53 24 29
54 24 30
36 44 40
36 44 40
36 44 40
35 44 40
35 44 40
35 44 40
35 44 40
35 45 40
35 45 40
35 45 41
36 46 41
36 47 42
37 47 43
38 48 43
39 49 44
39 49 45
40 50 46
41 51 47
42 51 47
43 52 48
43 53 49
44 53 50
45 54 50
45 54 51
90 84 86
90 84 86
90 84 86
90 85 87
90 85 87
90 85 87
90 86 87
90 86 88
90 86 88
91 87 88
91 87 89
91 87 89
91 88 89
91 88 90
91 89 90
91 89 90
92 89 91
92 90 91
92 90 91
92 90 91
92 91 92
92 91 92
92 91 92
92 91 92
92 92 92
92 92 92
92 92 93
92 92 93
92 92 93
92 93 93
92 93 93
92 93 93
92 93 93
93 94 94
93 94 94
93 94 94
93 94 94
93 94 94
93 95 94
93 95 95
93 95 95
93 95 95
93 96 95
94 96 95
94 96 95
46 0 63
40 0 64
39 0 64
37 0 64
38 0 64
38 0 64
34 0 64
34 0 64
34 0 64
32 0 64
31 0 62
31 0 61
30 0 61
31 0 61
31 0 61
30 0 60
30 0 60
30 0 58
30 0 58
29 0 57
32 0 57
38 0 60
41 0 61
52 0 64
47 0 60
59 0 68
55 0 64
49 0 59
50 0 60
42 0 58
49 0 63
54 0 65
55 0 65
57 0 66
56 0 66
58 0 66
52 0 64
52 0 64
44 0 59
44 0 59
37 0 57
41 0 58
41 0 58
25 0 52
24 0 52
18 0 49
27 0 46
27 0 46
42 0 53
43 0 55
31 0 47
35 0 46
27 0 42
27 0 40
15 0 33
23 0 35
33 0 39
29 0 37
60 0 60
75 0 75
80 0 80
85 0 85
76 0 76
62 0 62
86 103 87
85 103 86
85 102 86
0 104 0
0 104 0
0 104 0
0 104 0
0 104 0
0 104 0
0 103 0
0 103 0
0 102 0
0 102 0
0 102 0
0 101 0
0 101 0
0 101 0
0 102 0
0 102 0
0 102 0
0 103 0
0 103 0
0 104 0
0 104 0
0 104 0
0 104 0
0 104 0
0 104 0
0 104 0
0 104 0
0 104 0
0 104 0
0 103 0
0 103 0
0 103 0
0 102 0
0 102 0
0 102 0
0 101 0
0 101 0
0 100 0
0 100 0
0 99 0
0 98 0
0 98 0
91 0 0
92 0 0
92 0 0
92 0 0
93 0 0
93 0 0
93 0 0
93 0 0
93 0 0
93 0 0
93 0 0
93 0 0
93 0 0
93 0 0
92 0 0
92 0 0
91 0 0
90 0 0
89 0 0
89 0 0
88 0 0
87 0 0
86 0 0
85 0 0
84 0 0
84 0 0
84 0 0
84 0 0
84 0 0
84 0 0
84 0 0
84 0 0
85 0 0
86 0 0
87 0 0
88 0 0
89 0 0
90 0 0
91 0 0
91 0 0
92 0 0
92 0 0
91 0 0
90 0 0
88 68 71
88 68 71
88 69 72
88 69 72
88 69 72
88 69 72
88 69 72
88 70 73
88 70 73
88 70 73
88 70 73
88 71 73
88 71 74
88 71 74
88 71 74
88 71 74
88 72 75
88 72 75
88 72 75
88 72 75
88 72 75
88 73 76
88 73 76
88 73 76
88 73 77
89 74 77
52 21 27
52 21 27
53 22 28
53 22 28
53 23 29
53 23 29
53 23 30
53 24 30
36 44 41
36 44 40
36 44 40
35 44 40
35 44 40
35 44 40
35 45 40
35 45 40
35 45 40
35 46 41
36 46 42
37 47 42
37 47 43
38 48 44
39 49 44
39 49 45
40 50 46
41 51 47
42 51 47
43 52 48
43 52 49
44 53 49
44 53 50
45 54 51
90 83 85
90 83 86
90 84 86
90 84 86
90 84 87
90 85 87
90 85 87
90 85 88
90 86 88
90 86 88
90 87 89
90 87 89
90 87 89
91 88 90
91 88 90
91 88 90
91 89 90
91 89 91
91 89 91
91 90 91
91 90 91
91 90 92
91 90 92
91 91 92
91 91 92
92 91 92
92 92 92
92 92 93
92 92 93
92 92 93
92 92 93
92 92 93
92 93 93
92 93 93
92 93 93
92 93 94
92 93 93
92 94 94
92 94 94
92 94 94
92 94 94
93 95 94
93 95 94
93 95 94
93 95 95
93 95 95
46 0 63
40 0 64
38 0 63
38 0 64
38 0 64
35 0 65
35 0 65
35 0 65
33 0 64
34 0 64
34 0 64
33 0 63
33 0 62
33 0 62
33 0 61
31 0 58
31 0 58
31 0 58
32 0 58
36 0 59
40 0 60
37 0 58
52 0 64
55 0 66
56 0 66
55 0 64
50 0 58
50 0 60
45 0 58
48 0 62
54 0 65
56 0 66
56 0 65
56 0 66
57 0 66
52 0 64
52 0 64
45 0 59
44 0 59
49 0 61
50 0 61
44 0 58
46 0 58
47 0 59
33 0 50
34 0 50
46 0 55
42 0 53
31 0 47
31 0 47
30 0 43
27 0 42
27 0 40
9 0 31
33 0 40
35 0 41
26 0 37
50 0 53
66 0 67
74 0 75
71 0 72
75 0 76
51 0 52
85 102 86
85 102 86
84 102 86
0 103 0
0 104 0
0 104 0
0 104 0
0 104 0
0 103 0
0 103 0
0 102 0
0 102 0
0 101 0
0 101 0
0 100 0
0 100 0
0 100 0
0 101 0
0 101 0
0 102 0
0 102 0
0 103 0
0 103 0
0 103 0
0 104 0
0 104 0
0 104 0
0 104 0
0 104 0
0 104 0
0 104 0
0 103 0
0 103 0
0 103 0
0 103 0
0 102 0
0 102 0
0 101 0
0 101 0
0 100 0
0 100 0
0 99 0
0 99 0
0 98 0
0 98 0
91 0 0
91 0 0
92 0 0
92 0 0
92 0 0
92 0 0
93 0 0
93 0 0
93 0 0
93 0 0
93 0 0
93 0 0
92 0 0
92 0 0
92 0 0
91 0 0
91 0 0
90 0 0
89 0 0
88 0 0
87 0 0
86 0 0
86 0 0
85 0 0
84 0 0
84 0 0
83 0 0
83 0 0
83 0 0
83 0 0
84 0 0
84 0 0
85 0 0
85 0 0
86 0 0
87 0 0
88 0 0
89 0 0
90 0 0
91 0 0
91 0 0
91 0 0
91 0 0
90 0 0
87 68 71
87 68 71
87 68 71
87 68 71
87 68 72
87 69 72
87 69 72
87 69 72
87 69 72
87 70 73
87 70 73
87 70 73
87 70 73
87 70 74
87 71 74
87 71 74
88 71 74
88 71 74
88 71 75
88 72 75
88 72 75
88 72 76
88 73 76
88 73 76
88 73 76
88 73 77
52 21 27
52 21 28
52 22 28
52 22 28
53 22 29
53 23 29
53 24 30
53 24 30
36 44 41
36 44 40
35 44 40
35 44 40
35 44 40
35 44 40
35 45 40
35 45 41
35 45 41
36 46 41
36 46 42
37 47 43
37 47 43
38 48 44
39 49 45
39 49 45
40 50 46
41 50 47
42 51 47
42 52 48
43 52 49
44 53 49
44 53 50
45 53 50
89 82 85
89 83 86
89 83 86
89 84 86
89 84 86
89 84 87
89 85 87
89 85 87
89 85 88
89 86 88
90 86 88
90 86 89
90 87 89
90 87 89
90 87 90
90 88 90
90 88 90
90 88 90
90 89 90
90 89 91
91 89 91
91 90 91
91 90 91
91 90 91
91 90 92
91 90 92
91 91 92
91 91 92
91 91 92
91 91 92
91 92 92
91 92 93
91 92 93
91 92 93
91 92 93
91 93 93
91 93 93
92 93 93
92 93 94
92 94 94
92 94 94
92 94 94
92 94 94
92 95 94
92 95 94
92 95 94
92 95 94
45 0 64
43 0 63
38 0 59
39 0 63
39 0 63
36 0 64
37 0 64
36 0 64
36 0 65
36 0 63
35 0 63
36 0 63
36 0 63
35 0 61
36 0 62
36 0 62
33 0 58
34 0 60
35 0 60
49 0 64
53 0 65
55 0 67
53 0 65
56 0 66
52 0 62
46 0 56
45 0 56
45 0 58
54 0 66
56 0 66
59 0 67
58 0 66
58 0 66
58 0 66
36 0 56
53 0 63
45 0 59
44 0 59
51 0 62
61 0 68
56 0 65
52 0 63
38 0 53
48 0 58
50 0 60
48 0 57
51 0 58
52 0 57
50 0 55
22 0 40
22 0 40
18 0 37
29 0 39
36 0 42
30 0 39
27 0 35
49 0 52
67 0 69
73 0 74
74 0 75
60 0 62
39 0 41
85 102 86
84 102 86
84 102 85
0 103 0
0 103 0
0 103 0
0 103 0
0 103 0
0 103 0
0 102 0
0 101 0
0 101 0
0 100 0
0 100 0
0 99 0
0 99 0
0 99 0
0 100 0
0 101 0
0 101 0
0 102 0
0 102 0
0 102 0
0 103 0
0 103 0
0 103 0
0 104 0
0 104 0
0 103 0
0 103 0
0 103 0
0 103 0
0 103 0
0 102 0
0 102 0
0 102 0
0 101 0
0 101 0
0 100 0
0 100 0
0 100 0
0 99 0
0 98 0
0 98 0
0 97 0
91 0 0
91 0 0
91 0 0
92 0 0
92 0 0
92 0 0
92 0 0
92 0 0
92 0 0
92 0 0
92 0 0
92 0 0
92 0 0
92 0 0
92 0 0
91 0 0
90 0 0
90 0 0
89 0 0
88 0 0
87 0 0
86 0 0
85 0 0
84 0 0
84 0 0
83 0 0
83 0 0
83 0 0
83 0 0
83 0 0
83 0 0
84 0 0
84 0 0
85 0 0
86 0 0
87 0 0
88 0 0
89 0 0
89 0 0
90 0 0
90 0 0
90 0 0
90 0 0
89 0 0
86 67 71
86 67 71
86 68 71
86 68 71
86 68 71
86 68 71
86 68 72
86 69 72
86 69 72
86 69 72
87 69 73
87 69 73
87 70 73
87 70 73
87 70 74
87 70 74
87 70 74
87 71 74
87 71 74
87 71 75
87 71 75
87 72 75
87 72 76
87 72 76
87 72 76
87 73 76
52 21 27
52 21 28
52 22 28
52 22 29
52 23 29
53 23 29
53 24 30
53 24 30
36 44 41
36 44 41
36 44 41
35 44 41
35 44 40
35 45 41
35 45 41
35 45 41
36 46 41
36 46 42
36 46 42
37 47 43
38 48 43
38 48 44
39 49 45
39 49 45
40 50 46
41 50 47
41 51 47
42 51 48
43 52 49
43 52 49
44 53 50
44 53 50
88 82 85
88 82 85
88 83 86
89 83 86
88 83 86
89 84 87
89 84 87
89 84 87
89 85 87
89 85 88
89 85 88
89 86 88
89 86 89
89 86 89
89 87 89
89 87 89
90 87 90
90 88 90
90 88 90
90 88 90
90 89 91
90 89 91
90 89 91
90 89 91
90 90 91
90 90 91
90 90 91
90 90 92
90 90 92
90 91 92
90 91 92
90 91 92
91 91 92
90 92 92
91 92 92
91 92 93
91 92 93
91 92 93
91 93 93
91 93 93
91 93 93
91 93 94
91 94 94
92 94 94
92 94 94
92 94 94
92 94 94
92 95 94
45 0 63
41 0 64
40 0 64
37 0 63
37 0 63
38 0 64
38 0 64
38 0 64
39 0 64
40 0 64
40 0 64
40 0 64
40 0 64
40 0 63
40 0 63
35 0 60
40 0 58
46 0 61
51 0 64
55 0 66
55 0 67
53 0 65
56 0 65
46 0 57
47 0 56
45 0 56
46 0 58
55 0 66
56 0 66
57 0 66
58 0 66
59 0 67
59 0 66
37 0 56
56 0 65
57 0 66
59 0 67
61 0 68
57 0 66
57 0 65
55 0 64
44 0 58
49 0 60
49 0 60
55 0 61
55 0 61
55 0 61
32 0 45
25 0 40
16 0 38
16 0 38
37 0 42
30 0 39
30 0 40
27 0 35
54 0 56
67 0 69
63 0 66
46 0 51
53 0 55
23 0 29
84 101 85
84 101 85
83 101 85
0 102 0
0 103 0
0 103 0
0 102 0
0 102 0
0 102 0
0 101 0
0 101 0
0 100 0
0 99 0
0 99 0
0 98 0
0 98 0
0 99 0
0 99 0
0 100 0
0 100 0
0 101 0
0 101 0
0 102 0
0 102 0
0 103 0
0 103 0
0 103 0
0 103 0
0 103 0
0 103 0
0 103 0
0 103 0
0 102 0
0 102 0
0 102 0
0 101 0
0 101 0
0 101 0
0 100 0
0 100 0
0 99 0
0 99 0
0 98 0
0 98 0
0 97 0
90 0 0
91 0 0
91 0 0
91 0 0
91 0 0
92 0 0
92 0 0
92 0 0
92 0 0
92 0 0
92 0 0
92 0 0
92 0 0
91 0 0
91 0 0
91 0 0
90 0 0
89 0 0
88 0 0
87 0 0
86 0 0
85 0 0
85 0 0
84 0 0
83 0 0
83 0 0
82 0 0
83 0 0
83 0 0
83 0 0
83 0 0
83 0 0
84 0 0
85 0 0
85 0 0
86 0 0
87 0 0
88 0 0
89 0 0
89 0 0
90 0 0
90 0 0
89 0 0
88 0 0
85 67 70
85 67 70
86 67 70
86 67 71
86 67 71
86 68 71
86 68 71
86 68 72
86 68 72
86 69 72
86 69 72
86 69 72
86 69 73
86 69 73
86 69 73
86 70 74
86 70 74
86 70 74
86 70 74
86 71 75
86 71 75
87 71 75
87 71 76
87 72 76
87 72 76
87 72 76
52 21 27
52 21 28
52 22 28
52 22 29
52 23 29
52 23 30
53 23 30
53 24 30
36 44 41
36 45 41
36 45 41
36 45 41
35 45 41
35 45 41
36 45 41
36 46 42
36 46 42
36 46 42
37 47 43
37 47 43
38 48 44
38 48 44
39 49 45
40 49 46
40 50 46
41 50 47
41 51 48
42 51 48
43 52 49
43 52 49
44 53 50
44 53 50
88 81 85
88 82 85
88 82 85
88 82 86
88 83 86
88 83 86
88 83 87
88 84 87
88 84 87
89 85 88
88 85 88
89 85 88
89 86 88
89 86 89
89 86 89
89 86 89
89 87 89
89 87 90
89 87 90
89 88 90
89 88 90
89 88 90
89 88 91
89 89 91
89 89 91
89 89 91
89 89 91
89 90 91
89 90 91
90 90 92
90 90 92
90 91 92
90 91 92
90 91 92
90 91 92
90 91 92
90 92 92
90 92 93
90 92 93
91 92 93
91 93 93
91 93 93
91 93 93
91 93 93
91 93 93
91 94 94
91 94 94
91 94 94
91 94 94
92 94 94
43 0 63
39 0 63
39 0 63
38 0 63
40 0 63
41 0 63
41 0 63
42 0 63
42 0 63
42 0 62
42 0 62
41 0 62
40 0 58
41 0 59
43 0 60
49 0 63
53 0 65
56 0 67
56 0 67
54 0 65
44 0 57
47 0 57
48 0 57
48 0 56
47 0 58
55 0 66
60 0 68
57 0 66
59 0 66
59 0 66
59 0 66
56 0 65
56 0 65
57 0 65
59 0 67
61 0 68
56 0 65
56 0 65
56 0 65
44 0 57
44 0 58
44 0 58
44 0 57
28 0 46
28 0 46
27 0 44
17 0 39
30 0 41
45 0 53
24 0 36
30 0 40
19 0 38
15 0 32
49 0 55
59 0 62
63 0 66
46 0 51
35 0 41
8 0 23
84 101 85
83 101 85
83 101 85
0 102 0
0 102 0
0 102 0
0 102 0
0 102 0
0 101 0
0 101 0
0 100 0
0 99 0
0 99 0
0 98 0
0 97 0
0 97 0
0 98 0
0 98 0
0 99 0
0 100 0
0 100 0
0 101 0
0 101 0
0 102 0
0 102 0
0 102 0
0 103 0
0 103 0
0 103 0
0 103 0
0 102 0
0 102 0
0 102 0
0 102 0
0 101 0
0 101 0
0 101 0
0 100 0
0 100 0
0 99 0
0 99 0
0 98 0
0 98 0
0 97 0
0 97 0
90 0 0
90 0 0
91 0 0
91 0 0
91 0 0
91 0 0
91 0 0
92 0 0
92 0 0
92 0 0
92 0 0
91 0 0
91 0 0
91 0 0
91 0 0
90 0 0
89 0 0
89 0 0
88 0 0
87 0 0
86 0 0
85 0 0
84 0 0
84 0 0
83 0 0
82 0 0
82 0 0
82 0 0
82 0 0
83 0 0
83 0 0
83 0 0
84 0 0
84 0 0
85 0 0
86 0 0
87 0 0
87 0 0
88 0 0
89 0 0
89 0 0
89 0 0
89 0 0
88 0 0
85 66 70
85 66 70
85 66 70
85 66 70
85 67 70
85 67 71
85 67 71
85 67 71
85 68 71
85 68 72
85 68 72
85 68 72
85 69 72
85 69 73
85 69 73
86 69 73
86 69 74
86 70 74
86 70 74
86 70 74
86 70 75
86 71 75
86 71 75
86 71 76
86 71 76
86 72 76
51 21 28
51 21 28
52 22 28
52 22 29
52 23 29
52 23 30
52 23 30
52 24 30
37 45 42
36 45 41
36 45 41
36 45 41
36 45 41
36 45 41
36 46 42
36 46 42
36 46 42
37 46 43
37 47 43
38 47 44
38 48 44
38 48 45
39 49 45
40 49 46
40 50 46
41 50 47
41 51 48
42 51 48
43 52 49
43 52 49
44 52 50
44 53 50
87 81 85
87 81 85
87 82 85
88 82 86
87 82 86
88 83 86
87 83 86
88 83 87
88 84 87
88 84 87
88 84 88
88 85 88
88 85 88
88 85 89
88 86 89
88 86 89
88 86 89
88 86 89
88 87 89
88 87 90
89 87 90
89 88 90
89 88 90
89 88 90
89 88 91
89 89 91
89 89 91
89 89 91
89 89 91
89 89 91
89 90 91
89 90 91
89 90 91
89 90 92
89 91 92
89 91 92
90 91 92
90 91 92
90 91 92
90 92 93
90 92 93
90 92 93
90 92 93
90 93 93
90 93 93
90 93 93
91 93 93
91 93 93
91 93 93
91 94 93
91 94 93
91 94 93
91 94 93
42 0 61
42 0 61
43 0 60
43 0 60
43 0 60
43 0 59
44 0 60
43 0 60
42 0 56
44 0 57
45 0 56
53 0 62
58 0 66
61 0 69
65 0 71
56 0 67
54 0 65
45 0 57
47 0 57
48 0 57
49 0 57
51 0 61
57 0 67
62 0 69
65 0 71
66 0 71
67 0 71
65 0 70
67 0 71
66 0 71
57 0 65
41 0 57
40 0 57
56 0 65
56 0 65
45 0 58
20 0 48
19 0 51
41 0 56
25 0 49
23 0 46
26 0 44
17 0 41
34 0 44
34 0 44
49 0 56
24 0 36
11 0 35
15 0 36
19 0 30
49 0 55
56 0 61
62 0 66
46 0 51
13 0 32
83 100 85
83 101 85
83 100 84
83 100 84
0 101 0
0 101 0
0 101 0
0 101 0
0 101 0
0 101 0
0 100 0
0 99 0
0 98 0
0 98 0
0 97 0
0 96 0
0 96 0
0 97 0
0 98 0
0 98 0
0 99 0
0 100 0
0 100 0
0 101 0
0 101 0
0 102 0
0 102 0
0 102 0
0 102 0
0 102 0
0 102 0
0 102 0
0 102 0
0 102 0
0 101 0
0 101 0
0 101 0
0 100 0
0 100 0
0 99 0
0 99 0
0 99 0
0 98 0
0 98 0
0 97 0
0 97 0
90 0 0
90 0 0
90 0 0
91 0 0
91 0 0
91 0 0
91 0 0
91 0 0
91 0 0
91 0 0
91 0 0
91 0 0
91 0 0
90 0 0
90 0 0
90 0 0
89 0 0
88 0 0
87 0 0
86 0 0
86 0 0
85 0 0
84 0 0
83 0 0
82 0 0
82 0 0
82 0 0
82 0 0
82 0 0
82 0 0
82 0 0
83 0 0
83 0 0
84 0 0
84 0 0
85 0 0
86 0 0
87 0 0
88 0 0
88 0 0
88 0 0
88 0 0
88 0 0
87 0 0
84 66 70
84 66 70
84 66 70
84 66 70
84 66 70
84 66 70
84 67 71
84 67 71
85 67 71
85 67 71
85 68 72
85 68 72
85 68 72
85 68 73
85 68 73
85 69 73
85 69 73
85 69 74
85 69 74
85 70 74
85 70 75
85 70 75
85 71 75
86 71 75
86 71 76
86 71 76
51 21 28
51 21 28
51 22 29
52 22 29
52 23 29
52 23 30
52 23 30
52 24 31
37 45 42
37 45 42
37 45 42
36 45 42
36 46 42
36 46 42
36 46 42
37 46 42
37 46 43
37 47 43
37 47 44
38 48 44
38 48 44
39 48 45
39 49 45
40 49 46
40 50 46
41 50 47
41 51 48
42 51 48
42 51 49
43 52 49
43 52 50
44 52 50
87 80 85
87 81 85
87 81 85
87 81 85
87 82 86
87 82 86
87 82 86
87 83 87
87 83 87
87 84 87
87 84 88
87 84 88
88 84 88
88 85 88
88 85 88
88 85 89
88 86 89
88 86 89
88 86 89
88 86 89
88 87 90
88 87 90
88 87 90
88 87 90
88 88 90
88 88 90
88 88 90
88 88 91
88 89 91
88 89 91
88 89 91
88 89 91
89 89 91
89 90 91
89 90 92
89 90 92
89 90 92
89 91 92
89 91 92
89 91 92
89 91 92
89 91 92
90 92 92
90 92 93
90 92 93
90 92 93
90 92 93
90 93 93
90 93 93
90 93 93
90 93 93
90 93 93
90 94 93
62 0 56
44 0 50
44 0 53
43 0 54
43 0 53
44 0 55
43 0 55
45 0 54
45 0 55
47 0 56
53 0 61
58 0 65
61 0 68
64 0 71
62 0 70
57 0 67
46 0 59
47 0 57
48 0 58
50 0 57
51 0 60
53 0 61
59 0 67
64 0 70
66 0 71
67 0 71
68 0 72
66 0 71
66 0 71
68 0 72
56 0 64
43 0 57
41 0 56
35 0 54
20 0 48
21 0 48
23 0 49
22 0 49
16 0 49
13 0 49
13 0 45
10 0 43
32 0 46
26 0 39
30 0 45
22 0 38
6 0 38
11 0 35
7 0 36
28 0 42
49 0 55
56 0 61
45 0 52
47 0 51
13 0 32
83 100 85
83 100 84
82 100 84
82 100 84
0 101 0
0 101 0
0 101 0
0 100 0
0 100 0
0 100 0
0 99 0
0 98 0
0 97 0
0 97 0
0 96 0
0 95 0
0 95 0
0 96 0
0 97 0
0 98 0
0 98 0
0 99 0
0 100 0
0 100 0
0 101 0
0 101 0
0 102 0
0 102 0
0 102 0
0 102 0
0 102 0
0 102 0
0 101 0
0 101 0
0 101 0
0 101 0
0 100 0
0 100 0
0 100 0
0 99 0
0 99 0
0 98 0
0 98 0
0 97 0
0 97 0
0 96 0
89 0 0
90 0 0
90 0 0
90 0 0
91 0 0
91 0 0
91 0 0
91 0 0
91 0 0
91 0 0
91 0 0
91 0 0
91 0 0
90 0 0
90 0 0
89 0 0
89 0 0
88 0 0
87 0 0
86 0 0
85 0 0
84 0 0
83 0 0
83 0 0
82 0 0
82 0 0
81 0 0
82 0 0
81 0 0
82 0 0
82 0 0
82 0 0
83 0 0
83 0 0
84 0 0
85 0 0
86 0 0
86 0 0
87 0 0
88 0 0
88 0 0
88 0 0
87 0 0
86 0 0
83 65 69
84 65 69
84 65 70
84 66 70
84 66 70
84 66 70
84 66 70
84 66 71
84 67 71
84 67 71
84 67 71
84 67 72
84 68 72
84 68 72
84 68 73
84 68 73
84 69 73
84 69 73
85 69 74
85 69 74
85 69 74
85 70 75
85 70 75
85 70 75
85 70 76
85 71 76
51 21 28
51 22 28
51 22 29
51 22 29
51 23 30
52 23 30
52 23 30
52 24 31
38 46 43
38 46 43
37 46 43
37 46 42
37 46 42
37 46 43
37 46 43
37 46 43
37 47 43
37 47 44
38 47 44
38 48 44
38 48 45
39 48 45
39 49 46
40 49 46
40 50 47
41 50 47
41 50 48
42 51 48
42 51 49
43 52 49
43 52 50
44 52 50
86 80 84
86 80 85
86 80 85
86 81 85
87 81 86
86 82 86
87 82 86
87 82 86
87 83 87
87 83 87
87 83 87
87 84 87
87 84 88
87 84 88
87 84 88
87 85 88
87 85 89
87 85 89
87 86 89
87 86 89
87 86 89
87 86 89
87 86 90
87 87 90
87 87 90
87 87 90
87 87 90
88 88 90
88 88 90
88 88 91
88 88 91
88 88 91
88 89 91
88 89 91
88 89 91
88 90 91
88 90 92
88 90 92
89 90 92
89 90 92
89 91 92
89 91 92
89 91 92
89 91 92
89 91 92
89 92 92
89 92 92
89 92 92
90 92 93
90 92 92
90 93 93
90 93 93
90 93 93
63 0 56
51 0 51
45 0 49
43 0 49
42 0 50
42 0 50
45 0 49
48 0 54
48 0 52
53 0 58
57 0 62
61 0 67
64 0 69
66 0 72
63 0 70
59 0 68
53 0 64
54 0 61
50 0 59
53 0 59
53 0 61
56 0 65
61 0 69
67 0 72
69 0 73
71 0 74
58 0 65
58 0 64
57 0 64
56 0 64
40 0 54
44 0 57
41 0 56
42 0 56
21 0 48
20 0 48
43 0 55
55 0 62
41 0 52
33 0 46
27 0 44
32 0 47
35 0 48
12 0 38
27 0 44
12 0 36
7 0 38
6 0 38
12 0 35
32 0 45
42 0 52
48 0 56
44 0 52
13 0 32
4 0 34
82 99 84
82 99 84
82 99 84
82 99 83
0 100 0
0 100 0
0 100 0
0 100 0
0 100 0
0 99 0
0 98 0
0 97 0
0 96 0
0 96 0
0 95 0
0 94 0
0 94 0
0 95 0
0 96 0
0 97 0
0 98 0
0 99 0
0 99 0
0 100 0
0 100 0
0 101 0
0 101 0
0 101 0
0 101 0
0 101 0
0 101 0
0 101 0
0 101 0
0 101 0
0 101 0
0 100 0
0 100 0
0 100 0
0 99 0
0 99 0
0 98 0
0 98 0
0 97 0
0 97 0
0 96 0
0 96 0
89 0 0
89 0 0
90 0 0
90 0 0
90 0 0
90 0 0
90 0 0
91 0 0
91 0 0
91 0 0
91 0 0
90 0 0
90 0 0
90 0 0
89 0 0
89 0 0
88 0 0
87 0 0
87 0 0
86 0 0
85 0 0
84 0 0
83 0 0
82 0 0
82 0 0
81 0 0
81 0 0
81 0 0
81 0 0
82 0 0
82 0 0
82 0 0
82 0 0
83 0 0
84 0 0
84 0 0
85 0 0
86 0 0
86 0 0
87 0 0
87 0 0
87 0 0
87 0 0
86 0 0
83 65 69
83 65 69
83 65 69
83 65 69
83 65 70
83 65 70
83 66 70
83 66 70
83 66 71
83 66 71
83 67 71
83 67 71
83 67 72
84 67 72
84 68 72
84 68 73
84 68 73
84 68 73
84 69 74
84 69 74
84 69 74
84 69 75
84 70 75
84 70 75
84 70 75
85 70 76
51 21 28
51 21 28
51 22 29
51 22 29
51 23 30
51 23 30
52 23 30
52 24 31
39 46 44
38 46 43
38 46 43
38 46 43
38 46 43
37 46 43
37 47 43
38 47 43
38 47 44
38 47 44
38 47 44
38 48 45
39 48 45
39 48 45
40 49 46
40 49 46
40 50 47
41 50 47
41 50 48
42 51 48
42 51 49
43 51 49
43 52 49
43 52 50
86 79 84
86 80 85
86 80 85
86 80 85
86 81 85
86 81 86
86 81 86
86 82 86
86 82 87
86 82 87
86 83 87
86 83 87
86 83 88
86 84 88
87 84 88
86 84 88
86 84 88
87 85 89
87 85 89
87 85 89
87 85 89
87 86 89
87 86 89
87 86 89
87 86 90
87 86 90
87 87 90
87 87 90
87 87 90
87 88 90
87 88 90
87 88 91
87 88 91
87 88 91
87 89 91
88 89 91
88 89 91
88 89 91
88 90 91
88 90 92
88 90 92
88 90 92
88 90 92
89 91 92
88 91 92
89 91 92
89 91 92
89 91 92
89 92 92
89 92 92
89 92 92
89 92 92
89 92 92
64 0 55
53 0 48
45 0 46
44 0 48
42 0 47
42 0 47
43 0 48
49 0 48
53 0 54
57 0 60
66 0 66
69 0 71
71 0 74
64 0 70
64 0 71
60 0 68
55 0 64
55 0 62
56 0 62
54 0 60
65 0 69
69 0 74
67 0 72
69 0 73
71 0 74
66 0 70
66 0 70
59 0 65
58 0 64
55 0 62
40 0 53
43 0 55
42 0 55
22 0 46
41 0 54
48 0 59
49 0 59
45 0 58
47 0 56
19 0 44
35 0 49
25 0 45
11 0 40
19 0 43
6 0 42
5 0 41
5 0 38
12 0 35
11 0 35
33 0 46
42 0 52
37 0 50
20 0 38
3 0 34
82 99 84
82 99 84
82 99 84
81 99 83
81 99 83
0 99 0
0 99 0
0 99 0
0 99 0
0 99 0
0 98 0
0 97 0
0 96 0
0 95 0
0 95 0
0 94 0
0 93 0
0 93 0
0 94 0
0 95 0
0 96 0
0 97 0
0 98 0
0 99 0
0 99 0
0 100 0
0 100 0
0 101 0
0 101 0
0 101 0
0 101 0
0 101 0
0 101 0
0 101 0
0 101 0
0 100 0
0 100 0
0 100 0
0 99 0
0 99 0
0 99 0
0 98 0
0 98 0
0 97 0
0 97 0
0 96 0
0 96 0
89 0 0
89 0 0
89 0 0
90 0 0
90 0 0
90 0 0
90 0 0
90 0 0
90 0 0
90 0 0
90 0 0
90 0 0
90 0 0
89 0 0
89 0 0
88 0 0
88 0 0
87 0 0
86 0 0
85 0 0
84 0 0
84 0 0
83 0 0
82 0 0
82 0 0
81 0 0
81 0 0
81 0 0
81 0 0
81 0 0
82 0 0
82 0 0
82 0 0
83 0 0
83 0 0
84 0 0
85 0 0
85 0 0
86 0 0
86 0 0
87 0 0
87 0 0
86 0 0
85 0 0
82 64 69
82 64 69
82 64 69
82 65 69
82 65 69
82 65 70
83 65 70
83 65 70
83 66 70
83 66 71
83 66 71
83 66 71
83 67 72
83 67 72
83 67 72
83 67 73
83 68 73
83 68 73
84 68 74
84 68 74
84 69 74
84 69 74
84 69 75
84 69 75
84 69 75
84 70 76
50 21 28
51 22 29
51 22 29
51 22 29
51 23 30
51 23 30
51 23 31
52 24 31
39 47 44
39 47 44
39 47 44
39 47 44
38 47 44
38 47 44
38 47 44
38 47 44
38 47 44
38 48 44
38 48 45
39 48 45
39 48 45
39 49 46
40 49 46
40 49 47
40 50 47
41 50 47
41 50 48
42 51 48
42 51 49
43 51 49
43 52 49
43 52 50
85 79 84
85 79 84
85 80 85
85 80 85
85 80 85
85 80 85
86 81 86
86 81 86
86 82 86
86 82 87
86 82 87
86 82 87
86 83 87
86 83 88
86 83 88
86 83 88
86 84 88
86 84 88
86 84 88
86 85 89
86 85 89
86 85 89
86 85 89
86 86 89
86 86 89
86 86 89
86 86 90
86 87 90
86 87 90
86 87 90
87 87 90
87 87 90
87 88 90
87 88 91
87 88 91
87 88 91
87 89 91
87 89 91
87 89 91
87 89 91
88 89 91
88 90 92
88 90 92
88 90 92
88 90 92
88 90 92
88 91 92
88 91 92
88 91 92
88 91 92
88 91 92
88 92 92
88 92 92
64 0 53
57 0 48
47 0 45
46 0 45
45 0 45
45 0 44
44 0 44
53 0 49
60 0 56
66 0 64
70 0 69
73 0 73
81 0 80
69 0 74
65 0 71
54 0 65
55 0 64
56 0 62
62 0 67
62 0 66
70 0 73
76 0 78
79 0 80
81 0 81
69 0 70
69 0 70
68 0 71
67 0 70
64 0 68
56 0 62
39 0 51
41 0 53
40 0 53
31 0 49
30 0 50
36 0 53
36 0 54
35 0 53
24 0 42
23 0 49
26 0 46
25 0 45
7 0 41
7 0 44
6 0 42
4 0 38
13 0 36
6 0 37
18 0 41
30 0 46
35 0 49
23 0 43
3 0 35
82 98 84
82 98 84
81 98 83
81 98 83
81 98 83
81 98 83
0 98 0
0 99 0
0 99 0
0 98 0
0 98 0
0 97 0
0 97 0
0 96 0
0 95 0
0 94 0
0 93 0
0 92 0
0 92 0
0 93 0
0 94 0
0 95 0
0 96 0
0 97 0
0 98 0
0 99 0
0 99 0
0 100 0
0 100 0
0 100 0
0 101 0
0 101 0
0 101 0
0 100 0
0 100 0
0 100 0
0 100 0
0 100 0
0 99 0
0 99 0
0 99 0
0 98 0
0 98 0
0 97 0
0 97 0
0 96 0
0 96 0
0 95 0
89 0 0
89 0 0
89 0 0
89 0 0
90 0 0
90 0 0
90 0 0
90 0 0
90 0 0
90 0 0
90 0 0
90 0 0
89 0 0
89 0 0
89 0 0
88 0 0
87 0 0
87 0 0
86 0 0
85 0 0
84 0 0
83 0 0
82 0 0
82 0 0
81 0 0
81 0 0
80 0 0
80 0 0
81 0 0
81 0 0
81 0 0
81 0 0
82 0 0
82 0 0
83 0 0
84 0 0
84 0 0
85 0 0
86 0 0
86 0 0
86 0 0
86 0 0
86 0 0
85 0 0
81 64 68
82 64 69
82 64 69
82 64 69
82 64 69
82 65 69
82 65 70
82 65 70
82 65 70
82 66 71
82 66 71
82 66 71
82 66 72
83 67 72
83 67 72
83 67 72
83 67 73
83 67 73
83 68 73
83 68 74
83 68 74
83 68 74
83 69 75
83 69 75
83 69 75
83 69 76
50 21 28
50 21 29
50 22 29
51 22 30
51 22 30
51 23 30
51 23 31
51 24 31
40 47 45
39 47 45
39 47 45
39 47 45
39 47 45
39 47 45
39 47 45
39 47 45
39 48 45
39 48 45
39 48 45
39 48 45
39 48 46
40 49 46
40 49 46
40 49 47
41 50 47
41 50 47
41 50 48
42 51 48
42 51 49
42 51 49
43 51 49
43 52 50
85 79 84
85 79 84
85 79 85
85 79 85
85 80 85
85 80 86
85 80 86
85 81 86
85 81 86
85 81 86
85 82 87
85 82 87
85 82 87
85 82 87
85 83 87
85 83 88
85 83 88
85 83 88
85 84 88
85 84 88
85 84 88
85 85 89
85 85 89
85 85 89
85 85 89
86 85 89
86 86 89
86 86 89
86 86 90
86 86 90
86 87 90
86 87 90
86 87 90
86 87 90
86 88 90
86 88 91
86 88 91
87 88 91
87 88 91
87 89 91
87 89 91
87 89 91
87 89 91
87 89 91
87 90 91
88 90 91
87 90 91
88 90 92
88 90 92
88 91 91
88 91 92
88 91 92
72 0 60
63 0 49
61 0 47
51 0 43
48 0 41
45 0 42
47 0 44
46 0 43
59 0 53
68 0 63
77 0 73
82 0 79
82 0 80
71 0 75
71 0 75
70 0 75
55 0 65
56 0 64
57 0 63
64 0 68
84 0 85
88 0 88
90 0 88
91 0 89
89 0 88
89 0 87
90 0 88
91 0 89
73 0 74
60 0 62
45 0 52
44 0 52
42 0 51
33 0 47
32 0 47
37 0 51
37 0 52
21 0 49
18 0 47
17 0 47
16 0 46
11 0 46
8 0 42
7 0 42
7 0 44
4 0 39
11 0 37
7 0 36
8 0 39
23 0 43
12 0 43
13 0 42
4 0 39
81 97 84
81 97 84
81 97 83
81 97 83
80 97 83
80 97 82
80 97 82
0 98 0
0 98 0
0 98 0
0 98 0
0 97 0
0 97 0
0 96 0
0 95 0
0 94 0
0 93 0
0 92 0
0 91 0
0 91 0
0 92 0
0 93 0
0 94 0
0 95 0
0 97 0
0 97 0
0 98 0
0 98 0
0 99 0
0 99 0
0 100 0
0 100 0
0 100 0
0 100 0
0 100 0
0 100 0
0 100 0
0 100 0
0 99 0
0 99 0
0 99 0
0 98 0
0 98 0
0 97 0
0 97 0
0 97 0
0 96 0
0 96 0
0 95 0
88 0 0
89 0 0
89 0 0
89 0 0
89 0 0
89 0 0
89 0 0
90 0 0
90 0 0
89 0 0
89 0 0
89 0 0
89 0 0
89 0 0
88 0 0
88 0 0
87 0 0
86 0 0
85 0 0
84 0 0
84 0 0
83 0 0
82 0 0
81 0 0
81 0 0
80 0 0
80 0 0
80 0 0
80 0 0
81 0 0
81 0 0
81 0 0
81 0 0
82 0 0
82 0 0
83 0 0
84 0 0
84 0 0
85 0 0
85 0 0
86 0 0
86 0 0
85 0 0
84 0 0
81 63 68
81 64 68
81 64 69
81 64 69
81 64 69
81 64 69
81 64 69
81 65 70
82 65 70
82 65 70
82 65 71
82 66 71
82 66 71
82 66 72
82 66 72
82 67 72
82 67 73
82 67 73
82 67 73
82 67 74
83 68 74
83 68 74
83 68 75
83 68 75
83 69 75
83 69 75
50 21 28
50 21 29
50 22 29
50 22 30
51 22 30
51 23 30
51 23 31
51 24 31
40 48 45
40 48 45
40 48 45
40 48 45
40 48 45
39 48 45
39 48 45
39 48 45
39 48 45
39 48 45
39 48 46
39 48 46
40 49 46
40 49 46
40 49 47
40 49 47
41 50 47
41 50 48
41 50 48
42 50 48
42 51 49
42 51 49
43 51 49
43 51 50
84 78 84
84 78 84
84 79 85
84 79 85
84 79 85
84 79 85
84 80 86
85 80 86
84 80 86
85 81 86
85 81 87
85 81 87
85 82 87
85 82 87
85 82 87
85 82 87
85 83 88
85 83 88
0 130 123
0 130 123
0 130 123
0 130 123
0 130 123
0 131 124
0 131 124
0 131 124
0 131 124
85 85 89
85 85 89
85 86 89
85 86 90
85 86 90
86 86 90
86 87 90
86 87 90
86 87 90
86 87 90
86 88 91
86 88 91
86 88 91
86 88 91
86 88 91
87 89 91
87 89 91
87 89 91
87 89 91
87 89 91
87 90 91
87 90 91
87 90 91
87 90 91
75 0 65
66 0 58
58 0 52
56 0 50
56 0 48
50 0 45
49 0 42
48 0 41
50 0 43
79 0 75
84 0 79
87 0 85
91 0 88
87 0 86
86 0 84
86 0 85
76 0 79
75 0 78
73 0 76
75 0 78
77 0 79
86 0 86
92 0 90
91 0 90
92 0 90
94 0 92
94 0 92
94 0 92
93 0 91
85 0 83
82 0 81
56 0 55
44 0 48
33 0 43
30 0 42
27 0 42
24 0 42
23 0 44
22 0 46
19 0 47
17 0 48
12 0 46
11 0 46
8 0 42
6 0 38
6 0 36
11 0 29
16 0 37
4 0 37
8 0 43
11 0 43
12 0 43
4 0 41
81 97 83
81 97 83
81 97 83
80 97 83
80 97 82
80 97 82
80 97 82
79 97 82
0 97 0
0 97 0
0 97 0
0 97 0
0 96 0
0 96 0
0 95 0
0 94 0
0 93 0
0 92 0
0 91 0
0 90 0
0 90 0
0 91 0
0 92 0
0 94 0
0 95 0
0 96 0
0 97 0
0 97 0
0 98 0
0 99 0
0 99 0
0 99 0
0 100 0
0 100 0
0 100 0
0 100 0
0 99 0
0 99 0
0 99 0
0 99 0
0 98 0
0 98 0
0 98 0
0 98 0
0 97 0
0 97 0
0 96 0
0 96 0
0 95 0
0 95 0
88 0 0
88 0 0
89 0 0
89 0 0
89 0 0
89 0 0
89 0 0
89 0 0
89 0 0
89 0 0
89 0 0
89 0 0
89 0 0
88 0 0
88 0 0
87 0 0
87 0 0
86 0 0
85 0 0
84 0 0
83 0 0
83 0 0
82 0 0
81 0 0
80 0 0
80 0 0
80 0 0
80 0 0
80 0 0
80 0 0
80 0 0
81 0 0
81 0 0
81 0 0
82 0 0
83 0 0
83 0 0
84 0 0
84 0 0
85 0 0
85 0 0
85 0 0
85 0 0
84 0 0
80 63 68
81 63 68
81 63 68
81 63 69
81 64 69
81 64 69
81 64 69
81 64 70
81 64 70
81 65 70
81 65 71
81 65 71
81 65 71
82 66 72
82 66 72
82 66 72
82 66 73
82 67 73
82 67 73
82 67 74
82 67 74
82 68 74
82 68 75
82 68 75
82 68 75
82 68 75
50 21 29
50 21 29
50 22 29
50 22 30
50 22 30
50 23 31
51 23 31
51 23 31
41 48 46
40 48 46
40 48 46
40 48 46
40 48 46
40 48 46
40 48 46
40 48 46
40 48 46
40 48 46
40 48 46
40 49 46
40 49 46
40 49 47
40 49 47
41 49 47
41 50 47
41 50 48
41 50 48
42 50 48
42 51 49
42 51 49
42 51 49
43 51 49
84 77 84
84 78 84
84 78 84
84 78 85
84 79 85
84 79 85
84 79 86
84 80 86
84 80 86
84 80 86
84 80 86
84 81 87
84 81 87
84 81 87
84 81 87
0 113 109
0 112 108
0 126 120
0 126 120
0 126 120
0 127 121
0 127 121
0 128 121
0 128 121
0 128 121
0 129 121
0 129 122
0 130 122
0 130 122
0 125 114
85 85 89
85 86 90
85 86 90
85 86 90
85 86 90
85 87 90
85 87 90
86 87 90
86 87 90
86 87 90
86 88 91
86 88 91
86 88 91
86 88 91
86 88 91
86 89 91
86 89 91
86 89 91
86 89 91
87 89 91
75 0 67
68 0 62
65 0 60
63 0 57
61 0 55
58 0 52
57 0 50
55 0 48
52 0 45
92 0 88
94 0 90
96 0 93
94 0 92
91 0 90
91 0 90
92 0 90
86 0 86
86 0 86
75 0 78
75 0 78
75 0 78
79 0 80
91 0 90
92 0 91
92 0 91
96 0 94
97 0 94
97 0 95
88 0 88
93 0 91
85 0 85
80 0 80
78 0 77
72 0 72
45 0 46
18 0 27
24 0 34
23 0 36
22 0 38
21 0 40
19 0 43
18 0 45
16 0 47
10 0 43
9 0 44
17 0 34
23 0 34
21 0 33
12 0 33
5 0 41
9 0 43
4 0 43
4 0 40
81 96 83
81 96 83
80 96 83
80 96 82
80 96 82
79 96 82
79 96 82
79 96 82
79 96 81
0 97 0
0 97 0
0 97 0
0 96 0
0 96 0
0 95 0
0 94 0
0 93 0
0 92 0
0 91 0
0 90 0
0 89 0
0 89 0
0 90 0
0 91 0
0 93 0
0 94 0
0 95 0
0 96 0
0 97 0
0 97 0
0 98 0
0 98 0
0 99 0
0 99 0
0 99 0
0 99 0
0 99 0
0 99 0
0 99 0
0 99 0
0 99 0
0 98 0
0 98 0
0 98 0
0 97 0
0 97 0
0 96 0
0 96 0
0 96 0
0 95 0
0 94 0
88 0 0
88 0 0
88 0 0
88 0 0
89 0 0
89 0 0
89 0 0
89 0 0
89 0 0
89 0 0
89 0 0
88 0 0
88 0 0
88 0 0
87 0 0
87 0 0
86 0 0
85 0 0
84 0 0
84 0 0
83 0 0
82 0 0
81 0 0
81 0 0
80 0 0
80 0 0
79 0 0
79 0 0
79 0 0
80 0 0
80 0 0
80 0 0
81 0 0
81 0 0
81 0 0
82 0 0
83 0 0
84 0 0
84 0 0
84 0 0
85 0 0
84 0 0
84 0 0
83 0 0
80 63 68
80 63 68
80 63 68
80 63 69
80 63 69
80 64 69
80 64 69
81 64 70
81 64 70
81 64 70
81 65 71
81 65 71
81 65 71
81 65 72
81 66 72
81 66 72
81 66 73
81 66 73
81 67 73
82 67 74
81 67 74
82 67 74
82 67 74
82 68 75
82 68 75
82 68 75
49 21 29
50 21 29
50 22 30
50 22 30
50 22 30
50 23 31
50 23 31
51 23 31
41 48 46
41 48 46
41 48 46
41 48 46
40 48 46
40 48 46
40 48 46
40 48 46
40 48 46
40 49 46
40 49 46
40 49 47
40 49 47
40 49 47
41 49 47
41 49 47
41 50 48
41 50 48
41 50 48
42 50 48
42 50 49
42 51 49
42 51 49
42 51 49
83 77 84
83 77 84
83 78 84
83 78 85
83 78 85
83 79 85
83 79 85
83 79 86
83 79 86
83 80 86
83 80 86
83 80 86
83 80 87
84 81 87
84 81 87
0 68 66
0 66 64
0 111 107
0 111 107
0 112 108
0 112 108
0 113 108
0 114 108
0 115 108
0 116 109
0 117 109
0 118 110
0 120 110
0 121 111
0 87 68
0 93 72
84 85 89
84 85 89
85 86 90
85 86 90
85 86 90
85 86 90
85 86 90
85 87 90
85 87 90
85 87 90
85 87 90
85 87 90
85 88 90
86 88 91
86 88 91
86 88 90
86 88 91
88 0 78
84 0 75
71 0 67
69 0 65
68 0 64
66 0 62
65 0 60
64 0 59
63 0 58
63 0 57
95 0 90
97 0 93
98 0 95
98 0 95
99 0 96
94 0 93
95 0 94
86 0 86
87 0 87
87 0 87
81 0 83
80 0 82
76 0 79
90 0 89
91 0 89
94 0 92
96 0 94
95 0 93
94 0 93
89 0 89
89 0 88
91 0 89
82 0 82
76 0 76
74 0 74
74 0 74
58 0 59
52 0 54
37 0 40
16 0 26
15 0 28
14 0 30
12 0 32
11 0 34
10 0 36
8 0 35
20 0 37
28 0 40
23 0 42
25 0 39
4 0 34
5 0 38
5 0 39
80 95 83
80 95 83
80 95 83
80 95 82
80 95 82
79 95 82
79 96 82
79 95 82
79 95 81
78 95 81
78 95 81
0 96 0
0 96 0
0 96 0
0 96 0
0 95 0
0 94 0
0 93 0
0 92 0
0 91 0
0 90 0
0 89 0
0 88 0
0 88 0
0 89 0
0 90 0
0 92 0
0 93 0
0 95 0
0 95 0
0 96 0
0 97 0
0 97 0
0 98 0
0 98 0
0 99 0
0 99 0
0 99 0
0 99 0
0 99 0
0 99 0
0 98 0
0 98 0
0 98 0
0 98 0
0 97 0
0 97 0
0 97 0
0 96 0
0 96 0
0 95 0
0 95 0
0 94 0
87 0 0
88 0 0
88 0 0
88 0 0
88 0 0
88 0 0
88 0 0
89 0 0
88 0 0
88 0 0
88 0 0
88 0 0
88 0 0
87 0 0
87 0 0
86 0 0
86 0 0
85 0 0
84 0 0
83 0 0
82 0 0
82 0 0
81 0 0
80 0 0
80 0 0
79 0 0
79 0 0
79 0 0
79 0 0
80 0 0
80 0 0
80 0 0
80 0 0
81 0 0
81 0 0
82 0 0
82 0 0
83 0 0
83 0 0
84 0 0
84 0 0
84 0 0
83 0 0
83 0 0
80 62 68
80 63 68
80 63 68
80 63 68
80 63 69
80 63 69
80 63 69
80 64 70
80 64 70
80 64 70
80 64 70
80 65 71
80 65 71
80 65 71
81 65 72
81 65 72
81 66 72
81 66 73
81 66 73
81 67 74
81 67 74
81 67 74
81 67 74
81 67 75
81 68 75
81 68 75
49 21 29
49 21 29
49 22 30
50 22 30
50 22 30
50 23 31
50 23 31
50 23 32
41 48 46
41 48 46
41 48 46
41 48 46
41 48 46
41 48 46
41 48 46
41 49 47
41 49 47
41 49 47
41 49 47
41 49 47
41 49 47
41 49 47
41 49 47
41 49 48
41 50 48
41 50 48
41 50 48
42 50 48
42 50 49
42 51 49
42 51 49
42 51 49
83 76 84
83 77 84
83 77 84
83 77 85
83 78 85
83 78 85
83 78 85
83 79 85
83 79 86
83 79 86
83 79 86
83 80 86
83 80 86
83 80 87
83 80 87
0 71 68
0 67 65
0 66 64
0 66 64
0 66 63
0 66 63
0 67 63
0 68 63
0 70 63
0 73 64
0 73 64
0 76 65
0 80 66
0 84 67
0 84 71
0 88 72
84 84 89
84 85 89
84 85 89
84 85 90
84 85 90
84 86 90
84 86 90
84 86 90
84 86 90
85 86 90
85 87 90
85 87 90
85 87 90
85 87 90
85 87 90
85 88 90
85 88 90
87 0 78
76 0 72
70 0 69
71 0 69
70 0 68
70 0 67
70 0 67
70 0 67
71 0 66
89 0 84
96 0 92
88 0 87
93 0 89
88 0 89
91 0 91
87 0 88
87 0 88
87 0 87
89 0 89
89 0 89
73 0 77
81 0 82
76 0 79
90 0 89
84 0 85
85 0 85
90 0 89
90 0 90
83 0 84
83 0 84
91 0 90
91 0 90
83 0 82
57 0 58
64 0 65
63 0 63
60 0 61
60 0 61
55 0 56
45 0 48
27 0 32
17 0 27
13 0 26
13 0 30
15 0 34
19 0 38
25 0 43
24 0 43
28 0 44
19 0 38
6 0 15
80 95 83
80 94 83
80 95 82
79 95 82
79 95 82
79 95 82
79 95 82
79 95 81
79 95 81
78 95 81
78 95 81
78 95 81
78 95 81
0 95 0
0 95 0
0 95 0
0 95 0
0 94 0
0 94 0
0 93 0
0 92 0
0 90 0
0 89 0
0 88 0
0 87 0
0 87 0
0 88 0
0 89 0
0 91 0
0 92 0
0 94 0
0 95 0
0 96 0
0 96 0
0 97 0
0 97 0
0 98 0
0 98 0
0 98 0
0 98 0
0 98 0
0 98 0
0 98 0
0 98 0
0 98 0
0 98 0
0 97 0
0 97 0
0 97 0
0 96 0
0 96 0
0 95 0
0 95 0
0 94 0
0 94 0
87 0 0
88 0 0
88 0 0
88 0 0
88 0 0
88 0 0
88 0 0
88 0 0
88 0 0
88 0 0
88 0 0
88 0 0
88 0 0
87 0 0
87 0 0
86 0 0
85 0 0
85 0 0
84 0 0
83 0 0
82 0 0
81 0 0
81 0 0
80 0 0
79 0 0
79 0 0
79 0 0
79 0 0
79 0 0
79 0 0
79 0 0
79 0 0
80 0 0
80 0 0
81 0 0
81 0 0
82 0 0
83 0 0
83 0 0
83 0 0
83 0 0
83 0 0
83 0 0
82 0 0
79 62 68
79 62 68
79 62 68
79 62 68
79 62 69
79 63 69
79 63 69
80 63 69
80 64 70
80 64 70
80 64 70
80 64 71
80 64 71
80 65 71
80 65 72
80 65 72
80 65 73
80 66 73
80 66 73
80 66 74
80 66 74
81 67 74
81 67 74
81 67 75
81 67 75
81 67 75
49 21 29
49 21 30
49 22 30
49 22 30
50 22 31
50 23 31
50 23 31
50 23 32
41 48 47
41 48 47
41 48 47
41 48 47
41 48 47
41 48 47
41 49 47
41 49 47
41 49 47
41 49 47
41 49 47
41 49 47
41 49 47
41 49 48
41 49 48
41 50 48
41 50 48
41 50 48
41 50 48
42 50 48
42 50 49
42 50 49
42 50 49
42 51 49
82 76 84
82 76 84
82 77 84
82 77 84
82 77 85
82 78 85
82 78 85
82 78 85
82 78 86
82 79 86
82 79 86
82 79 86
82 79 86
82 80 86
82 80 87
82 80 87
0 72 69
0 72 69
0 72 68
0 72 69
0 73 69
0 73 69
0 74 69
0 75 69
0 77 69
0 79 70
0 79 70
0 81 70
0 85 71
0 87 72
83 84 89
83 84 89
83 84 89
83 84 89
83 85 89
84 85 89
84 85 90
84 85 90
84 85 90
84 86 90
84 86 90
84 86 90
84 86 90
84 86 90
84 87 90
84 87 90
85 87 90
87 0 78
77 0 73
74 0 73
75 0 73
74 0 72
74 0 72
74 0 71
75 0 72
76 0 72
85 0 80
86 0 83
88 0 87
92 0 89
84 0 85
89 0 89
92 0 91
89 0 89
88 0 89
83 0 85
72 0 76
72 0 76
73 0 77
64 0 68
77 0 81
84 0 85
84 0 85
85 0 85
90 0 90
84 0 85
84 0 84
91 0 90
92 0 90
70 0 72
70 0 71
57 0 58
56 0 57
48 0 48
45 0 46
41 0 42
46 0 47
43 0 44
36 0 38
30 0 33
25 0 30
23 0 31
24 0 35
25 0 39
28 0 44
28 0 44
25 0 44
20 27 20
20 28 20
20 29 21
21 30 21
21 32 22
79 94 82
79 94 82
78 94 81
78 94 81
78 94 81
78 94 81
77 94 81
77 94 80
77 94 80
77 94 80
0 95 0
0 95 0
0 94 0
0 94 0
0 94 0
0 93 0
0 92 0
0 91 0
0 90 0
0 88 0
0 88 0
0 86 0
0 86 0
0 87 0
0 89 0
0 90 0
0 92 0
0 93 0
0 94 0
0 95 0
0 96 0
0 96 0
0 97 0
0 97 0
0 98 0
0 98 0
0 98 0
0 98 0
0 98 0
0 98 0
0 98 0
0 97 0
0 97 0
0 97 0
0 97 0
0 96 0
0 96 0
0 96 0
0 95 0
0 95 0
0 94 0
0 94 0
87 0 0
87 0 0
87 0 0
88 0 0
88 0 0
88 0 0
88 0 0
88 0 0
88 0 0
88 0 0
88 0 0
87 0 0
87 0 0
87 0 0
86 0 0
86 0 0
85 0 0
84 0 0
83 0 0
83 0 0
82 0 0
81 0 0
80 0 0
80 0 0
79 0 0
79 0 0
78 0 0
78 0 0
79 0 0
79 0 0
79 0 0
79 0 0
80 0 0
80 0 0
80 0 0
81 0 0
82 0 0
82 0 0
82 0 0
83 0 0
83 0 0
83 0 0
83 0 0
82 0 0
79 62 68
79 62 68
79 62 68
79 62 68
79 62 69
79 63 69
79 63 69
79 63 69
79 63 70
79 64 70
79 64 71
79 64 71
79 64 71
80 64 72
80 65 72
80 65 72
80 65 73
80 65 73
80 66 73
80 66 74
80 66 74
80 66 74
80 66 74
80 67 75
80 67 75
81 67 75
49 21 29
49 21 30
49 22 30
49 22 30
49 22 31
49 23 31
50 23 32
50 23 32
42 48 47
42 48 47
41 48 47
41 49 47
41 48 47
41 49 47
41 49 47
41 49 47
41 49 47
41 49 47
41 49 47
41 49 48
41 49 48
41 49 48
41 49 48
41 50 48
41 50 48
42 50 48
42 50 48
42 50 49
42 50 49
42 50 49
42 50 49
42 50 49
82 76 84
82 76 84
82 76 84
82 76 84
82 77 85
82 77 85
82 77 85
82 78 85
82 78 86
82 78 86
82 78 86
82 79 86
82 79 86
82 79 86
82 79 86
82 80 87
0 75 72
0 75 72
0 75 72
0 76 72
0 76 72
0 77 72
0 78 72
0 79 73
0 80 73
0 82 73
0 83 74
0 85 75
0 88 76
83 83 89
83 83 89
83 83 89
83 84 89
83 84 89
83 84 89
83 84 89
83 84 89
83 85 89
83 85 89
83 85 89
83 85 90
83 85 90
84 86 90
84 86 90
84 86 90
47 44 44
46 43 43
64 0 55
78 0 74
73 0 74
73 0 73
69 0 71
74 0 74
74 0 74
76 0 74
82 0 76
86 0 81
80 0 79
92 0 89
88 0 87
84 0 85
83 0 85
84 0 85
67 0 74
67 0 74
68 0 73
71 0 76
71 0 76
73 0 77
67 0 71
71 0 73
80 0 81
84 0 84
85 0 85
69 0 72
70 0 72
68 0 70
88 0 87
72 0 73
70 0 71
70 0 70
45 0 46
49 0 49
47 0 47
46 0 47
45 0 45
43 0 43
44 0 44
40 0 41
34 0 35
31 0 32
31 0 33
29 0 33
29 0 38
30 0 43
25 0 44
5 0 38
4 16 5
5 18 6
6 19 8
8 21 10
10 24 12
6 30 12
3 30 11
4 30 11
78 93 81
77 93 81
77 93 81
77 93 80
77 93 80
77 93 80
76 93 80
0 94 0
0 94 0
0 94 0
0 93 0
0 93 0
0 92 0
0 91 0
0 90 0
0 89 0
0 88 0
0 87 0
0 86 0
0 86 0
0 86 0
0 88 0
0 89 0
0 91 0
0 92 0
0 94 0
0 94 0
0 95 0
0 96 0
0 96 0
0 97 0
0 97 0
0 97 0
0 97 0
0 97 0
0 98 0
0 97 0
0 97 0
0 97 0
0 97 0
0 97 0
0 96 0
0 96 0
0 96 0
0 95 0
0 95 0
0 94 0
0 94 0
0 93 0
87 0 0
87 0 0
87 0 0
87 0 0
87 0 0
87 0 0
88 0 0
88 0 0
87 0 0
87 0 0
87 0 0
87 0 0
87 0 0
86 0 0
86 0 0
85 0 0
85 0 0
84 0 0
83 0 0
82 0 0
81 0 0
81 0 0
80 0 0
79 0 0
79 0 0
78 0 0
78 0 0
78 0 0
78 0 0
79 0 0
79 0 0
79 0 0
79 0 0
79 0 0
80 0 0
80 0 0
81 0 0
82 0 0
82 0 0
82 0 0
82 0 0
82 0 0
82 0 0
81 0 0
78 61 67
78 61 68
78 62 68
78 62 68
79 62 68
78 62 69
79 62 69
79 63 69
79 63 70
79 63 70
79 63 71
79 64 71
79 64 71
79 64 71
79 64 72
79 65 72
79 65 73
79 65 73
80 65 73
80 65 74
80 66 74
80 66 74
80 66 74
80 66 75
80 67 75
80 67 75
48 21 29
49 21 30
49 21 30
49 22 31
49 22 31
49 23 31
49 23 32
50 23 32
42 48 47
42 48 47
42 48 47
42 49 47
41 49 47
41 49 47
41 49 47
41 49 47
41 49 47
41 49 48
41 49 48
41 49 48
41 49 48
42 50 48
41 49 48
42 50 48
42 50 48
42 50 49
42 50 49
42 50 49
42 50 49
42 50 49
42 50 49
42 50 49
81 75 84
81 75 84
81 76 84
81 76 84
81 76 85
81 76 85
81 77 85
81 77 85
81 77 85
81 77 86
81 78 86
81 78 86
81 78 86
81 79 86
81 79 86
81 79 86
81 79 87
0 73 70
0 73 70
0 74 70
0 75 71
0 76 71
0 77 71
0 78 72
0 80 72
0 81 73
0 84 73
0 86 74
82 82 88
82 82 88
82 83 89
82 83 89
82 83 89
82 83 89
82 83 89
82 84 89
82 84 89
83 84 89
83 84 89
83 84 89
28 29 30
46 45 44
46 44 43
45 43 42
44 42 41
43 40 40
42 39 39
44 0 34
34 0 45
57 0 63
70 0 72
70 0 72
70 0 72
71 0 72
84 0 79
66 0 68
74 0 75
79 0 78
80 0 80
69 0 74
74 0 78
83 0 85
67 0 75
67 0 74
60 0 69
60 0 69
54 0 63
54 0 63
55 0 64
66 0 70
68 0 70
50 0 55
51 0 55
59 0 61
67 0 68
68 0 68
68 0 68
68 0 67
50 0 52
45 0 47
56 0 57
46 0 46
43 0 43
42 0 42
42 0 42
40 0 40
45 0 45
43 0 44
43 0 43
40 0 40
35 0 35
33 0 34
17 0 17
14 0 15
10 0 10
2 17 4
2 22 6
13 27 15
10 32 15
10 32 15
10 31 15
9 31 14
7 30 13
5 30 12
5 30 12
77 93 80
77 93 80
76 93 80
76 93 80
76 93 80
76 93 80
76 93 79
0 93 0
0 93 0
0 93 0
0 93 0
0 92 0
0 91 0
0 90 0
0 89 0
0 88 0
0 87 0
0 86 0
0 84 0
0 85 0
0 85 0
0 87 0
0 89 0
0 90 0
0 92 0
0 93 0
0 94 0
0 95 0
0 95 0
0 96 0
0 96 0
0 97 0
0 97 0
0 97 0
0 97 0
0 97 0
0 97 0
0 97 0
0 97 0
0 96 0
0 96 0
0 96 0
0 96 0
0 95 0
0 95 0
0 94 0
0 94 0
0 94 0
0 93 0
86 0 0
87 0 0
87 0 0
87 0 0
87 0 0
87 0 0
87 0 0
87 0 0
87 0 0
87 0 0
87 0 0
87 0 0
86 0 0
86 0 0
86 0 0
85 0 0
84 0 0
84 0 0
83 0 0
82 0 0
81 0 0
80 0 0
80 0 0
79 0 0
78 0 0
78 0 0
78 0 0
78 0 0
78 0 0
78 0 0
79 0 0
78 0 0
79 0 0
79 0 0
79 0 0
80 0 0
81 0 0
81 0 0
82 0 0
82 0 0
82 0 0
82 0 0
82 0 0
81 0 0
78 61 67
78 61 68
78 61 68
78 62 68
78 62 68
78 62 69
78 62 69
78 62 69
78 63 70
78 63 70
78 63 71
79 64 71
79 64 71
79 64 72
79 64 72
79 64 72
79 64 72
79 65 73
79 65 73
79 65 74
79 65 74
79 65 74
79 66 74
79 66 75
80 66 75
80 66 75
48 21 30
48 21 30
49 21 30
49 22 31
49 22 31
49 22 31
49 23 32
49 23 32
42 48 47
42 48 47
42 49 47
42 49 47
42 49 47
42 49 47
42 49 48
41 49 48
42 49 48
42 49 48
42 49 48
42 49 48
41 49 48
42 49 48
42 49 48
42 50 48
42 50 48
42 50 49
42 50 49
42 50 49
42 50 49
42 50 49
42 50 49
42 50 49
81 74 84
81 75 84
81 75 84
81 76 84
81 76 84
81 76 85
81 76 85
81 77 85
81 77 85
81 77 85
80 77 86
81 78 86
80 78 86
80 78 86
81 78 86
80 78 86
81 79 87
81 79 87
0 69 66
0 69 66
0 70 67
0 72 67
0 73 67
0 74 68
0 77 68
0 80 69
0 83 70
81 81 88
81 82 88
81 82 88
81 82 88
81 82 88
82 82 88
81 82 89
82 83 89
82 83 89
82 83 89
82 83 89
82 84 89
82 84 89
28 29 30
28 29 30
28 29 30
27 29 30
28 29 30
27 29 30
27 29 30
27 29 30
27 29 30
27 29 30
27 29 30
27 29 30
27 29 30
28 29 30
28 29 30
62 0 65
79 0 78
79 0 79
69 0 74
69 0 74
44 0 62
62 0 71
63 0 72
34 0 58
43 0 59
44 0 59
44 0 59
54 0 63
22 0 45
28 0 33
43 0 44
42 0 44
36 0 37
33 0 35
34 0 36
32 0 34
32 0 34
32 0 34
50 0 50
30 0 31
29 0 30
27 0 27
20 0 20
22 0 22
18 0 18
0 3 1
1 4 1
1 9 1
4 13 4
19 27 19
25 32 26
27 34 27
28 35 28
29 37 30
13 33 18
12 32 17
11 32 17
11 32 16
10 32 16
10 32 15
10 31 15
10 31 15
8 31 14
7 30 13
6 30 12
76 92 80
76 92 80
76 92 80
76 92 79
75 92 79
75 92 79
75 92 79
0 93 0
0 93 0
0 92 0
0 92 0
0 92 0
0 91 0
0 90 0
0 89 0
0 87 0
0 86 0
0 85 0
0 84 0
0 84 0
0 84 0
0 86 0
0 88 0
0 89 0
0 91 0
0 92 0
0 93 0
0 94 0
0 95 0
0 95 0
0 96 0
0 96 0
0 96 0
0 97 0
0 97 0
0 97 0
0 97 0
0 96 0
0 96 0
0 96 0
0 96 0
0 95 0
0 95 0
0 95 0
0 94 0
0 94 0
0 94 0
0 93 0
0 93 0
86 0 0
86 0 0
86 0 0
87 0 0
87 0 0
87 0 0
87 0 0
87 0 0
87 0 0
87 0 0
87 0 0
86 0 0
86 0 0
86 0 0
85 0 0
85 0 0
84 0 0
83 0 0
82 0 0
81 0 0
81 0 0
80 0 0
79 0 0
79 0 0
78 0 0
78 0 0
77 0 0
78 0 0
78 0 0
78 0 0
78 0 0
78 0 0
78 0 0
79 0 0
79 0 0
80 0 0
80 0 0
81 0 0
81 0 0
81 0 0
81 0 0
81 0 0
81 0 0
80 0 0
78 61 67
78 61 68
78 61 68
78 61 68
78 61 69
78 62 69
78 62 69
78 62 69
78 62 70
78 63 70
78 63 71
78 63 71
78 63 71
78 63 72
78 64 72
78 64 72
78 64 73
78 64 73
79 64 73
79 65 74
79 65 74
79 65 74
79 66 75
79 66 75
79 66 75
79 66 75
48 21 30
48 21 30
48 21 31
48 22 31
49 22 31
49 22 32
49 23 32
49 23 32
42 48 47
42 48 48
42 48 48
42 49 48
42 49 48
42 49 48
42 49 48
42 49 48
42 49 48
42 49 48
42 49 48
42 49 48
42 49 48
42 49 48
42 49 48
42 50 49
42 50 49
42 50 49
42 50 49
42 50 49
42 50 49
42 50 49
42 50 49
42 50 49
80 74 84
80 74 84
80 75 84
80 75 84
80 75 84
80 75 85
80 76 85
80 76 85
80 76 85
80 77 85
80 77 85
80 77 86
80 77 86
80 77 86
80 78 86
80 78 86
80 78 86
80 78 86
80 79 87
0 64 62
0 66 62
0 67 63
0 69 63
0 71 63
0 74 64
0 78 65
0 84 63
81 81 88
81 81 88
81 81 88
81 81 88
81 82 88
81 82 88
81 82 88
81 82 88
81 82 88
81 83 89
81 83 89
81 83 89
81 83 89
28 29 30
27 29 30
28 29 30
27 29 30
27 29 30
27 29 30
27 29 30
27 29 30
27 29 30
27 29 30
27 29 30
27 29 30
27 29 30
27 29 30
27 29 30
24 26 27
15 20 22
12 19 22
10 19 22
9 19 22
8 19 22
8 19 22
7 19 22
7 20 22
7 20 22
6 20 22
6 20 22
6 21 21
22 29 29
27 32 31
28 32 31
44 45 43
44 45 43
44 45 43
44 45 43
43 45 42
43 45 42
43 45 42
42 45 41
42 46 41
42 46 41
42 46 41
42 46 41
42 46 41
42 46 41
42 46 41
42 47 41
42 47 41
42 47 41
42 47 41
14 33 19
14 33 19
13 33 19
13 33 18
13 33 18
12 32 17
11 32 17
11 32 16
11 32 16
10 31 16
10 31 15
10 31 15
9 31 14
8 30 13
7 30 12
76 91 80
75 91 79
75 91 79
75 91 79
75 91 79
75 92 79
75 91 78
0 92 0
0 92 0
0 92 0
0 91 0
0 91 0
0 90 0
0 89 0
0 88 0
0 87 0
0 85 0
0 84 0
0 83 0
0 83 0
0 84 0
0 85 0
0 87 0
0 89 0
0 90 0
0 92 0
0 93 0
0 93 0
0 94 0
0 95 0
0 95 0
0 96 0
0 96 0
0 96 0
0 96 0
0 96 0
0 96 0
0 96 0
0 96 0
0 96 0
0 95 0
0 95 0
0 95 0
0 95 0
0 94 0
0 94 0
0 93 0
0 93 0
0 92 0
86 0 0
86 0 0
86 0 0
86 0 0
87 0 0
87 0 0
86 0 0
87 0 0
87 0 0
86 0 0
86 0 0
86 0 0
86 0 0
85 0 0
85 0 0
84 0 0
84 0 0
83 0 0
82 0 0
81 0 0
80 0 0
80 0 0
79 0 0
78 0 0
78 0 0
77 0 0
77 0 0
77 0 0
77 0 0
78 0 0
78 0 0
78 0 0
78 0 0
78 0 0
79 0 0
79 0 0
80 0 0
80 0 0
81 0 0
81 0 0
81 0 0
81 0 0
81 0 0
80 0 0
77 61 67
77 61 68
77 61 68
77 61 68
77 61 68
77 61 69
77 62 69
77 62 69
77 62 70
78 62 70
77 63 70
78 63 71
78 63 71
78 63 72
78 63 72
78 64 72
78 64 73
78 64 73
78 64 73
78 65 74
78 65 74
78 65 74
78 65 75
79 65 75
79 65 75
79 66 75
48 21 30
48 21 30
48 21 31
48 22 31
48 22 31
48 22 32
49 23 32
49 23 32
42 48 48
42 48 48
42 48 48
42 49 48
42 49 48
42 49 48
42 49 48
42 49 48
42 49 48
42 49 48
42 49 48
42 49 48
42 49 48
42 49 49
42 49 49
42 50 49
42 50 49
42 50 49
42 50 49
42 50 49
42 50 49
42 50 49
42 50 49
42 50 49
80 74 84
80 74 84
80 74 84
80 74 84
80 75 84
79 75 84
80 75 85
80 75 85
80 76 85
79 76 85
79 76 85
79 76 86
79 77 86
79 77 86
80 77 86
79 77 86
79 77 86
79 78 86
79 78 86
0 56 54
0 56 54
0 58 54
0 61 54
0 63 55
0 69 56
0 75 57
0 84 59
80 80 88
80 80 88
80 81 88
80 81 88
80 81 88
80 81 88
80 81 88
80 82 88
80 82 88
81 82 88
81 82 89
81 82 88
81 82 88
27 29 30
27 29 30
27 29 30
27 29 30
27 29 30
27 29 30
27 29 30
27 29 30
27 29 30
27 29 30
27 29 30
27 29 30
27 29 30
27 29 30
27 28 29
24 27 28
19 22 24
15 20 22
13 19 22
12 19 22
11 19 22
10 20 22
9 20 22
9 20 22
9 20 22
8 20 21
8 21 21
12 23 22
23 29 29
27 32 31
28 32 31
28 32 31
29 32 31
29 33 32
29 33 32
29 33 32
29 33 32
29 33 32
29 33 32
29 33 32
29 33 32
29 33 32
29 32 32
29 32 32
29 32 32
29 32 32
14 33 20
14 33 20
14 33 20
14 33 19
14 33 19
14 33 19
13 33 19
13 33 18
13 32 18
12 32 18
12 32 17
11 32 17
11 32 16
11 31 16
11 31 16
10 31 15
9 31 14
8 30 14
8 30 13
75 91 79
75 91 79
75 91 79
74 91 79
74 91 78
74 91 78
74 91 78
0 91 0
0 91 0
0 91 0
0 91 0
0 90 0
0 89 0
0 88 0
0 87 0
0 86 0
0 85 0
0 83 0
0 82 0
0 82 0
0 83 0
0 84 0
0 86 0
0 88 0
0 89 0
0 91 0
0 92 0
0 93 0
0 94 0
0 94 0
0 95 0
0 95 0
0 95 0
0 96 0
0 96 0
0 96 0
0 96 0
0 96 0
0 96 0
0 95 0
0 95 0
0 95 0
0 95 0
0 94 0
0 94 0
0 93 0
0 93 0
0 93 0
0 92 0
86 0 0
86 0 0
86 0 0
86 0 0
86 0 0
86 0 0
86 0 0
86 0 0
86 0 0
86 0 0
86 0 0
86 0 0
86 0 0
85 0 0
85 0 0
84 0 0
83 0 0
82 0 0
82 0 0
81 0 0
80 0 0
79 0 0
79 0 0
78 0 0
77 0 0
77 0 0
77 0 0
77 0 0
77 0 0
77 0 0
77 0 0
77 0 0
78 0 0
78 0 0
78 0 0
79 0 0
79 0 0
80 0 0
80 0 0
81 0 0
81 0 0
81 0 0
80 0 0
80 0 0
77 60 67
77 60 67
77 61 68
77 61 68
77 61 69
77 61 69
77 61 69
77 61 69
77 62 70
77 62 70
77 62 71
77 62 71
77 63 71
77 63 72
77 63 72
77 63 72
77 63 73
78 64 73
78 64 73
78 64 74
78 64 74
78 65 74
78 65 75
78 65 75
78 65 75
78 65 75
47 21 30
48 21 30
48 21 31
48 22 31
48 22 32
48 22 32
48 23 32
49 23 33
42 48 48
42 48 48
42 48 48
42 49 48
42 49 48
42 49 48
42 49 48
42 49 48
42 49 48
42 49 48
42 49 48
42 49 48
42 49 49
42 49 49
42 49 49
42 49 49
42 50 49
42 49 49
42 50 49
42 50 49
42 50 49
42 50 49
42 50 49
42 50 49
79 73 84
79 73 84
79 74 84
79 74 84
79 74 84
79 74 84
79 75 85
79 75 85
79 75 85
79 75 85
79 76 85
79 76 85
79 76 86
79 76 86
79 77 86
79 77 86
79 77 86
79 77 86
0 56 54
0 50 48
0 49 46
0 49 44
0 52 43
0 57 44
0 66 47
0 75 51
0 84 58
79 80 88
79 80 88
80 80 88
80 80 88
80 80 88
80 81 88
80 81 88
80 81 88
80 81 88
80 81 88
80 82 88
80 82 88
80 82 88
27 29 30
27 29 30
27 29 30
27 29 30
27 29 30
27 29 30
27 29 30
27 29 30
27 29 30
27 29 30
27 29 30
27 29 30
27 29 30
27 29 30
26 28 29
25 27 28
22 24 25
17 21 22
15 20 22
13 19 22
13 20 22
12 20 22
11 20 21
11 20 21
10 20 21
10 20 21
11 21 21
16 24 24
23 29 28
27 31 30
28 32 31
28 32 31
28 32 31
28 32 31
29 32 32
29 33 32
29 33 32
29 33 32
29 33 32
29 33 32
29 33 32
29 32 32
29 32 32
29 32 32
29 32 32
29 32 32
14 33 20
14 33 20
14 33 20
14 33 20
14 33 19
14 33 19
13 33 19
13 32 18
13 32 18
12 32 18
12 32 17
11 32 17
11 31 16
11 31 16
11 31 16
10 31 15
10 30 15
9 30 14
8 30 13
74 90 79
74 90 79
74 90 78
74 90 78
74 90 78
73 90 78
73 90 78
0 91 0
0 90 0
0 90 0
0 90 0
0 89 0
0 88 0
0 88 0
0 86 0
0 85 0
0 84 0
0 82 0
0 81 0
0 81 0
0 82 0
0 83 0
0 85 0
0 87 0
0 89 0
0 90 0
0 92 0
0 92 0
0 93 0
0 94 0
0 94 0
0 95 0
0 95 0
0 95 0
0 95 0
0 95 0
0 95 0
0 95 0
0 95 0
0 95 0
0 95 0
0 94 0
0 94 0
0 94 0
0 93 0
0 93 0
0 93 0
0 92 0
0 92 0
85 0 0
85 0 0
86 0 0
86 0 0
86 0 0
86 0 0
86 0 0
86 0 0
86 0 0
86 0 0
86 0 0
85 0 0
85 0 0
85 0 0
84 0 0
84 0 0
83 0 0
82 0 0
81 0 0
80 0 0
80 0 0
79 0 0
78 0 0
78 0 0
77 0 0
77 0 0
76 0 0
77 0 0
77 0 0
77 0 0
77 0 0
77 0 0
77 0 0
77 0 0
78 0 0
78 0 0
79 0 0
80 0 0
80 0 0
80 0 0
80 0 0
80 0 0
80 0 0
79 0 0
76 60 67
76 60 67
76 60 68
76 60 68
76 61 68
76 61 69
76 61 69
77 61 70
77 61 70
77 62 70
77 62 71
77 62 71
77 62 71
77 63 72
77 63 72
77 63 73
77 63 73
77 63 73
77 64 73
77 64 74
77 64 74
78 64 74
78 65 75
78 65 75
78 65 75
78 65 76
47 21 30
47 21 31
47 21 31
48 22 31
48 22 32
48 22 32
48 23 32
48 23 33
42 48 48
42 48 48
42 48 48
42 48 48
42 48 48
42 49 48
42 49 48
42 49 48
42 49 48
42 49 48
42 49 49
42 49 49
42 49 49
42 49 49
42 49 49
42 49 49
42 49 49
42 49 49
42 50 49
42 50 49
42 50 49
42 50 49
42 50 49
42 50 49
79 73 83
79 73 84
79 73 84
79 73 84
79 74 84
79 74 84
78 74 85
78 74 85
78 75 85
78 75 85
78 75 85
78 75 85
78 76 86
78 76 86
0 120 113
0 120 113
0 80 77
0 71 68
0 66 64
0 62 59
0 60 55
0 63 55
0 66 55
0 69 55
0 73 57
0 80 60
0 86 67
0 93 75
0 101 84
0 112 99
0 119 113
0 119 113
0 119 113
79 80 88
79 80 88
79 81 88
79 81 88
79 81 88
79 81 88
79 81 88
27 29 30
27 29 30
27 29 30
27 29 30
27 29 30
27 29 30
27 29 30
27 29 30
27 29 30
27 29 30
27 29 30
27 29 30
27 29 30
27 29 29
26 28 29
25 27 28
23 25 26
20 23 24
17 20 22
15 20 21
14 20 21
13 20 21
13 20 21
12 20 21
12 20 21
11 21 21
14 22 22
19 25 25
24 29 28
26 31 30
28 32 31
28 32 31
28 32 31
28 32 31
28 32 31
29 32 32
29 32 32
29 32 32
29 32 32
29 32 32
29 32 32
29 32 32
29 32 32
29 32 32
29 32 32
29 32 32
14 33 20
14 33 20
14 33 20
14 33 20
14 33 19
13 32 19
13 32 19
13 32 18
13 32 18
12 32 18
12 32 17
11 31 17
11 31 17
11 31 16
11 31 16
11 31 15
10 30 15
9 30 14
9 30 14
74 89 78
73 89 78
73 89 78
73 89 78
73 89 78
73 89 77
73 89 77
0 90 0
0 90 0
0 89 0
0 89 0
0 89 0
0 88 0
0 87 0
0 86 0
0 84 0
0 83 0
0 82 0
0 80 0
0 80 0
0 81 0
0 83 0
0 84 0
0 86 0
0 88 0
0 90 0
0 91 0
0 92 0
0 92 0
0 93 0
0 93 0
0 94 0
0 94 0
0 95 0
0 95 0
0 95 0
0 95 0
0 95 0
0 95 0
0 95 0
0 94 0
0 94 0
0 94 0
0 94 0
0 93 0
0 93 0
0 92 0
0 92 0
0 92 0
85 0 0
85 0 0
85 0 0
86 0 0
86 0 0
86 0 0
86 0 0
86 0 0
86 0 0
85 0 0
85 0 0
85 0 0
85 0 0
84 0 0
84 0 0
83 0 0
83 0 0
82 0 0
81 0 0
80 0 0
79 0 0
79 0 0
78 0 0
77 0 0
77 0 0
76 0 0
76 0 0
76 0 0
76 0 0
77 0 0
77 0 0
77 0 0
77 0 0
77 0 0
77 0 0
78 0 0
79 0 0
79 0 0
79 0 0
80 0 0
80 0 0
80 0 0
79 0 0
79 0 0
76 60 67
76 60 67
76 60 68
76 60 68
76 60 69
76 61 69
76 61 69
76 61 69
76 61 70
76 62 70
76 62 71
76 62 71
76 62 71
76 62 72
76 62 72
77 63 73
77 63 73
77 63 73
77 63 74
77 64 74
77 64 74
77 64 74
77 64 75
77 64 75
77 65 75
77 65 76
47 20 30
47 21 31
47 21 31
47 21 32
48 22 32
48 22 32
48 22 33
48 23 33
42 48 48
42 48 48
42 48 48
42 48 48
42 48 48
42 48 48
42 49 48
42 49 48
42 49 49
42 49 49
42 49 49
42 49 49
42 49 49
42 49 49
42 49 49
42 49 49
42 49 49
42 50 49
42 50 49
42 50 49
42 50 50
42 50 50
42 50 50
42 50 50
78 72 84
0 120 114
0 112 104
0 112 104
0 92 83
0 92 83
0 92 83
0 91 82
0 89 81
0 121 116
0 118 114
0 113 110
0 107 104
0 101 99
0 95 92
0 91 88
0 89 86
0 88 84
0 87 83
0 87 82
0 87 81
0 87 80
0 89 80
0 91 80
0 93 81
0 96 84
0 99 87
0 102 90
0 106 93
0 110 97
0 113 102
0 117 106
0 120 109
0 122 112
0 125 115
0 127 118
0 127 118
0 85 81
0 85 81
0 85 81
0 86 82
0 87 82
0 107 102
0 107 103
0 122 115
27 29 30
27 29 30
27 29 30
27 29 30
27 29 30
27 29 30
27 29 30
27 29 30
27 29 29
26 28 29
25 27 28
24 26 27
21 24 25
19 22 23
16 21 22
15 20 21
14 20 21
14 20 21
13 20 21
13 20 21
14 21 21
17 23 23
21 26 26
24 29 28
26 31 30
27 31 30
28 32 31
28 32 31
28 32 31
28 32 31
28 32 31
28 32 32
28 32 32
28 32 32
28 32 32
28 32 32
28 32 32
28 32 32
28 32 32
28 32 32
28 32 32
14 32 20
14 32 20
14 32 20
14 32 20
14 32 19
13 32 19
13 32 19
13 32 19
13 32 18
12 32 18
12 31 17
12 31 17
11 31 17
11 31 16
11 31 16
11 30 16
10 30 15
10 30 15
9 30 14
73 88 78
73 88 78
73 89 78
73 89 78
72 89 77
72 89 77
72 89 77
0 89 0
0 89 0
0 89 0
0 89 0
0 88 0
0 87 0
0 86 0
0 85 0
0 84 0
0 82 0
0 81 0
0 80 0
0 80 0
0 80 0
0 82 0
0 84 0
0 86 0
0 87 0
0 89 0
0 90 0
0 91 0
0 92 0
0 92 0
0 93 0
0 93 0
0 94 0
0 94 0
0 94 0
0 94 0
0 95 0
0 94 0
0 94 0
0 94 0
0 94 0
0 94 0
0 93 0
0 93 0
0 93 0
0 93 0
0 92 0
0 92 0
0 91 0
85 0 0
85 0 0
85 0 0
85 0 0
85 0 0
85 0 0
85 0 0
85 0 0
85 0 0
85 0 0
85 0 0
85 0 0
84 0 0
84 0 0
84 0 0
83 0 0
82 0 0
81 0 0
81 0 0
80 0 0
79 0 0
79 0 0
78 0 0
77 0 0
76 0 0
76 0 0
76 0 0
76 0 0
76 0 0
76 0 0
76 0 0
77 0 0
76 0 0
77 0 0
77 0 0
78 0 0
78 0 0
79 0 0
79 0 0
79 0 0
79 0 0
79 0 0
79 0 0
78 0 0
76 59 67
76 60 67
76 60 68
76 60 68
76 60 68
76 60 69
76 61 69
76 61 70
76 61 70
76 61 70
76 61 71
76 62 71
76 62 71
76 62 72
76 62 72
76 62 73
76 63 73
76 63 73
76 63 74
77 63 74
77 63 74
76 63 74
77 64 75
77 64 75
77 64 75
77 64 76
47 21 31
47 21 31
47 21 31
47 21 32
47 22 32
48 22 32
48 22 33
48 23 33
42 48 48
42 48 48
42 48 48
42 48 48
42 48 48
42 48 49
42 49 49
42 49 49
42 49 49
42 49 49
42 49 49
42 49 49
42 49 49
42 49 49
42 49 49
42 49 49
42 49 49
42 49 49
42 49 49
0 114 106
0 114 106
0 93 84
0 92 84
0 92 83
0 75 66
0 74 65
0 118 114
0 119 115
0 119 115
0 119 115
0 118 115
0 117 114
0 115 113
0 114 111
0 112 110
0 111 107
0 108 105
0 107 103
0 105 101
0 105 100
0 104 100
0 104 99
0 104 99
0 104 98
0 105 98
0 105 98
0 106 98
0 107 99
0 108 99
0 109 101
0 111 102
0 112 103
0 114 105
0 116 107
0 118 109
0 120 111
0 122 113
0 123 114
0 125 115
0 126 116
0 126 117
0 127 118
0 128 119
0 128 119
0 128 119
0 128 119
0 128 119
0 127 118
0 71 67
0 72 68
0 86 81
0 87 82
0 88 83
0 109 104
0 124 117
27 29 30
27 29 30
26 28 29
26 28 29
25 27 28
24 26 27
22 25 26
20 23 24
18 22 23
17 21 22
15 20 21
14 20 21
14 20 21
14 21 21
16 22 22
19 24 24
22 27 27
25 29 28
26 30 29
27 31 30
28 31 31
28 32 31
28 32 31
28 32 31
28 32 31
28 32 31
28 32 32
28 32 32
28 32 32
28 32 32
28 32 32
28 32 32
28 32 32
28 32 32
28 32 32
14 32 20
14 32 20
14 32 20
14 32 20
14 32 20
13 32 19
13 32 19
13 32 19
13 32 18
12 31 18
12 31 18
12 31 17
11 31 17
11 31 16
11 30 16
11 30 16
10 30 15
10 30 15
9 29 14
72 88 78
72 88 78
72 88 77
72 88 77
72 88 77
72 88 77
72 88 77
0 89 0
0 88 0
0 88 0
0 88 0
0 87 0
0 86 0
0 85 0
0 84 0
0 83 0
0 82 0
0 80 0
0 79 0
0 79 0
0 79 0
0 81 0
0 83 0
0 85 0
0 87 0
0 88 0
0 90 0
0 91 0
0 91 0
0 92 0
0 93 0
0 93 0
0 93 0
0 94 0
0 94 0
0 94 0
0 94 0
0 94 0
0 94 0
0 94 0
0 94 0
0 93 0
0 93 0
0 93 0
0 93 0
0 92 0
0 92 0
0 91 0
0 91 0
85 0 0
85 0 0
85 0 0
85 0 0
85 0 0
85 0 0
85 0 0
85 0 0
85 0 0
85 0 0
85 0 0
84 0 0
84 0 0
84 0 0
83 0 0
82 0 0
82 0 0
81 0 0
80 0 0
79 0 0
79 0 0
78 0 0
78 0 0
77 0 0
76 0 0
76 0 0
75 0 0
76 0 0
76 0 0
76 0 0
76 0 0
76 0 0
76 0 0
76 0 0
77 0 0
77 0 0
78 0 0
78 0 0
78 0 0
79 0 0
79 0 0
79 0 0
79 0 0
78 0 0
75 59 67
75 59 67
75 60 68
75 60 68
75 60 68
75 60 69
75 60 69
75 61 70
75 61 70
75 61 70
75 61 71
75 61 71
76 62 72
76 62 72
76 62 72
76 62 73
76 62 73
76 63 73
76 63 74
76 63 74
76 63 74
76 63 75
76 64 75
76 64 75
76 64 76
77 64 76
46 20 31
47 21 31
47 21 32
47 21 32
47 22 32
47 22 33
47 22 33
48 23 33
42 48 48
42 48 48
42 48 48
42 48 48
42 48 49
42 48 49
42 49 49
42 49 49
42 49 49
42 49 49
42 49 49
42 49 49
42 49 49
42 49 49
42 49 49
42 49 49
0 115 108
0 95 86
0 79 70
0 75 66
0 73 64
0 60 53
0 117 113
0 117 113
0 118 113
0 118 114
0 118 114
0 119 115
0 119 115
0 118 115
0 118 115
0 118 114
0 117 114
0 116 113
0 116 112
0 115 111
0 115 110
0 114 109
0 114 108
0 113 108
0 113 108
0 114 108
0 114 108
0 114 108
0 115 108
0 115 108
0 116 109
0 117 109
0 117 110
0 118 111
0 119 111
0 120 112
0 121 113
0 122 114
0 123 115
0 124 116
0 125 117
0 125 117
0 126 118
0 126 118
0 127 118
0 127 119
0 128 119
0 128 119
0 128 119
0 128 119
0 128 119
0 128 119
0 128 119
0 128 118
0 128 118
0 127 117
0 60 56
0 70 66
0 74 69
0 88 83
0 91 85
0 125 119
26 28 29
25 27 28
24 27 27
23 26 26
21 24 25
20 23 24
18 22 23
17 21 22
16 21 21
16 21 21
16 22 22
18 24 24
21 26 25
23 28 27
25 29 29
26 30 29
27 31 30
28 31 30
28 31 30
28 32 31
28 32 31
28 32 31
28 32 31
28 32 31
28 32 32
28 32 32
28 32 32
28 32 32
28 32 32
28 32 32
28 32 32
28 31 32
14 32 20
14 32 20
14 32 20
14 32 20
13 32 20
13 32 19
13 32 19
13 32 19
12 31 18
12 31 18
12 31 18
12 31 17
11 31 17
11 30 17
11 30 16
11 30 16
10 30 15
10 30 15
9 29 14
72 87 77
72 87 77
72 87 77
71 87 77
71 87 77
71 88 76
71 88 76
0 88 0
0 88 0
0 87 0
0 87 0
0 86 0
0 86 0
0 85 0
0 84 0
0 82 0
0 81 0
0 79 0
0 78 0
0 78 0
0 79 0
0 80 0
0 82 0
0 84 0
0 86 0
0 88 0
0 89 0
0 90 0
0 91 0
0 92 0
0 92 0
0 93 0
0 93 0
0 93 0
0 94 0
0 94 0
0 94 0
0 94 0
0 94 0
0 93 0
0 93 0
0 93 0
0 93 0
0 92 0
0 92 0
0 92 0
0 91 0
0 91 0
0 91 0
84 0 0
84 0 0
84 0 0
85 0 0
85 0 0
85 0 0
85 0 0
85 0 0
85 0 0
85 0 0
84 0 0
84 0 0
84 0 0
83 0 0
83 0 0
82 0 0
81 0 0
81 0 0
80 0 0
79 0 0
79 0 0
78 0 0
77 0 0
76 0 0
76 0 0
75 0 0
75 0 0
75 0 0
76 0 0
76 0 0
76 0 0
76 0 0
76 0 0
76 0 0
76 0 0
77 0 0
77 0 0
78 0 0
78 0 0
78 0 0
78 0 0
79 0 0
78 0 0
78 0 0
75 59 67
75 59 68
75 59 68
75 59 68
75 60 68
75 60 69
75 60 69
75 60 70
75 60 70
75 61 70
75 61 71
75 61 71
75 61 72
75 61 72
75 62 72
75 62 73
75 62 73
75 62 73
76 63 74
76 63 74
76 63 74
76 63 75
76 63 75
76 63 75
76 64 76
76 64 76
46 20 31
46 21 31
46 21 32
47 21 32
47 22 32
47 22 33
47 22 33
47 22 33
42 48 49
42 48 49
42 48 49
42 48 49
42 48 49
42 48 49
42 48 49
42 48 49
42 49 49
42 49 49
42 49 49
42 49 49
42 49 49
42 49 49
0 114 110
0 98 90
0 77 69
0 61 53
0 57 49
0 111 107
0 116 111
0 116 111
0 117 113
0 118 113
0 118 113
0 118 114
0 119 114
0 119 114
0 119 115
0 119 115
0 119 114
0 119 114
0 119 114
0 119 114
0 119 114
0 119 113
0 118 113
0 118 113
0 118 112
0 118 112
0 118 112
0 118 112
0 119 112
0 119 112
0 119 113
0 120 113
0 120 113
0 121 114
0 121 114
0 122 115
0 122 115
0 123 116
0 123 116
0 124 116
0 124 117
0 125 117
0 125 118
0 125 118
0 126 118
0 126 118
0 126 118
0 127 118
0 127 118
0 127 118
0 127 118
0 127 118
0 127 118
0 128 118
0 127 118
0 127 118
0 128 118
0 128 118
0 128 117
0 127 117
0 51 49
0 55 52
0 69 65
0 77 71
0 126 119
0 118 102
24 27 28
23 26 27
22 25 26
21 24 25
20 23 24
19 23 23
18 22 23
18 22 23
19 23 24
21 25 25
22 26 26
24 28 28
25 29 29
26 30 29
27 31 30
28 31 30
28 31 30
28 31 30
28 31 31
28 32 31
28 32 31
28 32 31
28 32 31
28 32 31
28 32 32
28 32 32
28 32 31
28 31 32
28 31 31
28 31 31
14 32 20
14 32 20
14 32 20
13 32 20
13 32 20
13 32 19
13 31 19
13 31 19
12 31 18
12 31 18
12 31 18
12 31 17
11 30 17
11 30 17
11 30 16
11 30 16
10 30 15
10 29 15
10 29 15
71 86 77
71 87 77
71 86 77
71 87 76
71 87 76
71 87 76
70 87 76
0 87 0
0 87 0
0 87 0
0 86 0
0 86 0
0 85 0
0 84 0
0 83 0
0 82 0
0 80 0
0 79 0
0 77 0
0 77 0
0 78 0
0 80 0
0 82 0
0 83 0
0 85 0
0 87 0
0 88 0
0 90 0
0 90 0
0 91 0
0 92 0
0 92 0
0 93 0
0 93 0
0 93 0
0 93 0
0 93 0
0 93 0
0 93 0
0 93 0
0 93 0
0 93 0
0 92 0
0 92 0
0 92 0
0 92 0
0 91 0
0 91 0
0 90 0
84 0 0
84 0 0
84 0 0
84 0 0
84 0 0
84 0 0
84 0 0
84 0 0
84 0 0
84 0 0
84 0 0
84 0 0
83 0 0
83 0 0
82 0 0
82 0 0
81 0 0
80 0 0
80 0 0
79 0 0
78 0 0
78 0 0
77 0 0
76 0 0
76 0 0
75 0 0
75 0 0
75 0 0
75 0 0
75 0 0
75 0 0
75 0 0
75 0 0
75 0 0
76 0 0
76 0 0
77 0 0
77 0 0
78 0 0
78 0 0
78 0 0
78 0 0
78 0 0
77 0 0
74 59 67
75 59 67
74 59 68
75 59 68
74 59 69
75 59 69
74 60 69
75 60 70
75 60 70
74 60 70
75 61 71
75 61 71
75 61 72
75 61 72
75 62 73
75 62 73
75 62 73
75 62 74
75 62 74
75 62 74
75 63 75
75 63 75
75 63 75
75 63 76
76 63 76
76 64 76
46 20 31
46 21 32
46 21 32
46 21 32
47 21 33
47 22 33
47 22 33
47 22 34
42 48 49
42 48 49
42 48 49
42 48 49
42 48 49
42 48 49
42 48 49
42 49 49
42 48 49
42 49 49
42 49 49
42 49 49
42 49 49
0 83 82
0 104 101
0 115 111
0 27 29
0 28 29
0 111 107
0 111 107
0 116 111
0 116 111
0 116 111
0 116 112
0 118 113
0 118 113
0 118 113
0 118 114
0 119 114
0 119 114
0 120 114
0 120 114
0 120 114
0 120 114
0 120 114
0 120 114
0 120 114
0 120 114
0 120 114
0 120 114
0 120 114
0 121 114
0 121 114
0 121 114
0 121 114
0 121 115
0 122 115
0 122 115
0 122 115
0 122 115
0 123 116
0 123 116
0 123 116
0 124 116
0 124 116
0 124 117
0 124 117
0 125 117
0 125 117
0 125 117
0 125 117
0 126 117
0 126 117
0 126 117
0 126 117
0 126 117
0 126 117
0 127 117
0 127 117
0 127 117
0 126 116
0 127 117
0 127 117
0 127 117
0 125 114
0 125 115
0 30 30
0 127 120
0 122 108
0 117 101
24 27 28
24 26 27
23 26 26
22 25 26
21 24 25
20 24 24
20 24 24
20 24 24
21 25 25
22 26 26
23 27 27
25 28 28
26 29 29
26 30 29
27 30 30
27 31 30
28 31 30
28 31 30
28 31 30
28 31 31
28 31 31
28 31 31
28 31 31
28 31 31
28 31 31
28 31 31
28 31 31
28 31 31
28 31 31
28 31 31
14 32 20
14 32 20
13 32 20
13 32 20
13 31 20
13 31 19
13 31 19
13 31 19
12 31 19
12 31 18
12 31 18
12 30 18
11 30 17
11 30 17
11 30 17
11 30 16
10 29 16
10 29 15
10 29 15
70 86 77
70 86 76
70 86 76
70 86 76
70 86 76
70 86 76
70 86 75
0 87 0
0 87 0
0 86 0
0 86 0
0 85 0
0 84 0
0 83 0
0 82 0
0 81 0
0 80 0
0 78 0
0 76 0
0 77 0
0 77 0
0 79 0
0 81 0
0 83 0
0 85 0
0 86 0
0 88 0
0 89 0
0 90 0
0 90 0
0 91 0
0 92 0
0 92 0
0 92 0
0 93 0
0 93 0
0 93 0
0 93 0
0 93 0
0 93 0
0 92 0
0 92 0
0 92 0
0 92 0
0 92 0
0 91 0
0 91 0
0 90 0
0 90 0
84 0 0
84 0 0
84 0 0
84 0 0
84 0 0
84 0 0
84 0 0
84 0 0
84 0 0
84 0 0
84 0 0
83 0 0
83 0 0
83 0 0
82 0 0
82 0 0
81 0 0
80 0 0
79 0 0
79 0 0
78 0 0
77 0 0
77 0 0
76 0 0
75 0 0
75 0 0
74 0 0
75 0 0
75 0 0
75 0 0
75 0 0
75 0 0
75 0 0
75 0 0
76 0 0
76 0 0
77 0 0
77 0 0
77 0 0
78 0 0
78 0 0
78 0 0
78 0 0
77 0 0
74 58 67
74 58 67
74 58 68
74 59 68
74 59 68
74 59 69
74 59 69
74 60 70
74 60 70
74 60 70
74 60 71
74 61 71
74 61 72
74 61 72
74 61 73
74 61 73
75 62 73
75 62 74
75 62 74
75 62 74
75 62 75
75 63 75
75 63 75
75 63 76
75 63 76
75 63 76
46 20 31
46 21 32
46 21 32
46 21 32
46 21 33
46 22 33
47 22 33
47 22 34
42 48 49
42 48 49
42 48 49
42 48 49
42 48 49
42 48 49
42 48 49
42 48 49
42 48 49
42 48 49
42 49 49
42 49 49
42 49 50
0 83 82
0 84 83
0 93 92
0 94 92
0 104 101
0 115 111
0 111 107
0 111 107
0 111 107
0 116 112
0 116 112
0 116 112
0 116 112
0 116 112
0 117 112
0 117 112
0 119 113
0 119 113
0 119 114
0 119 114
0 119 114
0 120 114
0 120 114
0 120 114
0 120 114
0 120 114
0 120 114
0 120 114
0 120 114
0 121 114
0 121 114
0 121 114
0 121 114
0 121 114
0 121 114
0 122 115
0 122 115
0 122 115
0 122 115
0 123 115
0 123 115
0 123 115
0 123 116
0 123 116
0 123 116
0 124 116
0 124 116
0 124 116
0 124 116
0 124 116
0 125 116
0 125 117
0 124 115
0 124 115
0 125 116
0 125 116
0 125 116
0 126 116
0 123 113
0 123 113
0 124 113
0 125 116
0 120 107
0 120 107
0 113 99
0 115 100
0 109 91
0 104 85
24 27 27
23 26 27
22 26 26
22 25 26
21 25 25
21 25 25
22 25 26
22 26 26
23 27 27
24 27 27
25 28 28
26 29 29
26 30 29
27 30 29
27 30 30
27 31 30
27 31 30
27 31 30
28 31 30
27 31 30
27 31 31
28 31 31
28 31 31
28 31 31
28 31 31
28 31 31
28 31 31
28 31 31
28 31 31
14 31 21
13 31 20
13 31 20
13 31 20
13 31 20
13 31 19
13 31 19
13 31 19
12 31 19
12 31 18
12 30 18
12 30 18
12 30 17
11 30 17
11 30 17
11 29 16
10 29 16
10 29 15
10 29 15
70 85 76
70 85 76
69 85 76
69 85 76
69 85 76
69 86 75
69 86 75
0 86 0
0 86 0
0 85 0
0 85 0
0 84 0
0 83 0
0 83 0
0 82 0
0 80 0
0 79 0
0 77 0
0 76 0
0 76 0
0 77 0
0 78 0
0 80 0
0 82 0
0 84 0
0 86 0
0 87 0
0 88 0
0 89 0
0 90 0
0 91 0
0 91 0
0 92 0
0 92 0
0 92 0
0 92 0
0 92 0
0 92 0
0 92 0
0 92 0
0 92 0
0 92 0
0 92 0
0 91 0
0 91 0
0 91 0
0 91 0
0 90 0
0 90 0
83 0 0
83 0 0
84 0 0
84 0 0
84 0 0
84 0 0
84 0 0
84 0 0
84 0 0
84 0 0
83 0 0
83 0 0
83 0 0
82 0 0
82 0 0
81 0 0
81 0 0
80 0 0
79 0 0
78 0 0
78 0 0
77 0 0
76 0 0
76 0 0
75 0 0
74 0 0
74 0 0
74 0 0
75 0 0
75 0 0
75 0 0
75 0 0
75 0 0
75 0 0
75 0 0
76 0 0
76 0 0
77 0 0
77 0 0
77 0 0
77 0 0
77 0 0
77 0 0
77 0 0
74 58 67
74 58 67
74 58 68
74 59 68
74 59 69
74 59 69
74 59 70
74 59 70
74 60 70
74 60 71
74 60 71
74 60 71
74 60 72
74 61 72
74 61 73
74 61 73
74 61 74
74 61 74
74 62 74
74 62 75
74 62 75
74 62 75
74 62 75
75 63 76
75 63 76
75 63 77
45 20 31
46 20 32
46 21 32
46 21 33
46 21 33
46 22 33
46 22 34
46 22 34
42 48 49
42 48 49
42 48 49
42 48 49
42 48 49
42 48 49
42 48 49
42 48 49
42 48 49
42 48 49
42 48 50
42 49 50
0 70 71
0 75 75
0 76 75
0 84 83
0 84 83
0 84 83
0 93 92
0 94 92
0 94 92
0 104 101
0 104 101
0 105 101
0 116 111
0 111 107
0 111 107
0 111 107
0 117 112
0 117 112
0 117 112
0 117 112
0 117 112
0 117 112
0 118 112
0 118 112
0 118 112
0 118 112
0 118 112
0 118 112
0 118 112
0 119 112
0 119 112
0 119 112
0 119 113
0 119 113
0 119 113
0 119 113
0 120 113
0 120 113
0 120 113
0 120 113
0 121 113
0 121 113
0 121 113
0 121 114
0 122 114
0 122 114
0 122 114
0 122 114
0 122 114
0 123 115
0 123 115
0 123 115
0 123 115
0 124 115
0 121 111
0 121 111
0 124 115
0 124 115
0 116 105
0 116 106
0 110 97
0 110 97
0 110 97
0 103 88
0 105 89
0 106 89
0 99 81
0 102 83
0 101 81
0 122 112
0 122 112
0 122 111
0 122 111
0 121 111
0 121 110
0 121 110
0 121 110
0 117 105
0 117 104
0 116 103
0 116 103
0 116 103
0 118 106
0 117 105
0 115 102
27 30 30
27 30 30
27 30 30
27 31 30
27 31 30
27 31 30
27 31 31
27 30 31
27 31 31
27 31 31
27 31 31
27 31 31
27 31 31
13 31 21
13 31 20
13 31 20
13 31 20
13 31 20
13 31 20
13 31 19
12 31 19
12 31 19
12 30 18
12 30 18
12 30 18
11 30 17
11 30 17
11 29 17
11 29 16
10 29 16
10 29 15
10 29 15
69 84 76
69 84 76
69 84 76
69 85 76
69 85 75
69 85 75
69 85 75
0 85 0
0 85 0
0 85 0
0 84 0
0 84 0
0 83 0
0 82 0
0 81 0
0 80 0
0 78 0
0 76 0
0 75 0
0 75 0
0 76 0
0 78 0
0 79 0
0 81 0
0 83 0
0 85 0
0 86 0
0 88 0
0 89 0
0 89 0
0 90 0
0 91 0
0 91 0
0 91 0
0 92 0
0 92 0
0 92 0
0 92 0
0 92 0
0 92 0
0 92 0
0 92 0
0 91 0
0 91 0
0 91 0
0 90 0
0 90 0
0 90 0
0 90 0
83 0 0
83 0 0
83 0 0
83 0 0
84 0 0
84 0 0
84 0 0
84 0 0
83 0 0
83 0 0
83 0 0
83 0 0
82 0 0
82 0 0
81 0 0
81 0 0
80 0 0
79 0 0
79 0 0
78 0 0
77 0 0
77 0 0
76 0 0
75 0 0
75 0 0
74 0 0
74 0 0
74 0 0
74 0 0
75 0 0
74 0 0
74 0 0
74 0 0
75 0 0
75 0 0
75 0 0
76 0 0
76 0 0
77 0 0
77 0 0
77 0 0
77 0 0
77 0 0
76 0 0
73 58 67
73 58 67
73 58 68
73 58 68
73 58 69
73 59 69
73 59 70
73 59 70
73 59 70
73 60 71
73 60 71
73 60 72
73 60 72
73 60 72
74 61 73
74 61 73
74 61 74
74 61 74
74 61 74
74 62 75
74 62 75
74 62 75
74 62 76
74 62 76
74 63 76
74 63 77
45 20 32
45 20 32
45 21 33
46 21 33
46 21 33
46 22 33
46 22 34
46 22 34
42 47 49
42 47 49
42 48 49
42 48 49
42 48 49
42 48 49
42 48 49
42 48 49
42 48 49
42 48 49
41 48 50
42 48 50
0 71 71
0 71 72
0 72 72
0 76 75
0 76 75
0 76 75
0 76 75
0 84 83
0 84 82
0 84 82
0 84 82
0 83 82
0 93 91
0 93 91
0 93 91
0 93 91
0 94 91
0 94 91
0 105 101
0 105 101
0 105 101
0 105 101
0 106 101
0 117 111
0 117 112
0 117 112
0 118 112
0 113 108
0 113 108
0 113 108
0 113 108
0 118 112
0 119 113
0 119 113
0 119 113
0 119 113
0 120 113
0 115 108
0 115 108
0 115 109
0 115 109
0 116 109
0 120 113
0 120 113
0 120 113
0 110 103
0 110 103
0 112 103
0 112 104
0 112 104
0 112 104
0 102 94
0 105 94
0 105 94
0 105 94
0 105 94
0 105 95
0 99 86
0 99 86
0 99 86
0 99 86
0 102 88
0 94 79
0 95 79
0 98 81
0 98 81
0 95 77
0 98 79
0 98 79
0 100 81
0 119 107
0 119 107
0 109 96
0 109 95
0 109 95
0 109 95
0 108 94
0 108 94
0 108 94
0 108 93
0 108 93
0 108 93
0 106 91
0 106 91
0 107 91
0 113 98
0 113 97
27 30 30
27 30 30
27 30 30
27 30 30
27 30 30
27 30 30
27 30 30
27 30 31
27 30 31
27 30 31
27 30 31
13 31 21
13 31 21
13 31 20
13 31 20
13 31 20
13 31 20
13 31 19
12 31 19
12 30 19
12 30 18
12 30 18
12 30 18
11 30 18
11 29 17
11 29 17
11 29 16
10 29 16
10 29 16
10 28 15
68 83 76
68 84 76
68 84 75
68 84 75
68 84 75
68 84 75
68 84 74
0 85 0
0 84 0
0 84 0
0 84 0
0 83 0
0 82 0
0 81 0
0 80 0
0 79 0
0 78 0
0 76 0
0 75 0
0 75 0
0 75 0
0 77 0
0 79 0
0 81 0
0 83 0
0 84 0
0 86 0
0 87 0
0 88 0
0 89 0
0 90 0
0 90 0
0 91 0
0 91 0
0 91 0
0 91 0
0 91 0
0 92 0
0 92 0
0 91 0
0 91 0
0 91 0
0 91 0
0 91 0
0 90 0
0 90 0
0 90 0
0 90 0
0 89 0
83 0 0
83 0 0
83 0 0
83 0 0
83 0 0
83 0 0
83 0 0
83 0 0
83 0 0
83 0 0
83 0 0
82 0 0
82 0 0
82 0 0
81 0 0
81 0 0
80 0 0
79 0 0
78 0 0
78 0 0
77 0 0
77 0 0
76 0 0
75 0 0
74 0 0
74 0 0
74 0 0
74 0 0
74 0 0
74 0 0
74 0 0
74 0 0
74 0 0
74 0 0
74 0 0
75 0 0
75 0 0
76 0 0
76 0 0
76 0 0
76 0 0
76 0 0
76 0 0
76 0 0
73 58 67
73 58 67
73 58 68
73 58 68
73 58 69
73 59 69
73 59 70
73 59 70
73 59 71
73 60 71
73 60 71
73 60 72
73 60 72
73 60 73
0 113 108
0 113 108
0 112 107
0 111 106
0 112 107
74 61 75
73 61 75
74 62 76
74 62 76
74 62 76
74 62 77
74 63 77
45 20 32
45 20 32
45 21 33
45 21 33
45 21 33
46 21 34
46 22 34
46 22 34
42 47 49
42 47 49
42 47 49
42 47 49
42 48 49
42 48 49
42 48 49
42 48 49
42 48 50
41 48 50
41 48 50
0 69 70
0 71 71
0 72 72
0 72 72
0 72 72
0 72 72
0 72 72
0 72 71
0 75 74
0 75 74
0 75 74
0 74 74
0 74 74
0 74 73
0 74 73
0 83 82
0 83 81
0 83 81
0 83 81
0 83 81
0 83 81
0 83 81
0 83 81
0 83 81
0 83 81
0 83 81
0 95 91
0 95 91
0 95 91
0 95 91
0 95 91
0 95 91
0 96 91
0 96 91
0 96 91
0 96 91
0 96 91
0 97 92
0 97 92
0 97 92
0 98 92
0 98 92
0 98 92
0 99 92
0 89 82
0 89 82
0 89 82
0 90 82
0 92 83
0 92 83
0 92 83
0 92 83
0 92 83
0 92 83
0 95 84
0 95 84
0 86 75
0 86 75
0 90 76
0 90 77
0 90 77
0 90 77
0 91 77
0 90 74
0 90 74
0 91 74
0 94 76
0 94 77
0 97 78
0 97 78
0 100 80
0 88 74
0 88 74
0 87 73
0 87 73
0 86 73
0 86 72
0 86 72
0 86 72
0 85 72
0 85 71
0 85 71
0 85 71
0 85 70
0 85 70
0 83 68
0 83 68
0 105 88
0 100 82
0 108 91
27 30 30
27 30 30
27 30 30
27 29 30
27 30 30
27 30 30
27 30 30
27 30 30
27 30 31
13 31 21
13 31 21
13 31 21
13 31 20
13 31 20
13 31 20
13 30 19
12 30 19
12 30 19
12 30 19
12 30 18
12 30 18
11 29 18
11 29 17
11 29 17
11 29 17
11 29 16
10 28 16
10 28 15
68 83 76
68 83 76
68 83 75
68 83 75
68 83 75
68 84 75
67 84 74
0 84 0
0 84 0
0 83 0
0 83 0
0 82 0
0 81 0
0 80 0
0 80 0
0 78 0
0 77 0
0 75 0
0 74 0
0 74 0
0 75 0
0 76 0
0 78 0
0 80 0
0 82 0
0 84 0
0 85 0
0 87 0
0 88 0
0 88 0
0 89 0
0 90 0
0 90 0
0 90 0
0 91 0
0 91 0
0 91 0
0 91 0
0 91 0
0 91 0
0 91 0
0 91 0
0 91 0
0 90 0
0 90 0
0 90 0
0 90 0
0 89 0
0 89 0
83 0 0
83 0 0
83 0 0
83 0 0
83 0 0
83 0 0
83 0 0
83 0 0
83 0 0
83 0 0
82 0 0
82 0 0
82 0 0
81 0 0
81 0 0
80 0 0
80 0 0
79 0 0
78 0 0
77 0 0
77 0 0
76 0 0
76 0 0
75 0 0
74 0 0
74 0 0
73 0 0
73 0 0
74 0 0
74 0 0
74 0 0
74 0 0
74 0 0
74 0 0
74 0 0
74 0 0
75 0 0
75 0 0
76 0 0
76 0 0
76 0 0
76 0 0
76 0 0
76 0 0
73 57 67
73 58 67
73 58 68
73 58 68
73 58 69
73 58 69
73 58 70
0 85 83
0 97 94
0 114 109
0 111 104
0 103 96
0 102 95
0 90 83
0 111 105
0 111 106
0 112 107
0 106 99
0 110 103
0 110 104
0 111 104
0 111 104
0 115 107
73 62 76
73 62 77
74 62 77
45 20 32
45 20 33
45 20 33
45 21 33
45 21 34
45 21 34
46 22 34
46 22 34
42 47 49
42 47 49
42 47 49
42 47 49
42 47 49
42 47 49
41 48 49
41 48 50
41 48 50
41 48 50
41 48 50
0 70 71
0 71 71
0 72 71
0 72 72
0 72 71
0 72 71
0 72 71
0 72 71
0 71 70
0 70 70
0 70 70
0 70 70
0 69 69
0 69 69
0 69 69
0 69 69
0 73 72
0 73 72
0 73 72
0 73 72
0 73 72
0 73 72
0 73 72
0 73 72
0 73 72
0 73 72
0 73 71
0 73 71
0 73 71
0 73 71
0 73 71
0 73 71
0 74 71
0 74 71
0 75 71
0 75 71
0 75 71
0 76 72
0 76 71
0 76 71
0 76 72
0 77 72
0 77 72
0 79 72
0 79 72
0 79 72
0 79 72
0 79 72
0 82 73
0 82 73
0 82 73
0 82 73
0 82 73
0 83 73
0 86 75
0 81 70
0 82 70
0 82 70
0 82 70
0 86 72
0 86 72
0 86 72
0 86 72
0 90 74
0 90 74
0 90 74
0 93 76
0 94 76
0 94 76
0 97 78
0 97 78
0 100 80
0 64 57
0 63 57
0 62 57
0 55 60
0 54 60
0 53 60
0 53 60
0 52 60
0 51 60
0 50 61
0 50 61
0 49 60
0 49 60
0 57 56
0 57 56
0 58 56
0 82 67
0 93 73
27 29 29
27 29 29
27 29 30
27 29 30
27 29 30
27 29 30
27 29 30
27 29 30
27 30 30
13 31 21
13 31 21
13 31 21
13 31 20
13 30 20
13 30 20
12 30 20
12 30 19
12 30 19
12 30 19
12 30 18
12 29 18
11 29 18
11 29 17
11 29 17
11 29 17
11 28 16
10 28 16
10 28 15
67 82 76
67 82 75
67 82 75
67 83 75
67 83 74
67 83 74
67 83 74
0 83 0
0 83 0
0 83 0
0 82 0
0 81 0
0 81 0
0 80 0
0 79 0
0 78 0
0 76 0
0 74 0
0 73 0
0 73 0
0 74 0
0 76 0
0 77 0
0 79 0
0 81 0
0 83 0
0 85 0
0 86 0
0 87 0
0 88 0
0 89 0
0 89 0
0 90 0
0 90 0
0 90 0
0 91 0
0 91 0
0 91 0
0 91 0
0 91 0
0 91 0
0 90 0
0 90 0
0 90 0
0 90 0
0 90 0
0 89 0
0 89 0
0 89 0
82 0 0
82 0 0
83 0 0
83 0 0
83 0 0
83 0 0
83 0 0
83 0 0
83 0 0
82 0 0
82 0 0
82 0 0
81 0 0
81 0 0
81 0 0
80 0 0
79 0 0
79 0 0
78 0 0
77 0 0
76 0 0
76 0 0
75 0 0
74 0 0
74 0 0
73 0 0
73 0 0
73 0 0
73 0 0
74 0 0
73 0 0
73 0 0
73 0 0
73 0 0
74 0 0
74 0 0
75 0 0
75 0 0
75 0 0
76 0 0
76 0 0
76 0 0
76 0 0
75 0 0
73 57 67
73 58 67
72 58 68
72 58 68
72 58 69
72 58 69
72 58 70
72 59 70
72 59 71
0 5 53
0 5 52
0 8 46
0 8 45
0 18 38
0 22 37
0 53 51
0 53 51
0 53 52
0 67 62
0 67 62
0 91 84
0 91 84
0 105 98
0 98 90
73 62 77
73 62 77
44 20 32
44 20 33
45 20 33
45 21 33
45 21 34
45 21 34
45 22 34
45 22 35
42 47 49
42 47 49
42 47 49
42 47 49
42 47 49
41 47 49
41 47 50
41 47 50
41 48 50
41 48 50
0 68 69
0 70 71
0 72 71
0 72 72
0 72 72
0 72 71
0 72 71
0 72 71
0 71 70
0 70 70
0 70 70
0 70 70
0 69 69
0 69 69
0 69 69
0 68 69
0 68 69
0 68 68
0 68 68
0 67 68
0 68 68
0 67 68
0 67 67
0 67 67
0 67 67
0 67 67
0 67 67
0 68 66
0 68 66
0 68 66
0 68 66
0 68 66
0 68 66
0 69 66
0 69 66
0 69 66
0 69 66
0 69 66
0 71 67
0 71 67
0 71 67
0 71 67
0 71 67
0 71 67
0 74 67
0 74 67
0 74 67
0 74 68
0 74 68
0 74 68
0 77 68
0 77 69
0 77 69
0 77 69
0 78 69
0 81 70
0 81 70
0 81 70
0 81 70
0 81 70
0 85 72
0 85 72
0 85 72
0 86 72
0 89 74
0 89 74
0 90 74
0 90 74
0 93 76
0 94 76
0 96 78
0 97 78
0 99 79
0 54 60
0 53 60
0 52 61
0 49 61
0 48 61
0 47 61
25 28 28
25 28 29
0 46 62
0 45 62
0 45 63
0 46 63
0 46 63
0 46 63
0 48 60
0 48 60
0 59 57
0 79 63
0 94 73
27 29 29
27 29 29
27 29 29
27 28 30
27 29 30
27 29 30
27 29 30
27 29 30
13 30 21
13 30 21
13 30 21
13 30 20
13 30 20
13 30 20
12 30 20
12 30 19
12 30 19
12 30 19
12 29 19
12 29 18
11 29 18
11 29 18
11 29 17
11 28 17
11 28 16
10 28 16
10 28 16
67 81 75
66 81 75
67 82 75
66 82 75
66 82 74
66 82 74
66 82 74
0 83 0
0 82 0
0 82 0
0 81 0
0 81 0
0 80 0
0 79 0
0 78 0
0 77 0
0 75 0
0 74 0
0 73 0
0 73 0
0 73 0
0 75 0
0 77 0
0 79 0
0 81 0
0 82 0
0 84 0
0 85 0
0 87 0
0 87 0
0 88 0
0 89 0
0 89 0
0 90 0
0 90 0
0 90 0
0 90 0
0 90 0
0 90 0
0 90 0
0 90 0
0 90 0
0 90 0
0 90 0
0 90 0
0 89 0
0 89 0
0 89 0
0 88 0
82 0 0
82 0 0
82 0 0
82 0 0
82 0 0
82 0 0
82 0 0
82 0 0
82 0 0
82 0 0
82 0 0
81 0 0
81 0 0
81 0 0
80 0 0
79 0 0
79 0 0
78 0 0
78 0 0
77 0 0
76 0 0
76 0 0
75 0 0
74 0 0
74 0 0
73 0 0
73 0 0
73 0 0
73 0 0
73 0 0
73 0 0
73 0 0
73 0 0
73 0 0
73 0 0
74 0 0
74 0 0
74 0 0
75 0 0
75 0 0
75 0 0
75 0 0
75 0 0
75 0 0
72 57 67
72 57 67
72 57 68
72 57 68
72 58 69
72 58 69
72 58 70
72 58 70
72 58 71
72 59 71
72 59 72
0 3 55
0 4 52
0 8 46
0 8 46
0 16 39
0 16 39
0 40 43
0 40 43
0 66 61
0 64 59
0 64 59
0 83 76
0 103 95
0 98 90
0 110 101
44 20 33
44 20 33
44 20 33
44 21 34
45 21 34
45 21 34
45 21 35
45 22 35
42 47 49
42 47 49
42 47 49
41 47 49
41 47 49
41 47 50
41 47 50
41 47 50
41 47 50
41 47 50
0 69 70
0 70 71
0 71 71
0 72 71
0 72 72
0 72 71
0 72 71
0 71 71
0 70 70
0 70 70
0 70 70
0 70 70
0 69 69
0 68 69
0 68 69
0 68 68
0 68 68
0 67 68
0 67 68
0 67 67
0 67 67
0 67 67
0 67 67
0 67 67
0 67 67
0 67 67
0 67 66
0 67 66
0 67 66
0 67 66
0 67 66
0 67 66
0 67 66
0 69 66
0 69 66
0 69 66
0 69 66
0 69 66
0 71 66
0 71 66
0 71 66
0 71 66
0 71 66
0 71 66
0 73 67
0 73 67
0 74 67
0 74 67
0 74 67
0 74 67
0 77 68
0 77 68
0 77 68
0 77 68
0 77 68
0 80 70
0 81 70
0 81 70
0 81 70
0 81 70
0 85 71
0 85 71
0 85 71
0 85 72
0 85 72
0 89 73
0 89 73
0 89 74
0 93 76
0 93 75
0 93 75
0 96 77
0 96 77
0 98 79
25 28 28
25 28 28
25 28 28
25 28 28
25 28 28
25 28 29
25 28 29
26 29 29
26 29 29
26 29 29
0 44 56
0 45 60
0 46 61
0 46 61
0 46 61
0 47 59
0 62 59
0 74 60
26 28 29
26 28 29
26 28 29
26 28 29
26 28 30
26 29 30
26 29 30
26 29 30
13 30 21
13 30 21
13 30 21
13 30 21
13 30 20
12 30 20
12 30 20
12 30 20
12 30 19
12 29 19
12 29 19
12 29 18
11 29 18
11 29 18
11 28 17
11 28 17
11 28 17
10 28 16
10 27 16
66 81 75
66 81 75
66 81 75
66 81 74
66 81 74
66 81 74
66 82 73
0 82 0
0 82 0
0 81 0
0 81 0
0 80 0
0 79 0
0 79 0
0 78 0
0 76 0
0 75 0
0 73 0
0 72 0
0 72 0
0 73 0
0 74 0
0 76 0
0 78 0
0 80 0
0 82 0
0 84 0
0 85 0
0 86 0
0 87 0
0 88 0
0 88 0
0 89 0
0 89 0
0 90 0
0 90 0
0 90 0
0 90 0
0 90 0
0 90 0
0 90 0
0 90 0
0 90 0
0 89 0
0 89 0
0 89 0
0 89 0
0 88 0
0 88 0
82 0 0
82 0 0
82 0 0
82 0 0
82 0 0
82 0 0
82 0 0
82 0 0
82 0 0
82 0 0
81 0 0
81 0 0
81 0 0
80 0 0
80 0 0
79 0 0
79 0 0
78 0 0
77 0 0
77 0 0
76 0 0
75 0 0
75 0 0
74 0 0
73 0 0
73 0 0
72 0 0
73 0 0
73 0 0
73 0 0
73 0 0
73 0 0
73 0 0
73 0 0
73 0 0
73 0 0
74 0 0
74 0 0
74 0 0
75 0 0
75 0 0
75 0 0
75 0 0
75 0 0
72 57 67
72 57 68
72 57 68
72 57 69
72 57 69
72 58 70
71 58 70
71 58 71
71 58 71
71 58 72
71 59 72
71 59 72
71 59 73
0 4 53
0 4 52
0 7 49
0 8 47
0 13 42
0 16 40
0 36 42
0 40 44
0 66 61
0 64 59
0 88 81
0 83 76
0 103 95
0 106 97
44 20 33
44 20 34
44 20 34
44 21 34
45 21 35
45 21 35
45 22 35
42 46 49
41 46 49
41 47 49
41 47 50
41 47 50
41 47 50
41 47 50
41 47 50
41 47 50
0 67 69
0 70 70
0 71 71
0 72 71
0 72 71
0 72 71
0 71 71
0 71 71
0 71 71
0 70 70
0 70 70
0 70 70
0 69 70
0 68 69
0 68 69
0 68 68
0 68 68
0 67 67
0 67 67
0 67 67
0 67 67
0 67 67
0 67 66
0 66 66
0 67 66
0 66 66
0 66 66
0 67 66
0 67 66
0 67 66
0 67 66
0 67 66
0 67 66
0 67 66
0 68 66
0 68 66
0 68 66
0 68 66
0 68 66
0 70 66
0 70 66
0 70 66
0 70 66
0 71 66
0 71 66
0 73 67
0 73 67
0 73 67
0 73 67
0 73 67
0 73 67
0 76 68
0 76 68
0 76 68
0 77 68
0 77 68
0 77 68
0 80 69
0 80 69
0 81 70
0 81 70
0 81 70
0 84 71
0 85 71
0 85 71
0 85 71
0 88 73
0 88 73
0 89 73
0 89 73
0 92 75
0 93 75
0 95 77
0 96 77
0 98 79
25 28 29
25 28 29
25 28 29
25 28 29
25 28 29
25 28 29
25 28 29
26 28 29
26 29 29
26 29 29
26 29 29
0 46 55
0 47 57
0 47 58
0 46 58
0 50 57
0 52 59
0 74 60
0 74 55
26 28 29
26 28 29
26 28 29
26 28 29
26 28 30
26 29 30
26 29 30
13 30 21
13 30 21
13 30 21
13 30 21
13 30 20
12 30 20
12 30 20
12 29 20
12 29 19
12 29 19
12 29 19
11 29 18
11 29 18
11 28 18
11 28 17
11 28 17
11 28 17
10 27 16
10 27 16
65 80 75
65 80 75
65 80 75
65 80 74
65 81 74
65 81 73
65 81 73
0 81 0
0 81 0
0 80 0
0 80 0
0 80 0
0 79 0
0 78 0
0 77 0
0 76 0
0 74 0
0 73 0
0 72 0
0 72 0
0 72 0
0 74 0
0 76 0
0 78 0
0 80 0
0 81 0
0 83 0
0 84 0
0 86 0
0 87 0
0 87 0
0 88 0
0 88 0
0 89 0
0 89 0
0 89 0
0 89 0
0 90 0
0 90 0
0 90 0
0 90 0
0 89 0
0 89 0
0 89 0
0 89 0
0 89 0
0 88 0
0 88 0
0 88 0
81 0 0
82 0 0
82 0 0
82 0 0
82 0 0
82 0 0
82 0 0
82 0 0
82 0 0
81 0 0
81 0 0
81 0 0
80 0 0
80 0 0
79 0 0
79 0 0
78 0 0
78 0 0
77 0 0
76 0 0
76 0 0
75 0 0
74 0 0
74 0 0
73 0 0
72 0 0
72 0 0
72 0 0
72 0 0
73 0 0
73 0 0
72 0 0
72 0 0
72 0 0
73 0 0
73 0 0
73 0 0
74 0 0
74 0 0
74 0 0
74 0 0
74 0 0
74 0 0
74 0 0
72 57 67
72 57 68
71 57 68
71 57 69
71 57 69
71 57 70
71 58 70
71 58 71
71 58 71
71 58 72
71 58 72
71 59 73
71 59 73
71 59 74
71 59 74
0 3 54
0 4 53
0 7 49
0 13 42
0 13 43
0 36 42
0 36 42
0 66 61
0 67 62
0 83 76
0 83 76
0 96 88
44 20 33
44 20 34
44 21 34
44 21 34
44 21 35
44 21 35
45 22 35
41 46 49
41 46 50
41 46 49
41 46 50
41 46 50
41 47 50
41 47 50
41 47 50
41 47 50
0 68 70
0 70 71
0 71 71
0 72 72
0 72 72
0 72 71
0 72 71
0 71 71
0 70 70
0 70 70
0 69 69
0 69 69
0 68 68
0 68 68
0 67 68
0 67 68
0 67 68
0 67 67
0 67 67
0 66 67
0 66 67
0 66 67
0 66 66
0 66 66
0 66 66
0 66 66
0 66 66
0 66 66
0 67 65
0 67 65
0 67 65
0 67 65
0 67 65
0 67 65
0 68 65
0 68 65
0 68 65
0 68 65
0 68 65
0 70 66
0 70 66
0 70 66
0 70 66
0 70 66
0 70 66
0 72 66
0 73 67
0 73 66
0 73 67
0 73 67
0 73 67
0 76 68
0 76 68
0 76 68
0 76 68
0 76 68
0 77 68
0 80 69
0 80 69
0 80 69
0 80 69
0 80 69
0 84 70
0 84 70
0 84 71
0 84 71
0 88 72
0 88 73
0 88 73
0 88 73
0 92 75
0 92 75
0 92 75
0 95 77
0 95 77
0 97 78
25 28 29
25 28 29
25 28 29
25 28 29
25 28 29
25 28 29
26 28 29
26 29 29
26 29 29
26 29 29
0 48 52
0 47 53
0 47 53
0 47 53
0 52 57
0 59 61
0 65 61
0 74 55
26 28 29
26 27 29
25 28 29
25 28 29
25 28 30
26 28 30
26 29 30
13 30 21
13 30 21
13 30 21
13 30 21
12 30 21
12 30 20
12 29 20
12 29 20
12 29 19
12 29 19
12 29 19
11 29 19
11 28 18
11 28 18
11 28 18
11 28 17
11 27 17
10 27 16
10 27 16
65 79 75
65 79 75
65 80 74
65 80 74
65 80 74
65 80 73
65 81 73
0 81 0
0 80 0
0 80 0
0 79 0
0 79 0
0 78 0
0 77 0
0 77 0
0 75 0
0 74 0
0 72 0
0 71 0
0 71 0
0 72 0
0 73 0
0 75 0
0 77 0
0 79 0
0 81 0
0 82 0
0 84 0
0 85 0
0 86 0
0 87 0
0 87 0
0 88 0
0 88 0
0 89 0
0 89 0
0 89 0
0 89 0
0 89 0
0 89 0
0 89 0
0 89 0
0 89 0
0 89 0
0 89 0
0 88 0
0 88 0
0 88 0
0 87 0
81 0 0
81 0 0
82 0 0
82 0 0
82 0 0
82 0 0
81 0 0
81 0 0
81 0 0
81 0 0
81 0 0
80 0 0
80 0 0
80 0 0
79 0 0
79 0 0
78 0 0
77 0 0
77 0 0
76 0 0
75 0 0
75 0 0
74 0 0
73 0 0
73 0 0
72 0 0
72 0 0
72 0 0
72 0 0
72 0 0
72 0 0
72 0 0
72 0 0
72 0 0
72 0 0
73 0 0
73 0 0
73 0 0
74 0 0
74 0 0
74 0 0
74 0 0
74 0 0
74 0 0
71 56 67
71 57 68
71 57 68
71 57 69
71 57 69
71 57 70
71 57 71
71 58 71
70 58 71
71 58 72
71 58 73
71 58 73
70 59 74
71 59 74
71 59 74
71 59 75
0 1 51
0 1 47
0 5 41
0 5 41
0 21 37
0 41 45
0 47 48
0 67 62
0 67 63
0 87 80
0 100 92
0 108 100
44 20 34
44 20 34
44 21 35
44 21 35
44 21 35
44 21 35
41 46 49
41 46 49
41 46 49
41 46 50
41 46 50
41 46 50
41 46 50
41 47 50
0 66 68
0 69 70
0 70 71
0 72 71
0 72 72
0 72 71
0 72 71
0 71 71
0 71 71
0 70 70
0 69 70
0 69 69
0 69 69
0 68 68
0 67 68
0 67 68
0 67 67
0 67 67
0 66 66
0 66 66
0 66 66
0 66 66
0 66 66
0 65 65
0 65 65
0 65 65
0 65 65
0 65 65
0 65 65
0 66 65
0 66 65
0 66 65
0 66 65
0 66 65
0 67 64
0 67 64
0 67 65
0 67 64
0 67 64
0 68 65
0 70 65
0 69 65
0 69 65
0 69 65
0 69 65
0 69 65
0 72 66
0 72 66
0 72 66
0 72 66
0 72 66
0 72 66
0 75 67
0 75 67
0 75 67
0 75 67
0 76 67
0 76 67
0 79 68
0 79 68
0 79 69
0 79 69
0 80 69
0 83 70
0 83 70
0 83 70
0 84 70
0 84 70
0 88 72
0 88 72
0 88 72
0 91 74
0 92 74
0 92 74
0 95 76
0 94 76
0 97 77
25 28 29
25 28 29
25 28 29
25 28 29
25 28 29
25 28 29
25 28 29
26 28 29
26 28 29
26 29 29
0 48 50
0 48 50
0 48 50
0 48 53
0 52 58
0 59 61
0 64 61
0 68 52
25 27 29
25 27 29
25 27 29
25 27 29
25 28 29
25 28 30
25 28 30
13 30 21
13 30 21
13 30 21
12 29 21
12 29 21
12 29 20
12 29 20
12 29 20
12 29 20
12 29 19
11 28 19
11 28 19
11 28 18
11 28 18
11 28 18
11 27 17
10 27 17
10 27 16
10 27 16
64 79 75
64 79 75
64 79 74
64 79 74
64 79 73
64 80 73
64 80 73
0 80 0
0 80 0
0 79 0
0 79 0
0 78 0
0 77 0
0 77 0
0 76 0
0 75 0
0 73 0
0 71 0
0 70 0
0 71 0
0 71 0
0 73 0
0 74 0
0 76 0
0 78 0
0 80 0
0 82 0
0 83 0
0 84 0
0 85 0
0 86 0
0 87 0
0 87 0
0 88 0
0 88 0
0 88 0
0 89 0
0 89 0
0 89 0
0 89 0
0 89 0
0 89 0
0 89 0
0 89 0
0 88 0
0 88 0
0 88 0
0 87 0
0 87 0
81 0 0
81 0 0
81 0 0
81 0 0
81 0 0
81 0 0
81 0 0
81 0 0
81 0 0
81 0 0
81 0 0
80 0 0
80 0 0
79 0 0
79 0 0
78 0 0
78 0 0
77 0 0
76 0 0
76 0 0
75 0 0
74 0 0
74 0 0
73 0 0
72 0 0
72 0 0
72 0 0
72 0 0
72 0 0
72 0 0
72 0 0
72 0 0
72 0 0
72 0 0
72 0 0
72 0 0
73 0 0
73 0 0
73 0 0
73 0 0
73 0 0
73 0 0
73 0 0
74 0 0
71 56 67
71 56 68
71 57 68
71 57 69
70 57 70
70 57 70
70 57 71
70 57 71
70 58 72
70 58 72
70 58 73
70 58 73
70 58 74
70 59 74
70 59 75
70 59 75
70 59 75
0 1 49
0 1 47
0 5 42
0 13 38
0 22 38
0 41 45
0 47 48
0 67 63
0 67 63
0 87 80
0 100 92
43 20 34
43 20 35
44 21 35
44 21 35
44 21 35
44 21 36
41 46 50
41 46 50
41 46 50
41 46 50
41 46 50
41 46 50
41 46 50
41 46 50
0 67 69
0 69 70
0 71 71
0 72 71
0 72 71
0 72 71
0 72 71
0 71 71
0 71 71
0 70 70
0 69 69
0 69 69
0 68 69
0 67 68
0 67 68
0 67 67
0 66 67
0 66 67
0 65 66
0 65 66
0 65 66
0 65 66
0 65 66
0 65 65
0 65 65
0 65 65
0 65 65
0 65 65
0 65 65
0 65 64
0 65 64
0 65 64
0 65 64
0 65 64
0 67 64
0 67 64
0 67 64
0 67 64
0 67 64
0 67 64
0 69 65
0 69 65
0 69 65
0 69 65
0 69 65
0 69 65
0 71 65
0 71 65
0 71 65
0 72 65
0 72 66
0 72 66
0 75 67
0 75 67
0 75 67
0 75 67
0 75 67
0 75 67
0 78 68
0 79 68
0 79 68
0 79 68
0 79 68
0 79 68
0 83 70
0 83 70
0 83 70
0 83 70
0 87 72
0 87 72
0 88 72
0 88 72
0 90 73
0 91 73
0 91 73
0 94 75
0 96 77
0 97 78
25 28 29
25 28 29
25 28 29
25 28 29
25 28 29
25 28 29
25 28 29
26 28 29
26 28 29
0 49 50
0 48 50
0 48 50
0 53 54
0 60 60
0 65 64
0 66 62
0 67 53
25 26 29
24 27 29
24 27 29
24 27 29
25 28 29
25 28 30
25 28 30
13 29 22
13 29 21
13 29 21
12 29 21
12 29 21
12 29 21
12 29 20
12 29 20
12 29 20
12 28 19
11 28 19
11 28 19
11 28 18
11 28 18
11 27 18
11 27 17
10 27 17
10 27 17
10 27 16
64 78 75
64 78 75
64 78 74
64 78 74
64 79 73
64 79 73
63 79 72
0 79 0
0 79 0
0 79 0
0 78 0
0 77 0
0 77 0
0 76 0
0 75 0
0 74 0
0 72 0
0 71 0
0 70 0
0 70 0
0 71 0
0 72 0
0 74 0
0 76 0
0 78 0
0 80 0
0 81 0
0 83 0
0 84 0
0 85 0
0 86 0
0 86 0
0 87 0
0 87 0
0 88 0
0 88 0
0 88 0
0 88 0
0 88 0
0 88 0
0 88 0
0 88 0
0 88 0
0 88 0
0 88 0
0 88 0
0 87 0
0 87 0
0 87 0
81 0 0
81 0 0
81 0 0
81 0 0
81 0 0
81 0 0
81 0 0
81 0 0
81 0 0
80 0 0
80 0 0
80 0 0
79 0 0
79 0 0
79 0 0
78 0 0
77 0 0
77 0 0
76 0 0
75 0 0
75 0 0
74 0 0
74 0 0
73 0 0
72 0 0
72 0 0
71 0 0
71 0 0
72 0 0
72 0 0
72 0 0
72 0 0
71 0 0
71 0 0
71 0 0
72 0 0
72 0 0
72 0 0
73 0 0
73 0 0
73 0 0
73 0 0
73 0 0
73 0 0
71 56 67
70 56 68
70 56 68
70 56 69
70 57 70
70 57 70
70 57 71
70 57 72
70 57 72
70 58 73
70 58 73
70 58 74
70 58 74
70 58 74
70 58 75
70 59 75
70 59 76
0 1 53
0 1 49
0 1 48
0 3 44
0 13 39
0 13 39
0 41 46
0 41 46
0 67 62
0 67 63
0 84 77
0 95 87
43 20 35
43 20 35
44 21 35
44 21 36
44 21 36
41 45 50
41 46 50
41 46 50
41 46 50
41 46 50
41 46 50
41 46 50
41 46 50
0 68 70
0 70 71
0 71 71
0 72 72
0 72 72
0 72 71
0 71 71
0 71 70
0 69 69
0 69 69
0 69 69
0 69 69
0 67 68
0 67 68
0 67 67
0 66 67
0 66 67
0 65 66
0 65 66
0 65 66
0 65 66
0 65 66
0 65 66
0 65 65
0 65 65
0 64 65
0 65 65
0 65 65
0 65 64
0 65 64
0 65 64
0 65 64
0 65 64
0 65 64
0 66 64
0 66 64
0 66 64
0 66 64
0 66 64
0 66 64
0 68 64
0 68 64
0 68 64
0 68 64
0 68 64
0 69 64
0 69 64
0 71 65
0 71 65
0 71 65
0 71 65
0 71 65
0 71 65
0 74 66
0 75 66
0 75 66
0 75 66
0 75 67
0 75 67
0 78 68
0 78 68
0 79 68
0 79 68
0 79 68
0 82 70
0 83 70
0 83 70
0 83 70
0 86 71
0 86 71
0 86 71
0 86 71
0 90 73
0 90 73
0 90 73
0 93 75
0 94 75
0 96 77
25 28 29
25 28 29
25 28 29
25 28 29
25 28 29
25 28 29
25 28 29
25 28 29
25 28 29
0 49 49
0 48 48
0 52 51
0 58 57
0 64 63
0 65 64
0 66 63
0 67 53
24 26 28
23 26 28
24 26 29
24 27 29
24 27 29
24 28 30
24 28 30
13 29 22
13 29 22
12 29 21
12 29 21
12 29 21
12 29 21
12 29 20
12 29 20
12 28 20
11 28 20
11 28 19
11 28 19
11 28 19
11 27 18
11 27 18
11 27 18
10 27 17
10 27 17
10 26 16
63 77 75
63 77 75
63 77 74
63 78 74
63 78 73
63 78 73
63 79 72
0 79 0
0 78 0
0 78 0
0 77 0
0 77 0
0 76 0
0 76 0
0 75 0
0 73 0
0 72 0
0 70 0
0 69 0
0 70 0
0 70 0
0 71 0
0 73 0
0 75 0
0 77 0
0 79 0
0 81 0
0 82 0
0 83 0
0 84 0
0 85 0
0 86 0
0 87 0
0 87 0
0 87 0
0 88 0
0 88 0
0 88 0
0 88 0
0 88 0
0 88 0
0 88 0
0 88 0
0 88 0
0 88 0
0 87 0
0 87 0
0 87 0
0 86 0
81 0 0
81 0 0
81 0 0
81 0 0
81 0 0
81 0 0
81 0 0
81 0 0
80 0 0
80 0 0
80 0 0
80 0 0
79 0 0
79 0 0
78 0 0
78 0 0
77 0 0
76 0 0
76 0 0
75 0 0
75 0 0
74 0 0
73 0 0
73 0 0
72 0 0
71 0 0
71 0 0
71 0 0
71 0 0
72 0 0
71 0 0
71 0 0
71 0 0
71 0 0
71 0 0
71 0 0
72 0 0
72 0 0
72 0 0
72 0 0
72 0 0
72 0 0
73 0 0
73 0 0
71 56 67
70 56 68
70 56 68
70 56 69
69 56 70
69 57 70
69 57 71
69 57 72
69 57 72
69 57 73
69 58 74
69 58 74
69 58 74
69 58 75
69 58 75
69 58 76
69 59 76
69 59 76
0 0 53
0 0 50
0 1 48
0 3 45
0 13 39
0 13 39
0 48 49
0 48 50
0 68 64
0 83 77
0 98 90
43 20 35
43 20 35
43 21 36
43 21 36
44 21 36
41 45 50
41 45 50
41 45 50
41 45 50
41 45 50
41 46 50
41 46 50
0 65 67
0 69 70
0 71 71
0 72 72
0 72 72
0 72 71
0 72 71
0 71 71
0 71 70
0 69 69
0 69 69
0 68 68
0 67 68
0 66 67
0 66 67
0 65 66
0 65 66
0 66 67
0 65 66
0 65 66
0 65 65
0 65 65
0 65 65
0 64 65
0 64 65
0 64 65
0 64 64
0 64 64
0 64 64
0 65 64
0 65 64
0 65 64
0 65 64
0 65 64
0 65 64
0 66 64
0 66 64
0 66 64
0 66 64
0 66 64
0 66 64
0 68 64
0 68 64
0 68 64
0 68 64
0 68 64
0 68 64
0 68 64
0 71 65
0 71 65
0 71 65
0 71 65
0 71 65
0 71 65
0 74 66
0 74 66
0 74 66
0 74 66
0 75 66
0 75 66
0 78 67
0 78 68
0 77 67
0 77 67
0 77 67
0 81 69
0 81 69
0 81 69
0 82 69
0 82 69
0 86 71
0 86 71
0 86 71
0 89 73
0 90 73
0 90 73
0 93 75
0 93 75
0 94 75
25 27 29
25 27 29
25 28 29
25 28 29
25 28 29
25 28 29
25 28 29
25 28 29
25 28 29
0 49 49
0 50 49
0 55 54
0 62 60
0 66 65
0 69 66
0 67 63
0 63 53
23 25 27
22 25 28
23 25 28
23 26 29
23 27 29
24 27 30
24 28 30
13 29 22
12 29 22
12 29 21
12 29 21
12 29 21
12 29 21
12 28 20
12 28 20
12 28 20
11 28 20
11 28 19
11 28 19
11 27 19
11 27 18
11 27 18
11 27 18
10 27 17
10 26 17
10 26 17
62 76 75
62 77 75
62 77 74
62 77 74
62 77 73
62 78 73
62 78 72
0 78 0
0 78 0
0 77 0
0 77 0
0 76 0
0 75 0
0 75 0
0 74 0
0 73 0
0 71 0
0 70 0
0 69 0
0 69 0
0 70 0
0 71 0
0 73 0
0 75 0
0 76 0
0 78 0
0 80 0
0 82 0
0 83 0
0 84 0
0 85 0
0 86 0
0 86 0
0 87 0
0 87 0
0 87 0
0 87 0
0 88 0
0 88 0
0 88 0
0 88 0
0 88 0
0 88 0
0 87 0
0 87 0
0 87 0
0 87 0
0 87 0
0 86 0
80 0 0
80 0 0
80 0 0
80 0 0
80 0 0
80 0 0
80 0 0
80 0 0
80 0 0
80 0 0
79 0 0
79 0 0
79 0 0
78 0 0
78 0 0
77 0 0
77 0 0
76 0 0
76 0 0
75 0 0
74 0 0
74 0 0
73 0 0
72 0 0
72 0 0
71 0 0
71 0 0
71 0 0
71 0 0
71 0 0
71 0 0
71 0 0
71 0 0
71 0 0
71 0 0
71 0 0
71 0 0
72 0 0
72 0 0
72 0 0
72 0 0
72 0 0
72 0 0
72 0 0
70 56 67
70 56 68
69 56 69
69 56 69
69 56 70
69 56 71
69 57 71
69 57 72
69 57 73
69 57 73
69 57 74
69 58 74
69 58 75
69 58 75
69 58 76
69 58 76
69 58 76
69 58 77
69 59 77
0 1 47
0 0 44
0 1 39
0 1 39
0 24 39
0 42 46
0 48 50
0 66 63
0 68 64
0 83 77
0 103 95
43 20 36
43 21 36
43 21 36
43 21 36
41 45 50
41 45 50
41 45 50
40 45 50
40 45 50
40 45 50
40 45 50
0 67 69
0 69 70
0 71 71
0 73 72
0 73 72
0 72 72
0 72 71
0 71 71
0 70 69
0 69 69
0 68 69
0 68 68
0 67 68
0 66 67
0 65 66
0 65 66
0 65 66
0 64 66
0 64 65
0 63 64
0 63 64
0 63 64
0 63 64
0 63 63
0 63 63
0 63 63
0 63 63
0 63 63
0 63 63
0 63 63
0 64 63
0 64 63
0 64 64
0 64 63
0 64 63
0 66 63
0 66 63
0 66 63
0 66 63
0 66 63
0 66 63
0 68 64
0 68 64
0 68 64
0 68 64
0 68 64
0 68 64
0 68 64
0 69 64
0 69 64
0 69 64
0 70 64
0 70 64
0 70 64
0 73 65
0 73 65
0 73 65
0 73 65
0 73 65
0 73 65
0 76 66
0 77 67
0 77 67
0 77 67
0 77 67
0 81 68
0 81 68
0 81 68
0 81 69
0 82 69
0 85 70
0 85 70
0 86 71
0 86 71
0 89 73
0 89 73
0 90 73
0 91 73
0 92 74
0 94 75
25 27 29
25 27 29
25 28 29
25 28 29
25 28 29
25 28 29
25 28 29
0 55 55
0 50 49
0 53 51
0 60 57
0 66 63
0 67 65
0 67 63
0 64 58
22 24 27
22 24 27
22 24 27
22 25 28
22 25 28
22 26 29
23 27 29
24 27 30
13 29 22
12 29 22
12 29 22
12 29 21
12 28 21
12 28 21
12 28 21
12 28 20
12 28 20
11 28 20
11 28 19
11 27 19
11 27 19
11 27 19
11 27 18
11 26 18
10 26 17
10 26 17
10 26 17
62 76 75
62 76 75
62 76 74
62 76 74
62 77 73
62 77 72
62 78 72
0 77 0
0 77 0
0 76 0
0 76 0
0 76 0
0 75 0
0 74 0
0 74 0
0 72 0
0 71 0
0 69 0
0 68 0
0 69 0
0 69 0
0 70 0
0 72 0
0 74 0
0 76 0
0 78 0
0 79 0
0 81 0
0 82 0
0 83 0
0 84 0
0 85 0
0 86 0
0 86 0
0 86 0
0 87 0
0 87 0
0 87 0
0 87 0
0 87 0
0 87 0
0 87 0
0 87 0
0 87 0
0 87 0
0 87 0
0 86 0
0 86 0
0 86 0
80 0 0
80 0 0
80 0 0
80 0 0
80 0 0
80 0 0
80 0 0
80 0 0
80 0 0
79 0 0
79 0 0
79 0 0
79 0 0
78 0 0
78 0 0
77 0 0
76 0 0
76 0 0
75 0 0
75 0 0
74 0 0
73 0 0
73 0 0
72 0 0
71 0 0
71 0 0
71 0 0
71 0 0
71 0 0
71 0 0
71 0 0
71 0 0
71 0 0
70 0 0
70 0 0
70 0 0
71 0 0
71 0 0
71 0 0
71 0 0
72 0 0
72 0 0
72 0 0
72 0 0
70 55 67
70 56 68
69 56 69
69 56 70
69 56 70
69 56 71
69 56 72
68 57 72
68 57 73
68 57 74
68 57 74
68 57 75
68 57 75
68 57 75
68 58 76
69 58 76
68 58 77
69 58 77
69 59 78
0 0 49
0 1 45
0 1 44
0 1 39
0 15 38
0 25 39
0 42 47
0 48 50
0 66 63
0 85 79
0 95 87
42 20 36
43 20 36
43 21 36
43 21 37
40 45 50
40 45 50
40 45 50
40 45 50
40 45 50
40 45 50
0 63 67
0 68 69
0 70 71
0 72 72
0 72 72
0 72 71
0 73 72
0 72 71
0 71 71
0 70 69
0 69 69
0 68 68
0 67 68
0 67 68
0 65 66
0 65 66
0 65 66
0 64 65
0 64 65
0 63 64
0 63 64
0 63 64
0 63 64
0 63 64
0 63 63
0 62 63
0 62 63
0 62 63
0 63 63
0 63 63
0 63 62
0 63 62
0 63 62
0 63 62
0 63 62
0 63 62
0 64 62
0 64 62
0 64 62
0 64 62
0 64 62
0 64 62
0 64 62
0 66 63
0 66 63
0 66 63
0 66 63
0 66 63
0 66 63
0 69 63
0 69 64
0 69 63
0 69 64
0 69 64
0 69 64
0 72 65
0 72 65
0 72 65
0 73 65
0 73 65
0 73 65
0 76 66
0 76 66
0 76 66
0 77 66
0 77 66
0 77 67
0 80 68
0 81 68
0 81 68
0 81 68
0 85 70
0 85 70
0 85 70
0 85 70
0 87 71
0 88 71
0 88 71
0 91 73
0 91 73
0 94 75
25 27 29
25 27 29
25 27 29
25 27 29
25 28 29
25 28 29
25 28 29
0 54 52
0 52 50
0 57 54
0 63 60
0 68 65
0 70 67
0 68 64
0 62 58
21 23 27
21 23 27
21 23 27
21 24 27
21 24 28
22 25 28
22 26 29
23 27 30
12 29 22
12 29 22
12 28 22
12 28 21
12 28 21
12 28 21
12 28 21
12 28 20
11 28 20
11 28 20
11 27 20
11 27 19
11 27 19
11 27 19
11 27 18
10 26 18
10 26 18
10 26 17
10 26 17
61 75 75
61 75 75
61 75 74
61 76 74
61 76 73
61 76 72
61 77 72
0 77 0
0 76 0
0 76 0
0 75 0
0 75 0
0 74 0
0 73 0
0 73 0
0 72 0
0 70 0
0 69 0
0 68 0
0 68 0
0 69 0
0 70 0
0 72 0
0 74 0
0 75 0
0 77 0
0 79 0
0 81 0
0 82 0
0 83 0
0 84 0
0 85 0
0 85 0
0 86 0
0 86 0
0 86 0
0 87 0
0 87 0
0 87 0
0 87 0
0 87 0
0 87 0
0 87 0
0 87 0
0 87 0
0 86 0
0 86 0
0 86 0
0 86 0
80 0 0
80 0 0
80 0 0
80 0 0
80 0 0
80 0 0
80 0 0
80 0 0
79 0 0
79 0 0
79 0 0
79 0 0
78 0 0
78 0 0
77 0 0
77 0 0
76 0 0
76 0 0
75 0 0
74 0 0
74 0 0
73 0 0
72 0 0
72 0 0
71 0 0
70 0 0
70 0 0
70 0 0
70 0 0
71 0 0
71 0 0
70 0 0
70 0 0
70 0 0
70 0 0
70 0 0
70 0 0
71 0 0
71 0 0
71 0 0
71 0 0
71 0 0
71 0 0
72 0 0
69 55 67
69 55 68
69 55 69
68 56 70
68 56 71
68 56 71
68 56 72
68 56 73
68 56 73
68 57 74
68 57 75
68 57 75
68 57 76
68 57 76
68 58 76
68 58 77
68 58 77
68 58 77
68 58 78
68 58 78
0 0 48
0 0 46
0 1 42
0 3 40
0 14 38
0 42 47
0 42 47
0 66 63
0 67 64
0 84 78
42 20 36
42 20 36
43 21 37
43 21 37
40 44 50
40 44 50
40 44 50
40 44 50
40 45 50
40 45 50
0 66 68
0 69 70
0 72 72
0 73 72
0 73 72
0 73 72
0 72 71
0 71 70
0 70 70
0 68 68
0 69 69
0 68 68
0 67 68
0 65 66
0 65 66
0 65 66
0 64 66
0 64 65
0 63 64
0 63 64
0 63 64
0 63 64
0 63 64
0 62 64
0 62 63
0 62 63
0 62 63
0 62 63
0 62 63
0 62 63
0 62 62
0 63 62
0 62 62
0 62 62
0 63 62
0 62 62
0 64 62
0 64 62
0 64 62
0 64 62
0 64 62
0 64 62
0 64 62
0 66 62
0 66 62
0 66 62
0 66 62
0 66 62
0 66 62
0 69 63
0 69 63
0 69 63
0 69 63
0 69 63
0 69 63
0 72 64
0 72 64
0 72 64
0 72 64
0 72 65
0 73 65
0 76 66
0 76 66
0 76 66
0 76 66
0 76 66
0 77 66
0 80 68
0 80 68
0 81 68
0 81 68
0 79 67
0 83 69
0 83 69
0 84 69
0 84 69
0 87 71
0 88 71
0 88 71
0 91 73
0 91 73
0 92 73
25 27 29
25 27 29
25 27 29
25 27 29
25 27 29
25 27 29
0 55 52
0 56 52
0 63 58
0 68 63
0 69 66
0 71 67
0 68 64
0 62 58
21 23 26
20 22 26
20 23 26
20 23 27
20 24 27
21 25 28
21 25 29
22 26 29
12 28 22
12 28 22
12 28 22
12 28 22
12 28 21
12 28 21
12 28 21
11 28 21
11 27 20
11 27 20
11 27 20
11 27 19
11 27 19
11 27 19
11 26 18
10 26 18
10 26 18
10 26 17
10 25 17
61 74 76
61 74 75
61 74 75
61 75 74
61 75 73
61 76 72
61 76 72
0 76 0
0 75 0
0 75 0
0 75 0
0 74 0
0 74 0
0 73 0
0 72 0
0 71 0
0 70 0
0 68 0
0 67 0
0 68 0
0 68 0
0 69 0
0 71 0
0 73 0
0 75 0
0 77 0
0 78 0
0 80 0
0 81 0
0 83 0
0 83 0
0 84 0
0 85 0
0 85 0
0 86 0
0 86 0
0 86 0
0 86 0
0 87 0
0 87 0
0 87 0
0 87 0
0 87 0
0 86 0
0 86 0
0 86 0
0 86 0
0 86 0
0 85 0
79 0 0
80 0 0
80 0 0
80 0 0
80 0 0
79 0 0
80 0 0
79 0 0
79 0 0
79 0 0
79 0 0
78 0 0
78 0 0
78 0 0
77 0 0
77 0 0
76 0 0
75 0 0
75 0 0
74 0 0
73 0 0
73 0 0
72 0 0
72 0 0
71 0 0
70 0 0
70 0 0
70 0 0
70 0 0
70 0 0
70 0 0
70 0 0
70 0 0
70 0 0
70 0 0
70 0 0
70 0 0
70 0 0
70 0 0
70 0 0
71 0 0
71 0 0
71 0 0
71 0 0
69 55 67
69 55 68
68 55 69
68 55 70
68 56 71
68 56 72
67 56 73
67 56 73
67 56 74
67 56 74
67 57 75
67 57 75
67 57 76
67 57 76
67 57 77
68 58 77
68 58 78
67 58 78
68 58 78
68 58 78
0 0 50
0 1 46
0 1 45
0 1 42
0 14 39
0 14 39
0 42 47
0 46 50
0 67 64
0 83 77
0 94 87
42 20 37
42 21 37
43 21 37
40 44 50
40 44 50
40 44 50
40 44 50
40 44 50
0 60 65
0 66 68
0 70 71
0 72 72
0 73 73
0 74 73
0 73 72
0 72 71
0 71 71
0 69 69
0 68 68
0 67 68
0 66 67
0 66 67
0 64 65
0 63 65
0 63 64
0 64 65
0 64 65
0 63 64
0 62 64
0 62 64
0 62 64
0 62 64
0 62 63
0 62 62
0 62 62
0 62 62
0 62 62
0 62 62
0 62 62
0 62 62
0 62 62
0 62 62
0 62 62
0 62 62
0 62 62
0 63 62
0 63 62
0 64 62
0 64 62
0 64 62
0 64 62
0 64 62
0 65 62
0 66 62
0 66 62
0 66 62
0 66 62
0 66 62
0 68 63
0 68 63
0 68 63
0 69 63
0 69 63
0 69 63
0 72 64
0 72 64
0 72 64
0 72 64
0 72 64
0 72 64
0 72 65
0 75 66
0 76 66
0 74 65
0 75 65
0 75 65
0 78 66
0 78 66
0 79 66
0 79 67
0 79 67
0 83 69
0 83 69
0 83 69
0 83 69
0 87 71
0 87 71
0 87 71
0 90 73
0 91 73
0 91 73
24 27 29
24 27 29
25 27 29
25 27 29
25 27 29
0 59 58
0 56 53
0 60 56
0 66 61
0 70 66
0 72 68
0 74 69
0 67 64
0 57 55
20 22 26
19 22 26
19 22 26
19 22 26
20 23 27
20 24 28
21 25 28
21 26 29
12 28 22
12 28 22
12 28 22
12 28 22
12 28 22
12 28 21
12 28 21
11 27 21
11 27 20
11 27 20
11 27 20
11 27 20
11 27 19
11 26 19
11 26 19
10 26 18
10 26 18
10 25 18
10 25 17
60 73 76
60 73 75
60 74 75
60 74 74
60 74 73
60 75 72
60 76 71
0 75 0
0 75 0
0 74 0
0 74 0
0 74 0
0 73 0
0 73 0
0 72 0
0 71 0
0 69 0
0 68 0
0 67 0
0 67 0
0 68 0
0 69 0
0 71 0
0 73 0
0 74 0
0 76 0
0 78 0
0 79 0
0 81 0
0 82 0
0 83 0
0 84 0
0 84 0
0 85 0
0 85 0
0 86 0
0 86 0
0 86 0
0 86 0
0 86 0
0 86 0
0 86 0
0 86 0
0 86 0
0 86 0
0 86 0
0 86 0
0 85 0
0 85 0
79 0 0
79 0 0
79 0 0
79 0 0
79 0 0
79 0 0
79 0 0
79 0 0
79 0 0
79 0 0
78 0 0
78 0 0
78 0 0
77 0 0
77 0 0
76 0 0
76 0 0
75 0 0
74 0 0
74 0 0
73 0 0
73 0 0
72 0 0
71 0 0
70 0 0
70 0 0
70 0 0
70 0 0
70 0 0
70 0 0
70 0 0
70 0 0
70 0 0
69 0 0
69 0 0
69 0 0
70 0 0
70 0 0
70 0 0
70 0 0
70 0 0
70 0 0
70 0 0
71 0 0
69 55 67
68 55 68
68 55 70
67 55 70
67 55 71
67 56 72
67 56 73
67 56 74
67 56 74
67 56 75
67 56 75
67 57 76
67 57 76
67 57 77
67 57 77
67 57 77
67 57 78
67 58 78
67 58 79
67 58 79
67 58 79
0 0 49
0 0 46
0 0 43
0 4 39
0 23 39
0 40 46
0 46 49
0 65 62
0 84 79
0 96 89
42 20 37
42 20 37
42 21 37
40 44 50
40 44 50
40 44 50
40 44 50
40 44 50
0 62 66
0 67 69
0 71 71
0 72 72
0 74 73
0 74 73
0 73 72
0 72 72
0 71 71
0 69 69
0 68 68
0 67 68
0 66 67
0 65 66
0 63 65
0 63 65
0 62 64
0 62 64
0 62 64
0 61 62
0 61 62
0 60 62
0 60 62
0 60 62
0 60 62
0 60 61
0 60 61
0 60 61
0 60 61
0 61 62
0 61 62
0 62 61
0 62 61
0 62 61
0 62 61
0 62 61
0 62 61
0 63 61
0 63 61
0 63 61
0 63 61
0 63 61
0 63 61
0 63 61
0 65 62
0 65 62
0 65 62
0 65 62
0 65 62
0 65 62
0 68 63
0 68 63
0 68 63
0 66 61
0 67 61
0 67 62
0 67 61
0 70 63
0 70 63
0 70 63
0 70 63
0 70 63
0 70 63
0 74 64
0 74 64
0 74 64
0 74 65
0 74 65
0 74 65
0 78 66
0 78 66
0 78 66
0 79 67
0 82 68
0 83 68
0 83 69
0 83 69
0 86 71
0 87 71
0 87 71
0 88 71
0 89 71
0 91 73
24 27 29
24 27 29
24 27 29
24 27 29
24 27 29
0 60 56
0 61 56
0 65 60
0 71 65
0 72 67
0 73 68
0 68 65
0 59 58
21 22 26
20 21 26
19 21 26
19 21 26
18 22 26
19 23 27
20 23 27
20 24 28
21 25 29
12 28 23
12 28 22
12 28 22
12 28 22
12 28 22
12 27 21
12 27 21
11 27 21
11 27 21
11 27 20
11 27 20
11 26 20
11 26 19
11 26 19
11 26 19
10 26 18
10 25 18
10 25 18
10 25 17
60 72 76
60 73 76
60 73 75
60 73 74
60 74 74
60 74 72
60 75 71
0 74 0
0 74 0
0 74 0
0 73 0
0 73 0
0 72 0
0 72 0
0 71 0
0 70 0
0 69 0
0 67 0
0 67 0
0 67 0
0 67 0
0 69 0
0 70 0
0 72 0
0 74 0
0 75 0
0 77 0
0 79 0
0 80 0
0 81 0
0 82 0
0 83 0
0 84 0
0 84 0
0 85 0
0 85 0
0 85 0
0 86 0
0 86 0
0 86 0
0 86 0
0 86 0
0 86 0
0 86 0
0 86 0
0 86 0
0 85 0
0 85 0
0 85 0
79 0 0
79 0 0
79 0 0
79 0 0
79 0 0
79 0 0
79 0 0
79 0 0
78 0 0
78 0 0
78 0 0
78 0 0
77 0 0
77 0 0
76 0 0
76 0 0
75 0 0
75 0 0
74 0 0
73 0 0
73 0 0
72 0 0
72 0 0
71 0 0
70 0 0
70 0 0
69 0 0
70 0 0
70 0 0
70 0 0
70 0 0
69 0 0
69 0 0
69 0 0
69 0 0
69 0 0
69 0 0
69 0 0
69 0 0
70 0 0
70 0 0
69 0 0
70 0 0
70 0 0
68 54 67
68 55 69
67 55 70
67 55 71
67 55 72
66 55 73
66 56 74
66 56 74
66 56 75
66 56 75
66 56 76
66 56 76
66 57 77
66 57 77
66 57 78
66 57 78
67 57 78
67 57 79
67 58 79
67 58 79
67 58 80
0 0 46
0 1 44
0 1 43
0 7 39
0 16 39
0 23 40
0 40 46
0 64 62
0 66 64
0 84 79
42 20 37
42 20 37
42 21 38
40 43 50
40 43 50
40 43 50
40 44 50
40 44 50
0 65 68
0 68 70
0 72 72
0 73 73
0 74 73
0 73 72
0 74 73
0 73 72
0 71 71
0 69 69
0 68 68
0 67 67
0 66 67
0 63 65
0 63 65
0 63 64
0 62 64
0 62 64
0 62 63
0 60 62
0 60 62
0 60 62
0 60 62
0 60 62
0 59 61
0 59 61
0 59 61
0 59 61
0 59 60
0 59 60
0 59 60
0 60 60
0 60 60
0 60 60
0 60 60
0 60 60
0 60 60
0 61 60
0 61 60
0 61 60
0 61 60
0 61 60
0 61 60
0 61 60
0 63 60
0 63 60
0 63 60
0 63 60
0 63 60
0 63 60
0 66 61
0 66 61
0 66 61
0 66 61
0 66 61
0 66 61
0 66 61
0 69 62
0 69 62
0 70 63
0 70 63
0 70 63
0 70 63
0 73 64
0 73 64
0 74 64
0 74 64
0 74 64
0 74 64
0 78 66
0 78 66
0 78 66
0 78 66
0 78 66
0 82 68
0 82 68
0 82 68
0 81 67
0 85 69
0 85 69
0 85 69
0 88 71
0 88 71
0 91 73
24 27 29
24 27 29
24 27 29
0 63 61
0 61 57
0 64 59
0 69 63
0 73 67
0 76 70
0 75 70
0 68 65
0 54 57
20 22 26
19 21 26
18 21 25
18 21 26
18 21 26
18 22 26
19 23 27
20 24 28
20 24 28
12 28 23
12 28 23
12 28 22
12 28 22
12 27 22
12 27 22
12 27 21
11 27 21
11 27 21
11 27 20
11 26 20
11 26 20
11 26 19
11 26 19
10 26 19
10 25 19
10 25 18
10 25 18
10 25 18
59 71 77
59 72 76
59 72 76
59 72 75
59 73 74
59 74 73
59 74 71
0 73 0
0 73 0
0 73 0
0 73 0
0 72 0
0 72 0
0 71 0
0 71 0
0 70 0
0 68 0
0 67 0
0 66 0
0 67 0
0 67 0
0 68 0
0 70 0
0 72 0
0 73 0
0 75 0
0 77 0
0 78 0
0 80 0
0 81 0
0 82 0
0 83 0
0 84 0
0 84 0
0 84 0
0 85 0
0 85 0
0 85 0
0 85 0
0 86 0
0 86 0
0 86 0
0 86 0
0 85 0
0 86 0
0 85 0
0 85 0
0 85 0
0 84 0
79 0 0
79 0 0
79 0 0
79 0 0
79 0 0
79 0 0
79 0 0
79 0 0
78 0 0
78 0 0
78 0 0
77 0 0
77 0 0
77 0 0
76 0 0
76 0 0
75 0 0
75 0 0
74 0 0
73 0 0
73 0 0
72 0 0
71 0 0
71 0 0
70 0 0
69 0 0
69 0 0
69 0 0
69 0 0
70 0 0
69 0 0
69 0 0
69 0 0
69 0 0
69 0 0
69 0 0
69 0 0
69 0 0
69 0 0
69 0 0
69 0 0
69 0 0
69 0 0
70 0 0
68 54 67
67 54 69
67 54 70
66 55 72
66 55 73
66 55 73
66 55 74
65 55 75
66 56 76
66 56 76
66 56 76
66 56 77
66 56 77
66 56 78
66 57 78
66 57 78
66 57 79
66 57 79
66 57 79
66 58 80
66 57 80
0 1 47
0 0 46
0 0 43
0 5 41
0 9 40
0 23 40
0 40 47
0 46 50
0 64 62
0 84 79
0 96 90
41 20 37
42 21 38
40 43 50
40 43 50
40 43 50
40 43 50
0 57 63
0 66 69
0 70 71
0 73 73
0 75 74
0 75 74
0 74 73
0 73 72
0 72 71
0 68 68
0 67 68
0 67 68
0 66 67
0 65 66
0 63 65
0 63 64
0 62 64
0 62 64
0 61 63
0 60 62
0 60 62
0 60 62
0 60 62
0 60 62
0 60 61
0 59 60
0 59 60
0 59 60
0 59 60
0 59 60
0 59 60
0 59 60
0 60 60
0 59 60
0 59 60
0 59 59
0 59 59
0 59 59
0 61 59
0 61 59
0 61 59
0 61 59
0 61 59
0 61 60
0 61 59
0 63 60
0 63 60
0 63 60
0 63 60
0 63 60
0 63 60
0 65 61
0 66 61
0 66 61
0 66 61
0 66 61
0 66 61
0 66 61
0 69 62
0 69 62
0 69 62
0 69 62
0 70 62
0 70 63
0 73 64
0 73 64
0 73 64
0 73 64
0 73 64
0 74 64
0 77 66
0 77 66
0 78 66
0 78 66
0 76 64
0 80 66
0 80 66
0 80 67
0 81 67
0 84 69
0 84 69
0 85 69
0 88 71
0 88 71
0 88 71
24 26 29
24 26 29
24 26 29
0 64 60
0 66 60
0 69 63
0 71 65
0 74 69
0 75 69
0 69 66
0 57 59
20 22 26
20 21 26
19 21 26
18 20 25
17 20 25
17 21 26
18 22 26
18 22 27
19 23 27
20 24 28
12 28 23
12 27 23
12 27 22
12 27 22
12 27 22
11 27 22
11 27 21
11 27 21
11 27 21
11 26 21
11 26 20
11 26 20
11 26 20
11 26 19
10 25 19
10 25 19
10 25 18
10 25 18
10 24 18
59 70 78
59 71 77
59 71 76
59 71 75
59 72 74
59 73 73
59 74 71
0 73 0
0 72 0
0 72 0
0 72 0
0 72 0
0 71 0
0 71 0
0 70 0
0 69 0
0 68 0
0 66 0
0 66 0
0 66 0
0 67 0
0 68 0
0 69 0
0 71 0
0 73 0
0 75 0
0 76 0
0 78 0
0 79 0
0 81 0
0 82 0
0 82 0
0 83 0
0 84 0
0 84 0
0 84 0
0 85 0
0 85 0
0 85 0
0 85 0
0 85 0
0 85 0
0 85 0
0 85 0
0 85 0
0 85 0
0 85 0
0 84 0
0 84 0
78 0 0
79 0 0
79 0 0
79 0 0
79 0 0
78 0 0
78 0 0
78 0 0
78 0 0
78 0 0
78 0 0
77 0 0
77 0 0
76 0 0
76 0 0
75 0 0
75 0 0
74 0 0
74 0 0
73 0 0
72 0 0
72 0 0
71 0 0
70 0 0
70 0 0
69 0 0
69 0 0
69 0 0
69 0 0
69 0 0
69 0 0
69 0 0
69 0 0
69 0 0
68 0 0
68 0 0
68 0 0
69 0 0
69 0 0
69 0 0
69 0 0
68 0 0
68 0 0
69 0 0
67 54 68
66 54 69
66 54 71
65 55 72
65 55 73
65 55 74
65 55 75
65 55 76
65 55 76
65 56 77
65 56 77
65 56 78
65 56 78
65 56 78
65 57 79
65 57 79
65 57 79
66 57 80
66 57 80
66 57 80
66 57 80
0 1 48
0 0 46
0 1 45
0 5 42
0 8 40
0 16 40
0 23 40
0 40 47
0 65 63
0 65 63
0 84 79
41 20 38
41 20 38
40 43 50
39 43 50
39 43 50
39 43 50
0 59 65
0 66 68
0 73 73
0 75 74
0 76 75
0 76 74
0 75 73
0 73 72
0 72 71
0 68 69
0 67 67
0 66 66
0 64 66
0 63 65
0 61 63
0 60 63
0 60 62
0 61 63
0 61 63
0 60 62
0 60 62
0 59 62
0 59 61
0 59 61
0 59 61
0 59 60
0 59 60
0 59 60
0 59 60
0 59 60
0 59 60
0 59 59
0 59 59
0 59 59
0 59 59
0 59 59
0 59 59
0 59 59
0 60 59
0 60 59
0 60 59
0 60 59
0 61 59
0 61 59
0 60 59
0 62 60
0 62 60
0 63 60
0 63 60
0 63 60
0 63 60
0 65 61
0 65 61
0 65 61
0 65 61
0 65 61
0 66 61
0 66 61
0 69 62
0 69 62
0 69 62
0 69 62
0 69 62
0 69 62
0 69 62
0 73 64
0 73 64
0 71 62
0 71 62
0 71 62
0 75 64
0 75 64
0 75 64
0 75 64
0 76 64
0 79 66
0 80 66
0 80 67
0 80 67
0 84 69
0 84 69
0 84 69
0 87 71
0 85 69
0 88 71
24 26 29
24 26 29
0 66 64
0 66 61
0 69 63
0 73 66
0 76 69
0 79 72
0 75 70
0 69 66
0 50 59
20 21 26
19 21 26
18 20 25
18 20 25
17 20 25
17 20 26
17 21 26
18 22 27
19 23 27
19 24 28
12 27 23
12 27 23
12 27 23
12 27 22
12 27 22
11 27 22
11 27 22
11 27 21
11 26 21
11 26 21
11 26 20
11 26 20
11 25 20
11 25 19
10 25 19
10 25 19
10 25 19
10 24 18
10 24 18
58 69 79
58 70 78
58 70 77
58 71 76
58 71 75
58 72 73
58 73 71
0 72 0
0 72 0
0 71 0
0 71 0
0 71 0
0 71 0
0 70 0
0 70 0
0 68 0
0 67 0
0 66 0
0 65 0
0 66 0
0 66 0
0 67 0
0 69 0
0 70 0
0 72 0
0 74 0
0 76 0
0 77 0
0 79 0
0 80 0
0 81 0
0 82 0
0 83 0
0 83 0
0 84 0
0 84 0
0 84 0
0 85 0
0 85 0
0 85 0
0 85 0
0 85 0
0 85 0
0 85 0
0 85 0
0 85 0
0 84 0
0 84 0
0 84 0
78 0 0
78 0 0
78 0 0
78 0 0
78 0 0
78 0 0
78 0 0
78 0 0
78 0 0
77 0 0
77 0 0
77 0 0
76 0 0
76 0 0
76 0 0
75 0 0
75 0 0
74 0 0
73 0 0
73 0 0
72 0 0
71 0 0
71 0 0
70 0 0
69 0 0
69 0 0
69 0 0
69 0 0
69 0 0
69 0 0
69 0 0
69 0 0
68 0 0
68 0 0
68 0 0
68 0 0
68 0 0
68 0 0
68 0 0
68 0 0
68 0 0
68 0 0
68 0 0
69 0 0
67 54 68
66 54 70
65 54 72
65 54 73
64 54 74
64 55 75
64 55 76
64 55 76
64 55 77
64 55 77
64 56 78
64 56 78
64 56 78
65 56 79
65 56 79
65 56 80
65 57 80
65 57 80
65 57 80
65 57 81
65 57 81
66 57 81
0 0 47
0 1 45
0 3 44
0 6 42
0 16 40
0 16 40
0 42 48
0 42 48
0 65 63
0 84 79
0 97 91
41 20 38
39 42 50
39 42 50
39 42 50
39 42 50
0 62 67
0 67 70
0 73 73
0 75 75
0 77 76
0 76 75
0 75 74
0 74 73
0 72 71
0 68 68
0 67 67
0 65 66
0 64 66
0 63 65
0 60 63
0 60 62
0 59 62
0 59 62
0 59 61
0 57 60
0 57 60
0 57 60
0 57 59
0 57 59
0 56 59
0 56 58
0 56 58
0 56 58
0 58 60
0 59 60
0 58 60
0 59 59
0 59 59
0 59 59
0 59 59
0 59 59
0 59 59
0 59 59
0 60 59
0 60 59
0 60 59
0 60 59
0 60 59
0 60 59
0 60 59
0 62 59
0 62 59
0 62 59
0 62 60
0 62 59
0 62 60
0 65 60
0 65 60
0 65 61
0 65 60
0 65 60
0 65 61
0 63 59
0 66 60
0 66 60
0 66 60
0 66 60
0 67 60
0 67 60
0 67 61
0 70 62
0 70 62
0 71 62
0 71 62
0 71 62
0 71 62
0 75 64
0 75 64
0 75 64
0 75 64
0 76 65
0 79 66
0 80 66
0 80 67
0 80 67
0 83 69
0 81 67
0 82 67
0 85 69
0 85 69
0 87 71
23 26 29
0 69 64
0 71 64
0 72 65
0 75 68
0 78 71
0 77 70
0 69 66
0 56 60
20 22 26
19 21 26
19 21 26
18 20 25
17 20 25
17 20 25
16 20 26
17 21 26
17 21 27
18 22 27
19 23 28
12 27 23
12 27 23
12 27 23
12 27 22
11 27 22
11 27 22
11 26 22
11 26 21
11 26 21
11 26 21
11 26 20
11 25 20
11 25 20
10 25 20
10 25 19
10 25 19
10 24 19
10 24 18
10 24 18
57 68 79
57 69 79
58 69 78
58 69 77
58 70 75
58 71 73
58 73 71
0 71 0
0 71 0
0 71 0
0 71 0
0 70 0
0 70 0
0 70 0
0 69 0
0 68 0
0 67 0
0 65 0
0 65 0
0 65 0
0 66 0
0 67 0
0 68 0
0 70 0
0 72 0
0 73 0
0 75 0
0 77 0
0 78 0
0 79 0
0 81 0
0 82 0
0 82 0
0 83 0
0 83 0
0 83 0
0 84 0
0 84 0
0 84 0
0 84 0
0 85 0
0 85 0
0 84 0
0 85 0
0 84 0
0 84 0
0 84 0
0 84 0
0 84 0
78 0 0
78 0 0
78 0 0
78 0 0
78 0 0
78 0 0
78 0 0
78 0 0
77 0 0
77 0 0
77 0 0
77 0 0
76 0 0
76 0 0
75 0 0
75 0 0
74 0 0
74 0 0
73 0 0
72 0 0
72 0 0
71 0 0
71 0 0
70 0 0
69 0 0
69 0 0
68 0 0
69 0 0
69 0 0
69 0 0
69 0 0
68 0 0
68 0 0
68 0 0
68 0 0
68 0 0
68 0 0
68 0 0
68 0 0
68 0 0
67 0 0
67 0 0
67 0 0
68 0 0
66 54 69
65 54 71
64 54 73
64 54 74
64 54 75
63 55 76
63 55 77
63 55 77
63 55 78
64 55 78
64 56 79
64 55 79
64 56 79
64 56 79
64 56 80
64 56 80
65 56 80
65 56 81
65 57 81
65 57 81
65 57 81
65 57 81
0 1 48
0 1 47
0 1 45
0 5 43
0 9 41
0 19 40
0 36 46
0 41 48
0 62 61
0 83 79
0 84 80
0 106 101
39 42 50
39 42 50
39 42 50
0 53 62
0 64 68
0 70 71
0 75 74
0 77 76
0 77 76
0 76 75
0 74 73
0 74 73
0 72 71
0 68 68
0 66 67
0 65 66
0 64 65
0 61 63
0 60 63
0 60 62
0 59 62
0 59 62
0 58 61
0 57 60
0 57 60
0 57 59
0 56 59
0 56 59
0 56 59
0 56 58
0 56 58
0 56 58
0 56 58
0 56 58
0 56 58
0 56 57
0 56 57
0 56 57
0 56 57
0 56 57
0 56 57
0 56 57
0 57 57
0 57 57
0 57 57
0 57 57
0 57 57
0 57 57
0 57 57
0 59 57
0 59 57
0 60 57
0 60 57
0 60 57
0 60 58
0 60 57
0 62 58
0 62 58
0 62 58
0 63 59
0 63 59
0 63 59
0 66 60
0 66 60
0 66 60
0 66 60
0 66 60
0 67 60
0 66 60
0 70 62
0 70 62
0 70 62
0 70 62
0 70 62
0 71 62
0 74 64
0 75 64
0 75 64
0 75 64
0 75 64
0 79 66
0 79 66
0 77 64
0 77 65
0 81 67
0 81 67
0 81 67
0 84 69
0 85 69
0 87 70
0 70 65
0 72 65
0 74 67
0 77 69
0 79 71
0 76 70
0 77 71
0 69 66
0 47 60
20 21 26
19 21 26
19 20 26
18 20 25
17 19 25
16 20 25
16 20 25
16 20 26
17 21 26
18 22 27
19 23 28
12 27 23
12 27 23
12 27 23
12 27 23
11 26 22
11 26 22
11 26 22
11 26 22
11 26 21
11 26 21
11 25 21
11 25 20
11 25 20
10 25 20
10 25 20
10 24 19
10 24 19
10 24 19
10 24 19
57 67 81
57 67 80
57 68 79
57 68 78
57 69 77
57 70 74
57 72 71
0 70 0
0 70 0
0 70 0
0 70 0
0 70 0
0 70 0
0 69 0
0 68 0
0 67 0
0 66 0
0 65 0
0 64 0
0 65 0
0 65 0
0 66 0
0 68 0
0 69 0
0 71 0
0 73 0
0 75 0
0 76 0
0 78 0
0 79 0
0 80 0
0 81 0
0 82 0
0 82 0
0 83 0
0 83 0
0 83 0
0 84 0
0 84 0
0 84 0
0 84 0
0 84 0
0 84 0
0 84 0
0 84 0
0 84 0
0 84 0
0 84 0
0 83 0
78 0 0
78 0 0
78 0 0
78 0 0
78 0 0
78 0 0
78 0 0
77 0 0
77 0 0
77 0 0
77 0 0
76 0 0
76 0 0
76 0 0
75 0 0
75 0 0
74 0 0
73 0 0
73 0 0
72 0 0
71 0 0
71 0 0
70 0 0
70 0 0
69 0 0
68 0 0
68 0 0
68 0 0
68 0 0
68 0 0
68 0 0
68 0 0
68 0 0
68 0 0
67 0 0
67 0 0
67 0 0
67 0 0
67 0 0
67 0 0
67 0 0
67 0 0
66 0 0
67 0 0
65 53 70
63 53 73
63 54 75
62 54 76
62 54 77
62 54 77
63 54 78
63 55 78
63 55 79
63 55 79
63 55 79
63 55 80
63 55 80
63 55 80
64 56 80
64 56 81
64 56 81
64 56 81
64 56 81
64 56 82
64 57 82
65 57 82
0 1 48
0 1 47
0 1 45
0 6 43
0 9 42
0 14 41
0 19 41
0 36 46
0 62 61
0 62 61
0 84 80
0 96 92
39 42 50
39 42 50
39 42 51
0 55 63
0 65 69
0 73 74
0 77 76
0 78 77
0 78 77
0 77 75
0 75 74
0 72 72
0 68 68
0 66 67
0 64 66
0 64 66
0 63 65
0 60 63
0 60 62
0 59 62
0 59 62
0 58 61
0 58 61
0 56 59
0 56 59
0 56 59
0 56 59
0 56 59
0 56 59
0 55 58
0 55 58
0 55 58
0 55 58
0 55 58
0 55 57
0 56 57
0 56 57
0 56 57
0 56 57
0 56 57
0 56 57
0 56 57
0 57 57
0 57 57
0 57 57
0 57 57
0 57 57
0 57 57
0 57 57
0 59 57
0 59 57
0 59 57
0 59 57
0 59 57
0 59 57
0 60 57
0 62 58
0 62 58
0 62 58
0 62 58
0 62 58
0 62 59
0 62 59
0 66 60
0 66 60
0 66 60
0 66 60
0 66 60
0 66 60
0 70 62
0 70 62
0 70 62
0 70 62
0 70 62
0 70 62
0 74 64
0 74 64
0 74 64
0 72 62
0 72 62
0 76 64
0 76 64
0 76 64
0 77 64
0 80 66
0 81 67
0 81 67
0 84 69
0 84 69
0 84 68
0 72 66
0 74 67
0 77 69
0 79 71
0 81 73
0 79 72
0 69 67
0 54 60
20 21 26
19 21 26
19 20 26
18 20 26
17 20 25
17 19 25
16 19 25
16 19 25
16 20 26
17 21 26
18 22 27
18 22 28
12 27 23
12 27 23
12 27 23
11 26 23
11 26 22
11 26 22
11 26 22
11 26 22
11 26 21
11 25 21
11 25 21
11 25 21
10 25 20
10 25 20
10 24 20
10 24 19
10 24 19
10 24 19
10 23 19
56 66 82
56 66 81
56 66 81
57 67 80
57 67 79
57 68 76
57 71 71
0 69 0
0 69 0
0 69 0
0 69 0
0 69 0
0 69 0
0 68 0
0 68 0
0 67 0
0 66 0
0 64 0
0 64 0
0 65 0
0 65 0
0 66 0
0 67 0
0 69 0
0 71 0
0 72 0
0 74 0
0 76 0
0 77 0
0 78 0
0 80 0
0 81 0
0 81 0
0 82 0
0 82 0
0 83 0
0 83 0
0 83 0
0 84 0
0 84 0
0 84 0
0 84 0
0 84 0
0 84 0
0 84 0
0 84 0
0 83 0
0 83 0
0 83 0
77 0 0
78 0 0
78 0 0
78 0 0
78 0 0
77 0 0
77 0 0
77 0 0
77 0 0
77 0 0
76 0 0
76 0 0
76 0 0
75 0 0
75 0 0
74 0 0
74 0 0
73 0 0
73 0 0
72 0 0
71 0 0
71 0 0
70 0 0
69 0 0
69 0 0
68 0 0
68 0 0
68 0 0
68 0 0
68 0 0
68 0 0
68 0 0
68 0 0
67 0 0
67 0 0
67 0 0
67 0 0
67 0 0
67 0 0
67 0 0
66 0 0
66 0 0
65 0 0
65 0 0
62 53 74
61 53 77
61 53 78
61 54 78
61 54 78
62 54 79
62 54 79
62 54 79
62 54 80
62 55 80
62 55 80
63 55 80
63 55 81
63 55 81
63 56 81
63 56 81
63 56 82
64 56 82
64 56 82
64 56 82
64 56 83
64 56 83
0 1 49
0 0 48
0 1 46
0 4 45
0 8 42
0 14 41
0 19 41
0 36 46
0 36 46
0 62 62
0 83 79
0 83 80
0 98 94
39 41 51
39 41 51
0 58 65
0 65 69
0 75 75
0 78 77
0 80 78
0 79 78
0 77 76
0 75 74
0 72 72
0 68 68
0 65 67
0 64 65
0 62 64
0 60 63
0 57 61
0 57 60
0 56 60
0 55 59
0 58 61
0 56 60
0 56 59
0 56 59
0 56 59
0 56 59
0 56 59
0 55 58
0 55 58
0 55 58
0 55 58
0 55 57
0 55 57
0 55 57
0 55 57
0 55 57
0 56 57
0 55 57
0 55 57
0 55 57
0 55 56
0 57 57
0 57 57
0 57 56
0 57 56
0 57 57
0 57 57
0 57 57
0 59 57
0 59 57
0 59 57
0 59 57
0 59 57
0 59 57
0 59 57
0 62 58
0 62 58
0 62 58
0 62 58
0 62 58
0 62 58
0 62 58
0 65 60
0 65 60
0 65 60
0 66 60
0 66 60
0 66 60
0 69 61
0 69 62
0 69 62
0 67 60
0 67 60
0 67 60
0 71 62
0 71 62
0 71 62
0 71 62
0 72 62
0 72 62
0 76 64
0 76 64
0 76 64
0 77 65
0 80 67
0 80 67
0 81 67
0 81 67
0 81 67
0 84 68
0 79 70
0 79 71
0 80 72
0 79 71
0 70 67
0 53 60
20 22 27
19 21 26
19 21 26
18 20 26
18 20 26
17 19 25
16 19 25
16 19 25
16 19 25
16 20 26
16 20 26
17 21 27
18 22 28
12 26 24
12 26 23
11 26 23
11 26 23
11 26 23
11 26 22
11 26 22
11 26 22
11 25 22
11 25 21
11 25 21
11 25 21
10 25 20
10 24 20
10 24 20
10 24 20
10 24 19
10 23 19
10 23 19
56 65 84
56 65 83
56 65 83
56 65 83
56 65 82
56 65 81
56 70 72
0 68 0
0 68 0
0 68 0
0 69 0
0 68 0
0 68 0
0 68 0
0 67 0
0 66 0
0 65 0
0 64 0
0 64 0
0 64 0
0 64 0
0 65 0
0 67 0
0 68 0
0 70 0
0 72 0
0 74 0
0 75 0
0 77 0
0 78 0
0 79 0
0 80 0
0 81 0
0 82 0
0 82 0
0 82 0
0 83 0
0 83 0
0 83 0
0 83 0
0 83 0
0 84 0
0 84 0
0 84 0
0 84 0
0 83 0
0 83 0
0 83 0
0 83 0
77 0 0
77 0 0
77 0 0
77 0 0
77 0 0
77 0 0
77 0 0
77 0 0
77 0 0
76 0 0
76 0 0
76 0 0
75 0 0
75 0 0
75 0 0
74 0 0
74 0 0
73 0 0
72 0 0
72 0 0
71 0 0
71 0 0
70 0 0
69 0 0
68 0 0
68 0 0
68 0 0
68 0 0
68 0 0
68 0 0
68 0 0
67 0 0
67 0 0
67 0 0
67 0 0
66 0 0
66 0 0
66 0 0
66 0 0
66 0 0
66 0 0
65 0 0
64 0 0
0 0 88
0 0 89
0 0 90
0 0 91
0 0 92
0 0 92
0 0 92
0 0 93
0 0 93
0 0 94
0 0 94
0 0 94
0 0 95
0 0 95
0 0 95
0 0 96
0 0 96
0 0 96
0 0 96
0 0 97
0 0 97
0 0 97
0 0 97
0 0 98
0 1 48
0 1 48
0 4 45
0 6 44
0 9 43
0 14 41
0 36 46
0 36 46
0 59 60
0 62 62
0 83 79
0 97 93
0 97 93
0 105 102
0 60 65
0 68 70
0 76 75
0 79 78
0 81 80
0 80 79
0 78 76
0 75 74
0 72 72
0 67 68
0 65 66
0 63 65
0 61 64
0 60 63
0 57 61
0 56 60
0 55 60
0 55 59
0 54 59
0 53 57
0 53 57
0 53 57
0 52 57
0 52 56
0 52 56
0 51 55
0 52 55
0 55 57
0 55 57
0 55 57
0 55 57
0 55 57
0 55 57
0 55 56
0 55 57
0 55 56
0 55 56
0 55 56
0 55 56
0 56 56
0 56 56
0 56 56
0 57 56
0 57 56
0 57 56
0 57 56
0 59 57
0 59 57
0 59 57
0 59 57
0 59 57
0 59 57
0 59 57
0 61 58
0 62 58
0 62 58
0 62 58
0 62 58
0 62 58
0 59 56
0 62 57
0 62 57
0 62 57
0 62 58
0 62 58
0 62 58
0 63 58
0 66 59
0 66 60
0 66 60
0 67 60
0 67 60
0 67 60
0 71 62
0 71 62
0 71 62
0 71 62
0 71 62
0 75 64
0 76 64
0 76 64
0 76 65
0 80 67
0 77 65
0 77 65
0 81 67
0 81 67
0 83 68
0 81 72
0 82 73
0 80 72
0 70 67
0 52 61
20 22 27
20 21 27
19 21 26
19 20 26
18 20 26
18 20 26
17 19 25
16 19 25
16 19 25
16 19 25
16 20 26
16 20 26
17 21 27
18 22 28
12 26 24
11 26 24
11 26 23
11 26 23
11 26 23
11 26 23
11 25 22
11 25 22
11 25 22
11 25 21
11 25 21
10 24 21
10 24 21
10 24 20
10 24 20
10 24 20
10 23 20
10 23 19
10 23 19
0 0 98
0 0 98
0 0 97
0 0 97
0 0 96
0 0 95
0 0 94
0 66 0
0 67 0
0 68 0
0 68 0
0 68 0
0 68 0
0 67 0
0 67 0
0 66 0
0 64 0
0 63 0
0 63 0
0 63 0
0 64 0
0 65 0
0 66 0
0 68 0
0 70 0
0 71 0
0 73 0
0 75 0
0 76 0
0 77 0
0 79 0
0 80 0
0 81 0
0 81 0
0 82 0
0 82 0
0 82 0
0 83 0
0 83 0
0 83 0
0 83 0
0 83 0
0 83 0
0 83 0
0 83 0
0 83 0
0 83 0
0 83 0
0 83 0
77 0 0
77 0 0
77 0 0
77 0 0
77 0 0
77 0 0
77 0 0
77 0 0
76 0 0
76 0 0
76 0 0
75 0 0
75 0 0
75 0 0
74 0 0
74 0 0
73 0 0
73 0 0
72 0 0
71 0 0
71 0 0
70 0 0
69 0 0
69 0 0
68 0 0
68 0 0
67 0 0
68 0 0
68 0 0
68 0 0
67 0 0
67 0 0
67 0 0
67 0 0
66 0 0
66 0 0
66 0 0
66 0 0
66 0 0
66 0 0
65 0 0
65 0 0
0 0 88
0 0 89
0 0 89
0 0 90
0 0 90
0 0 91
0 0 91
0 0 92
0 0 92
0 0 93
0 0 93
0 0 93
0 0 94
0 0 94
0 0 94
0 0 95
0 0 95
0 0 95
0 0 95
0 0 96
0 0 96
0 0 96
0 0 96
0 0 97
0 0 97
0 0 49
0 0 48
0 2 47
0 6 44
0 7 44
0 14 42
0 12 42
0 35 46
0 35 47
0 59 60
0 82 79
0 83 80
0 96 92
0 97 94
0 103 100
0 106 104
0 104 102
0 101 99
0 98 96
0 79 78
0 77 76
0 74 73
0 70 70
0 67 68
0 64 66
0 62 65
0 61 64
0 57 61
0 56 60
0 56 60
0 55 59
0 54 59
0 54 59
0 53 57
0 52 57
0 52 57
0 52 56
0 52 56
0 52 56
0 51 55
0 51 55
0 51 55
0 51 55
0 51 55
0 51 55
0 51 55
0 51 54
0 52 54
0 52 54
0 52 54
0 52 54
0 52 54
0 52 54
0 53 54
0 53 54
0 53 54
0 53 54
0 53 54
0 53 54
0 53 54
0 55 54
0 55 54
0 55 55
0 55 54
0 55 55
0 55 55
0 55 54
0 58 55
0 58 56
0 58 56
0 58 56
0 58 56
0 58 56
0 58 56
0 62 57
0 62 57
0 62 57
0 62 57
0 62 58
0 62 58
0 62 58
0 66 59
0 66 59
0 66 60
0 66 60
0 66 60
0 67 60
0 70 62
0 71 62
0 71 62
0 71 62
0 71 62
0 75 64
0 75 64
0 72 62
0 73 62
0 76 64
0 77 65
0 77 65
0 80 66
0 80 67
0 83 68
0 82 73
0 80 72
0 80 72
0 69 67
0 43 63
20 21 27
19 21 26
19 21 26
18 20 26
18 20 26
18 20 26
17 19 25
16 19 25
16 19 25
15 19 25
15 19 26
16 20 26
17 21 27
18 21 28
12 26 24
11 26 24
11 26 23
11 26 23
11 26 23
11 25 23
11 25 22
11 25 22
11 25 22
11 25 21
11 24 21
10 24 21
10 24 21
10 24 20
10 23 20
10 23 20
10 23 20
10 23 20
10 22 20
0 0 97
0 0 96
0 0 96
0 0 96
0 0 95
0 0 95
0 0 95
0 0 94
0 66 0
0 67 0
0 67 0
0 67 0
0 67 0
0 67 0
0 66 0
0 65 0
0 64 0
0 63 0
0 63 0
0 63 0
0 63 0
0 64 0
0 66 0
0 68 0
0 69 0
0 71 0
0 73 0
0 74 0
0 76 0
0 77 0
0 78 0
0 79 0
0 80 0
0 81 0
0 81 0
0 82 0
0 82 0
0 82 0
0 82 0
0 83 0
0 83 0
0 83 0
0 83 0
0 83 0
0 83 0
0 83 0
0 83 0
0 82 0
0 82 0
77 0 0
77 0 0
77 0 0
77 0 0
77 0 0
77 0 0
76 0 0
76 0 0
76 0 0
76 0 0
76 0 0
75 0 0
75 0 0
74 0 0
74 0 0
73 0 0
73 0 0
72 0 0
72 0 0
71 0 0
71 0 0
70 0 0
69 0 0
69 0 0
68 0 0
67 0 0
67 0 0
67 0 0
67 0 0
67 0 0
67 0 0
67 0 0
67 0 0
66 0 0
66 0 0
66 0 0
66 0 0
65 0 0
65 0 0
65 0 0
65 0 0
0 0 89
0 0 89
0 0 89
0 0 90
0 0 90
0 0 90
0 0 91
0 0 91
0 0 92
0 0 92
0 0 92
0 0 93
0 0 93
0 0 93
0 0 94
0 0 94
0 0 94
0 0 94
0 0 95
0 0 95
0 0 95
0 0 96
0 0 96
0 0 96
0 0 96
0 0 97
0 1 50
0 0 49
0 2 47
0 4 47
0 7 45
0 9 43
0 12 43
0 31 45
0 35 47
0 59 60
0 59 60
0 82 79
0 82 80
0 97 93
0 96 93
0 102 99
0 101 99
0 100 98
0 98 96
0 99 98
0 76 75
0 74 73
0 67 68
0 64 66
0 61 64
0 59 62
0 60 63
0 57 61
0 56 60
0 55 60
0 55 59
0 54 59
0 54 59
0 52 57
0 52 57
0 52 57
0 52 56
0 52 56
0 52 56
0 51 55
0 51 55
0 51 55
0 51 55
0 51 55
0 51 55
0 51 54
0 51 54
0 51 54
0 51 54
0 51 54
0 51 54
0 51 54
0 51 54
0 53 54
0 53 54
0 53 54
0 53 54
0 53 54
0 53 54
0 53 54
0 55 54
0 55 54
0 55 54
0 55 54
0 55 54
0 55 54
0 55 54
0 58 55
0 58 56
0 58 56
0 58 56
0 58 56
0 58 56
0 58 56
0 61 57
0 61 57
0 62 57
0 62 57
0 62 58
0 62 58
0 62 58
0 65 59
0 66 59
0 66 60
0 66 60
0 66 60
0 66 60
0 70 62
0 70 62
0 67 60
0 67 60
0 67 60
0 71 62
0 72 62
0 72 62
0 72 62
0 76 64
0 76 65
0 76 65
0 77 65
0 80 67
0 77 65
0 79 71
0 80 72
0 70 67
0 42 63
20 22 27
19 21 27
19 21 26
19 20 26
18 20 26
18 20 26
17 19 26
17 19 25
16 19 25
16 19 25
15 19 26
15 19 26
16 20 26
17 20 27
17 21 27
12 26 24
11 26 24
11 26 24
11 25 23
11 25 23
11 25 23
11 25 22
11 25 22
11 25 22
11 24 22
11 24 21
10 24 21
10 24 21
10 23 20
10 23 20
10 23 20
10 23 20
10 22 20
9 22 20
0 0 96
0 0 96
0 0 96
0 0 95
0 0 95
0 0 95
0 0 95
0 0 95
0 0 94
0 66 0
0 67 0
0 67 0
0 67 0
0 66 0
0 66 0
0 65 0
0 63 0
0 62 0
0 62 0
0 63 0
0 63 0
0 64 0
0 66 0
0 67 0
0 69 0
0 71 0
0 72 0
0 74 0
0 75 0
0 77 0
0 78 0
0 79 0
0 80 0
0 80 0
0 81 0
0 81 0
0 82 0
0 82 0
0 82 0
0 82 0
0 82 0
0 82 0
0 82 0
0 82 0
0 83 0
0 82 0
0 82 0
0 82 0
0 82 0
76 0 0
76 0 0
77 0 0
77 0 0
76 0 0
76 0 0
76 0 0
76 0 0
76 0 0
75 0 0
75 0 0
75 0 0
75 0 0
74 0 0
74 0 0
73 0 0
73 0 0
72 0 0
72 0 0
71 0 0
70 0 0
70 0 0
69 0 0
68 0 0
68 0 0
67 0 0
67 0 0
67 0 0
67 0 0
67 0 0
67 0 0
67 0 0
67 0 0
66 0 0
66 0 0
65 0 0
65 0 0
65 0 0
65 0 0
65 0 0
0 0 89
0 0 89
0 0 90
0 0 90
0 0 90
0 0 90
0 0 91
0 0 91
0 0 91
0 0 92
0 0 92
0 0 92
0 0 93
0 0 93
0 0 93
0 0 93
0 0 94
0 0 94
0 0 94
0 0 94
0 0 95
0 0 95
0 0 95
0 0 95
0 0 96
0 0 96
0 0 96
0 0 52
0 0 51
0 0 51
0 1 49
0 4 46
0 4 46
0 9 44
0 12 43
0 31 46
0 35 47
0 58 60
0 58 60
0 81 79
0 81 79
0 95 92
0 94 91
0 93 91
0 100 98
0 98 96
0 96 95
0 94 93
0 73 73
0 67 67
0 63 65
0 60 63
0 58 62
0 56 61
0 53 58
0 52 58
0 51 57
0 51 57
0 54 59
0 53 58
0 52 57
0 52 57
0 52 57
0 51 56
0 51 56
0 51 56
0 51 55
0 51 55
0 51 55
0 51 55
0 51 55
0 51 55
0 51 55
0 51 54
0 51 54
0 51 54
0 51 54
0 51 54
0 51 54
0 51 54
0 52 54
0 52 54
0 52 54
0 52 54
0 52 54
0 52 54
0 52 54
0 55 54
0 54 54
0 55 54
0 55 54
0 55 54
0 55 54
0 55 54
0 57 55
0 58 55
0 58 55
0 58 56
0 58 56
0 58 56
0 58 56
0 61 57
0 61 57
0 61 57
0 61 57
0 61 57
0 62 58
0 62 58
0 65 59
0 65 59
0 62 57
0 62 57
0 62 57
0 62 58
0 66 59
0 67 60
0 67 60
0 67 60
0 67 60
0 67 60
0 71 62
0 72 62
0 72 62
0 72 63
0 76 65
0 76 65
0 73 63
0 76 65
0 76 65
0 79 66
0 69 67
0 39 64
20 22 27
20 21 27
19 21 26
19 20 26
18 20 26
18 20 26
18 19 26
17 19 26
16 19 25
16 18 25
15 18 25
15 19 26
15 19 26
16 20 26
16 20 27
17 21 28
11 26 24
11 25 24
11 25 24
11 25 23
11 25 23
11 25 23
11 25 23
11 25 22
11 24 22
11 24 22
10 24 21
10 24 21
10 23 21
10 23 20
10 23 20
10 23 20
10 22 20
10 22 20
10 22 20
0 0 95
0 0 95
0 0 95
0 0 95
0 0 95
0 0 95
0 0 95
0 0 95
0 0 95
0 0 95
0 66 0
0 66 0
0 66 0
0 66 0
0 65 0
0 64 0
0 63 0
0 62 0
0 62 0
0 62 0
0 62 0
0 63 0
0 65 0
0 67 0
0 68 0
0 70 0
0 72 0
0 73 0
0 75 0
0 76 0
0 77 0
0 78 0
0 79 0
0 80 0
0 80 0
0 81 0
0 81 0
0 81 0
0 82 0
0 82 0
0 82 0
0 82 0
0 82 0
0 82 0
0 82 0
0 82 0
0 82 0
0 82 0
0 82 0
76 0 0
76 0 0
76 0 0
76 0 0
76 0 0
76 0 0
76 0 0
76 0 0
75 0 0
75 0 0
75 0 0
74 0 0
74 0 0
74 0 0
74 0 0
73 0 0
73 0 0
72 0 0
71 0 0
71 0 0
70 0 0
69 0 0
69 0 0
68 0 0
67 0 0
67 0 0
67 0 0
67 0 0
67 0 0
67 0 0
67 0 0
67 0 0
66 0 0
66 0 0
65 0 0
65 0 0
65 0 0
65 0 0
64 0 0
0 0 89
0 0 89
0 0 90
0 0 90
0 0 90
0 0 90
0 0 91
0 0 91
0 0 91
0 0 91
0 0 92
0 0 92
0 0 92
0 0 92
0 0 93
0 0 93
0 0 93
0 0 93
0 0 94
0 0 94
0 0 94
0 0 94
0 0 94
0 0 95
0 0 95
0 0 95
0 0 95
0 0 95
0 0 96
0 0 52
0 0 51
0 1 49
0 3 48
0 4 47
0 9 44
0 9 44
0 31 46
0 31 46
0 56 59
0 58 60
0 80 78
0 81 79
0 80 79
0 93 91
0 92 90
0 92 90
0 91 89
0 89 88
0 88 87
0 83 82
0 66 66
0 62 64
0 59 63
0 57 61
0 55 60
0 52 58
0 51 57
0 50 57
0 50 57
0 50 56
0 48 54
0 47 54
0 47 54
0 47 54
0 47 54
0 47 54
0 47 53
0 46 52
0 46 52
0 50 55
0 50 55
0 50 55
0 50 55
0 51 54
0 51 54
0 51 54
0 51 54
0 51 54
0 51 54
0 51 54
0 51 54
0 52 54
0 52 54
0 52 54
0 52 53
0 52 54
0 52 54
0 52 54
0 54 54
0 54 54
0 54 54
0 54 54
0 55 54
0 54 54
0 54 54
0 57 55
0 57 55
0 57 55
0 57 55
0 57 55
0 58 56
0 58 56
0 57 55
0 57 55
0 57 55
0 57 55
0 57 55
0 58 55
0 58 55
0 61 57
0 61 57
0 62 57
0 62 57
0 62 58
0 62 58
0 66 59
0 66 60
0 66 60
0 67 60
0 67 60
0 67 60
0 71 62
0 71 62
0 71 63
0 72 63
0 72 62
0 72 63
0 72 63
0 76 65
0 76 65
0 78 66
0 39 64
20 22 27
20 21 27
19 21 27
19 21 26
18 20 26
18 20 26
18 19 26
17 19 26
17 19 26
16 19 25
16 18 25
15 18 25
15 18 26
15 19 26
16 19 26
16 20 27
17 21 27
11 25 24
11 25 24
11 25 24
11 25 24
11 25 23
11 25 23
11 25 23
11 24 22
11 24 22
11 24 22
10 24 21
10 23 21
10 23 21
10 23 21
10 23 20
10 22 20
10 22 20
10 22 20
10 22 20
0 0 94
0 0 94
0 0 94
0 0 94
0 0 94
0 0 94
0 0 95
0 0 95
0 0 94
0 0 95
0 0 95
0 66 0
0 65 0
0 65 0
0 65 0
0 64 0
0 62 0
0 61 0
0 61 0
0 61 0
0 62 0
0 63 0
0 65 0
0 66 0
0 68 0
0 70 0
0 71 0
0 73 0
0 74 0
0 76 0
0 77 0
0 78 0
0 79 0
0 79 0
0 80 0
0 80 0
0 81 0
0 81 0
0 81 0
0 81 0
0 82 0
0 82 0
0 82 0
0 82 0
0 82 0
0 82 0
0 82 0
0 82 0
0 81 0
76 0 0
76 0 0
76 0 0
76 0 0
76 0 0
76 0 0
76 0 0
75 0 0
75 0 0
75 0 0
75 0 0
74 0 0
74 0 0
74 0 0
73 0 0
73 0 0
72 0 0
72 0 0
71 0 0
70 0 0
70 0 0
69 0 0
68 0 0
68 0 0
67 0 0
67 0 0
67 0 0
66 0 0
67 0 0
67 0 0
67 0 0
66 0 0
66 0 0
65 0 0
65 0 0
64 0 0
64 0 0
64 0 0
0 0 89
0 0 89
0 0 90
0 0 90
0 0 90
0 0 90
0 0 91
0 0 91
0 0 91
0 0 91
0 0 91
0 0 91
0 0 92
0 0 92
0 0 92
0 0 92
0 0 92
0 0 93
0 0 93
0 0 93
0 0 93
0 0 93
0 0 94
0 0 94
0 0 94
0 0 94
0 0 94
0 0 94
0 0 95
0 0 95
0 0 53
0 0 52
0 1 50
0 2 50
0 3 48
0 4 47
0 9 45
0 9 45
0 29 46
0 29 46
0 56 59
0 55 59
0 79 77
0 80 78
0 79 78
0 78 77
0 91 89
0 90 88
0 88 87
0 87 86
0 84 83
0 64 65
0 61 64
0 58 62
0 56 61
0 52 58
0 51 58
0 50 57
0 50 57
0 49 56
0 49 56
0 47 54
0 47 54
0 47 54
0 47 54
0 47 54
0 47 54
0 47 53
0 46 52
0 46 52
0 46 52
0 46 52
0 46 52
0 46 52
0 46 51
0 46 51
0 46 51
0 46 51
0 46 51
0 46 51
0 46 51
0 47 51
0 47 51
0 48 51
0 48 51
0 48 51
0 47 51
0 48 51
0 48 51
0 50 51
0 50 51
0 50 51
0 50 51
0 50 52
0 50 52
0 50 52
0 53 53
0 53 53
0 53 53
0 53 53
0 53 53
0 53 53
0 53 53
0 57 55
0 57 55
0 57 55
0 57 55
0 57 55
0 57 55
0 57 55
0 61 57
0 61 57
0 61 57
0 61 58
0 62 58
0 62 58
0 62 58
0 66 60
0 66 60
0 66 60
0 66 60
0 67 60
0 67 60
0 67 60
0 67 60
0 67 61
0 71 63
0 72 63
0 72 63
0 75 65
0 75 65
0 74 64
20 22 27
20 21 27
19 21 27
19 21 26
19 20 26
18 20 26
18 20 26
17 19 26
17 19 26
17 19 26
16 18 25
16 18 25
15 18 25
15 18 26
15 19 26
15 19 26
16 20 27
17 21 27
11 25 24
11 25 24
11 25 24
11 25 24
11 25 23
11 24 23
11 24 23
11 24 22
11 24 22
10 24 22
10 23 21
10 23 21
10 23 21
10 23 21
10 22 20
10 22 20
10 22 20
10 22 20
9 21 20
0 0 92
0 0 92
0 0 93
0 0 93
0 0 93
0 0 94
0 0 94
0 0 94
0 0 94
0 0 94
0 0 94
0 0 94
0 65 0
0 65 0
0 64 0
0 63 0
0 62 0
0 61 0
0 61 0
0 61 0
0 61 0
0 62 0
0 64 0
0 66 0
0 68 0
0 69 0
0 71 0
0 73 0
0 74 0
0 75 0
0 76 0
0 78 0
0 78 0
0 79 0
0 79 0
0 80 0
0 80 0
0 81 0
0 81 0
0 81 0
0 81 0
0 82 0
0 81 0
0 81 0
0 81 0
0 81 0
0 81 0
0 81 0
0 81 0
76 0 0
76 0 0
76 0 0
76 0 0
76 0 0
76 0 0
75 0 0
75 0 0
75 0 0
75 0 0
74 0 0
74 0 0
74 0 0
73 0 0
73 0 0
72 0 0
72 0 0
71 0 0
71 0 0
70 0 0
70 0 0
69 0 0
68 0 0
68 0 0
67 0 0
67 0 0
66 0 0
66 0 0
66 0 0
66 0 0
66 0 0
66 0 0
66 0 0
65 0 0
65 0 0
64 0 0
64 0 0
0 0 90
0 0 90
0 0 90
0 0 90
0 0 90
0 0 90
0 0 90
0 0 90
0 0 91
0 0 91
0 0 91
0 0 91
0 0 91
0 0 91
0 0 91
0 0 92
0 0 92
0 0 92
0 0 92
0 0 92
0 0 92
0 0 93
0 0 93
0 0 93
0 0 93
0 0 93
0 0 93
0 0 93
0 0 93
0 0 94
0 0 93
0 0 53
0 0 52
0 0 52
0 1 51
0 3 48
0 3 48
0 9 45
0 3 47
0 26 46
0 29 47
0 29 47
0 55 59
0 55 59
0 55 59
0 77 77
0 76 76
0 76 76
0 75 75
0 74 75
0 87 86
0 84 83
0 61 61
0 56 60
0 53 59
0 51 58
0 51 58
0 51 58
0 50 57
0 49 57
0 49 56
0 49 56
0 47 54
0 47 54
0 47 54
0 47 54
0 47 54
0 46 53
0 46 52
0 46 52
0 45 52
0 46 52
0 46 52
0 46 52
0 46 52
0 46 51
0 46 51
0 46 51
0 46 51
0 46 51
0 46 51
0 46 51
0 47 51
0 47 51
0 47 51
0 47 51
0 47 51
0 47 51
0 47 51
0 47 51
0 49 51
0 49 51
0 50 51
0 50 51
0 50 51
0 50 52
0 50 52
0 53 53
0 53 53
0 53 53
0 53 53
0 53 53
0 53 53
0 53 53
0 53 53
0 56 55
0 57 55
0 57 55
0 57 55
0 57 55
0 57 55
0 57 56
0 61 57
0 61 57
0 61 57
0 61 58
0 62 58
0 62 58
0 66 60
0 62 58
0 62 58
0 62 58
0 62 58
0 66 60
0 67 60
0 67 61
0 67 61
0 71 63
0 71 63
0 71 63
0 75 65
0 71 63
0 73 64
20 21 27
19 21 27
19 21 26
19 20 26
18 20 26
18 20 26
18 19 26
17 19 26
17 19 26
17 19 26
16 18 25
15 18 25
15 18 25
15 18 26
15 18 26
15 19 26
16 20 27
17 20 28
11 25 25
11 25 24
11 25 24
11 25 24
11 24 23
11 24 23
11 24 23
11 24 22
10 24 22
10 23 22
10 23 21
10 23 21
10 23 21
10 22 21
10 22 20
10 22 20
10 21 20
9 21 20
9 21 21
0 0 90
0 0 91
0 0 91
0 0 92
0 0 92
0 0 92
0 0 93
0 0 93
0 0 93
0 0 93
0 0 94
0 0 94
0 0 94
0 64 0
0 64 0
0 63 0
0 61 0
0 60 0
0 60 0
0 61 0
0 61 0
0 62 0
0 63 0
0 65 0
0 67 0
0 69 0
0 70 0
0 72 0
0 73 0
0 75 0
0 76 0
0 77 0
0 78 0
0 79 0
0 79 0
0 80 0
0 80 0
0 80 0
0 80 0
0 81 0
0 81 0
0 81 0
0 81 0
0 81 0
0 81 0
0 81 0
0 81 0
0 81 0
0 81 0
75 0 0
76 0 0
76 0 0
76 0 0
75 0 0
75 0 0
75 0 0
75 0 0
75 0 0
74 0 0
74 0 0
74 0 0
74 0 0
73 0 0
73 0 0
72 0 0
72 0 0
71 0 0
71 0 0
70 0 0
69 0 0
69 0 0
68 0 0
67 0 0
67 0 0
66 0 0
66 0 0
66 0 0
66 0 0
66 0 0
66 0 0
66 0 0
65 0 0
65 0 0
64 0 0
64 0 0
0 0 90
0 0 90
0 0 90
0 0 90
0 0 90
0 0 90
0 0 90
0 0 91
0 0 91
0 0 91
0 0 91
0 0 91
0 0 91
0 0 91
0 0 91
0 0 91
0 0 91
0 0 91
0 0 92
0 0 92
0 0 92
0 0 92
0 0 92
0 0 92
0 0 92
0 0 92
0 0 93
0 0 93
0 0 92
0 0 92
0 0 92
0 0 92
0 0 92
0 0 53
0 0 53
0 1 51
0 2 51
0 3 49
0 0 52
0 3 48
0 3 48
0 25 47
0 25 47
0 55 59
0 54 59
0 54 59
0 54 59
0 76 76
0 76 75
0 75 75
0 72 73
0 71 73
0 69 71
0 65 67
0 54 59
0 52 58
0 50 58
0 46 55
0 45 55
0 45 54
0 44 54
0 44 54
0 43 53
0 47 54
0 46 54
0 46 54
0 46 54
0 46 54
0 46 54
0 45 52
0 45 52
0 45 52
0 45 52
0 45 52
0 45 52
0 45 52
0 46 51
0 46 51
0 46 51
0 46 51
0 46 51
0 46 51
0 46 51
0 47 51
0 47 51
0 47 51
0 47 51
0 47 51
0 47 51
0 47 51
0 47 51
0 49 51
0 49 52
0 49 52
0 49 52
0 49 51
0 49 52
0 50 52
0 52 53
0 52 53
0 52 53
0 53 53
0 53 53
0 53 53
0 53 53
0 53 53
0 56 55
0 56 55
0 56 55
0 57 55
0 57 55
0 57 55
0 57 56
0 61 57
0 56 55
0 56 55
0 57 55
0 57 56
0 57 56
0 61 58
0 61 58
0 61 58
0 61 58
0 62 58
0 66 60
0 66 61
0 66 61
0 67 61
0 67 61
0 71 63
0 66 61
0 67 62
0 70 63
0 70 63
19 21 27
19 21 27
19 20 26
18 20 26
18 20 26
18 19 26
17 19 26
17 19 26
17 19 26
17 19 26
16 18 25
15 18 25
15 18 25
15 18 26
15 18 26
15 19 26
16 19 27
17 20 28
11 25 25
11 25 24
11 24 24
11 24 24
11 24 23
11 24 23
11 24 23
10 24 22
10 23 22
10 23 22
10 23 21
10 23 21
10 22 21
10 22 21
10 22 20
10 21 20
10 21 20
9 21 20
9 21 21
0 0 87
0 0 88
0 0 89
0 0 89
0 0 90
0 0 91
0 0 91
0 0 92
0 0 92
0 0 92
0 0 93
0 0 93
0 0 93
0 0 93
0 63 0
0 62 0
0 61 0
0 60 0
0 60 0
0 60 0
0 60 0
0 61 0
0 63 0
0 65 0
0 67 0
0 68 0
0 70 0
0 72 0
0 73 0
0 74 0
0 76 0
0 76 0
0 77 0
0 78 0
0 79 0
0 79 0
0 80 0
0 80 0
0 80 0
0 80 0
0 81 0
0 81 0
0 81 0
0 81 0
0 81 0
0 81 0
0 81 0
0 81 0
0 80 0
75 0 0
75 0 0
75 0 0
75 0 0
75 0 0
75 0 0
75 0 0
75 0 0
74 0 0
74 0 0
74 0 0
74 0 0
73 0 0
73 0 0
72 0 0
72 0 0
72 0 0
71 0 0
70 0 0
70 0 0
69 0 0
69 0 0
68 0 0
67 0 0
67 0 0
66 0 0
66 0 0
66 0 0
66 0 0
66 0 0
66 0 0
65 0 0
65 0 0
64 0 0
64 0 0
0 0 90
0 0 90
0 0 90
0 0 90
0 0 90
0 0 91
0 0 91
0 0 91
0 0 91
0 0 91
0 0 91
0 0 91
0 0 91
0 0 91
0 0 91
0 0 91
0 0 91
0 0 91
0 0 91
0 0 91
0 0 91
0 0 91
0 0 91
0 0 91
0 0 92
0 0 92
0 0 92
0 0 92
0 0 92
0 0 92
0 0 92
0 0 92
0 0 91
0 0 91
0 0 58
0 0 57
0 1 52
0 0 55
0 0 52
0 0 52
0 2 49
0 2 49
0 3 48
0 25 47
0 24 47
0 24 48
0 52 58
0 52 58
0 51 58
0 51 58
0 73 74
0 72 73
0 71 72
0 69 71
0 65 67
0 52 58
0 50 58
0 48 57
0 45 55
0 45 55
0 44 54
0 44 54
0 43 54
0 43 53
0 41 52
0 41 51
0 41 51
0 41 51
0 41 51
0 41 51
0 40 49
0 40 49
0 39 49
0 40 49
0 45 52
0 45 52
0 45 52
0 45 51
0 45 51
0 45 51
0 45 51
0 45 51
0 45 51
0 45 51
0 47 51
0 47 51
0 47 51
0 47 51
0 47 51
0 47 51
0 47 51
0 47 51
0 49 51
0 49 51
0 49 52
0 49 52
0 49 52
0 49 52
0 49 52
0 52 53
0 52 53
0 52 53
0 52 53
0 52 53
0 47 51
0 47 51
0 47 51
0 51 52
0 51 52
0 51 53
0 51 53
0 52 53
0 52 53
0 52 53
0 56 55
0 56 55
0 56 55
0 56 56
0 56 56
0 57 56
0 61 58
0 61 58
0 61 58
0 61 58
0 62 59
0 62 59
0 66 61
0 66 61
0 62 59
0 62 60
0 66 61
0 66 61
0 66 62
0 70 63
0 70 64
19 20 27
19 20 26
18 20 26
18 20 26
18 19 26
17 19 26
17 19 26
17 19 26
17 19 26
16 18 26
16 18 25
15 18 25
15 18 25
15 18 26
15 18 26
15 19 26
16 19 27
16 20 28
11 24 25
11 24 24
11 24 24
11 24 24
11 24 23
11 24 23
10 24 23
10 23 22
10 23 22
10 23 22
10 23 21
10 22 21
10 22 21
10 22 20
10 21 20
10 21 20
9 21 20
9 20 20
9 20 21
0 0 82
0 0 84
0 0 86
0 0 87
0 0 88
0 0 88
0 0 89
0 0 90
0 0 90
0 0 91
0 0 91
0 0 92
0 0 92
0 0 92
0 0 93
0 61 0
0 60 0
0 59 0
0 59 0
0 60 0
0 59 0
0 61 0
0 62 0
0 64 0
0 66 0
0 68 0
0 69 0
0 71 0
0 72 0
0 74 0
0 75 0
0 76 0
0 77 0
0 78 0
0 78 0
0 79 0
0 79 0
0 80 0
0 80 0
0 80 0
0 80 0
0 80 0
0 81 0
0 81 0
0 81 0
0 81 0
0 81 0
0 80 0
0 80 0
75 0 0
75 0 0
75 0 0
75 0 0
75 0 0
75 0 0
75 0 0
74 0 0
74 0 0
74 0 0
74 0 0
73 0 0
73 0 0
73 0 0
72 0 0
72 0 0
71 0 0
71 0 0
70 0 0
69 0 0
69 0 0
68 0 0
68 0 0
67 0 0
66 0 0
66 0 0
66 0 0
66 0 0
66 0 0
66 0 0
65 0 0
65 0 0
65 0 0
64 0 0
0 0 91
0 0 91
0 0 91
0 0 91
0 0 91
0 0 91
0 0 91
0 0 91
0 0 91
0 0 91
0 0 91
0 0 91
0 0 91
0 0 91
0 0 91
0 0 91
0 0 91
0 0 91
0 0 91
0 0 91
0 0 91
0 0 91
0 0 91
0 0 91
0 0 91
0 0 91
0 0 91
0 0 91
0 0 91
0 0 91
0 0 91
0 0 91
0 0 91
0 0 90
0 0 90
0 0 89
0 0 58
0 0 57
0 0 55
0 0 55
0 0 53
0 0 53
0 2 49
0 2 49
0 25 48
0 24 48
0 24 48
0 24 48
0 51 58
0 51 58
0 50 58
0 50 58
0 50 58
0 49 57
0 68 70
0 63 66
0 50 57
0 48 57
0 47 57
0 44 55
0 44 54
0 43 54
0 43 54
0 43 54
0 42 53
0 41 52
0 41 52
0 40 51
0 40 51
0 40 51
0 40 51
0 39 50
0 39 50
0 39 49
0 39 49
0 39 49
0 39 49
0 39 49
0 40 48
0 39 48
0 39 48
0 39 48
0 40 48
0 40 48
0 39 48
0 41 48
0 41 48
0 41 48
0 41 48
0 41 48
0 41 48
0 41 48
0 41 48
0 43 49
0 43 49
0 43 49
0 43 49
0 43 49
0 44 49
0 44 49
0 47 50
0 47 50
0 47 50
0 47 51
0 47 51
0 47 51
0 47 51
0 47 51
0 51 52
0 51 53
0 51 53
0 51 53
0 51 53
0 51 53
0 52 54
0 55 55
0 56 55
0 56 56
0 56 56
0 56 56
0 56 56
0 60 58
0 61 58
0 61 58
0 61 59
0 61 59
0 56 57
0 61 59
0 61 59
0 61 60
0 62 60
0 65 61
0 66 62
0 66 62
0 69 64
0 64 62
19 20 26
18 20 26
18 20 26
18 19 26
17 19 26
17 19 26
17 19 26
17 18 26
16 18 26
16 18 26
16 18 25
15 18 25
15 18 26
15 18 26
15 18 26
15 19 26
16 19 27
16 20 28
11 24 25
11 24 25
11 24 24
11 24 24
11 24 23
11 23 23
10 23 23
10 23 22
10 23 22
10 23 22
10 22 21
10 22 21
10 22 21
10 21 20
10 21 20
10 21 20
9 20 20
9 20 20
9 20 20
0 0 78
0 0 82
0 0 84
0 0 85
0 0 85
0 0 86
0 0 87
0 0 88
0 0 88
0 0 89
0 0 89
0 0 90
0 0 90
0 0 91
0 0 91
0 0 92
0 59 0
0 59 0
0 59 0
0 59 0
0 59 0
0 60 0
0 62 0
0 64 0
0 66 0
0 67 0
0 69 0
0 71 0
0 72 0
0 73 0
0 75 0
0 76 0
0 77 0
0 77 0
0 78 0
0 78 0
0 79 0
0 79 0
0 79 0
0 80 0
0 80 0
0 80 0
0 80 0
0 80 0
0 80 0
0 80 0
0 80 0
0 80 0
0 80 0
75 0 0
75 0 0
75 0 0
75 0 0
75 0 0
75 0 0
74 0 0
74 0 0
74 0 0
74 0 0
73 0 0
73 0 0
73 0 0
72 0 0
72 0 0
72 0 0
71 0 0
70 0 0
70 0 0
69 0 0
69 0 0
68 0 0
68 0 0
67 0 0
66 0 0
66 0 0
65 0 0
65 0 0
65 0 0
66 0 0
65 0 0
65 0 0
64 0 0
0 0 91
0 0 91
0 0 91
0 0 91
0 0 91
0 0 91
0 0 91
0 0 92
0 0 91
0 0 92
0 0 92
0 0 92
0 0 91
0 0 92
0 0 91
0 0 91
0 0 91
0 0 91
0 0 91
0 0 91
0 0 91
0 0 91
0 0 91
0 0 91
0 0 91
0 0 91
0 0 90
0 0 90
0 0 90
0 0 90
0 0 90
0 0 90
0 0 90
0 0 89
0 0 89
0 0 89
0 0 87
0 0 58
0 0 57
0 0 57
0 0 56
0 0 54
0 0 54
0 0 53
0 2 50
0 4 52
0 21 48
0 21 48
0 21 48
0 23 48
0 50 58
0 49 57
0 48 57
0 48 57
0 47 56
0 46 55
0 42 53
0 41 53
0 41 54
0 41 54
0 38 52
0 43 55
0 43 54
0 43 54
0 42 54
0 40 52
0 40 52
0 40 52
0 40 51
0 40 51
0 40 51
0 40 51
0 39 50
0 39 50
0 39 50
0 39 49
0 39 49
0 39 49
0 39 49
0 39 49
0 39 49
0 39 48
0 39 48
0 39 48
0 39 48
0 39 48
0 41 48
0 41 48
0 41 48
0 41 48
0 41 48
0 41 48
0 41 48
0 41 48
0 43 49
0 43 49
0 43 49
0 43 49
0 43 49
0 43 49
0 43 49
0 46 50
0 46 50
0 47 51
0 47 51
0 47 51
0 47 51
0 47 51
0 47 51
0 51 53
0 51 53
0 51 53
0 51 53
0 51 53
0 51 54
0 51 54
0 55 55
0 55 56
0 55 56
0 56 56
0 56 56
0 56 56
0 55 56
0 55 57
0 55 57
0 56 57
0 56 57
0 56 58
0 60 59
0 61 60
0 61 60
0 61 60
0 65 62
0 65 62
0 60 61
0 64 62
0 64 63
18 20 26
18 20 26
18 19 26
17 19 26
17 19 26
17 19 26
17 18 25
16 18 25
16 18 25
16 18 26
16 18 25
15 18 25
15 18 26
15 18 26
15 18 26
15 18 26
16 19 27
16 20 28
11 24 25
11 24 25
11 24 24
11 24 24
11 23 23
10 23 23
10 23 23
10 23 22
10 23 22
10 22 21
10 22 21
10 22 21
10 21 20
10 21 20
10 21 20
10 21 19
9 20 19
9 20 19
9 19 18
0 0 68
0 0 80
0 0 81
0 0 82
0 0 83
0 0 84
0 0 85
0 0 86
0 0 87
0 0 87
0 0 88
0 0 88
0 0 89
0 0 90
0 0 90
0 0 91
0 0 91
0 58 0
0 58 0
0 59 0
0 58 0
0 60 0
0 61 0
0 63 0
0 65 0
0 67 0
0 68 0
0 70 0
0 72 0
0 73 0
0 74 0
0 75 0
0 76 0
0 77 0
0 78 0
0 78 0
0 78 0
0 79 0
0 79 0
0 79 0
0 80 0
0 80 0
0 80 0
0 80 0
0 80 0
0 80 0
0 80 0
0 80 0
0 80 0
75 0 0
75 0 0
75 0 0
75 0 0
75 0 0
74 0 0
74 0 0
74 0 0
74 0 0
73 0 0
73 0 0
73 0 0
72 0 0
72 0 0
72 0 0
71 0 0
71 0 0
70 0 0
70 0 0
69 0 0
68 0 0
68 0 0
67 0 0
67 0 0
66 0 0
65 0 0
65 0 0
65 0 0
65 0 0
65 0 0
65 0 0
65 0 0
0 0 92
0 0 92
0 0 92
0 0 92
0 0 92
0 0 92
0 0 92
0 0 92
0 0 92
0 0 92
0 0 92
0 0 92
0 0 92
0 0 92
0 0 92
0 0 92
0 0 92
0 0 92
0 0 92
0 0 91
0 0 91
0 0 91
0 0 91
0 0 91
0 0 91
0 0 90
0 0 90
0 0 90
0 0 90
0 0 89
0 0 89
0 0 89
0 0 89
0 0 88
0 0 88
0 0 87
0 0 87
0 0 86
34 17 34
0 0 58
0 0 58
0 0 56
0 0 56
0 0 54
0 0 54
0 4 53
0 4 52
0 4 52
0 4 53
0 21 49
0 21 49
0 22 49
0 21 49
0 21 49
0 47 57
0 46 56
0 44 55
0 41 52
0 39 53
0 40 54
0 39 54
0 37 52
0 37 52
0 36 52
0 36 52
0 36 51
0 34 50
0 34 50
0 34 49
0 40 52
0 40 52
0 40 51
0 40 51
0 39 50
0 39 50
0 39 50
0 39 50
0 39 50
0 39 49
0 39 49
0 39 49
0 39 49
0 39 49
0 39 49
0 39 49
0 39 48
0 39 48
0 40 48
0 40 48
0 41 48
0 41 48
0 41 48
0 41 48
0 41 48
0 41 48
0 43 49
0 43 49
0 43 49
0 43 49
0 43 49
0 43 49
0 43 49
0 46 50
0 46 51
0 46 51
0 46 51
0 47 51
0 47 51
0 47 51
0 47 51
0 50 53
0 50 53
0 50 53
0 51 53
0 51 54
0 51 54
0 45 52
0 50 54
0 50 54
0 50 54
0 50 54
0 50 55
0 50 55
0 51 55
0 55 57
0 55 57
0 55 57
0 56 58
0 56 58
0 60 60
0 60 60
0 61 60
0 61 60
0 59 61
0 60 61
0 60 61
0 63 63
0 63 63
18 19 26
18 19 26
17 19 26
17 19 26
17 19 25
17 18 25
16 18 25
16 18 25
16 18 25
16 18 25
16 18 25
15 18 25
15 18 26
15 18 26
15 18 26
15 18 26
16 19 27
16 19 28
11 24 25
11 24 25
11 24 24
11 23 24
10 23 23
10 23 23
10 23 22
10 23 22
10 22 22
10 22 21
10 22 21
10 21 20
10 21 20
10 21 19
10 21 19
9 20 18
9 20 18
0 0 58
0 0 60
0 0 63
0 0 67
0 0 71
0 0 74
0 0 77
0 0 79
0 0 81
0 0 83
0 0 85
0 0 86
0 0 87
0 0 87
0 0 88
0 0 89
0 0 89
0 0 90
0 0 90
0 0 91
0 58 0
0 58 0
0 58 0
0 59 0
0 61 0
0 63 0
0 65 0
0 66 0
0 68 0
0 70 0
0 71 0
0 73 0
0 74 0
0 75 0
0 76 0
0 76 0
0 77 0
0 78 0
0 78 0
0 78 0
0 79 0
0 79 0
0 79 0
0 79 0
0 79 0
0 80 0
0 80 0
0 80 0
0 80 0
0 80 0
0 79 0
74 0 0
74 0 0
74 0 0
74 0 0
74 0 0
74 0 0
74 0 0
74 0 0
73 0 0
73 0 0
73 0 0
73 0 0
72 0 0
72 0 0
72 0 0
71 0 0
70 0 0
70 0 0
69 0 0
69 0 0
68 0 0
68 0 0
67 0 0
66 0 0
66 0 0
65 0 0
65 0 0
65 0 0
65 0 0
65 0 0
64 0 0
0 0 92
0 0 92
0 0 92
0 0 92
0 0 92
0 0 92
0 0 92
0 0 92
0 0 92
0 0 92
0 0 92
0 0 92
0 0 92
0 0 92
0 0 92
0 0 92
0 0 92
0 0 92
0 0 92
0 0 92
0 0 92
0 0 92
0 0 91
0 0 91
0 0 91
0 0 91
0 0 90
0 0 90
0 0 90
0 0 89
0 0 88
0 0 87
0 0 85
0 0 84
0 0 82
0 0 79
0 0 77
0 0 74
0 0 71
0 0 67
34 17 32
0 0 58
0 0 58
0 0 56
0 0 56
0 1 57
0 1 57
0 3 53
0 3 53
0 4 53
0 4 53
0 21 49
0 21 50
0 21 50
0 21 50
0 21 49
0 20 49
0 43 55
0 39 52
0 37 53
0 38 54
0 36 53
0 36 52
0 36 52
0 36 52
0 36 52
0 36 52
0 34 50
0 33 50
0 33 50
0 33 49
0 33 49
0 33 49
0 33 49
0 32 48
0 32 48
0 32 48
0 32 47
0 32 47
0 32 47
0 32 47
0 39 49
0 39 49
0 39 49
0 39 49
0 39 49
0 39 49
0 39 49
0 40 49
0 40 49
0 40 49
0 40 49
0 40 49
0 40 49
0 40 49
0 40 49
0 43 49
0 43 49
0 43 49
0 43 49
0 43 50
0 43 50
0 43 50
0 43 50
0 46 51
0 40 49
0 40 49
0 40 49
0 40 49
0 40 49
0 40 49
0 44 51
0 44 51
0 44 51
0 45 52
0 45 52
0 45 52
0 45 52
0 49 54
0 49 54
0 50 54
0 50 55
0 50 55
0 50 55
0 50 55
0 55 57
0 55 57
0 55 58
0 55 58
0 56 58
0 60 60
0 55 59
0 55 60
0 55 60
0 59 61
0 59 61
0 60 62
0 63 63
0 55 63
18 19 26
17 19 26
17 19 26
17 18 25
17 18 25
16 18 25
16 18 25
16 18 25
16 18 25
16 18 25
15 18 25
15 17 25
15 17 26
15 18 26
15 18 26
15 18 27
16 19 27
16 19 28
11 24 25
11 23 24
11 23 24
11 23 24
10 23 23
10 23 23
10 23 22
10 22 22
10 22 21
10 22 21
10 22 20
10 21 20
10 21 19
10 21 19
10 20 18
0 0 59
0 0 60
0 0 62
0 0 63
0 0 66
0 0 68
0 0 70
0 0 73
0 0 74
0 0 76
0 0 78
0 0 80
0 0 81
0 0 83
0 0 84
0 0 85
0 0 86
0 0 87
0 0 88
0 0 89
0 0 90
0 0 91
0 0 91
0 58 0
0 57 0
0 59 0
0 60 0
0 62 0
0 64 0
0 66 0
0 68 0
0 69 0
0 71 0
0 72 0
0 73 0
0 74 0
0 75 0
0 76 0
0 77 0
0 77 0
0 77 0
0 78 0
0 78 0
0 79 0
0 79 0
0 79 0
0 79 0
0 79 0
0 79 0
0 79 0
0 79 0
0 79 0
0 79 0
74 0 0
74 0 0
74 0 0
74 0 0
74 0 0
74 0 0
74 0 0
73 0 0
73 0 0
73 0 0
73 0 0
72 0 0
72 0 0
72 0 0
71 0 0
71 0 0
70 0 0
70 0 0
69 0 0
69 0 0
68 0 0
67 0 0
67 0 0
66 0 0
66 0 0
65 0 0
65 0 0
65 0 0
65 0 0
65 0 0
0 0 93
0 0 93
0 0 93
0 0 93
0 0 93
0 0 93
0 0 93
0 0 93
0 0 93
0 0 93
0 0 93
0 0 93
0 0 93
0 0 93
0 0 93
0 0 93
0 0 93
0 0 92
0 0 92
0 0 92
0 0 92
0 0 92
0 0 91
0 0 91
0 0 90
0 0 90
0 0 89
0 0 89
0 0 88
0 0 87
0 0 86
0 0 85
0 0 84
0 0 82
0 0 81
0 0 80
0 0 78
0 0 76
0 0 74
0 0 73
0 0 70
0 0 68
0 0 66
0 0 61
0 0 60
0 0 60
0 0 60
0 1 58
0 1 57
0 3 54
0 3 54
0 3 54
0 6 55
0 6 54
0 20 50
0 19 50
0 19 50
0 19 50
0 19 49
0 17 48
0 29 51
0 37 54
0 35 53
0 35 52
0 35 52
0 35 52
0 35 52
0 35 52
0 33 50
0 33 50
0 33 50
0 33 50
0 33 50
0 33 49
0 33 49
0 32 48
0 32 48
0 32 48
0 32 48
0 32 48
0 32 48
0 32 47
0 32 47
0 32 47
0 32 47
0 32 47
0 32 47
0 32 47
0 32 46
0 33 46
0 33 46
0 33 46
0 33 46
0 33 46
0 33 46
0 33 46
0 33 46
0 36 47
0 36 47
0 36 47
0 36 47
0 36 47
0 36 47
0 36 47
0 36 48
0 40 49
0 40 49
0 40 49
0 40 49
0 40 49
0 40 50
0 40 50
0 44 51
0 44 51
0 44 52
0 44 52
0 45 52
0 45 52
0 45 53
0 49 54
0 49 55
0 49 55
0 50 55
0 50 55
0 50 56
0 50 56
0 54 57
0 55 58
0 49 57
0 49 58
0 50 58
0 54 59
0 54 60
0 54 60
0 55 60
0 59 62
0 59 62
0 59 62
0 54 63
0 54 64
17 19 26
17 19 26
17 18 26
17 18 25
16 18 25
16 18 25
16 18 25
16 18 25
16 18 25
16 18 25
15 17 25
15 17 25
15 17 25
15 17 26
15 18 26
15 18 27
15 19 27
16 19 28
11 23 25
11 23 24
11 23 24
11 23 23
10 23 23
10 23 22
10 22 22
10 22 21
10 22 21
10 22 20
10 21 20
10 21 19
10 21 18
0 0 61
0 0 62
0 0 63
0 0 64
0 0 65
0 0 67
0 0 69
0 0 71
0 0 72
0 0 74
0 0 76
0 0 77
0 0 78
0 0 80
0 0 81
0 0 82
0 0 83
0 0 84
0 0 85
0 0 86
0 0 87
0 0 88
0 0 89
0 0 89
0 0 90
0 0 91
0 57 0
0 58 0
0 60 0
0 62 0
0 64 0
0 66 0
0 67 0
0 69 0
0 70 0
0 72 0
0 73 0
0 74 0
0 75 0
0 76 0
0 76 0
0 77 0
0 77 0
0 78 0
0 78 0
0 78 0
0 79 0
0 79 0
0 79 0
0 79 0
0 79 0
0 79 0
0 79 0
0 79 0
0 79 0
74 0 0
74 0 0
74 0 0
74 0 0
74 0 0
74 0 0
73 0 0
73 0 0
73 0 0
73 0 0
72 0 0
72 0 0
72 0 0
71 0 0
71 0 0
71 0 0
70 0 0
70 0 0
69 0 0
68 0 0
68 0 0
67 0 0
67 0 0
66 0 0
65 0 0
65 0 0
65 0 0
65 0 0
64 0 0
0 0 93
0 0 93
0 0 93
0 0 93
0 0 93
0 0 93
0 0 93
0 0 93
0 0 93
0 0 93
0 0 93
0 0 93
0 0 93
0 0 93
0 0 93
0 0 93
0 0 92
0 0 92
0 0 92
0 0 92
0 0 92
0 0 91
0 0 91
0 0 91
0 0 90
0 0 90
0 0 89
0 0 89
0 0 88
0 0 88
0 0 87
0 0 86
0 0 86
0 0 85
0 0 84
0 0 83
0 0 82
0 0 81
0 0 79
0 0 78
0 0 76
0 0 75
0 0 73
0 0 71
0 0 69
0 0 61
0 0 60
0 0 60
0 0 60
0 1 58
0 1 58
0 1 58
0 3 54
0 5 55
0 6 55
0 6 55
0 6 54
0 18 50
0 18 50
0 17 49
0 13 47
0 27 51
0 29 52
0 28 51
0 28 51
0 28 51
0 28 51
0 35 52
0 35 52
0 33 51
0 33 50
0 33 50
0 33 50
0 33 50
0 33 50
0 33 49
0 32 48
0 32 48
0 32 48
0 32 48
0 32 48
0 31 48
0 31 48
0 31 47
0 32 47
0 32 47
0 31 47
0 32 47
0 32 47
0 31 47
0 33 47
0 33 47
0 33 47
0 33 47
0 33 47
0 33 47
0 33 47
0 33 47
0 35 47
0 36 47
0 36 48
0 36 47
0 36 48
0 36 48
0 36 48
0 36 48
0 39 49
0 39 49
0 40 49
0 40 50
0 40 50
0 40 50
0 40 50
0 44 52
0 44 52
0 44 52
0 44 52
0 44 53
0 44 53
0 45 53
0 49 55
0 49 55
0 49 55
0 43 55
0 43 55
0 44 55
0 44 55
0 48 57
0 49 57
0 49 58
0 49 58
0 49 58
0 54 60
0 54 60
0 54 60
0 54 60
0 58 62
0 50 63
0 50 63
0 54 64
0 54 64
17 18 26
17 18 26
17 18 25
16 18 25
16 18 25
16 18 25
16 18 25
16 18 25
16 18 25
16 18 25
15 17 25
15 17 25
15 17 25
15 17 26
15 18 26
15 18 26
15 18 27
16 19 28
11 23 25
11 23 24
11 23 24
10 23 23
10 22 23
10 22 22
10 22 21
10 22 21
10 21 20
10 21 20
10 21 19
0 0 62
0 0 64
0 0 65
0 0 66
0 0 67
0 0 68
0 0 69
0 0 71
0 0 72
0 0 74
0 0 75
0 0 76
0 0 78
0 0 79
0 0 80
0 0 81
0 0 82
0 0 83
0 0 84
0 0 85
0 0 86
0 0 87
0 0 88
0 0 89
0 0 89
0 0 90
0 0 91
0 0 91
0 0 92
0 58 0
0 59 0
0 61 0
0 63 0
0 65 0
0 67 0
0 68 0
0 70 0
0 71 0
0 72 0
0 73 0
0 74 0
0 75 0
0 76 0
0 76 0
0 77 0
0 77 0
0 78 0
0 78 0
0 78 0
0 78 0
0 78 0
0 79 0
0 79 0
0 79 0
0 79 0
0 79 0
0 79 0
74 0 0
74 0 0
74 0 0
74 0 0
73 0 0
73 0 0
73 0 0
73 0 0
73 0 0
72 0 0
72 0 0
72 0 0
71 0 0
71 0 0
71 0 0
70 0 0
70 0 0
69 0 0
69 0 0
68 0 0
68 0 0
67 0 0
66 0 0
66 0 0
65 0 0
65 0 0
64 0 0
64 0 0
0 0 93
0 0 93
0 0 93
0 0 93
0 0 93
0 0 93
0 0 93
0 0 93
0 0 93
0 0 93
0 0 93
0 0 93
0 0 93
0 0 93
0 0 93
0 0 93
0 0 92
0 0 92
0 0 92
0 0 92
0 0 92
0 0 92
0 0 91
0 0 91
0 0 91
0 0 91
0 0 90
0 0 90
0 0 90
0 0 89
0 0 89
0 0 88
0 0 88
0 0 88
0 0 87
0 0 87
0 0 86
0 0 85
0 0 85
0 0 84
0 0 83
0 0 82
0 0 81
0 0 80
0 0 78
0 0 76
0 0 73
0 0 61
0 0 60
0 0 60
0 0 60
0 1 58
0 0 58
0 2 59
0 5 55
0 5 55
0 5 55
0 6 54
0 6 54
0 7 54
0 9 53
0 5 51
0 26 51
0 28 52
0 27 51
0 27 51
0 27 51
0 27 51
0 27 51
0 27 51
0 25 49
0 25 49
0 25 49
0 25 49
0 25 49
0 25 49
0 32 50
0 31 49
0 31 49
0 31 49
0 31 48
0 31 48
0 31 48
0 31 48
0 31 48
0 31 47
0 31 47
0 31 47
0 31 47
0 31 47
0 31 47
0 33 47
0 33 47
0 33 47
0 33 47
0 33 47
0 33 47
0 33 47
0 33 47
0 35 48
0 35 48
0 35 48
0 35 48
0 36 48
0 36 48
0 36 48
0 36 48
0 39 49
0 39 50
0 39 50
0 39 50
0 39 50
0 40 50
0 40 51
0 44 52
0 44 52
0 44 52
0 37 52
0 37 52
0 38 52
0 38 52
0 43 54
0 43 54
0 43 55
0 43 55
0 43 55
0 43 55
0 44 56
0 48 57
0 48 58
0 49 58
0 49 58
0 49 58
0 53 60
0 54 60
0 45 62
0 46 62
0 49 63
0 50 63
0 50 63
0 53 64
17 18 26
17 18 26
17 18 25
16 18 25
16 18 25
16 18 25
16 17 25
16 17 25
16 17 25
15 17 25
15 17 25
15 17 25
15 17 25
15 17 25
15 17 26
15 18 26
15 18 26
15 18 27
16 19 28
11 23 25
11 23 24
10 23 23
10 22 23
10 22 22
10 22 21
10 22 21
10 22 20
10 21 19
0 0 64
0 0 65
0 0 66
0 0 68
0 0 69
0 0 70
0 0 71
0 0 72
0 0 73
0 0 74
0 0 76
0 0 77
0 0 78
0 0 79
0 0 80
0 0 82
0 0 83
0 0 84
0 0 84
0 0 85
0 0 86
0 0 87
0 0 88
0 0 89
0 0 89
0 0 90
0 0 90
0 0 91
0 0 92
0 0 92
0 0 93
0 0 93
0 59 0
0 61 0
0 63 0
0 65 0
0 66 0
0 68 0
0 69 0
0 71 0
0 72 0
0 73 0
0 74 0
0 75 0
0 75 0
0 76 0
0 77 0
0 77 0
0 77 0
0 78 0
0 78 0
0 78 0
0 78 0
0 78 0
0 78 0
0 78 0
0 78 0
0 78 0
0 78 0
73 0 0
73 0 0
73 0 0
73 0 0
73 0 0
73 0 0
73 0 0
73 0 0
72 0 0
72 0 0
72 0 0
72 0 0
71 0 0
71 0 0
70 0 0
70 0 0
70 0 0
69 0 0
69 0 0
68 0 0
67 0 0
67 0 0
66 0 0
66 0 0
65 0 0
64 0 0
64 0 0
0 0 93
0 0 94
0 0 93
0 0 94
0 0 93
0 0 94
0 0 94
0 0 93
0 0 94
0 0 94
0 0 93
0 0 93
0 0 93
0 0 93
0 0 93
0 0 93
0 0 93
0 0 93
0 0 93
0 0 93
0 0 93
0 0 93
0 0 93
0 0 92
0 0 92
0 0 92
0 0 92
0 0 92
0 0 92
0 0 92
0 0 91
0 0 91
0 0 91
0 0 91
0 0 91
0 0 90
0 0 90
0 0 90
0 0 90
0 0 89
0 0 89
0 0 89
0 0 89
0 0 89
0 0 88
0 0 88
0 0 88
0 0 88
0 0 88
0 0 60
0 0 60
0 0 60
0 0 60
0 2 59
0 2 59
0 2 59
0 2 58
0 5 55
0 5 54
0 5 54
0 6 54
0 5 53
0 5 50
0 25 52
0 27 52
0 27 52
0 27 51
0 27 51
0 27 51
0 27 51
0 27 51
0 25 50
0 25 50
0 25 50
0 25 49
0 25 49
0 25 49
0 25 49
0 23 48
0 23 48
0 23 48
0 23 48
0 23 47
0 23 47
0 23 47
0 22 47
0 22 47
0 22 46
0 22 46
0 22 46
0 22 46
0 22 46
0 24 46
0 24 46
0 24 46
0 33 48
0 33 47
0 33 47
0 33 48
0 33 48
0 35 48
0 27 47
0 27 47
0 27 47
0 27 47
0 27 47
0 27 47
0 27 47
0 31 49
0 31 49
0 32 49
0 32 49
0 32 49
0 32 50
0 32 50
0 37 52
0 37 52
0 37 52
0 37 52
0 37 52
0 37 53
0 38 53
0 42 54
0 42 55
0 43 55
0 43 55
0 43 56
0 43 56
0 43 56
0 48 58
0 48 58
0 48 58
0 49 59
0 40 60
0 45 61
0 45 62
0 45 62
0 45 62
0 49 63
0 49 63
0 50 64
0 44 67
17 18 26
17 18 26
16 18 25
16 17 25
16 17 25
16 17 25
16 17 25
15 17 25
15 17 25
15 17 25
15 17 25
15 17 25
15 17 25
15 17 25
15 17 25
15 17 26
15 18 26
15 18 27
16 19 27
11 23 24
11 23 24
10 22 23
10 22 22
10 22 21
10 22 20
10 21 19
0 0 65
0 0 66
0 0 68
0 0 69
0 0 71
0 0 72
0 0 73
0 0 74
0 0 75
0 0 76
0 0 78
0 0 79
0 0 80
0 0 81
0 0 82
0 0 83
0 0 84
0 0 85
0 0 86
0 0 86
0 0 87
0 0 88
0 0 88
0 0 89
0 0 90
0 0 90
0 0 91
0 0 92
0 0 92
0 0 92
0 0 93
0 0 93
0 0 94
0 0 94
0 0 94
0 60 0
0 62 0
0 64 0
0 66 0
0 68 0
0 69 0
0 70 0
0 72 0
0 73 0
0 74 0
0 74 0
0 75 0
0 76 0
0 76 0
0 76 0
0 77 0
0 77 0
0 77 0
0 78 0
0 78 0
0 78 0
0 78 0
0 78 0
0 78 0
0 78 0
0 78 0
73 0 0
73 0 0
73 0 0
73 0 0
73 0 0
73 0 0
73 0 0
72 0 0
72 0 0
72 0 0
72 0 0
71 0 0
71 0 0
71 0 0
70 0 0
70 0 0
69 0 0
69 0 0
68 0 0
68 0 0
67 0 0
67 0 0
66 0 0
65 0 0
65 0 0
64 0 0
0 0 94
0 0 94
0 0 94
0 0 94
0 0 94
0 0 94
0 0 94
0 0 94
0 0 94
0 0 94
0 0 94
0 0 94
0 0 94
0 0 94
0 0 94
0 0 94
0 0 94
0 0 94
0 0 94
0 0 94
0 0 94
0 0 94
0 0 94
0 0 94
0 0 94
0 0 94
0 0 94
0 0 94
0 0 94
0 0 94
0 0 94
0 0 94
0 0 94
0 0 94
0 0 94
0 0 94
0 0 94
0 0 94
0 0 93
0 0 94
0 0 94
0 0 94
0 0 94
0 0 94
0 0 94
0 0 94
0 0 94
0 0 94
0 0 94
0 0 94
0 0 94
0 0 94
0 0 61
0 0 60
0 0 60
0 0 60
0 2 58
0 2 58
0 2 58
0 2 57
0 2 57
0 4 54
0 3 53
0 4 51
0 14 52
0 15 52
0 15 52
0 15 52
0 26 52
0 26 51
0 26 51
0 26 51
0 25 50
0 25 50
0 24 50
0 25 50
0 24 50
0 24 50
0 24 49
0 23 48
0 23 48
0 23 48
0 23 48
0 23 48
0 23 48
0 23 48
0 22 47
0 22 47
0 22 47
0 22 47
0 22 47
0 22 47
0 22 47
0 24 47
0 24 47
0 24 47
0 24 47
0 24 47
0 24 47
0 24 47
0 24 47
0 27 47
0 27 47
0 27 48
0 27 48
0 27 48
0 27 48
0 27 48
0 27 48
0 31 49
0 31 49
0 31 50
0 32 50
0 32 50
0 32 50
0 32 50
0 36 52
0 37 52
0 37 52
0 37 53
0 37 53
0 37 53
0 37 53
0 38 54
0 42 55
0 42 56
0 43 56
0 43 56
0 43 56
0 34 58
0 39 59
0 39 60
0 40 60
0 40 60
0 40 61
0 44 62
0 45 62
0 45 62
0 45 63
0 49 64
0 41 67
0 44 67
0 44 67
16 18 26
16 17 25
16 17 25
16 17 25
16 17 25
16 17 25
15 17 25
15 17 25
15 17 25
15 17 25
15 17 25
15 17 25
15 17 25
15 17 25
15 17 25
15 17 26
15 18 26
15 18 27
16 18 27
10 22 24
10 22 23
10 22 22
10 22 21
10 22 20
0 0 66
0 0 68
0 0 70
0 0 71
0 0 73
0 0 74
0 0 76
0 0 77
0 0 78
0 0 79
0 0 80
0 0 81
0 0 82
0 0 83
0 0 84
0 0 85
0 0 86
0 0 87
0 0 87
0 0 88
0 0 89
0 0 89
0 0 90
0 0 91
0 0 91
0 0 92
0 0 92
0 0 93
0 0 93
0 0 93
0 0 94
0 0 94
0 0 94
0 0 95
0 0 95
0 0 95
0 0 96
0 0 96
0 62 0
0 64 0
0 66 0
0 67 0
0 68 0
0 70 0
0 71 0
0 72 0
0 73 0
0 74 0
0 74 0
0 75 0
0 76 0
0 76 0
0 76 0
0 77 0
0 77 0
0 77 0
0 77 0
0 78 0
0 78 0
0 78 0
0 78 0
0 78 0
0 78 0
73 0 0
73 0 0
73 0 0
73 0 0
73 0 0
73 0 0
72 0 0
72 0 0
72 0 0
72 0 0
71 0 0
71 0 0
71 0 0
71 0 0
70 0 0
70 0 0
69 0 0
69 0 0
68 0 0
67 0 0
67 0 0
66 0 0
66 0 0
65 0 0
64 0 0
0 0 94
0 0 94
0 0 94
0 0 94
0 0 94
0 0 94
0 0 94
0 0 94
0 0 94
0 0 95
0 0 95
0 0 95
0 0 95
0 0 95
0 0 95
0 0 95
0 0 95
0 0 95
0 0 95
0 0 95
0 0 95
0 0 95
0 0 95
0 0 95
0 0 95
0 0 95
0 0 95
0 0 96
0 0 96
0 0 96
0 0 96
0 0 96
0 0 96
0 0 96
0 0 96
0 0 96
0 0 96
0 0 96
0 0 96
0 0 96
0 0 96
0 0 96
0 0 96
0 0 96
0 0 96
0 0 96
0 0 96
0 0 96
0 0 96
0 0 96
0 0 96
0 0 96
0 0 96
0 0 96
0 0 96
0 0 59
0 0 58
0 0 59
0 0 59
0 2 57
0 2 57
0 2 56
0 1 56
0 1 52
0 3 51
0 14 52
0 15 52
0 14 52
0 14 52
0 15 52
0 15 52
0 15 52
0 15 52
0 12 51
0 12 51
0 24 50
0 24 50
0 24 50
0 24 50
0 24 50
0 23 49
0 23 49
0 23 49
0 23 49
0 23 48
0 22 48
0 23 48
0 22 48
0 22 48
0 22 48
0 22 47
0 22 47
0 22 47
0 22 47
0 23 47
0 24 47
0 24 47
0 24 47
0 24 47
0 24 47
0 24 47
0 24 47
0 27 48
0 27 48
0 27 48
0 27 48
0 27 48
0 27 48
0 27 48
0 27 49
0 31 50
0 31 50
0 31 50
0 31 50
0 31 50
0 32 51
0 32 51
0 36 52
0 36 53
0 37 53
0 37 53
0 37 53
0 37 54
0 37 54
0 28 56
0 33 57
0 33 57
0 34 58
0 34 58
0 34 58
0 34 58
0 39 60
0 39 60
0 39 60
0 40 61
0 40 61
0 44 62
0 44 62
0 37 66
0 37 66
0 40 67
0 41 67
0 38 70
0 0 75
0 0 74
0 0 74
0 0 74
0 0 74
0 0 74
0 0 74
0 0 73
0 0 74
15 17 25
15 17 25
15 17 25
15 17 25
15 17 25
15 17 25
15 17 25
15 17 25
15 18 26
15 18 27
16 18 27
10 22 23
10 22 21
10 22 20
0 0 68
0 0 71
0 0 73
0 0 75
0 0 77
0 0 78
0 0 79
0 0 80
0 0 81
0 0 82
0 0 83
0 0 84
0 0 85
0 0 86
0 0 87
0 0 87
0 0 88
0 0 89
0 0 89
0 0 90
0 0 91
0 0 91
0 0 92
0 0 92
0 0 93
0 0 93
0 0 94
0 0 94
0 0 94
0 0 95
0 0 95
0 0 95
0 0 95
0 0 96
0 0 96
0 0 96
0 0 96
0 0 97
0 0 97
0 0 97
0 0 97
0 63 0
0 65 0
0 67 0
0 68 0
0 69 0
0 71 0
0 72 0
0 73 0
0 73 0
0 74 0
0 75 0
0 75 0
0 76 0
0 76 0
0 76 0
0 77 0
0 77 0
0 77 0
0 77 0
0 77 0
0 77 0
0 77 0
0 77 0
0 77 0
73 0 0
73 0 0
73 0 0
73 0 0
72 0 0
72 0 0
72 0 0
72 0 0
72 0 0
71 0 0
71 0 0
71 0 0
71 0 0
70 0 0
70 0 0
70 0 0
69 0 0
68 0 0
68 0 0
67 0 0
67 0 0
66 0 0
65 0 0
65 0 0
0 0 94
0 0 95
0 0 95
0 0 95
0 0 95
0 0 95
0 0 95
0 0 95
0 0 95
0 0 95
0 0 95
0 0 95
0 0 96
0 0 96
0 0 96
0 0 96
0 0 96
0 0 96
0 0 96
0 0 96
0 0 96
0 0 96
0 0 96
0 0 97
0 0 97
0 0 97
0 0 97
0 0 97
0 0 97
0 0 97
0 0 97
0 0 97
0 0 97
0 0 97
0 0 97
0 0 97
0 0 97
0 0 97
0 0 97
0 0 97
0 0 97
0 0 97
0 0 97
0 0 97
0 0 97
0 0 97
0 0 97
0 0 97
0 0 97
0 0 97
0 0 97
0 0 97
0 0 97
0 0 97
0 0 97
0 0 97
0 0 97
0 0 97
0 0 56
0 0 57
0 0 57
0 0 56
0 0 56
0 0 55
0 1 54
0 1 54
0 13 52
0 15 52
0 14 52
0 14 52
0 14 52
0 14 52
0 14 52
0 14 52
0 12 52
0 12 52
0 12 52
0 12 52
0 12 51
0 12 51
0 12 51
0 10 51
0 9 51
0 9 50
0 9 50
0 9 50
0 22 49
0 23 49
0 22 48
0 22 48
0 22 48
0 22 48
0 22 48
0 22 48
0 22 48
0 23 48
0 23 48
0 23 48
0 23 48
0 23 48
0 24 48
0 23 48
0 23 48
0 26 48
0 26 48
0 27 49
0 27 49
0 27 49
0 27 49
0 27 49
0 27 49
0 31 50
0 31 50
0 31 51
0 31 51
0 21 53
0 21 53
0 21 53
0 27 54
0 27 54
0 27 55
0 27 55
0 27 55
0 27 55
0 28 56
0 33 57
0 33 57
0 33 58
0 33 58
0 34 58
0 34 59
0 34 59
0 39 60
0 39 61
0 39 61
0 39 61
0 32 65
0 36 66
0 36 66
0 36 66
0 40 67
0 40 67
0 35 70
0 37 69
0 0 71
0 0 71
0 0 71
0 0 72
0 0 72
0 0 73
0 0 73
0 0 73
0 0 73
0 0 73
0 0 73
0 0 74
0 0 74
0 0 74
0 0 74
0 0 74
15 17 25
15 17 25
15 18 26
16 18 27
10 22 20
0 0 74
0 0 77
0 0 79
0 0 80
0 0 82
0 0 83
0 0 83
0 0 84
0 0 85
0 0 86
0 0 87
0 0 88
0 0 88
0 0 89
0 0 90
0 0 90
0 0 91
0 0 91
0 0 92
0 0 93
0 0 93
0 0 93
0 0 94
0 0 94
0 0 95
0 0 95
0 0 96
0 0 96
0 0 96
0 0 96
0 0 97
0 0 97
0 0 97
0 0 97
0 0 97
0 0 97
0 0 98
0 0 98
0 0 98
0 0 98
0 0 98
0 0 98
0 0 98
0 0 98
0 65 0
0 66 0
0 68 0
0 69 0
0 70 0
0 72 0
0 72 0
0 73 0
0 74 0
0 74 0
0 75 0
0 75 0
0 76 0
0 76 0
0 76 0
0 77 0
0 77 0
0 77 0
0 77 0
0 77 0
0 77 0
0 77 0
0 77 0
72 0 0
72 0 0
72 0 0
72 0 0
72 0 0
72 0 0
72 0 0
72 0 0
71 0 0
71 0 0
71 0 0
71 0 0
70 0 0
70 0 0
70 0 0
69 0 0
69 0 0
68 0 0
68 0 0
67 0 0
67 0 0
66 0 0
65 0 0
0 0 95
0 0 95
0 0 95
0 0 95
0 0 95
0 0 95
0 0 96
0 0 96
0 0 96
0 0 96
0 0 96
0 0 96
0 0 96
0 0 96
0 0 97
0 0 97
0 0 97
0 0 97
0 0 97
0 0 97
0 0 97
0 0 97
0 0 97
0 0 97
0 0 97
0 0 98
0 0 98
0 0 98
0 0 98
0 0 98
0 0 98
0 0 98
0 0 98
0 0 98
0 0 98
0 0 98
0 0 98
0 0 98
0 0 98
0 0 98
0 0 98
0 0 98
0 0 98
0 0 98
0 0 98
0 0 98
0 0 98
0 0 98
0 0 98
0 0 98
0 0 98
0 0 98
0 0 98
0 0 98
0 0 97
0 0 97
0 0 97
0 0 96
0 0 96
0 0 96
0 0 53
0 0 53
0 0 53
0 0 53
0 0 53
0 0 53
0 1 54
0 2 54
0 3 54
0 3 55
0 3 55
0 14 53
0 14 53
0 14 53
0 14 53
0 12 52
0 12 52
0 12 52
0 12 52
0 12 52
0 12 52
0 12 52
0 10 51
0 9 51
0 10 51
0 9 51
0 9 51
0 9 51
0 9 51
0 7 50
0 7 50
0 7 50
0 7 50
0 7 50
0 7 50
0 7 50
0 8 50
0 8 50
0 8 50
0 8 50
0 8 50
0 8 50
0 8 50
0 9 50
0 14 50
0 14 51
0 14 51
0 14 51
0 14 51
0 14 51
0 14 51
0 15 51
0 20 52
0 20 53
0 21 53
0 21 53
0 21 53
0 21 53
0 21 54
0 27 55
0 27 55
0 27 55
0 27 55
0 27 56
0 27 56
0 28 56
0 33 58
0 33 58
0 33 58
0 33 59
0 33 59
0 34 59
0 27 63
0 31 64
0 31 64
0 31 64
0 32 65
0 32 65
0 36 66
0 36 66
0 36 66
0 34 69
0 34 69
0 37 69
0 0 68
0 0 67
0 0 67
0 0 67
0 0 67
0 0 68
0 0 69
0 0 70
0 0 70
0 0 72
0 0 73
0 0 74
0 0 75
0 0 76
0 0 77
0 0 78
0 0 79
0 0 80
0 0 82
0 0 84
0 0 85
0 0 85
0 0 86
0 0 87
0 0 87
0 0 88
0 0 88
0 0 89
0 0 89
0 0 90
0 0 90
0 0 91
0 0 91
0 0 92
0 0 92
0 0 93
0 0 93
0 0 94
0 0 94
0 0 95
0 0 95
0 0 96
0 0 96
0 0 96
0 0 96
0 0 97
0 0 97
0 0 97
0 0 98
0 0 98
0 0 98
0 0 98
0 0 98
0 0 98
0 0 98
0 0 99
0 0 99
0 0 99
0 0 99
0 0 99
0 0 99
0 0 99
0 0 99
0 0 99
0 0 99
0 0 99
0 0 99
0 66 0
0 67 0
0 69 0
0 70 0
0 71 0
0 72 0
0 73 0
0 73 0
0 74 0
0 75 0
0 75 0
0 75 0
0 76 0
0 76 0
0 76 0
0 76 0
0 77 0
0 77 0
0 77 0
0 77 0
0 77 0
0 77 0
72 0 0
72 0 0
72 0 0
72 0 0
72 0 0
72 0 0
72 0 0
71 0 0
71 0 0
71 0 0
71 0 0
70 0 0
70 0 0
70 0 0
69 0 0
69 0 0
69 0 0
68 0 0
67 0 0
67 0 0
66 0 0
66 0 0
0 0 95
0 0 95
0 0 96
0 0 96
0 0 96
0 0 96
0 0 96
0 0 96
0 0 96
0 0 96
0 0 96
0 0 97
0 0 97
0 0 97
0 0 97
0 0 97
0 0 97
0 0 97
0 0 97
0 0 98
0 0 98
0 0 98
0 0 98
0 0 98
0 0 98
0 0 98
0 0 98
0 0 99
0 0 99
0 0 99
0 0 99
0 0 99
0 0 99
0 0 99
0 0 99
0 0 99
0 0 99
0 0 99
0 0 99
0 0 99
0 0 99
0 0 99
0 0 99
0 0 99
0 0 99
0 0 99
0 0 99
0 0 99
0 0 99
0 0 99
0 0 98
0 0 98
0 0 98
0 0 98
0 0 97
0 0 97
0 0 96
0 0 96
0 0 95
0 0 94
0 0 93
0 0 92
0 0 52
0 0 52
0 0 52
0 0 53
0 0 53
0 0 53
0 1 54
0 3 54
0 3 55
0 2 55
0 3 55
0 3 56
0 3 56
0 3 56
0 1 56
0 12 53
0 12 53
0 12 53
0 12 52
0 12 52
0 12 52
0 10 52
0 9 52
0 10 52
0 10 52
0 9 51
0 9 51
0 9 51
0 7 51
0 7 51
0 7 51
0 7 51
0 7 51
0 7 51
0 7 51
0 8 50
0 8 51
0 8 50
0 8 50
0 8 50
0 8 51
0 9 50
0 8 51
0 14 51
0 14 51
0 14 51
0 14 51
0 14 51
0 14 52
0 14 52
0 14 52
0 20 53
0 20 53
0 20 53
0 21 53
0 21 54
0 21 54
0 21 54
0 26 55
0 27 56
0 27 56
0 27 56
0 27 56
0 27 57
0 27 57
0 25 62
0 26 62
0 26 62
0 26 63
0 26 63
0 26 63
0 30 64
0 31 64
0 31 65
0 31 65
0 31 65
0 35 66
0 31 68
0 31 69
0 31 69
0 34 69
0 30 70
0 0 59
0 0 60
0 0 61
0 0 62
0 0 64
0 0 66
0 0 68
0 0 70
0 0 72
0 0 74
0 0 76
0 0 78
0 0 80
0 0 81
0 0 83
0 0 84
0 0 85
0 0 86
0 0 87
0 0 88
0 0 88
0 0 89
0 0 90
0 0 90
0 0 91
0 0 92
0 0 92
0 0 92
0 0 93
0 0 93
0 0 94
0 0 94
0 0 95
0 0 95
0 0 95
0 0 96
0 0 96
0 0 96
0 0 97
0 0 97
0 0 97
0 0 97
0 0 98
0 0 98
0 0 98
0 0 98
0 0 99
0 0 99
0 0 99
0 0 99
0 0 99
0 0 99
0 0 99
0 0 100
0 0 100
0 0 100
0 0 100
0 0 100
0 0 100
0 0 100
0 0 100
0 0 100
0 0 100
0 0 100
0 0 100
0 0 100
0 0 100
0 0 100
0 0 100
0 67 0
0 68 0
0 69 0
0 70 0
0 72 0
0 72 0
0 73 0
0 74 0
0 74 0
0 75 0
0 75 0
0 75 0
0 76 0
0 76 0
0 76 0
0 76 0
0 76 0
0 77 0
0 76 0
0 77 0
0 77 0
72 0 0
72 0 0
72 0 0
72 0 0
72 0 0
71 0 0
71 0 0
71 0 0
71 0 0
71 0 0
71 0 0
70 0 0
70 0 0
70 0 0
69 0 0
69 0 0
68 0 0
68 0 0
67 0 0
66 0 0
66 0 0
0 0 96
0 0 96
0 0 96
0 0 96
0 0 96
0 0 96
0 0 96
0 0 97
0 0 97
0 0 97
0 0 97
0 0 97
0 0 97
0 0 97
0 0 98
0 0 98
0 0 98
0 0 98
0 0 98
0 0 98
0 0 98
0 0 99
0 0 99
0 0 99
0 0 99
0 0 99
0 0 99
0 0 99
0 0 99
0 0 100
0 0 100
0 0 100
0 0 100
0 0 100
0 0 100
0 0 100
0 0 100
0 0 100
0 0 100
0 0 100
0 0 100
0 0 100
0 0 100
0 0 100
0 0 100
0 0 99
0 0 99
0 0 99
0 0 99
0 0 99
0 0 98
0 0 98
0 0 98
0 0 97
0 0 97
0 0 96
0 0 95
0 0 95
0 0 94
0 0 92
0 0 91
0 0 90
0 0 87
0 0 51
0 0 51
0 0 51
0 0 51
0 0 53
0 0 54
0 0 55
0 0 56
0 3 54
0 2 55
0 3 55
0 3 56
0 3 56
0 3 56
0 1 56
0 1 56
0 1 56
0 1 57
0 1 57
0 1 57
0 1 57
0 0 57
0 0 56
0 0 56
0 9 52
0 9 52
0 10 52
0 9 52
0 7 52
0 7 51
0 7 51
0 7 51
0 7 51
0 7 51
0 7 51
0 8 51
0 8 51
0 8 51
0 8 51
0 8 51
0 8 51
0 8 51
0 8 51
0 14 52
0 14 52
0 14 52
0 14 52
0 14 52
0 14 52
0 14 52
0 14 52
0 20 53
0 20 54
0 20 54
0 20 54
0 21 54
0 15 59
0 15 59
0 20 60
0 20 60
0 20 60
0 20 60
0 20 61
0 21 61
0 21 61
0 25 62
0 25 62
0 25 63
0 26 63
0 26 63
0 26 63
0 30 64
0 31 64
0 26 67
0 27 67
0 27 67
0 30 68
0 30 68
0 31 68
0 30 69
0 30 69
0 0 62
0 0 65
0 0 67
0 0 69
0 0 71
0 0 74
0 0 76
0 0 78
0 0 80
0 0 81
0 0 82
0 0 83
0 0 84
0 0 85
0 0 86
0 0 87
0 0 88
0 0 89
0 0 90
0 0 91
0 0 91
0 0 92
0 0 93
0 0 94
0 0 94
0 0 95
0 0 95
0 0 96
0 0 96
0 0 97
0 0 97
0 0 97
0 0 98
0 0 98
0 0 98
0 0 98
0 0 98
0 0 99
0 0 99
0 0 99
0 0 99
0 0 99
0 0 100
0 0 100
0 0 100
0 0 100
0 0 100
0 0 100
0 0 100
0 0 100
0 0 100
0 0 100
0 0 101
0 0 101
0 0 101
0 0 101
0 0 101
0 0 101
0 0 101
0 0 101
0 0 101
0 0 101
0 0 101
0 0 101
0 0 101
0 0 101
0 0 101
0 0 101
0 0 101
0 0 101
0 0 101
0 68 0
0 69 0
0 70 0
0 71 0
0 72 0
0 73 0
0 73 0
0 74 0
0 74 0
0 75 0
0 75 0
0 75 0
0 76 0
0 76 0
0 76 0
0 76 0
0 76 0
0 76 0
0 76 0
0 76 0
72 0 0
72 0 0
72 0 0
72 0 0
72 0 0
71 0 0
71 0 0
71 0 0
71 0 0
70 0 0
70 0 0
70 0 0
70 0 0
69 0 0
69 0 0
69 0 0
68 0 0
68 0 0
67 0 0
66 0 0
0 0 96
0 0 96
0 0 96
0 0 96
0 0 97
0 0 97
0 0 97
0 0 97
0 0 97
0 0 97
0 0 97
0 0 97
0 0 98
0 0 98
0 0 98
0 0 98
0 0 98
0 0 98
0 0 99
0 0 99
0 0 99
0 0 99
0 0 99
0 0 99
0 0 100
0 0 100
0 0 100
0 0 100
0 0 100
0 0 100
0 0 100
0 0 100
0 0 100
0 0 100
0 0 100
0 0 101
0 0 100
0 0 100
0 0 100
0 0 100
0 0 100
0 0 100
0 0 100
0 0 100
0 0 100
0 0 100
0 0 99
0 0 99
0 0 99
0 0 99
0 0 98
0 0 98
0 0 97
0 0 97
0 0 96
0 0 95
0 0 94
0 0 93
0 0 92
0 0 90
0 0 88
0 0 85
0 0 82
0 0 79
0 0 75
0 0 49
0 0 49
0 0 50
0 0 51
0 0 52
0 0 53
0 0 54
0 0 55
0 0 57
0 0 57
0 0 58
0 3 56
0 3 56
0 3 56
0 1 57
0 1 57
0 1 57
0 1 57
0 1 57
0 1 57
0 0 57
0 0 57
0 0 57
0 0 57
0 0 57
0 0 57
0 0 57
0 1 57
0 1 56
0 2 56
0 1 56
0 1 56
0 1 56
0 1 56
0 5 56
0 5 56
0 5 56
0 5 56
0 5 56
0 5 57
0 5 57
0 5 57
0 9 57
0 9 57
0 9 57
0 9 57
0 10 57
0 10 57
0 10 57
0 10 58
0 14 58
0 14 58
0 15 59
0 15 59
0 15 59
0 15 59
0 15 59
0 20 60
0 20 60
0 20 61
0 20 61
0 20 61
0 20 61
0 21 61
0 25 62
0 25 62
0 25 63
0 26 63
0 22 66
0 22 66
0 26 67
0 26 67
0 26 67
0 27 67
0 30 67
0 30 67
0 27 68
0 29 68
0 29 67
0 0 64
0 0 68
0 0 71
0 0 74
0 0 76
0 0 78
0 0 80
0 0 81
0 0 83
0 0 84
0 0 85
0 0 86
0 0 87
0 0 88
0 0 89
0 0 90
0 0 91
0 0 92
0 0 93
0 0 94
0 0 94
0 0 95
0 0 96
0 0 96
0 0 97
0 0 97
0 0 98
0 0 98
0 0 99
0 0 99
0 0 99
0 0 100
0 0 100
0 0 100
0 0 100
0 0 101
0 0 101
0 0 101
0 0 101
0 0 101
0 0 101
0 0 101
0 0 101
0 0 101
0 0 101
0 0 101
0 0 102
0 0 102
0 0 102
0 0 102
0 0 102
0 0 102
0 0 102
0 0 102
0 0 102
0 0 102
0 0 102
0 0 102
0 0 102
0 0 102
0 0 102
0 0 102
0 0 102
0 0 102
0 0 102
0 0 102
0 0 102
0 0 102
0 0 102
0 0 102
0 0 101
0 0 101
0 0 101
0 69 0
0 70 0
0 71 0
0 72 0
0 72 0
0 73 0
0 73 0
0 74 0
0 74 0
0 75 0
0 75 0
0 75 0
0 75 0
0 76 0
0 76 0
0 76 0
0 76 0
0 76 0
0 76 0
72 0 0
72 0 0
71 0 0
71 0 0
71 0 0
71 0 0
71 0 0
70 0 0
70 0 0
70 0 0
70 0 0
70 0 0
70 0 0
69 0 0
69 0 0
68 0 0
68 0 0
67 0 0
67 0 0
0 0 96
0 0 96
0 0 97
0 0 97
0 0 97
0 0 97
0 0 97
0 0 97
0 0 97
0 0 98
0 0 98
0 0 98
0 0 98
0 0 98
0 0 98
0 0 99
0 0 99
0 0 99
0 0 99
0 0 99
0 0 99
0 0 100
0 0 100
0 0 100
0 0 100
0 0 100
0 0 100
0 0 101
0 0 101
0 0 101
0 0 101
0 0 101
0 0 101
0 0 101
0 0 101
0 0 101
0 0 101
0 0 101
0 0 101
0 0 101
0 0 101
0 0 101
0 0 100
0 0 100
0 0 100
0 0 100
0 0 100
0 0 99
0 0 99
0 0 99
0 0 98
0 0 98
0 0 97
0 0 96
0 0 96
0 0 94
0 0 93
0 0 91
0 0 89
0 0 87
0 0 85
0 0 81
0 0 78
0 0 74
0 0 70
0 0 65
0 0 61
0 0 47
0 0 47
0 0 48
0 0 50
0 0 52
0 0 54
0 0 54
0 0 55
0 0 56
0 0 57
0 0 58
0 1 58
0 0 58
0 0 59
0 0 59
0 0 59
0 1 57
0 1 57
0 1 57
0 0 57
0 0 57
0 0 57
0 0 57
0 0 57
0 0 57
0 0 57
0 1 57
0 1 57
0 1 57
0 1 57
0 1 57
0 1 57
0 1 57
0 5 57
0 5 57
0 5 57
0 5 57
0 5 57
0 5 57
0 5 57
0 5 57
0 9 57
0 9 57
0 9 58
0 9 58
0 9 58
0 10 58
0 10 58
0 14 58
0 14 59
0 14 59
0 15 59
0 15 59
0 15 59
0 15 59
0 15 60
0 20 60
0 20 61
0 20 61
0 20 61
0 17 64
0 17 64
0 17 64
0 21 65
0 21 65
0 21 65
0 22 65
0 22 65
0 26 66
0 26 66
0 26 66
0 26 66
0 23 67
0 26 67
0 26 67
0 26 66
0 26 65
0 0 58
0 0 63
0 0 67
0 0 71
0 0 74
0 0 77
0 0 79
0 0 81
0 0 83
0 0 85
0 0 87
0 0 88
0 0 89
0 0 91
0 0 92
0 0 93
0 0 93
0 0 94
0 0 95
0 0 96
0 0 96
0 0 97
0 0 98
0 0 98
0 0 99
0 0 99
0 0 100
0 0 100
0 0 100
0 0 101
0 0 101
0 0 101
0 0 102
0 0 102
0 0 102
0 0 102
0 0 103
0 0 103
0 0 103
0 0 103
0 0 103
0 0 103
0 0 103
0 0 103
0 0 103
0 0 103
0 0 103
0 0 103
0 0 103
0 0 103
0 0 102
0 0 102
0 0 103
0 0 103
0 0 103
0 0 103
0 0 103
0 0 103
0 0 102
0 0 103
0 0 102
0 0 102
0 0 102
0 0 102
0 0 102
0 0 102
0 0 102
0 0 102
0 0 102
0 0 102
0 0 102
0 0 102
0 0 102
0 0 102
0 0 102
0 69 0
0 70 0
0 71 0
0 72 0
0 72 0
0 73 0
0 73 0
0 74 0
0 74 0
0 75 0
0 75 0
0 75 0
0 75 0
0 76 0
0 76 0
0 76 0
0 76 0
0 76 0
71 0 0
71 0 0
71 0 0
71 0 0
71 0 0
70 0 0
70 0 0
70 0 0
70 0 0
70 0 0
70 0 0
70 0 0
69 0 0
69 0 0
69 0 0
68 0 0
68 0 0
67 0 0
0 0 96
0 0 97
0 0 97
0 0 97
0 0 97
0 0 97
0 0 97
0 0 98
0 0 98
0 0 98
0 0 98
0 0 98
0 0 99
0 0 99
0 0 99
0 0 99
0 0 99
0 0 99
0 0 99
0 0 100
0 0 100
0 0 100
0 0 100
0 0 100
0 0 101
0 0 101
0 0 101
0 0 101
0 0 101
0 0 101
0 0 101
0 0 102
0 0 101
0 0 101
0 0 101
0 0 101
0 0 101
0 0 101
0 0 101
0 0 101
0 0 101
0 0 101
0 0 101
0 0 100
0 0 100
0 0 100
0 0 100
0 0 99
0 0 99
0 0 99
0 0 98
0 0 98
0 0 97
0 0 96
0 0 95
0 0 93
0 0 92
0 0 90
0 0 88
0 0 85
0 0 82
0 0 78
0 0 75
0 0 71
0 0 67
0 0 63
0 0 58
0 0 52
0 0 46
0 0 42
0 0 44
0 0 46
0 0 49
0 0 51
0 0 53
0 0 54
0 0 56
0 0 57
0 0 57
0 1 57
0 1 58
0 0 58
0 0 59
0 0 59
0 0 59
0 0 59
0 0 59
0 0 60
0 0 60
0 0 60
0 0 60
0 0 60
0 0 60
0 0 60
0 1 60
0 1 57
0 2 57
0 1 57
0 1 57
0 1 57
0 1 57
0 5 57
0 5 57
0 5 57
0 5 57
0 5 57
0 5 57
0 5 57
0 5 57
0 9 58
0 9 58
0 9 58
0 9 58
0 9 58
0 10 58
0 10 58
0 14 59
0 14 59
0 12 62
0 12 62
0 12 62
0 12 62
0 12 62
0 13 62
0 16 63
0 16 63
0 17 63
0 17 63
0 17 64
0 17 64
0 21 64
0 21 64
0 21 64
0 21 64
0 22 64
0 19 66
0 22 66
0 22 66
0 23 66
0 23 66
0 25 66
0 23 65
0 23 64
0 23 61
0 0 43
0 0 51
0 0 58
0 0 64
0 0 69
0 0 73
0 0 77
0 0 80
0 0 83
0 0 85
0 0 88
0 0 89
0 0 91
0 0 92
0 0 94
0 0 94
0 0 96
0 0 96
0 0 97
0 0 98
0 0 98
0 0 99
0 0 99
0 0 100
0 0 100
0 0 101
0 0 101
0 0 101
0 0 102
0 0 102
0 0 102
0 0 103
0 0 103
0 0 103
0 0 103
0 0 103
0 0 104
0 0 104
0 0 104
0 0 104
0 0 104
0 0 104
0 0 104
0 0 104
0 0 104
0 0 104
0 0 104
0 0 104
0 0 104
0 0 104
0 0 104
0 0 103
0 0 103
0 0 104
0 0 103
0 0 103
0 0 103
0 0 103
0 0 103
0 0 103
0 0 103
0 0 103
0 0 103
0 0 103
0 0 103
0 0 103
0 0 103
0 0 103
0 0 103
0 0 103
0 0 103
0 0 103
0 0 103
0 0 103
0 0 102
0 0 102
0 0 102
0 70 0
0 71 0
0 71 0
0 72 0
0 73 0
0 73 0
0 74 0
0 74 0
0 74 0
0 75 0
0 75 0
0 75 0
0 75 0
0 75 0
0 75 0
0 75 0
0 75 0
71 0 0
71 0 0
71 0 0
71 0 0
71 0 0
70 0 0
70 0 0
70 0 0
70 0 0
70 0 0
70 0 0
69 0 0
69 0 0
69 0 0
68 0 0
68 0 0
67 0 0
0 0 97
0 0 97
0 0 97
0 0 97
0 0 97
0 0 98
0 0 98
0 0 98
0 0 98
0 0 98
0 0 98
0 0 99
0 0 99
0 0 99
0 0 99
0 0 99
0 0 99
0 0 100
0 0 100
0 0 100
0 0 100
0 0 101
0 0 101
0 0 101
0 0 101
0 0 101
0 0 101
0 0 102
0 0 102
0 0 102
0 0 102
0 0 102
0 0 102
0 0 102
0 0 102
0 0 102
0 0 102
0 0 102
0 0 102
0 0 101
0 0 101
0 0 101
0 0 101
0 0 101
0 0 100
0 0 100
0 0 100
0 0 100
0 0 99
0 0 99
0 0 98
0 0 97
0 0 96
0 0 95
0 0 94
0 0 93
0 0 91
0 0 89
0 0 86
0 0 83
0 0 80
0 0 77
0 0 74
0 0 70
0 0 66
0 0 62
0 0 57
0 0 51
0 0 44
0 0 40
0 0 38
0 0 35
0 0 41
0 0 44
0 0 47
0 0 49
0 0 51
0 0 53
0 0 55
0 0 56
0 0 57
0 0 57
0 0 58
0 0 59
0 0 58
0 0 58
0 0 59
0 0 59
0 0 59
0 0 59
0 0 59
0 0 59
0 0 59
0 0 59
0 0 60
0 1 60
0 1 60
0 2 60
0 1 60
0 1 60
0 1 60
0 1 60
0 4 60
0 4 60
0 4 60
0 4 60
0 4 60
0 4 60
0 4 60
0 4 60
0 8 60
0 7 60
0 8 60
0 8 60
0 8 61
0 8 61
0 8 61
0 12 61
0 12 61
0 12 61
0 12 61
0 12 62
0 12 62
0 12 62
0 16 62
0 17 62
0 17 63
0 17 63
0 17 63
0 17 63
0 17 63
0 18 65
0 18 65
0 18 64
0 19 64
0 19 64
0 22 65
0 22 64
0 22 64
0 20 64
0 23 63
0 23 62
0 21 61
0 23 56
0 0 35
0 0 37
0 0 44
0 0 52
0 0 60
0 0 66
0 0 71
0 0 76
0 0 79
0 0 83
0 0 85
0 0 88
0 0 90
0 0 92
0 0 94
0 0 95
0 0 96
0 0 97
0 0 98
0 0 99
0 0 100
0 0 100
0 0 101
0 0 101
0 0 101
0 0 102
0 0 102
0 0 102
0 0 103
0 0 103
0 0 103
0 0 103
0 0 104
0 0 104
0 0 104
0 0 104
0 0 104
0 0 104
0 0 105
0 0 105
0 0 105
0 0 105
0 0 105
0 0 105
0 0 105
0 0 105
0 0 105
0 0 105
0 0 104
0 0 104
0 0 104
0 0 104
0 0 104
0 0 104
0 0 104
0 0 104
0 0 104
0 0 104
0 0 104
0 0 104
0 0 104
0 0 104
0 0 104
0 0 104
0 0 104
0 0 104
0 0 104
0 0 104
0 0 103
0 0 103
0 0 103
0 0 103
0 0 103
0 0 103
0 0 103
0 0 103
0 0 103
0 0 103
0 0 103
0 70 0
0 71 0
0 72 0
0 72 0
0 73 0
0 73 0
0 73 0
0 74 0
0 74 0
0 74 0
0 75 0
0 75 0
0 75 0
0 75 0
0 75 0
0 75 0
71 0 0
71 0 0
71 0 0
70 0 0
70 0 0
70 0 0
70 0 0
69 0 0
69 0 0
69 0 0
69 0 0
69 0 0
69 0 0
69 0 0
68 0 0
68 0 0
0 0 97
0 0 97
0 0 97
0 0 98
0 0 98
0 0 98
0 0 98
0 0 98
0 0 98
0 0 99
0 0 99
0 0 99
0 0 99
0 0 99
0 0 99
0 0 100
0 0 100
0 0 100
0 0 100
0 0 100
0 0 100
0 0 101
0 0 101
0 0 101
0 0 101
0 0 101
0 0 102
0 0 102
0 0 102
0 0 102
0 0 102
0 0 102
0 0 102
0 0 102
0 0 102
0 0 102
0 0 102
0 0 102
0 0 102
0 0 102
0 0 101
0 0 101
0 0 101
0 0 101
0 0 101
0 0 100
0 0 100
0 0 100
0 0 99
0 0 98
0 0 98
0 0 97
0 0 96
0 0 95
0 0 94
0 0 92
0 0 90
0 0 88
0 0 86
0 0 83
0 0 80
0 0 78
0 0 75
0 0 71
0 0 67
0 0 63
0 0 58
0 0 52
0 0 45
0 0 39
0 0 36
0 0 34
0 0 32
0 0 30
0 0 37
0 0 40
0 0 44
0 0 47
0 0 49
0 0 52
0 0 53
0 0 54
0 0 55
0 0 56
0 0 57
0 0 58
0 0 58
0 0 59
0 0 59
0 0 59
0 0 60
0 0 60
0 0 60
0 0 60
0 0 59
0 0 59
0 1 59
0 1 59
0 1 59
0 1 59
0 1 59
0 1 59
0 1 59
0 4 60
0 4 59
0 4 59
0 4 60
0 4 60
0 4 60
0 4 60
0 4 60
0 8 60
0 8 60
0 8 60
0 8 60
0 8 60
0 8 60
0 8 60
0 12 61
0 12 61
0 12 61
0 12 61
0 11 62
0 11 62
0 11 62
0 14 63
0 14 63
0 14 63
0 15 63
0 15 63
0 15 63
0 15 63
0 18 63
0 18 63
0 18 63
0 18 63
0 17 62
0 20 62
0 20 61
0 20 61
0 22 60
0 21 58
0 21 56
0 0 29
0 0 32
0 0 34
0 0 36
0 0 38
0 0 47
0 0 55
0 0 63
0 0 69
0 0 74
0 0 79
0 0 82
0 0 85
0 0 88
0 0 90
0 0 92
0 0 94
0 0 96
0 0 97
0 0 98
0 0 99
0 0 100
0 0 101
0 0 101
0 0 102
0 0 102
0 0 103
0 0 103
0 0 103
0 0 103
0 0 104
0 0 104
0 0 104
0 0 104
0 0 105
0 0 105
0 0 105
0 0 105
0 0 105
0 0 105
0 0 106
0 0 106
0 0 106
0 0 106
0 0 106
0 0 106
0 0 106
0 0 105
0 0 105
0 0 105
0 0 105
0 0 105
0 0 105
0 0 105
0 0 105
0 0 105
0 0 105
0 0 105
0 0 105
0 0 105
0 0 105
0 0 105
0 0 105
0 0 104
0 0 104
0 0 104
0 0 104
0 0 104
0 0 104
0 0 104
0 0 104
0 0 104
0 0 104
0 0 104
0 0 104
0 0 103
0 0 103
0 0 103
0 0 103
0 0 103
0 0 103
0 0 103
0 71 0
0 71 0
0 72 0
0 72 0
0 73 0
0 73 0
0 74 0
0 74 0
0 74 0
0 74 0
0 75 0
0 74 0
0 75 0
0 75 0
0 75 0
70 0 0
70 0 0
70 0 0
70 0 0
70 0 0
70 0 0
69 0 0
69 0 0
69 0 0
69 0 0
69 0 0
69 0 0
69 0 0
68 0 0
68 0 0
0 0 97
0 0 97
0 0 97
0 0 98
0 0 98
0 0 98
0 0 98
0 0 98
0 0 99
0 0 99
0 0 99
0 0 99
0 0 99
0 0 100
0 0 100
0 0 100
0 0 100
0 0 100
0 0 100
0 0 101
0 0 101
0 0 101
0 0 101
0 0 101
0 0 101
0 0 102
0 0 102
0 0 102
0 0 102
0 0 102
0 0 103
0 0 103
0 0 103
0 0 103
0 0 102
0 0 102
0 0 102
0 0 102
0 0 102
0 0 102
0 0 102
0 0 102
0 0 101
0 0 101
0 0 101
0 0 100
0 0 100
0 0 100
0 0 99
0 0 98
0 0 98
0 0 97
0 0 96
0 0 95
0 0 94
0 0 92
0 0 91
0 0 88
0 0 86
0 0 84
0 0 81
0 0 79
0 0 76
0 0 73
0 0 69
0 0 66
0 0 61
0 0 56
0 0 49
0 0 40
0 0 36
0 0 34
0 0 33
0 0 30
0 0 27
0 0 23
0 0 31
0 0 36
0 0 40
0 0 43
0 0 46
0 0 49
0 0 51
0 0 52
0 0 53
0 0 55
0 0 56
0 0 56
0 0 57
0 0 57
0 0 58
0 0 58
0 0 58
0 0 58
0 0 58
0 0 59
0 0 59
0 0 59
0 1 59
0 1 59
0 1 59
0 1 59
0 1 59
0 1 60
0 2 60
0 4 60
0 4 60
0 4 60
0 4 60
0 4 60
0 4 60
0 4 60
0 6 60
0 7 60
0 7 60
0 7 60
0 7 60
0 7 60
0 7 61
0 10 61
0 10 61
0 10 61
0 10 61
0 10 61
0 11 61
0 11 61
0 14 61
0 14 61
0 14 61
0 14 61
0 14 61
0 13 61
0 16 61
0 16 60
0 16 60
0 16 60
0 16 59
0 19 59
0 18 58
0 18 56
0 20 55
0 19 52
0 21 48
0 39 33
0 0 27
0 0 31
0 0 33
0 0 35
0 0 37
0 0 41
0 0 52
0 0 60
0 0 67
0 0 73
0 0 78
0 0 82
0 0 85
0 0 88
0 0 90
0 0 93
0 0 94
0 0 96
0 0 97
0 0 99
0 0 100
0 0 101
0 0 101
0 0 102
0 0 103
0 0 103
0 0 103
0 0 104
0 0 104
0 0 104
0 0 105
0 0 105
0 0 105
0 0 105
0 0 106
0 0 106
0 0 106
0 0 106
0 0 106
0 0 106
0 0 106
0 0 106
0 0 107
0 0 106
0 0 106
0 0 106
0 0 106
0 0 106
0 0 106
0 0 106
0 0 106
0 0 106
0 0 106
0 0 106
0 0 106
0 0 105
0 0 105
0 0 105
0 0 105
0 0 105
0 0 105
0 0 105
0 0 105
0 0 105
0 0 105
0 0 105
0 0 105
0 0 105
0 0 104
0 0 104
0 0 104
0 0 104
0 0 104
0 0 104
0 0 104
0 0 104
0 0 104
0 0 104
0 0 103
0 0 103
0 0 103
0 0 103
0 0 103
0 71 0
0 72 0
0 72 0
0 72 0
0 73 0
0 73 0
0 73 0
0 74 0
0 74 0
0 74 0
0 74 0
0 74 0
0 74 0
0 75 0
70 0 0
70 0 0
70 0 0
70 0 0
70 0 0
69 0 0
69 0 0
69 0 0
69 0 0
69 0 0
69 0 0
69 0 0
68 0 0
68 0 0
0 0 97
0 0 97
0 0 98
0 0 98
0 0 98
0 0 98
0 0 98
0 0 99
0 0 99
0 0 99
0 0 99
0 0 99
0 0 99
0 0 100
0 0 100
0 0 100
0 0 100
0 0 100
0 0 101
0 0 101
0 0 101
0 0 101
0 0 101
0 0 101
0 0 102
0 0 102
0 0 102
0 0 102
0 0 102
0 0 103
0 0 103
0 0 103
0 0 103
0 0 103
0 0 103
0 0 103
0 0 103
0 0 103
0 0 102
0 0 102
0 0 102
0 0 102
0 0 102
0 0 101
0 0 101
0 0 101
0 0 100
0 0 100
0 0 99
0 0 99
0 0 98
0 0 97
0 0 96
0 0 95
0 0 94
0 0 93
0 0 91
0 0 89
0 0 87
0 0 85
0 0 83
0 0 81
0 0 78
0 0 76
0 0 73
0 0 69
0 0 65
0 0 61
0 0 55
0 0 47
0 0 38
0 0 35
0 0 33
0 0 31
0 0 29
0 0 26
0 0 22
0 0 16
0 0 28
0 0 31
0 0 35
0 0 39
0 0 42
0 0 45
0 0 47
0 0 49
0 0 50
0 0 52
0 0 53
0 0 54
0 0 54
0 0 55
0 0 56
0 0 56
0 0 56
0 0 57
0 0 57
0 0 57
0 0 57
0 1 58
0 1 58
0 1 58
0 1 58
0 1 58
0 1 58
0 1 58
0 4 58
0 4 58
0 4 58
0 4 58
0 4 58
0 4 58
0 4 58
0 7 59
0 7 59
0 7 59
0 7 59
0 7 59
0 7 59
0 7 59
0 10 59
0 10 59
0 9 59
0 9 59
0 9 59
0 9 59
0 12 59
0 12 59
0 13 58
0 13 58
0 13 58
0 13 58
0 16 58
0 16 57
0 15 56
0 15 56
0 15 55
0 17 54
0 17 53
0 17 51
0 19 49
0 19 45
0 23 39
0 36 34
0 0 21
0 0 27
0 0 31
0 0 33
0 0 35
0 0 37
0 0 40
0 0 50
0 0 59
0 0 66
0 0 72
0 0 77
0 0 81
0 0 85
0 0 88
0 0 90
0 0 92
0 0 94
0 0 96
0 0 98
0 0 99
0 0 100
0 0 101
0 0 102
0 0 103
0 0 103
0 0 104
0 0 104
0 0 104
0 0 105
0 0 105
0 0 105
0 0 106
0 0 106
0 0 106
0 0 106
0 0 106
0 0 107
0 0 107
0 0 107
0 0 107
0 0 107
0 0 107
0 0 107
0 0 107
0 0 107
0 0 107
0 0 107
0 0 107
0 0 107
0 0 107
0 0 106
0 0 106
0 0 106
0 0 106
0 0 106
0 0 106
0 0 106
0 0 106
0 0 106
0 0 105
0 0 105
0 0 105
0 0 105
0 0 105
0 0 105
0 0 105
0 0 105
0 0 105
0 0 105
0 0 105
0 0 105
0 0 104
0 0 104
0 0 104
0 0 104
0 0 104
0 0 104
0 0 104
0 0 104
0 0 104
0 0 103
0 0 103
0 0 103
0 0 103
0 71 0
0 72 0
0 72 0
0 73 0
0 73 0
0 73 0
0 73 0
0 74 0
0 74 0
0 74 0
0 74 0
0 74 0
0 74 0
70 0 0
70 0 0
70 0 0
69 0 0
69 0 0
69 0 0
69 0 0
68 0 0
69 0 0
69 0 0
69 0 0
69 0 0
68 0 0
0 0 97
0 0 98
0 0 98
0 0 98
0 0 98
0 0 98
0 0 98
0 0 99
0 0 99
0 0 99
0 0 99
0 0 99
0 0 100
0 0 100
0 0 100
0 0 100
0 0 100
0 0 101
0 0 101
0 0 101
0 0 101
0 0 101
0 0 101
0 0 102
0 0 102
0 0 102
0 0 102
0 0 102
0 0 103
0 0 103
0 0 103
0 0 103
0 0 103
0 0 103
0 0 103
0 0 103
0 0 103
0 0 103
0 0 102
0 0 103
0 0 102
0 0 102
0 0 102
0 0 102
0 0 101
0 0 101
0 0 100
0 0 100
0 0 99
0 0 99
0 0 98
0 0 97
0 0 96
0 0 95
0 0 94
0 0 93
0 0 91
0 0 89
0 0 88
0 0 86
0 0 84
0 0 82
0 0 79
0 0 77
0 0 74
0 0 71
0 0 68
0 0 64
0 0 60
0 0 54
0 0 46
0 0 37
0 0 34
0 0 32
0 0 30
0 0 28
0 0 26
0 0 23
0 0 18
0 0 21
0 0 26
0 0 27
0 0 30
0 0 33
0 0 36
0 0 40
0 0 42
0 0 44
0 0 46
0 0 48
0 0 49
0 0 50
0 0 51
0 0 51
0 0 53
0 0 53
0 0 53
0 0 54
0 0 54
0 0 54
0 1 55
0 1 55
0 1 55
0 1 55
0 1 55
0 1 55
0 1 56
0 3 56
0 3 56
0 3 56
0 3 56
0 3 56
0 3 56
0 3 56
0 6 56
0 6 56
0 6 56
0 6 56
0 6 56
0 6 56
0 9 56
0 9 56
0 9 56
0 9 56
0 9 56
0 9 56
0 9 56
0 12 56
0 11 55
0 11 54
0 11 54
0 12 53
0 12 53
0 14 52
0 14 51
0 14 50
0 14 49
0 16 48
0 16 46
0 16 44
0 19 41
0 21 38
0 29 35
0 35 33
0 0 17
0 0 25
0 0 29
0 0 32
0 0 34
0 0 36
0 0 38
0 0 42
0 0 51
0 0 59
0 0 67
0 0 73
0 0 78
0 0 82
0 0 86
0 0 89
0 0 91
0 0 93
0 0 95
0 0 96
0 0 98
0 0 99
0 0 100
0 0 101
0 0 102
0 0 103
0 0 104
0 0 104
0 0 105
0 0 105
0 0 105
0 0 106
0 0 106
0 0 106
0 0 107
0 0 107
0 0 107
0 0 107
0 0 107
0 0 107
0 0 107
0 0 107
0 0 108
0 0 108
0 0 107
0 0 107
0 0 108
0 0 107
0 0 107
0 0 107
0 0 107
0 0 107
0 0 107
0 0 107
0 0 107
0 0 107
0 0 106
0 0 106
0 0 106
0 0 106
0 0 106
0 0 106
0 0 106
0 0 106
0 0 106
0 0 106
0 0 105
0 0 105
0 0 105
0 0 105
0 0 105
0 0 105
0 0 105
0 0 105
0 0 105
0 0 104
0 0 104
0 0 104
0 0 104
0 0 104
0 0 104
0 0 104
0 0 104
0 0 103
0 0 103
0 0 103
0 0 103
0 71 0
0 72 0
0 72 0
0 73 0
0 73 0
0 73 0
0 73 0
0 74 0
0 74 0
0 74 0
0 74 0
0 74 0
70 0 0
69 0 0
69 0 0
69 0 0
69 0 0
69 0 0
68 0 0
68 0 0
68 0 0
69 0 0
68 0 0
68 0 0
0 0 97
0 0 98
0 0 98
0 0 98
0 0 98
0 0 98
0 0 99
0 0 99
0 0 99
0 0 99
0 0 99
0 0 99
0 0 100
0 0 100
0 0 100
0 0 100
0 0 100
0 0 101
0 0 101
0 0 101
0 0 101
0 0 101
0 0 101
0 0 102
0 0 102
0 0 102
0 0 102
0 0 102
0 0 102
0 0 103
0 0 103
0 0 103
0 0 103
0 0 103
0 0 103
0 0 103
0 0 103
0 0 102
0 0 102
0 0 102
0 0 102
0 0 101
0 0 101
0 0 100
0 0 100
0 0 100
0 0 99
0 0 98
0 0 98
0 0 97
0 0 96
0 0 96
0 0 94
0 0 93
0 0 92
0 0 91
0 0 89
0 0 87
0 0 85
0 0 83
0 0 82
0 0 80
0 0 77
0 0 75
0 0 72
0 0 69
0 0 66
0 0 63
0 0 59
0 0 55
0 0 51
0 0 44
0 0 37
0 0 33
0 0 31
0 0 30
0 0 28
0 0 26
0 0 24
0 0 21
0 0 17
0 0 9
0 0 22
0 0 25
0 0 27
0 0 28
0 0 31
0 0 34
0 0 36
0 0 38
0 0 40
0 0 42
0 0 43
0 0 44
0 0 46
0 0 47
0 0 48
0 0 48
0 0 49
0 0 49
0 0 50
0 0 50
0 1 50
0 1 51
0 1 51
0 1 51
0 1 51
0 1 52
0 3 52
0 3 52
0 3 52
0 3 52
0 3 52
0 3 52
0 3 52
0 5 52
0 5 52
0 5 52
0 6 52
0 5 52
0 6 52
0 8 52
0 8 52
0 8 51
0 8 51
0 8 51
0 8 51
0 11 51
0 11 50
0 11 49
0 11 48
0 11 48
0 11 47
0 13 46
0 13 45
0 13 44
0 14 43
0 16 41
0 17 39
0 18 37
0 26 36
0 27 34
0 32 32
0 0 6
0 0 17
0 0 24
0 0 29
0 0 31
0 0 33
0 0 35
0 0 37
0 0 41
0 0 47
0 0 54
0 0 62
0 0 69
0 0 74
0 0 79
0 0 83
0 0 87
0 0 89
0 0 92
0 0 94
0 0 95
0 0 97
0 0 98
0 0 100
0 0 101
0 0 102
0 0 103
0 0 104
0 0 104
0 0 105
0 0 105
0 0 106
0 0 106
0 0 106
0 0 107
0 0 107
0 0 107
0 0 107
0 0 107
0 0 107
0 0 108
0 0 108
0 0 108
0 0 108
0 0 108
0 0 108
0 0 108
0 0 108
0 0 108
0 0 108
0 0 108
0 0 108
0 0 107
0 0 107
0 0 107
0 0 107
0 0 107
0 0 107
0 0 107
0 0 107
0 0 106
0 0 106
0 0 106
0 0 106
0 0 106
0 0 106
0 0 106
0 0 106
0 0 106
0 0 106
0 0 105
0 0 105
0 0 105
0 0 105
0 0 105
0 0 105
0 0 105
0 0 105
0 0 105
0 0 104
0 0 104
0 0 104
0 0 104
0 0 104
0 0 104
0 0 104
0 0 104
0 0 103
0 0 103
0 0 103
0 71 0
0 72 0
0 72 0
0 73 0
0 73 0
0 73 0
0 73 0
0 73 0
0 74 0
0 74 0
0 74 0
69 0 0
69 0 0
69 0 0
69 0 0
69 0 0
68 0 0
68 0 0
68 0 0
68 0 0
68 0 0
68 0 0
0 0 97
0 0 97
0 0 98
0 0 98
0 0 98
0 0 98
0 0 98
0 0 98
0 0 99
0 0 99
0 0 99
0 0 99
0 0 99
0 0 100
0 0 100
0 0 100
0 0 100
0 0 100
0 0 100
0 0 100
0 0 101
0 0 101
0 0 101
0 0 101
0 0 101
0 0 101
0 0 101
0 0 101
0 0 102
0 0 101
0 0 102
0 0 102
0 0 102
0 0 101
0 0 101
0 0 101
0 0 101
0 0 101
0 0 100
0 0 100
0 0 100
0 0 99
0 0 99
0 0 98
0 0 98
0 0 97
0 0 97
0 0 96
0 0 95
0 0 94
0 0 94
0 0 92
0 0 91
0 0 90
0 0 89
0 0 87
0 0 86
0 0 84
0 0 82
0 0 80
0 0 77
0 0 75
0 0 73
0 0 70
0 0 68
0 0 65
0 0 62
0 0 59
0 0 56
0 0 53
0 0 50
0 0 46
0 0 41
0 0 35
0 0 32
0 0 31
0 0 30
0 0 29
0 0 27
0 0 25
0 0 23
0 0 21
0 0 18
0 0 13
0 0 5
0 0 21
0 0 25
0 0 26
0 0 28
0 0 29
0 0 31
0 0 33
0 0 34
0 0 36
0 0 37
0 0 38
0 0 40
0 0 41
0 0 42
0 0 42
0 0 43
0 0 43
0 0 44
0 1 45
0 1 45
0 1 45
0 1 45
0 1 46
0 1 46
0 3 47
0 3 47
0 3 47
0 3 47
0 3 47
0 3 47
0 3 47
0 5 47
0 5 47
0 5 46
0 5 46
0 5 46
0 5 46
0 8 46
0 8 46
0 8 45
0 8 45
0 8 45
0 8 44
0 10 44
0 10 43
0 11 42
0 11 41
0 11 41
0 13 40
0 13 38
0 15 37
0 15 36
0 18 35
0 23 35
0 23 33
0 28 32
0 24 29
0 0 5
0 0 13
0 0 21
0 0 26
0 0 29
0 0 32
0 0 34
0 0 35
0 0 37
0 0 41
0 0 47
0 0 53
0 0 60
0 0 67
0 0 73
0 0 77
0 0 82
0 0 85
0 0 89
0 0 91
0 0 93
0 0 95
0 0 97
0 0 98
0 0 99
0 0 100
0 0 101
0 0 102
0 0 103
0 0 104
0 0 105
0 0 105
0 0 106
0 0 106
0 0 107
0 0 107
0 0 107
0 0 107
0 0 107
0 0 108
0 0 108
0 0 108
0 0 108
0 0 108
0 0 108
0 0 108
0 0 108
0 0 108
0 0 108
0 0 108
0 0 108
0 0 108
0 0 108
0 0 108
0 0 108
0 0 108
0 0 107
0 0 107
0 0 107
0 0 107
0 0 107
0 0 107
0 0 107
0 0 107
0 0 106
0 0 106
0 0 106
0 0 106
0 0 106
0 0 106
0 0 106
0 0 106
0 0 106
0 0 105
0 0 105
0 0 105
0 0 105
0 0 105
0 0 105
0 0 105
0 0 105
0 0 105
0 0 104
0 0 104
0 0 104
0 0 104
0 0 104
0 0 104
0 0 104
0 0 103
0 0 103
0 0 103
0 0 103
0 72 0
0 72 0
0 72 0
0 72 0
0 73 0
0 73 0
0 73 0
0 73 0
0 73 0
0 73 0
69 0 0
69 0 0
69 0 0
69 0 0
68 0 0
68 0 0
68 0 0
68 0 0
68 0 0
68 0 0
0 0 97
0 0 97
0 0 98
0 0 98
0 0 98
0 0 98
0 0 98
0 0 98
0 0 98
0 0 98
0 0 99
0 0 99
0 0 99
0 0 99
0 0 99
0 0 99
0 0 99
0 0 99
0 0 99
0 0 100
0 0 100
0 0 100
0 0 100
0 0 100
0 0 100
0 0 100
0 0 100
0 0 100
0 0 100
0 0 100
0 0 100
0 0 100
0 0 100
0 0 100
0 0 99
0 0 99
0 0 99
0 0 99
0 0 98
0 0 98
0 0 97
0 0 97
0 0 96
0 0 96
0 0 95
0 0 94
0 0 93
0 0 93
0 0 92
0 0 91
0 0 90
0 0 89
0 0 87
0 0 86
0 0 84
0 0 83
0 0 81
0 0 79
0 0 77
0 0 74
0 0 72
0 0 70
0 0 67
0 0 64
0 0 61
0 0 59
0 0 55
0 0 52
0 0 49
0 0 46
0 0 44
0 0 42
0 0 40
0 0 38
0 0 34
0 0 33
0 0 31
0 0 31
0 0 30
0 0 28
0 0 27
0 0 26
0 0 24
0 0 23
0 0 21
0 0 18
0 0 14
0 0 7
0 0 3
0 0 21
0 0 25
0 0 27
0 0 28
0 0 29
0 0 30
0 0 30
0 0 32
0 0 33
0 0 34
0 0 34
0 0 35
0 0 36
0 0 36
0 0 37
0 0 38
0 1 38
0 1 39
0 1 39
0 1 39
0 1 40
0 3 40
0 3 40
0 3 40
0 3 40
0 3 40
0 3 40
0 5 41
0 5 40
0 5 40
0 5 40
0 5 40
0 5 40
0 5 40
0 8 39
0 8 39
0 8 38
0 8 38
0 8 38
0 10 37
0 11 37
0 11 36
0 12 35
0 12 34
0 14 34
0 19 34
0 19 33
0 23 32
0 23 32
0 27 30
0 21 27
0 12 20
0 0 7
0 0 15
0 0 22
0 0 26
0 0 29
0 0 31
0 0 33
0 0 34
0 0 36
0 0 39
0 0 44
0 0 49
0 0 54
0 0 61
0 0 67
0 0 72
0 0 77
0 0 81
0 0 85
0 0 88
0 0 91
0 0 93
0 0 95
0 0 97
0 0 98
0 0 99
0 0 100
0 0 101
0 0 102
0 0 103
0 0 104
0 0 105
0 0 105
0 0 106
0 0 106
0 0 107
0 0 107
0 0 107
0 0 107
0 0 107
0 0 108
0 0 108
0 0 108
0 0 108
0 0 108
0 0 108
0 0 108
0 0 108
0 0 108
0 0 108
0 0 108
0 0 108
0 0 108
0 0 108
0 0 108
0 0 108
0 0 108
0 0 108
0 0 107
0 0 107
0 0 107
0 0 107
0 0 107
0 0 107
0 0 107
0 0 107
0 0 107
0 0 107
0 0 106
0 0 106
0 0 106
0 0 106
0 0 106
0 0 106
0 0 106
0 0 105
0 0 105
0 0 105
0 0 105
0 0 105
0 0 105
0 0 105
0 0 105
0 0 105
0 0 104
0 0 104
0 0 104
0 0 104
0 0 104
0 0 104
0 0 104
0 0 103
0 0 103
0 0 103
0 0 103
0 0 103
0 72 0
0 72 0
0 72 0
0 73 0
0 73 0
0 73 0
0 73 0
0 73 0
0 73 0
69 0 0
69 0 0
68 0 0
68 0 0
68 0 0
68 0 0
68 0 0
68 0 0
67 0 0
0 0 97
0 0 97
0 0 97
0 0 97
0 0 97
0 0 98
0 0 97
0 0 98
0 0 98
0 0 98
0 0 98
0 0 98
0 0 98
0 0 98
0 0 98
0 0 98
0 0 98
0 0 99
0 0 99
0 0 99
0 0 99
0 0 99
0 0 99
0 0 99
0 0 99
0 0 99
0 0 99
0 0 99
0 0 98
0 0 98
0 0 98
0 0 98
0 0 98
0 0 98
0 0 97
0 0 97
0 0 96
0 0 96
0 0 96
0 0 95
0 0 94
0 0 94
0 0 93
0 0 93
0 0 92
0 0 91
0 0 90
0 0 89
0 0 88
0 0 87
0 0 86
0 0 84
0 0 83
0 0 81
0 0 80
0 0 78
0 0 76
0 0 73
0 0 71
0 0 68
0 0 66
0 0 63
0 0 60
0 0 57
0 0 55
0 0 52
0 0 49
0 0 46
0 0 43
0 0 42
0 0 40
0 0 39
0 0 38
0 0 36
0 0 35
0 0 34
0 0 33
0 0 32
0 0 32
0 0 31
0 0 30
0 0 29
0 0 28
0 0 27
0 0 26
0 0 25
0 0 24
0 0 22
0 0 20
0 0 18
0 0 13
0 0 6
0 0 4
0 0 17
0 0 22
0 0 24
0 0 27
0 0 27
0 0 28
0 0 29
0 0 30
0 0 30
0 0 31
0 0 32
0 0 31
0 0 31
0 1 32
0 1 32
0 1 32
0 1 33
0 1 33
0 1 34
0 3 34
0 3 34
0 3 34
0 3 34
0 4 34
0 5 34
0 6 34
0 6 34
0 6 34
0 6 33
0 6 33
0 8 33
0 8 33
0 9 32
0 11 33
0 12 33
0 12 33
0 15 32
0 15 31
0 18 31
0 19 31
0 19 30
0 22 30
0 17 27
0 17 26
0 10 20
0 0 4
0 0 7
0 0 15
0 0 21
0 0 25
0 0 28
0 0 30
0 0 31
0 0 33
0 0 34
0 0 36
0 0 40
0 0 43
0 0 48
0 0 53
0 0 58
0 0 64
0 0 69
0 0 74
0 0 78
0 0 82
0 0 86
0 0 89
0 0 91
0 0 94
0 0 95
0 0 97
0 0 98
0 0 99
0 0 101
0 0 102
0 0 102
0 0 103
0 0 104
0 0 105
0 0 105
0 0 106
0 0 106
0 0 107
0 0 107
0 0 107
0 0 107
0 0 108
0 0 108
0 0 108
0 0 108
0 0 108
0 0 108
0 0 108
0 0 108
0 0 108
0 0 108
0 0 108
0 0 108
0 0 108
0 0 108
0 0 108
0 0 108
0 0 108
0 0 108
0 0 108
0 0 108
0 0 108
0 0 107
0 0 107
0 0 107
0 0 107
0 0 107
0 0 107
0 0 107
0 0 107
0 0 106
0 0 106
0 0 106
0 0 106
0 0 106
0 0 106
0 0 106
0 0 106
0 0 105
0 0 105
0 0 105
0 0 105
0 0 105
0 0 105
0 0 105
0 0 105
0 0 105
0 0 104
0 0 104
0 0 104
0 0 104
0 0 104
0 0 104
0 0 104
0 0 104
0 0 103
0 0 103
0 0 103
0 0 103
0 0 103
0 72 0
0 72 0
0 72 0
0 72 0
0 73 0
0 73 0
0 73 0
0 73 0
68 0 0
68 0 0
68 0 0
68 0 0
68 0 0
67 0 0
67 0 0
67 0 0
0 0 96
0 0 97
0 0 97
0 0 97
0 0 97
0 0 97
0 0 97
0 0 97
0 0 97
0 0 97
0 0 97
0 0 97
0 0 97
0 0 97
0 0 98
0 0 97
0 0 98
0 0 98
0 0 97
0 0 98
0 0 97
0 0 97
0 0 97
0 0 97
0 0 97
0 0 97
0 0 97
0 0 97
0 0 97
0 0 97
0 0 96
0 0 96
0 0 96
0 0 96
0 0 95
0 0 95
0 0 94
0 0 94
0 0 93
0 0 92
0 0 92
0 0 91
0 0 90
0 0 89
0 0 88
0 0 88
0 0 87
0 0 85
0 0 84
0 0 83
0 0 82
0 0 80
0 0 78
0 0 77
0 0 75
0 0 73
0 0 70
0 0 68
0 0 65
0 0 63
0 0 60
0 0 58
0 0 56
0 0 54
0 0 51
0 0 49
0 0 46
0 0 43
0 0 40
0 0 39
0 0 37
0 0 37
0 0 36
0 0 35
0 0 35
0 0 34
0 0 34
0 0 33
0 0 33
0 0 32
0 0 32
0 0 32
0 0 31
0 0 31
0 0 30
0 0 29
0 0 29
0 0 28
0 0 27
0 0 26
0 0 25
0 0 24
0 0 22
0 0 20
0 0 18
0 0 14
0 0 8
0 0 5
0 0 3
0 0 15
0 0 19
0 0 23
0 0 24
0 0 25
0 0 27
0 0 27
0 0 28
0 2 28
0 2 28
0 2 28
0 2 29
0 2 29
0 2 29
0 4 29
0 5 29
0 5 29
0 5 29
0 5 29
0 8 29
0 9 30
0 9 29
0 10 29
0 10 29
0 10 29
0 13 29
0 13 29
0 14 28
0 14 28
0 11 27
0 11 26
0 13 25
0 14 24
0 8 20
0 8 17
0 0 4
0 0 6
0 0 10
0 0 16
0 0 20
0 0 24
0 0 26
0 0 28
0 0 30
0 0 31
0 0 33
0 0 34
0 0 35
0 0 38
0 0 41
0 0 45
0 0 49
0 0 54
0 0 59
0 0 63
0 0 68
0 0 72
0 0 77
0 0 81
0 0 84
0 0 87
0 0 90
0 0 92
0 0 94
0 0 96
0 0 98
0 0 99
0 0 100
0 0 101
0 0 102
0 0 103
0 0 103
0 0 104
0 0 105
0 0 105
0 0 106
0 0 106
0 0 107
0 0 107
0 0 107
0 0 107
0 0 108
0 0 108
0 0 108
0 0 108
0 0 108
0 0 108
0 0 108
0 0 108
0 0 108
0 0 108
0 0 108
0 0 108
0 0 108
0 0 108
0 0 108
0 0 108
0 0 108
0 0 108
0 0 108
0 0 108
0 0 108
0 0 107
0 0 107
0 0 107
0 0 107
0 0 107
0 0 107
0 0 107
0 0 107
0 0 107
0 0 106
0 0 106
0 0 106
0 0 106
0 0 106
0 0 106
0 0 106
0 0 106
0 0 105
0 0 105
0 0 105
0 0 105
0 0 105
0 0 105
0 0 105
0 0 105
0 0 104
0 0 104
0 0 104
0 0 104
0 0 104
0 0 104
0 0 104
0 0 104
0 0 103
0 0 103
0 0 103
0 0 103
0 0 103
0 0 103
0 0 102
0 72 0
0 72 0
0 72 0
0 72 0
0 72 0
0 72 0
0 73 0
68 0 0
68 0 0
68 0 0
68 0 0
67 0 0
67 0 0
67 0 0
0 0 96
0 0 96
0 0 96
0 0 96
0 0 96
0 0 97
0 0 97
0 0 97
0 0 97
0 0 97
0 0 97
0 0 97
0 0 97
0 0 97
0 0 97
0 0 97
0 0 97
0 0 97
0 0 97
0 0 97
0 0 97
0 0 97
0 0 97
0 0 97
0 0 97
0 0 97
0 0 97
0 0 96
0 0 96
0 0 96
0 0 96
0 0 95
0 0 95
0 0 95
0 0 94
0 0 94
0 0 93
0 0 93
0 0 92
0 0 91
0 0 91
0 0 90
0 0 89
0 0 88
0 0 87
0 0 87
0 0 85
0 0 84
0 0 83
0 0 82
0 0 80
0 0 79
0 0 77
0 0 75
0 0 73
0 0 71
0 0 69
0 0 67
0 0 65
0 0 63
0 0 61
0 0 60
0 0 58
0 0 57
0 0 55
0 0 53
0 0 52
0 0 50
0 0 47
0 0 46
0 0 45
0 0 45
0 0 45
0 0 45
0 0 45
0 0 45
0 0 44
0 0 44
0 0 44
0 0 44
0 0 43
0 0 43
0 0 42
0 0 41
0 0 41
0 0 39
0 0 38
0 0 37
0 0 35
0 0 33
0 0 31
0 0 30
0 0 29
0 0 28
0 0 27
0 0 26
0 0 26
0 0 24
0 0 23
0 0 22
0 0 20
0 0 17
0 0 14
0 0 10
0 0 6
0 0 5
0 0 4
0 0 3
0 0 7
0 1 15
0 1 16
0 1 17
0 1 18
0 1 19
0 2 20
0 2 20
0 2 20
0 2 20
0 2 20
0 4 20
0 4 19
0 4 19
0 4 18
0 4 17
0 4 17
0 6 15
0 0 2
0 0 3
0 0 4
0 0 5
0 0 6
0 0 12
0 0 16
0 0 19
0 0 22
0 0 24
0 0 26
0 0 27
0 0 28
0 0 30
0 0 31
0 0 32
0 0 33
0 0 34
0 0 36
0 0 39
0 0 41
0 0 45
0 0 49
0 0 53
0 0 57
0 0 61
0 0 65
0 0 69
0 0 73
0 0 77
0 0 81
0 0 84
0 0 87
0 0 89
0 0 92
0 0 94
0 0 96
0 0 97
0 0 99
0 0 100
0 0 101
0 0 102
0 0 102
0 0 103
0 0 104
0 0 104
0 0 105
0 0 105
0 0 106
0 0 106
0 0 107
0 0 107
0 0 107
0 0 107
0 0 107
0 0 108
0 0 108
0 0 108
0 0 108
0 0 108
0 0 108
0 0 108
0 0 108
0 0 108
0 0 108
0 0 108
0 0 108
0 0 108
0 0 108
0 0 108
0 0 108
0 0 108
0 0 108
0 0 108
0 0 108
0 0 107
0 0 107
0 0 107
0 0 107
0 0 107
0 0 107
0 0 107
0 0 107
0 0 107
0 0 106
0 0 106
0 0 106
0 0 106
0 0 106
0 0 106
0 0 106
0 0 106
0 0 106
0 0 105
0 0 105
0 0 105
0 0 105
0 0 105
0 0 105
0 0 105
0 0 105
0 0 104
0 0 104
0 0 104
0 0 104
0 0 104
0 0 104
0 0 104
0 0 103
0 0 103
0 0 103
0 0 103
0 0 103
0 0 103
0 0 103
0 0 103
0 0 102
0 72 0
0 72 0
0 72 0
0 72 0
0 72 0
0 72 0
68 0 0
68 0 0
68 0 0
67 0 0
67 0 0
67 0 0
0 0 96
0 0 96
0 0 96
0 0 96
0 0 96
0 0 96
0 0 97
0 0 97
0 0 97
0 0 97
0 0 97
0 0 97
0 0 97
0 0 97
0 0 97
0 0 97
0 0 97
0 0 97
0 0 97
0 0 97
0 0 97
0 0 97
0 0 97
0 0 97
0 0 97
0 0 96
0 0 96
0 0 96
0 0 96
0 0 96
0 0 95
0 0 95
0 0 95
0 0 95
0 0 94
0 0 94
0 0 93
0 0 93
0 0 92
0 0 92
0 0 91
0 0 90
0 0 90
0 0 89
0 0 88
0 0 87
0 0 86
0 0 85
0 0 84
0 0 83
0 0 81
0 0 80
0 0 79
0 0 78
0 0 76
0 0 75
0 0 74
0 0 73
0 0 71
0 0 70
0 0 70
0 0 69
0 0 68
0 0 67
0 0 67
0 0 66
0 0 65
0 0 64
0 0 63
0 0 62
0 0 62
0 0 62
0 0 62
0 0 63
0 0 63
0 0 62
0 0 62
0 0 62
0 0 62
0 0 61
0 0 61
0 0 60
0 0 60
0 0 59
0 0 58
0 0 56
0 0 55
0 0 53
0 0 51
0 0 49
0 0 46
0 0 42
0 0 39
0 0 36
0 0 34
0 0 32
0 0 31
0 0 31
0 0 30
0 0 29
0 0 29
0 0 28
0 0 27
0 0 27
0 0 26
0 0 25
0 0 24
0 0 23
0 0 23
0 0 22
0 0 21
0 0 20
0 0 20
0 0 19
0 0 18
0 0 17
0 0 17
0 0 17
0 0 17
0 0 17
0 0 17
0 0 18
0 0 19
0 0 19
0 0 20
0 0 21
0 0 22
0 0 23
0 0 24
0 0 25
0 0 26
0 0 27
0 0 28
0 0 28
0 0 29
0 0 30
0 0 31
0 0 32
0 0 32
0 0 33
0 0 34
0 0 36
0 0 38
0 0 41
0 0 44
0 0 47
0 0 51
0 0 55
0 0 58
0 0 62
0 0 65
0 0 69
0 0 73
0 0 76
0 0 79
0 0 82
0 0 85
0 0 88
0 0 90
0 0 92
0 0 94
0 0 96
0 0 97
0 0 99
0 0 100
0 0 101
0 0 102
0 0 102
0 0 103
0 0 104
0 0 104
0 0 105
0 0 105
0 0 105
0 0 106
0 0 106
0 0 106
0 0 107
0 0 107
0 0 107
0 0 107
0 0 108
0 0 108
0 0 108
0 0 108
0 0 108
0 0 108
0 0 108
0 0 108
0 0 108
0 0 108
0 0 108
0 0 108
0 0 108
0 0 108
0 0 108
0 0 108
0 0 108
0 0 108
0 0 108
0 0 107
0 0 107
0 0 107
0 0 107
0 0 107
0 0 107
0 0 107
0 0 107
0 0 107
0 0 107
0 0 106
0 0 106
0 0 106
0 0 106
0 0 106
0 0 106
0 0 106
0 0 106
0 0 105
0 0 105
0 0 105
0 0 105
0 0 105
0 0 105
0 0 105
0 0 105
0 0 105
0 0 104
0 0 104
0 0 104
0 0 104
0 0 104
0 0 104
0 0 104
0 0 103
0 0 103
0 0 103
0 0 103
0 0 103
0 0 103
0 0 103
0 0 102
0 0 102
0 0 102
0 0 102
0 71 0
0 72 0
0 72 0
0 72 0
0 72 0
67 0 0
67 0 0
67 0 0
67 0 0
67 0 0
0 0 96
0 0 96
0 0 96
0 0 96
0 0 96
0 0 96
0 0 96
0 0 96
0 0 96
0 0 96
0 0 97
0 0 97
0 0 97
0 0 97
0 0 97
0 0 97
0 0 97
0 0 97
0 0 97
0 0 97
0 0 97
0 0 97
0 0 96
0 0 96
0 0 96
0 0 96
0 0 96
0 0 96
0 0 96
0 0 96
0 0 95
0 0 95
0 0 95
0 0 94
0 0 94
0 0 94
0 0 93
0 0 93
0 0 92
0 0 92
0 0 91
0 0 91
0 0 90
0 0 89
0 0 89
0 0 88
0 0 87
0 0 86
0 0 85
0 0 84
0 0 83
0 0 82
0 0 81
0 0 80
0 0 80
0 0 79
0 0 78
0 0 78
0 0 77
0 0 77
0 0 76
0 0 76
0 0 75
0 0 75
0 0 75
0 0 75
0 0 74
0 0 74
0 0 73
0 0 73
0 0 73
0 0 73
0 0 74
0 0 74
0 0 74
0 0 74
0 0 75
0 0 75
0 0 75
0 0 75
0 0 75
0 0 74
0 0 74
0 0 73
0 0 72
0 0 72
0 0 70
0 0 69
0 0 67
0 0 65
0 0 63
0 0 61
0 0 58
0 0 55
0 0 52
0 0 48
0 0 45
0 0 42
0 0 39
0 0 37
0 0 35
0 0 34
0 0 32
0 0 32
0 0 31
0 0 31
0 0 31
0 0 30
0 0 30
0 0 30
0 0 29
0 0 29
0 0 29
0 0 28
0 0 28
0 0 28
0 0 28
0 0 28
0 0 28
0 0 28
0 0 28
0 0 28
0 0 28
0 0 29
0 0 29
0 0 29
0 0 29
0 0 30
0 0 30
0 0 31
0 0 31
0 0 31
0 0 32
0 0 32
0 0 33
0 0 34
0 0 35
0 0 36
0 0 38
0 0 41
0 0 43
0 0 46
0 0 49
0 0 53
0 0 56
0 0 59
0 0 62
0 0 65
0 0 69
0 0 72
0 0 75
0 0 77
0 0 80
0 0 83
0 0 85
0 0 88
0 0 90
0 0 92
0 0 94
0 0 95
0 0 97
0 0 98
0 0 99
0 0 100
0 0 101
0 0 102
0 0 102
0 0 103
0 0 104
0 0 104
0 0 104
0 0 105
0 0 105
0 0 106
0 0 106
0 0 106
0 0 106
0 0 107
0 0 107
0 0 107
0 0 107
0 0 107
0 0 107
0 0 108
0 0 108
0 0 108
0 0 108
0 0 108
0 0 108
0 0 108
0 0 108
0 0 108
0 0 108
0 0 108
0 0 108
0 0 108
0 0 108
0 0 108
0 0 107
0 0 107
0 0 107
0 0 107
0 0 107
0 0 107
0 0 107
0 0 107
0 0 107
0 0 107
0 0 107
0 0 107
0 0 106
0 0 106
0 0 106
0 0 106
0 0 106
0 0 106
0 0 106
0 0 106
0 0 105
0 0 105
0 0 105
0 0 105
0 0 105
0 0 105
0 0 105
0 0 105
0 0 104
0 0 104
0 0 104
0 0 104
0 0 104
0 0 104
0 0 104
0 0 104
0 0 104
0 0 103
0 0 103
0 0 103
0 0 103
0 0 103
0 0 103
0 0 103
0 0 103
0 0 102
0 0 102
0 0 102
0 0 102
0 71 0
0 71 0
0 71 0
0 72 0
67 0 0
67 0 0
67 0 0
67 0 0
0 0 96
0 0 96
0 0 96
0 0 96
0 0 96
0 0 96
0 0 96
0 0 96
0 0 96
0 0 96
0 0 96
0 0 96
0 0 97
0 0 96
0 0 97
0 0 97
0 0 97
0 0 96
0 0 96
0 0 96
0 0 96
0 0 96
0 0 96
0 0 96
0 0 96
0 0 96
0 0 96
0 0 96
0 0 96
0 0 95
0 0 95
0 0 95
0 0 95
0 0 94
0 0 94
0 0 94
0 0 93
0 0 93
0 0 93
0 0 92
0 0 92
0 0 91
0 0 90
0 0 90
0 0 89
0 0 89
0 0 88
0 0 87
0 0 87
0 0 86
0 0 85
0 0 85
0 0 84
0 0 84
0 0 83
0 0 83
0 0 83
0 0 82
0 0 82
0 0 82
0 0 82
0 0 82
0 0 81
0 0 81
0 0 81
0 0 81
0 0 81
0 0 81
0 0 81
0 0 81
0 0 80
0 0 81
0 0 81
0 0 82
0 0 82
0 0 83
0 0 83
0 0 83
0 0 84
0 0 84
0 0 84
0 0 84
0 0 84
0 0 84
0 0 83
0 0 83
0 0 82
0 0 81
0 0 81
0 0 79
0 0 78
0 0 77
0 0 75
0 0 73
0 0 70
0 0 68
0 0 65
0 0 62
0 0 60
0 0 57
0 0 54
0 0 52
0 0 50
0 0 47
0 0 44
0 0 42
0 0 40
0 0 38
0 0 36
0 0 35
0 0 34
0 0 33
0 0 33
0 0 32
0 0 32
0 0 32
0 0 32
0 0 32
0 0 32
0 0 32
0 0 32
0 0 32
0 0 32
0 0 32
0 0 32
0 0 32
0 0 33
0 0 33
0 0 33
0 0 34
0 0 35
0 0 37
0 0 38
0 0 40
0 0 43
0 0 45
0 0 48
0 0 50
0 0 53
0 0 55
0 0 58
0 0 61
0 0 63
0 0 66
0 0 69
0 0 72
0 0 74
0 0 76
0 0 79
0 0 81
0 0 83
0 0 85
0 0 87
0 0 89
0 0 91
0 0 92
0 0 94
0 0 95
0 0 96
0 0 98
0 0 99
0 0 100
0 0 101
0 0 101
0 0 102
0 0 103
0 0 103
0 0 104
0 0 104
0 0 104
0 0 105
0 0 105
0 0 105
0 0 106
0 0 106
0 0 106
0 0 106
0 0 107
0 0 107
0 0 107
0 0 107
0 0 107
0 0 108
0 0 108
0 0 108
0 0 108
0 0 108
0 0 108
0 0 108
0 0 108
0 0 108
0 0 108
0 0 108
0 0 108
0 0 108
0 0 108
0 0 107
0 0 107
0 0 107
0 0 107
0 0 107
0 0 107
0 0 107
0 0 107
0 0 107
0 0 107
0 0 107
0 0 107
0 0 106
0 0 106
0 0 106
0 0 106
0 0 106
0 0 106
0 0 106
0 0 106
0 0 106
0 0 106
0 0 105
0 0 105
0 0 105
0 0 105
0 0 105
0 0 105
0 0 105
0 0 105
0 0 104
0 0 104
0 0 104
0 0 104
0 0 104
0 0 104
0 0 104
0 0 104
0 0 103
0 0 103
0 0 103
0 0 103
0 0 103
0 0 103
0 0 103
0 0 103
0 0 102
0 0 102
0 0 102
0 0 102
0 0 102
0 0 102
0 0 102
0 71 0
0 71 0
0 71 0
67 0 0
67 0 0
67 0 0
0 0 96
0 0 96
0 0 96
0 0 96
0 0 96
0 0 96
0 0 96
0 0 96
0 0 96
0 0 96
0 0 96
0 0 96
0 0 96
0 0 96
0 0 96
0 0 96
0 0 96
0 0 96
0 0 96
0 0 96
0 0 96
0 0 96
0 0 96
0 0 96
0 0 96
0 0 96
0 0 96
0 0 96
0 0 96
0 0 95
0 0 95
0 0 95
0 0 95
0 0 94
0 0 94
0 0 94
0 0 94
0 0 93
0 0 93
0 0 92
0 0 92
0 0 91
0 0 91
0 0 91
0 0 90
0 0 90
0 0 89
0 0 89
0 0 88
0 0 88
0 0 87
0 0 87
0 0 87
0 0 87
0 0 87
0 0 86
0 0 86
0 0 86
0 0 86
0 0 86
0 0 86
0 0 86
0 0 86
0 0 86
0 0 86
0 0 86
0 0 86
0 0 86
0 0 86
0 0 87
0 0 86
0 0 86
0 0 87
0 0 87
0 0 88
0 0 88
0 0 89
0 0 89
0 0 89
0 0 89
0 0 90
0 0 90
0 0 90
0 0 90
0 0 90
0 0 90
0 0 90
0 0 89
0 0 89
0 0 88
0 0 88
0 0 87
0 0 86
0 0 85
0 0 84
0 0 82
0 0 81
0 0 79
0 0 78
0 0 76
0 0 75
0 0 73
0 0 71
0 0 69
0 0 68
0 0 66
0 0 64
0 0 63
0 0 61
0 0 59
0 0 58
0 0 56
0 0 55
0 0 54
0 0 52
0 0 52
0 0 51
0 0 50
0 0 50
0 0 49
0 0 49
0 0 49
0 0 49
0 0 50
0 0 50
0 0 51
0 0 52
0 0 53
0 0 54
0 0 56
0 0 57
0 0 58
0 0 60
0 0 62
0 0 63
0 0 65
0 0 67
0 0 69
0 0 70
0 0 72
0 0 74
0 0 76
0 0 77
0 0 79
0 0 81
0 0 82
0 0 84
0 0 85
0 0 87
0 0 88
0 0 89
0 0 91
0 0 92
0 0 93
0 0 94
0 0 96
0 0 97
0 0 98
0 0 99
0 0 100
0 0 100
0 0 101
0 0 102
0 0 102
0 0 103
0 0 103
0 0 104
0 0 104
0 0 104
0 0 105
0 0 105
0 0 105
0 0 105
0 0 106
0 0 106
0 0 106
0 0 106
0 0 107
0 0 107
0 0 107
0 0 107
0 0 107
0 0 107
0 0 107
0 0 108
0 0 108
0 0 108
0 0 108
0 0 108
0 0 108
0 0 108
0 0 108
0 0 108
0 0 107
0 0 107
0 0 107
0 0 107
0 0 107
0 0 107
0 0 107
0 0 107
0 0 107
0 0 107
0 0 107
0 0 107
0 0 107
0 0 107
0 0 106
0 0 106
0 0 106
0 0 106
0 0 106
0 0 106
0 0 106
0 0 106
0 0 106
0 0 106
0 0 105
0 0 105
0 0 105
0 0 105
0 0 105
0 0 105
0 0 105
0 0 105
0 0 105
0 0 104
0 0 104
0 0 104
0 0 104
0 0 104
0 0 104
0 0 104
0 0 104
0 0 103
0 0 103
0 0 103
0 0 103
0 0 103
0 0 103
0 0 103
0 0 103
0 0 102
0 0 102
0 0 102
0 0 102
0 0 102
0 0 102
0 0 102
0 0 101
0 0 101
0 71 0
0 71 0
67 0 0
67 0 0
0 0 95
0 0 95
0 0 95
0 0 96
0 0 96
0 0 96
0 0 96
0 0 96
0 0 96
0 0 96
0 0 96
0 0 96
0 0 96
0 0 96
0 0 96
0 0 96
0 0 96
0 0 96
0 0 96
0 0 96
0 0 96
0 0 96
0 0 96
0 0 96
0 0 96
0 0 96
0 0 96
0 0 96
0 0 95
0 0 95
0 0 95
0 0 95
0 0 95
0 0 94
0 0 94
0 0 94
0 0 94
0 0 93
0 0 93
0 0 93
0 0 92
0 0 92
0 0 92
0 0 91
0 0 91
0 0 91
0 0 90
0 0 90
0 0 90
0 0 90
0 0 90
0 0 90
0 0 89
0 0 89
0 0 89
0 0 89
0 0 89
0 0 89
0 0 89
0 0 89
0 0 89
0 0 89
0 0 89
0 0 90
0 0 90
0 0 90
0 0 90
0 0 90
0 0 90
0 0 91
0 0 91
0 0 90
0 0 91
0 0 91
0 0 92
0 0 92
0 0 93
0 0 93
0 0 93
0 0 94
0 0 94
0 0 94
0 0 94
0 0 94
0 0 94
0 0 94
0 0 94
0 0 94
0 0 94
0 0 93
0 0 93
0 0 92
0 0 92
0 0 91
0 0 91
0 0 90
0 0 90
0 0 89
0 0 88
0 0 87
0 0 86
0 0 85
0 0 84
0 0 83
0 0 82
0 0 81
0 0 80
0 0 79
0 0 79
0 0 78
0 0 77
0 0 76
0 0 75
0 0 75
0 0 74
0 0 74
0 0 73
0 0 73
0 0 72
0 0 72
0 0 72
0 0 72
0 0 72
0 0 72
0 0 72
0 0 73
0 0 73
0 0 73
0 0 74
0 0 75
0 0 75
0 0 76
0 0 77
0 0 77
0 0 78
0 0 79
0 0 80
0 0 81
0 0 82
0 0 83
0 0 84
0 0 85
0 0 86
0 0 87
0 0 88
0 0 89
0 0 90
0 0 91
0 0 92
0 0 93
0 0 94
0 0 95
0 0 96
0 0 97
0 0 97
0 0 98
0 0 99
0 0 100
0 0 100
0 0 101
0 0 102
0 0 102
0 0 103
0 0 103
0 0 104
0 0 104
0 0 104
0 0 104
0 0 105
0 0 105
0 0 105
0 0 105
0 0 106
0 0 106
0 0 106
0 0 106
0 0 106
0 0 107
0 0 107
0 0 107
0 0 107
0 0 107
0 0 107
0 0 107
0 0 107
0 0 107
0 0 107
0 0 107
0 0 107
0 0 107
0 0 107
0 0 107
0 0 107
0 0 107
0 0 107
0 0 107
0 0 107
0 0 107
0 0 107
0 0 107
0 0 107
0 0 107
0 0 107
0 0 107
0 0 107
0 0 106
0 0 106
0 0 106
0 0 106
0 0 106
0 0 106
0 0 106
0 0 106
0 0 106
0 0 106
0 0 106
0 0 105
0 0 105
0 0 105
0 0 105
0 0 105
0 0 105
0 0 105
0 0 105
0 0 104
0 0 104
0 0 104
0 0 104
0 0 104
0 0 104
0 0 104
0 0 104
0 0 104
0 0 103
0 0 103
0 0 103
0 0 103
0 0 103
0 0 103
0 0 103
0 0 103
0 0 102
0 0 102
0 0 102
0 0 102
0 0 102
0 0 102
0 0 102
0 0 102
0 0 101
0 0 101
0 0 101
0 0 101
0 71 0
66 0 0
0 0 95
0 0 95
0 0 95
0 0 95
0 0 96
0 0 96
0 0 96
0 0 96
0 0 96
0 0 96
0 0 96
0 0 96
0 0 96
0 0 96
0 0 96
0 0 96
0 0 96
0 0 96
0 0 96
0 0 96
0 0 96
0 0 96
0 0 96
0 0 96
0 0 96
0 0 96
0 0 96
0 0 95
0 0 95
0 0 95
0 0 95
0 0 95
0 0 95
0 0 95
0 0 94
0 0 94
0 0 94
0 0 94
0 0 93
0 0 93
0 0 93
0 0 93
0 0 92
0 0 92
0 0 92
0 0 92
0 0 92
0 0 91
0 0 92
0 0 91
0 0 91
0 0 91
0 0 92
0 0 92
0 0 92
0 0 92
0 0 92
0 0 92
0 0 92
0 0 92
0 0 92
0 0 92
0 0 92
0 0 92
0 0 93
0 0 93
0 0 93
0 0 93
0 0 93
0 0 94
0 0 94
0 0 94
0 0 94
0 0 94
0 0 95
0 0 95
0 0 95
0 0 95
0 0 96
0 0 96
0 0 96
0 0 96
0 0 96
0 0 96
0 0 96
0 0 96
0 0 96
0 0 96
0 0 96
0 0 96
0 0 96
0 0 95
0 0 95
0 0 95
0 0 95
0 0 94
0 0 94
0 0 94
0 0 93
0 0 93
0 0 92
0 0 92
0 0 91
0 0 91
0 0 90
0 0 90
0 0 89
0 0 89
0 0 88
0 0 88
0 0 87
0 0 86
0 0 86
0 0 86
0 0 85
0 0 85
0 0 85
0 0 85
0 0 84
0 0 84
0 0 84
0 0 84
0 0 84
0 0 84
0 0 84
0 0 84
0 0 84
0 0 84
0 0 85
0 0 85
0 0 85
0 0 86
0 0 86
0 0 87
0 0 87
0 0 88
0 0 88
0 0 89
0 0 89
0 0 90
0 0 91
0 0 91
0 0 92
0 0 93
0 0 93
0 0 94
0 0 94
0 0 95
0 0 96
0 0 96
0 0 97
0 0 98
0 0 98
0 0 99
0 0 100
0 0 100
0 0 101
0 0 101
0 0 102
0 0 102
0 0 103
0 0 103
0 0 103
0 0 104
0 0 104
0 0 104
0 0 104
0 0 105
0 0 105
0 0 105
0 0 105
0 0 106
0 0 106
0 0 106
0 0 106
0 0 106
0 0 106
0 0 107
0 0 107
0 0 107
0 0 107
0 0 107
0 0 107
0 0 107
0 0 107
0 0 107
0 0 107
0 0 107
0 0 107
0 0 107
0 0 107
0 0 107
0 0 107
0 0 107
0 0 107
0 0 107
0 0 107
0 0 107
0 0 107
0 0 107
0 0 107
0 0 107
0 0 107
0 0 106
0 0 106
0 0 106
0 0 106
0 0 106
0 0 106
0 0 106
0 0 106
0 0 106
0 0 106
0 0 106
0 0 105
0 0 105
0 0 105
0 0 105
0 0 105
0 0 105
0 0 105
0 0 105
0 0 105
0 0 104
0 0 104
0 0 104
0 0 104
0 0 104
0 0 104
0 0 104
0 0 104
0 0 104
0 0 103
0 0 103
0 0 103
0 0 103
0 0 103
0 0 103
0 0 103
0 0 103
0 0 103
0 0 102
0 0 102
0 0 102
0 0 102
0 0 102
0 0 102
0 0 102
0 0 101
0 0 101
0 0 101
0 0 101
0 0 101
0 0 101
0 0 101
