P3
# Max error: 1
256 256
255
186 186 186
186 186 186
186 186 186
186 186 186
186 186 186
186 186 186
186 186 186
186 186 186
186 186 186
186 186 186
186 186 186
186 186 186
186 186 186
186 186 186
186 186 186
186 186 186
186 186 186
186 186 186
186 186 186
186 186 186
186 186 186
186 186 186
186 186 186
186 186 186
186 186 186
186 186 186
186 186 186
186 186 186
186 186 186
186 186 186
186 186 186
186 186 186
186 186 186
186 186 186
186 186 186
186 186 186
186 186 186
186 186 186
186 186 186
186 186 186
186 186 186
186 186 186
186 186 186
186 186 186
186 186 186
186 186 186
186 186 186
186 186 186
186 186 186
186 186 186
186 186 186
186 186 186
186 186 186
186 186 186
186 186 186
186 186 186
186 186 186
186 186 186
186 186 186
186 186 186
186 186 186
186 186 186
186 186 186
186 186 186
186 186 186
186 186 186
186 186 186
186 186 186
186 186 186
186 186 186
186 186 186
186 186 186
186 186 186
186 186 186
186 186 186
186 186 186
186 186 186
186 186 186
186 186 186
186 186 186
186 186 186
186 186 186
186 186 186
186 186 186
186 186 186
186 186 186
186 186 186
186 186 186
186 186 186
186 186 186
186 186 186
186 186 186
186 186 186
186 186 186
186 186 186
186 186 186
186 186 186
186 186 186
186 186 186
186 186 186
186 186 186
186 186 186
186 186 186
186 186 186
186 186 186
186 186 186
186 186 186
186 186 186
186 186 186
186 186 186
186 186 186
186 186 186
186 186 186
186 186 186
186 186 186
186 186 186
186 186 186
186 186 186
186 186 186
186 186 186
186 186 186
186 186 186
186 186 186
186 186 186
186 186 186
186 186 186
186 186 186
186 186 186
186 186 186
186 186 186
186 186 186
186 186 186
186 186 186
186 186 186
186 186 186
186 186 186
186 186 186
186 186 186
186 186 186
186 186 186
186 186 186
186 186 186
186 186 186
186 186 186
186 186 186
186 186 186
186 186 186
186 186 186
186 186 186
186 186 186
186 186 186
186 186 186
186 186 186
186 186 186
186 186 186
186 186 186
186 186 186
186 186 186
186 186 186
186 186 186
186 186 186
186 186 186
186 186 186
186 186 186
186 186 186
186 186 186
186 186 186
186 186 186
186 186 186
186 186 186
186 186 186
186 186 186
186 186 186
186 186 186
186 186 186
186 186 186
186 186 186
186 186 186
186 186 186
186 186 186
186 186 186
186 186 186
186 186 186
186 186 186
186 186 186
186 186 186
186 186 186
186 186 186
186 186 186
186 186 186
186 186 186
186 186 186
186 186 186
186 186 186
186 186 186
186 186 186
186 186 186
186 186 186
186 186 186
186 186 186
186 186 186
186 186 186
186 186 186
186 186 186
186 186 186
186 186 186
186 186 186
186 186 186
186 186 186
186 186 186
186 186 186
186 186 186
186 186 186
186 186 186
186 186 186
186 186 186
186 186 186
186 186 186
186 186 186
186 186 186
186 186 186
186 186 186
186 186 186
186 186 186
186 186 186
186 186 186
186 186 186
186 186 186
186 186 186
186 186 186
186 186 186
186 186 186
186 186 186
186 186 186
186 186 186
186 186 186
186 186 186
186 186 186
186 186 186
186 186 186
186 186 186
186 186 186
186 186 186
186 186 186
186 186 186
186 186 186
186 186 186
186 186 186
186 186 186
186 186 186
186 186 186
186 186 186
186 186 186
186 186 186
186 186 186
186 186 186
186 186 186
186 186 186
186 186 186
186 186 186
186 186 186
186 186 186
186 186 186
186 186 186
186 186 186
186 186 186
186 186 186
186 186 186
186 186 186
186 186 186
186 186 186
186 186 186
186 186 186
186 186 186
186 186 186
186 186 186
186 186 186
186 186 186
186 186 186
186 186 186
186 186 186
186 186 186
186 186 186
186 186 186
186 186 186
186 186 186
186 186 186
186 186 186
186 186 186
186 186 186
186 186 186
186 186 186
186 186 186
186 186 186
186 186 186
186 186 186
186 186 186
186 186 186
186 186 186
186 186 186
186 186 186
186 186 186
186 186 186
186 186 186
186 186 186
186 186 186
186 186 186
186 186 186
186 186 186
186 186 186
186 186 186
186 186 186
186 186 186
186 186 186
186 186 186
186 186 186
186 186 186
186 186 186
186 186 186
186 186 186
186 186 186
186 186 186
186 186 186
186 186 186
186 186 186
186 186 186
186 186 186
186 186 186
186 186 186
186 186 186
186 186 186
186 186 186
186 186 186
186 186 186
186 186 186
186 186 186
186 186 186
186 186 186
186 186 186
186 186 186
186 186 186
186 186 186
186 186 186
186 186 186
186 186 186
186 186 186
186 186 186
186 186 186
186 186 186
186 186 186
186 186 186
186 186 186
186 186 186
186 186 186
186 186 186
186 186 186
186 186 186
186 186 186
186 186 186
186 186 186
186 186 186
186 186 186
186 186 186
186 186 186
186 186 186
186 186 186
186 186 186
186 186 186
186 186 186
186 186 186
186 186 186
186 186 186
186 186 186
186 186 186
186 186 186
186 186 186
186 186 186
186 186 186
186 186 186
186 186 186
186 186 186
186 186 186
186 186 186
186 186 186
186 186 186
186 186 186
186 186 186
186 186 186
186 186 186
186 186 186
186 186 186
186 186 186
186 186 186
186 186 186
186 186 186
186 186 186
186 186 186
186 186 186
186 186 186
186 186 186
186 186 186
186 186 186
186 186 186
186 186 186
186 186 186
186 186 186
186 186 186
186 186 186
186 186 186
186 186 186
186 186 186
186 186 186
186 186 186
186 186 186
186 186 186
186 186 186
186 186 186
186 186 186
186 186 186
186 186 186
186 186 186
186 186 186
186 186 186
186 186 186
186 186 186
186 186 186
186 186 186
186 186 186
186 186 186
186 186 186
186 186 186
186 186 186
186 186 186
186 186 186
186 186 186
186 186 186
186 186 186
186 186 186
186 186 186
186 186 186
186 186 186
186 186 186
186 186 186
186 186 186
186 186 186
186 186 186
186 186 186
186 186 186
186 186 186
186 186 186
186 186 186
186 186 186
186 186 186
186 186 186
186 186 186
186 186 186
186 186 186
186 186 186
186 186 186
186 186 186
186 186 186
186 186 186
186 186 186
186 186 186
186 186 186
186 186 186
186 186 186
186 186 186
186 186 186
186 186 186
186 186 186
186 186 186
186 186 186
186 186 186
186 186 186
186 186 186
186 186 186
186 186 186
186 186 186
186 186 186
186 186 186
186 186 186
186 186 186
186 186 186
186 186 186
186 186 186
186 186 186
186 186 186
186 186 186
186 186 186
186 186 186
186 186 186
186 186 186
186 186 186
186 186 186
186 186 186
186 186 186
186 186 186
186 186 186
186 186 186
186 186 186
186 186 186
186 186 186
186 186 186
186 186 186
186 186 186
186 186 186
186 186 186
186 186 186
186 186 186
186 186 186
186 186 186
186 186 186
186 186 186
186 186 186
186 186 186
186 186 186
186 186 186
186 186 186
186 186 186
186 186 186
186 186 186
186 186 186
186 186 186
186 186 186
186 186 186
186 186 186
186 186 186
186 186 186
186 186 186
186 186 186
186 186 186
186 186 186
186 186 186
186 186 186
186 186 186
186 186 186
186 186 186
186 186 186
186 186 186
186 186 186
186 186 186
186 186 186
186 186 186
186 186 186
186 186 186
186 186 186
186 186 186
186 186 186
186 186 186
186 186 186
186 186 186
186 186 186
186 186 186
186 186 186
186 186 186
186 186 186
186 186 186
186 186 186
186 186 186
186 186 186
186 186 186
186 186 186
186 186 186
186 186 186
186 186 186
186 186 186
186 186 186
186 186 186
186 186 186
186 186 186
186 186 186
186 186 186
186 186 186
186 186 186
186 186 186
186 186 186
186 186 186
186 186 186
186 186 186
186 186 186
186 186 186
186 186 186
186 186 186
186 186 186
186 186 186
186 186 186
186 186 186
186 186 186
186 186 186
186 186 186
186 186 186
186 186 186
186 186 186
186 186 186
186 186 186
186 186 186
186 186 186
186 186 186
186 186 186
186 186 186
186 186 186
186 186 186
186 186 186
186 186 186
186 186 186
186 186 186
186 186 186
186 186 186
186 186 186
186 186 186
186 186 186
186 186 186
186 186 186
186 186 186
186 186 186
186 186 186
186 186 186
186 186 186
186 186 186
186 186 186
186 186 186
186 186 186
186 186 186
186 186 186
186 186 186
186 186 186
186 186 186
186 186 186
186 186 186
186 186 186
186 186 186
186 186 186
186 186 186
186 186 186
186 186 186
186 186 186
186 186 186
186 186 186
186 186 186
186 186 186
186 186 186
186 186 186
186 186 186
186 186 186
186 186 186
186 186 186
186 186 186
186 186 186
186 186 186
186 186 186
186 186 186
186 186 186
186 186 186
186 186 186
186 186 186
186 186 186
186 186 186
186 186 186
186 186 186
186 186 186
186 186 186
186 186 186
186 186 186
186 186 186
186 186 186
186 186 186
186 186 186
186 186 186
186 186 186
186 186 186
186 186 186
186 186 186
186 186 186
186 186 186
186 186 186
186 186 186
186 186 186
186 186 186
186 186 186
186 186 186
186 186 186
186 186 186
186 186 186
186 186 186
186 186 186
186 186 186
186 186 186
186 186 186
186 186 186
186 186 186
186 186 186
186 186 186
186 186 186
186 186 186
186 186 186
186 186 186
186 186 186
186 186 186
186 186 186
186 186 186
186 186 186
186 186 186
186 186 186
186 186 186
186 186 186
186 186 186
186 186 186
186 186 186
186 186 186
186 186 186
186 186 186
186 186 186
186 186 186
186 186 186
186 186 186
186 186 186
186 186 186
186 186 186
186 186 186
186 186 186
186 186 186
186 186 186
186 186 186
186 186 186
186 186 186
186 186 186
186 186 186
186 186 186
186 186 186
186 186 186
186 186 186
186 186 186
186 186 186
186 186 186
186 186 186
186 186 186
186 186 186
186 186 186
186 186 186
186 186 186
186 186 186
186 186 186
186 186 186
186 186 186
186 186 186
186 186 186
186 186 186
186 186 186
186 186 186
186 186 186
186 186 186
186 186 186
186 186 186
186 186 186
186 186 186
186 186 186
186 186 186
186 186 186
186 186 186
186 186 186
186 186 186
186 186 186
186 186 186
186 186 186
186 186 186
186 186 186
186 186 186
186 186 186
186 186 186
186 186 186
186 186 186
186 186 186
186 186 186
186 186 186
186 186 186
186 186 186
186 186 186
186 186 186
186 186 186
186 186 186
186 186 186
186 186 186
186 186 186
186 186 186
186 186 186
186 186 186
186 186 186
186 186 186
186 186 186
186 186 186
186 186 186
186 186 186
186 186 186
186 186 186
186 186 186
186 186 186
186 186 186
186 186 186
186 186 186
186 186 186
186 186 186
186 186 186
186 186 186
186 186 186
186 186 186
186 186 186
186 186 186
186 186 186
186 186 186
186 186 186
186 186 186
186 186 186
186 186 186
186 186 186
186 186 186
186 186 186
186 186 186
186 186 186
186 186 186
186 186 186
186 186 186
186 186 186
186 186 186
186 186 186
186 186 186
186 186 186
186 186 186
186 186 186
186 186 186
186 186 186
186 186 186
186 186 186
186 186 186
186 186 186
186 186 186
186 186 186
186 186 186
186 186 186
186 186 186
186 186 186
186 186 186
186 186 186
186 186 186
186 186 186
186 186 186
186 186 186
186 186 186
186 186 186
186 186 186
186 186 186
186 186 186
186 186 186
186 186 186
186 186 186
186 186 186
186 186 186
186 186 186
186 186 186
186 186 186
186 186 186
186 186 186
186 186 186
186 186 186
186 186 186
186 186 186
186 186 186
186 186 186
186 186 186
186 186 186
186 186 186
186 186 186
186 186 186
186 186 186
186 186 186
186 186 186
186 186 186
186 186 186
186 186 186
186 186 186
186 186 186
186 186 186
186 186 186
186 186 186
186 186 186
186 186 186
186 186 186
186 186 186
186 186 186
186 186 186
186 186 186
186 186 186
186 186 186
186 186 186
186 186 186
186 186 186
186 186 186
186 186 186
186 186 186
186 186 186
186 186 186
186 186 186
186 186 186
186 186 186
186 186 186
186 186 186
186 186 186
186 186 186
186 186 186
186 186 186
186 186 186
186 186 186
186 186 186
186 186 186
186 186 186
186 186 186
186 186 186
186 186 186
186 186 186
186 186 186
186 186 186
186 186 186
186 186 186
186 186 186
186 186 186
186 186 186
186 186 186
186 186 186
186 186 186
186 186 186
186 186 186
186 186 186
186 186 186
186 186 186
186 186 186
186 186 186
186 186 186
186 186 186
186 186 186
186 186 186
186 186 186
186 186 186
186 186 186
186 186 186
186 186 186
186 186 186
186 186 186
186 186 186
186 186 186
186 186 186
186 186 186
186 186 186
186 186 186
186 186 186
186 186 186
186 186 186
186 186 186
186 186 186
186 186 186
186 186 186
186 186 186
186 186 186
186 186 186
186 186 186
186 186 186
186 186 186
186 186 186
186 186 186
186 186 186
186 186 186
186 186 186
186 186 186
186 186 186
186 186 186
186 186 186
186 186 186
186 186 186
186 186 186
186 186 186
186 186 186
186 186 186
186 186 186
186 186 186
186 186 186
186 186 186
186 186 186
186 186 186
186 186 186
186 186 186
186 186 186
186 186 186
186 186 186
186 186 186
186 186 186
186 186 186
186 186 186
186 186 186
186 186 186
186 186 186
186 186 186
186 186 186
186 186 186
186 186 186
186 186 186
186 186 186
186 186 186
186 186 186
186 186 186
186 186 186
186 186 186
186 186 186
186 186 186
186 186 186
186 186 186
186 186 186
186 186 186
186 186 186
186 186 186
186 186 186
186 186 186
186 186 186
186 186 186
186 186 186
186 186 186
186 186 186
186 186 186
186 186 186
186 186 186
186 186 186
186 186 186
186 186 186
186 186 186
186 186 186
186 186 186
186 186 186
186 186 186
186 186 186
186 186 186
186 186 186
186 186 186
186 186 186
186 186 186
186 186 186
186 186 186
186 186 186
186 186 186
186 186 186
186 186 186
186 186 186
186 186 186
186 186 186
186 186 186
186 186 186
186 186 186
186 186 186
186 186 186
186 186 186
186 186 186
186 186 186
186 186 186
186 186 186
186 186 186
186 186 186
186 186 186
186 186 186
186 186 186
186 186 186
186 186 186
186 186 186
186 186 186
186 186 186
186 186 186
186 186 186
186 186 186
186 186 186
186 186 186
186 186 186
186 186 186
186 186 186
186 186 186
186 186 186
186 186 186
186 186 186
186 186 186
186 186 186
186 186 186
186 186 186
186 186 186
186 186 186
186 186 186
186 186 186
186 186 186
186 186 186
186 186 186
186 186 186
186 186 186
186 186 186
186 186 186
186 186 186
186 186 186
186 186 186
186 186 186
186 186 186
186 186 186
186 186 186
186 186 186
186 186 186
186 186 186
186 186 186
186 186 186
186 186 186
186 186 186
186 186 186
186 186 186
186 186 186
186 186 186
186 186 186
186 186 186
186 186 186
186 186 186
186 186 186
186 186 186
186 186 186
186 186 186
186 186 186
186 186 186
186 186 186
186 186 186
186 186 186
186 186 186
186 186 186
186 186 186
186 186 186
186 186 186
186 186 186
186 186 186
186 186 186
186 186 186
186 186 186
186 186 186
186 186 186
186 186 186
186 186 186
186 186 186
186 186 186
186 186 186
186 186 186
186 186 186
186 186 186
186 186 186
186 186 186
186 186 186
186 186 186
186 186 186
186 186 186
186 186 186
186 186 186
186 186 186
186 186 186
186 186 186
186 186 186
186 186 186
186 186 186
186 186 186
186 186 186
186 186 186
186 186 186
186 186 186
186 186 186
186 186 186
186 186 186
186 186 186
186 186 186
186 186 186
186 186 186
186 186 186
186 186 186
186 186 186
186 186 186
186 186 186
186 186 186
186 186 186
186 186 186
186 186 186
186 186 186
186 186 186
186 186 186
186 186 186
186 186 186
186 186 186
186 186 186
186 186 186
186 186 186
186 186 186
186 186 186
186 186 186
186 186 186
186 186 186
186 186 186
186 186 186
186 186 186
186 186 186
186 186 186
186 186 186
186 186 186
186 186 186
186 186 186
186 186 186
186 186 186
186 186 186
186 186 186
186 186 186
186 186 186
186 186 186
186 186 186
186 186 186
186 186 186
186 186 186
186 186 186
186 186 186
186 186 186
186 186 186
186 186 186
186 186 186
186 186 186
186 186 186
186 186 186
186 186 186
186 186 186
186 186 186
186 186 186
186 186 186
186 186 186
186 186 186
186 186 186
186 186 186
186 186 186
186 186 186
186 186 186
186 186 186
186 186 186
186 186 186
186 186 186
186 186 186
186 186 186
186 186 186
186 186 186
186 186 186
186 186 186
186 186 186
186 186 186
186 186 186
186 186 186
186 186 186
186 186 186
186 186 186
186 186 186
186 186 186
186 186 186
186 186 186
186 186 186
186 186 186
186 186 186
186 186 186
186 186 186
186 186 186
186 186 186
186 186 186
186 186 186
186 186 186
186 186 186
186 186 186
186 186 186
186 186 186
186 186 186
186 186 186
186 186 186
186 186 186
186 186 186
186 186 186
186 186 186
186 186 186
186 186 186
186 186 186
186 186 186
186 186 186
186 186 186
186 186 186
186 186 186
186 186 186
186 186 186
186 186 186
186 186 186
186 186 186
186 186 186
186 186 186
186 186 186
186 186 186
186 186 186
186 186 186
186 186 186
186 186 186
186 186 186
186 186 186
186 186 186
186 186 186
186 186 186
186 186 186
186 186 186
186 186 186
186 186 186
186 186 186
186 186 186
186 186 186
186 186 186
186 186 186
186 186 186
186 186 186
186 186 186
186 186 186
186 186 186
186 186 186
186 186 186
186 186 186
186 186 186
186 186 186
186 186 186
186 186 186
186 186 186
186 186 186
186 186 186
186 186 186
186 186 186
186 186 186
186 186 186
186 186 186
186 186 186
186 186 186
186 186 186
186 186 186
186 186 186
186 186 186
186 186 186
186 186 186
186 186 186
186 186 186
186 186 186
186 186 186
186 186 186
186 186 186
186 186 186
186 186 186
186 186 186
186 186 186
186 186 186
186 186 186
186 186 186
186 186 186
186 186 186
186 186 186
186 186 186
186 186 186
186 186 186
186 186 186
186 186 186
186 186 186
186 186 186
186 186 186
186 186 186
186 186 186
186 186 186
186 186 186
186 186 186
186 186 186
186 186 186
186 186 186
186 186 186
186 186 186
186 186 186
186 186 186
186 186 186
186 186 186
186 186 186
186 186 186
186 186 186
186 186 186
186 186 186
186 186 186
186 186 186
186 186 186
186 186 186
186 186 186
186 186 186
186 186 186
186 186 186
186 186 186
186 186 186
186 186 186
186 186 186
186 186 186
186 186 186
186 186 186
186 186 186
186 186 186
186 186 186
186 186 186
186 186 186
186 186 186
186 186 186
186 186 186
186 186 186
186 186 186
186 186 186
186 186 186
186 186 186
186 186 186
186 186 186
186 186 186
186 186 186
186 186 186
186 186 186
186 186 186
186 186 186
186 186 186
186 186 186
186 186 186
186 186 186
186 186 186
186 186 186
186 186 186
186 186 186
186 186 186
186 186 186
186 186 186
186 186 186
186 186 186
186 186 186
186 186 186
186 186 186
186 186 186
186 186 186
186 186 186
186 186 186
186 186 186
186 186 186
186 186 186
186 186 186
186 186 186
186 186 186
186 186 186
186 186 186
186 186 186
186 186 186
186 186 186
186 186 186
186 186 186
186 186 186
186 186 186
186 186 186
186 186 186
186 186 186
186 186 186
186 186 186
186 186 186
186 186 186
186 186 186
186 186 186
186 186 186
186 186 186
186 186 186
186 186 186
186 186 186
186 186 186
186 186 186
186 186 186
186 186 186
186 186 186
186 186 186
186 186 186
186 186 186
186 186 186
186 186 186
186 186 186
186 186 186
186 186 186
186 186 186
186 186 186
186 186 186
186 186 186
186 186 186
186 186 186
186 186 186
186 186 186
186 186 186
186 186 186
186 186 186
186 186 186
186 186 186
186 186 186
186 186 186
186 186 186
186 186 186
186 186 186
186 186 186
186 186 186
186 186 186
186 186 186
186 186 186
186 186 186
186 186 186
186 186 186
186 186 186
186 186 186
186 186 186
186 186 186
186 186 186
186 186 186
186 186 186
186 186 186
186 186 186
186 186 186
186 186 186
186 186 186
186 186 186
186 186 186
186 186 186
186 186 186
186 186 186
186 186 186
186 186 186
186 186 186
186 186 186
186 186 186
186 186 186
186 186 186
186 186 186
186 186 186
186 186 186
186 186 186
186 186 186
186 186 186
186 186 186
186 186 186
186 186 186
186 186 186
186 186 186
186 186 186
186 186 186
186 186 186
186 186 186
186 186 186
186 186 186
186 186 186
186 186 186
186 186 186
186 186 186
186 186 186
186 186 186
186 186 186
186 186 186
186 186 186
186 186 186
186 186 186
186 186 186
186 186 186
186 186 186
186 186 186
186 186 186
186 186 186
186 186 186
186 186 186
186 186 186
186 186 186
186 186 186
186 186 186
186 186 186
186 186 186
186 186 186
186 186 186
186 186 186
186 186 186
186 186 186
186 186 186
186 186 186
186 186 186
186 186 186
186 186 186
186 186 186
186 186 186
186 186 186
186 186 186
186 186 186
186 186 186
186 186 186
186 186 186
186 186 186
186 186 186
186 186 186
186 186 186
186 186 186
186 186 186
186 186 186
186 186 186
186 186 186
186 186 186
186 186 186
186 186 186
186 186 186
186 186 186
186 186 186
186 186 186
186 186 186
186 186 186
186 186 186
186 186 186
186 186 186
186 186 186
186 186 186
186 186 186
186 186 186
186 186 186
186 186 186
186 186 186
186 186 186
186 186 186
186 186 186
186 186 186
186 186 186
186 186 186
186 186 186
186 186 186
186 186 186
186 186 186
186 186 186
186 186 186
186 186 186
186 186 186
186 186 186
186 186 186
186 186 186
186 186 186
186 186 186
186 186 186
186 186 186
186 186 186
186 186 186
186 186 186
186 186 186
186 186 186
186 186 186
186 186 186
186 186 186
186 186 186
186 186 186
186 186 186
186 186 186
186 186 186
186 186 186
186 186 186
186 186 186
186 186 186
186 186 186
186 186 186
186 186 186
186 186 186
186 186 186
186 186 186
186 186 186
186 186 186
186 186 186
186 186 186
186 186 186
186 186 186
186 186 186
186 186 186
186 186 186
186 186 186
186 186 186
186 186 186
186 186 186
186 186 186
186 186 186
186 186 186
186 186 186
186 186 186
186 186 186
186 186 186
186 186 186
186 186 186
186 186 186
186 186 186
186 186 186
186 186 186
186 186 186
186 186 186
186 186 186
186 186 186
186 186 186
186 186 186
186 186 186
186 186 186
186 186 186
186 186 186
186 186 186
186 186 186
186 186 186
186 186 186
186 186 186
186 186 186
186 186 186
186 186 186
186 186 186
186 186 186
186 186 186
186 186 186
186 186 186
186 186 186
186 186 186
186 186 186
186 186 186
186 186 186
186 186 186
186 186 186
186 186 186
186 186 186
186 186 186
186 186 186
186 186 186
186 186 186
186 186 186
186 186 186
186 186 186
186 186 186
186 186 186
186 186 186
186 186 186
186 186 186
186 186 186
186 186 186
186 186 186
186 186 186
186 186 186
186 186 186
186 186 186
186 186 186
186 186 186
186 186 186
186 186 186
186 186 186
186 186 186
186 186 186
186 186 186
186 186 186
186 186 186
186 186 186
186 186 186
186 186 186
186 186 186
186 186 186
186 186 186
186 186 186
186 186 186
186 186 186
186 186 186
186 186 186
186 186 186
186 186 186
186 186 186
186 186 186
186 186 186
186 186 186
186 186 186
186 186 186
186 186 186
186 186 186
186 186 186
186 186 186
186 186 186
186 186 186
186 186 186
186 186 186
186 186 186
186 186 186
186 186 186
186 186 186
186 186 186
186 186 186
186 186 186
186 186 186
186 186 186
186 186 186
186 186 186
186 186 186
186 186 186
186 186 186
186 186 186
186 186 186
186 186 186
186 186 186
186 186 186
186 186 186
186 186 186
186 186 186
186 186 186
186 186 186
186 186 186
186 186 186
186 186 186
186 186 186
186 186 186
186 186 186
186 186 186
186 186 186
186 186 186
186 186 186
186 186 186
186 186 186
186 186 186
186 186 186
186 186 186
186 186 186
186 186 186
186 186 186
186 186 186
186 186 186
186 186 186
186 186 186
186 186 186
186 186 186
186 186 186
186 186 186
186 186 186
186 186 186
186 186 186
186 186 186
186 186 186
186 186 186
186 186 186
186 186 186
186 186 186
186 186 186
186 186 186
186 186 186
186 186 186
186 186 186
186 186 186
186 186 186
186 186 186
186 186 186
186 186 186
186 186 186
186 186 186
186 186 186
186 186 186
186 186 186
186 186 186
186 186 186
186 186 186
186 186 186
186 186 186
186 186 186
186 186 186
186 186 186
186 186 186
186 186 186
186 186 186
186 186 186
186 186 186
186 186 186
186 186 186
186 186 186
186 186 186
186 186 186
186 186 186
186 186 186
186 186 186
186 186 186
186 186 186
186 186 186
186 186 186
186 186 186
186 186 186
186 186 186
186 186 186
186 186 186
186 186 186
186 186 186
186 186 186
186 186 186
186 186 186
186 186 186
186 186 186
186 186 186
186 186 186
186 186 186
186 186 186
186 186 186
186 186 186
186 186 186
186 186 186
186 186 186
186 186 186
186 186 186
186 186 186
186 186 186
186 186 186
186 186 186
186 186 186
186 186 186
186 186 186
186 186 186
186 186 186
186 186 186
186 186 186
186 186 186
186 186 186
186 186 186
186 186 186
186 186 186
186 186 186
186 186 186
186 186 186
186 186 186
186 186 186
186 186 186
186 186 186
186 186 186
186 186 186
186 186 186
186 186 186
186 186 186
186 186 186
186 186 186
186 186 186
186 186 186
186 186 186
186 186 186
186 186 186
186 186 186
186 186 186
186 186 186
186 186 186
186 186 186
186 186 186
186 186 186
186 186 186
186 186 186
186 186 186
186 186 186
186 186 186
186 186 186
186 186 186
186 186 186
186 186 186
186 186 186
186 186 186
186 186 186
186 186 186
186 186 186
186 186 186
186 186 186
186 186 186
186 186 186
186 186 186
186 186 186
186 186 186
186 186 186
186 186 186
186 186 186
186 186 186
186 186 186
186 186 186
186 186 186
186 186 186
186 186 186
186 186 186
186 186 186
186 186 186
186 186 186
186 186 186
186 186 186
186 186 186
186 186 186
186 186 186
186 186 186
186 186 186
186 186 186
186 186 186
186 186 186
186 186 186
186 186 186
186 186 186
186 186 186
186 186 186
186 186 186
186 186 186
186 186 186
186 186 186
186 186 186
186 186 186
186 186 186
186 186 186
186 186 186
186 186 186
186 186 186
186 186 186
186 186 186
186 186 186
186 186 186
186 186 186
186 186 186
186 186 186
186 186 186
186 186 186
186 186 186
186 186 186
186 186 186
186 186 186
186 186 186
186 186 186
186 186 186
186 186 186
186 186 186
186 186 186
186 186 186
186 186 186
186 186 186
186 186 186
186 186 186
186 186 186
186 186 186
186 186 186
186 186 186
186 186 186
186 186 186
186 186 186
186 186 186
186 186 186
186 186 186
186 186 186
186 186 186
186 186 186
186 186 186
186 186 186
186 186 186
186 186 186
186 186 186
186 186 186
186 186 186
186 186 186
186 186 186
186 186 186
186 186 186
186 186 186
186 186 186
186 186 186
186 186 186
186 186 186
186 186 186
186 186 186
186 186 186
186 186 186
186 186 186
186 186 186
186 186 186
186 186 186
186 186 186
186 186 186
186 186 186
186 186 186
186 186 186
186 186 186
186 186 186
186 186 186
186 186 186
186 186 186
186 186 186
186 186 186
186 186 186
186 186 186
186 186 186
186 186 186
186 186 186
186 186 186
186 186 186
186 186 186
186 186 186
186 186 186
186 186 186
186 186 186
186 186 186
186 186 186
186 186 186
186 186 186
186 186 186
186 186 186
186 186 186
186 186 186
186 186 186
186 186 186
186 186 186
186 186 186
186 186 186
186 186 186
186 186 186
186 186 186
186 186 186
186 186 186
186 186 186
186 186 186
186 186 186
186 186 186
186 186 186
186 186 186
186 186 186
186 186 186
186 186 186
186 186 186
186 186 186
186 186 186
186 186 186
186 186 186
186 186 186
186 186 186
186 186 186
186 186 186
186 186 186
186 186 186
186 186 186
186 186 186
186 186 186
186 186 186
186 186 186
186 186 186
186 186 186
186 186 186
186 186 186
186 186 186
186 186 186
186 186 186
186 186 186
186 186 186
186 186 186
186 186 186
186 186 186
186 186 186
186 186 186
186 186 186
186 186 186
186 186 186
186 186 186
186 186 186
186 186 186
186 186 186
186 186 186
186 186 186
186 186 186
186 186 186
186 186 186
186 186 186
186 186 186
186 186 186
186 186 186
186 186 186
186 186 186
186 186 186
186 186 186
186 186 186
186 186 186
186 186 186
186 186 186
186 186 186
186 186 186
186 186 186
186 186 186
186 186 186
186 186 186
186 186 186
186 186 186
186 186 186
186 186 186
186 186 186
186 186 186
186 186 186
186 186 186
186 186 186
186 186 186
186 186 186
186 186 186
186 186 186
186 186 186
186 186 186
186 186 186
186 186 186
186 186 186
186 186 186
186 186 186
186 186 186
186 186 186
186 186 186
186 186 186
186 186 186
186 186 186
186 186 186
186 186 186
186 186 186
186 186 186
186 186 186
186 186 186
186 186 186
186 186 186
186 186 186
186 186 186
186 186 186
186 186 186
186 186 186
186 186 186
186 186 186
186 186 186
186 186 186
186 186 186
186 186 186
186 186 186
186 186 186
186 186 186
186 186 186
186 186 186
186 186 186
186 186 186
186 186 186
186 186 186
186 186 186
186 186 186
186 186 186
186 186 186
186 186 186
186 186 186
186 186 186
186 186 186
186 186 186
186 186 186
186 186 186
186 186 186
186 186 186
186 186 186
186 186 186
186 186 186
186 186 186
186 186 186
186 186 186
186 186 186
186 186 186
186 186 186
186 186 186
186 186 186
186 186 186
186 186 186
186 186 186
186 186 186
186 186 186
186 186 186
186 186 186
186 186 186
186 186 186
186 186 186
186 186 186
186 186 186
186 186 186
186 186 186
186 186 186
186 186 186
186 186 186
186 186 186
186 186 186
186 186 186
186 186 186
186 186 186
186 186 186
186 186 186
186 186 186
186 186 186
186 186 186
186 186 186
186 186 186
186 186 186
186 186 186
186 186 186
186 186 186
186 186 186
186 186 186
186 186 186
186 186 186
186 186 186
186 186 186
186 186 186
186 186 186
186 186 186
186 186 186
186 186 186
186 186 186
186 186 186
186 186 186
186 186 186
186 186 186
186 186 186
186 186 186
186 186 186
186 186 186
186 186 186
186 186 186
186 186 186
186 186 186
186 186 186
186 186 186
186 186 186
186 186 186
186 186 186
186 186 186
186 186 186
186 186 186
186 186 186
186 186 186
186 186 186
186 186 186
186 186 186
186 186 186
186 186 186
186 186 186
186 186 186
186 186 186
186 186 186
186 186 186
186 186 186
186 186 186
186 186 186
186 186 186
186 186 186
186 186 186
186 186 186
186 186 186
186 186 186
186 186 186
186 186 186
186 186 186
186 186 186
186 186 186
186 186 186
186 186 186
186 186 186
186 186 186
186 186 186
186 186 186
186 186 186
186 186 186
186 186 186
186 186 186
186 186 186
186 186 186
186 186 186
186 186 186
186 186 186
186 186 186
186 186 186
186 186 186
186 186 186
186 186 186
186 186 186
186 186 186
186 186 186
186 186 186
186 186 186
186 186 186
186 186 186
186 186 186
186 186 186
186 186 186
186 186 186
186 186 186
186 186 186
186 186 186
186 186 186
186 186 186
186 186 186
186 186 186
186 186 186
186 186 186
186 186 186
186 186 186
186 186 186
186 186 186
186 186 186
186 186 186
186 186 186
186 186 186
186 186 186
186 186 186
186 186 186
186 186 186
186 186 186
186 186 186
186 186 186
186 186 186
186 186 186
186 186 186
186 186 186
186 186 186
186 186 186
186 186 186
186 186 186
186 186 186
186 186 186
186 186 186
186 186 186
186 186 186
186 186 186
186 186 186
186 186 186
186 186 186
186 186 186
186 186 186
186 186 186
186 186 186
186 186 186
186 186 186
186 186 186
186 186 186
186 186 186
186 186 186
186 186 186
186 186 186
186 186 186
186 186 186
186 186 186
186 186 186
186 186 186
186 186 186
186 186 186
186 186 186
186 186 186
186 186 186
186 186 186
186 186 186
186 186 186
186 186 186
186 186 186
186 186 186
186 186 186
186 186 186
186 186 186
186 186 186
186 186 186
186 186 186
186 186 186
186 186 186
186 186 186
186 186 186
186 186 186
186 186 186
186 186 186
186 186 186
186 186 186
186 186 186
186 186 186
186 186 186
186 186 186
186 186 186
186 186 186
186 186 186
186 186 186
186 186 186
186 186 186
186 186 186
186 186 186
186 186 186
186 186 186
186 186 186
186 186 186
186 186 186
186 186 186
186 186 186
186 186 186
186 186 186
186 186 186
186 186 186
186 186 186
186 186 186
186 186 186
186 186 186
186 186 186
186 186 186
186 186 186
186 186 186
186 186 186
186 186 186
186 186 186
186 186 186
186 186 186
186 186 186
186 186 186
186 186 186
186 186 186
186 186 186
186 186 186
186 186 186
186 186 186
186 186 186
186 186 186
186 186 186
186 186 186
186 186 186
186 186 186
186 186 186
186 186 186
186 186 186
186 186 186
186 186 186
186 186 186
186 186 186
186 186 186
186 186 186
186 186 186
186 186 186
186 186 186
186 186 186
186 186 186
186 186 186
186 186 186
186 186 186
186 186 186
186 186 186
186 186 186
186 186 186
186 186 186
186 186 186
186 186 186
186 186 186
186 186 186
186 186 186
186 186 186
186 186 186
186 186 186
186 186 186
186 186 186
186 186 186
186 186 186
186 186 186
186 186 186
186 186 186
186 186 186
186 186 186
186 186 186
186 186 186
186 186 186
186 186 186
186 186 186
186 186 186
186 186 186
186 186 186
186 186 186
186 186 186
186 186 186
186 186 186
186 186 186
186 186 186
186 186 186
186 186 186
186 186 186
186 186 186
186 186 186
186 186 186
186 186 186
186 186 186
186 186 186
186 186 186
186 186 186
186 186 186
186 186 186
186 186 186
186 186 186
186 186 186
186 186 186
186 186 186
186 186 186
186 186 186
186 186 186
186 186 186
186 186 186
186 186 186
186 186 186
186 186 186
186 186 186
186 186 186
186 186 186
186 186 186
186 186 186
186 186 186
186 186 186
186 186 186
186 186 186
186 186 186
186 186 186
186 186 186
186 186 186
186 186 186
186 186 186
186 186 186
186 186 186
186 186 186
186 186 186
186 186 186
186 186 186
186 186 186
186 186 186
186 186 186
186 186 186
186 186 186
186 186 186
186 186 186
186 186 186
186 186 186
186 186 186
186 186 186
186 186 186
186 186 186
186 186 186
186 186 186
186 186 186
186 186 186
186 186 186
186 186 186
186 186 186
186 186 186
186 186 186
186 186 186
186 186 186
186 186 186
186 186 186
186 186 186
186 186 186
186 186 186
186 186 186
186 186 186
186 186 186
186 186 186
186 186 186
186 186 186
186 186 186
186 186 186
186 186 186
186 186 186
186 186 186
186 186 186
186 186 186
186 186 186
186 186 186
186 186 186
186 186 186
186 186 186
186 186 186
186 186 186
186 186 186
186 186 186
186 186 186
186 186 186
186 186 186
186 186 186
186 186 186
186 186 186
186 186 186
186 186 186
186 186 186
186 186 186
186 186 186
186 186 186
186 186 186
186 186 186
186 186 186
186 186 186
186 186 186
186 186 186
186 186 186
186 186 186
186 186 186
186 186 186
186 186 186
186 186 186
186 186 186
186 186 186
186 186 186
186 186 186
186 186 186
186 186 186
186 186 186
186 186 186
186 186 186
186 186 186
186 186 186
186 186 186
186 186 186
186 186 186
186 186 186
186 186 186
186 186 186
186 186 186
186 186 186
186 186 186
186 186 186
186 186 186
186 186 186
186 186 186
186 186 186
186 186 186
186 186 186
186 186 186
186 186 186
186 186 186
186 186 186
186 186 186
186 186 186
186 186 186
186 186 186
186 186 186
186 186 186
186 186 186
186 186 186
186 186 186
186 186 186
186 186 186
186 186 186
186 186 186
186 186 186
186 186 186
186 186 186
186 186 186
186 186 186
186 186 186
186 186 186
186 186 186
186 186 186
186 186 186
186 186 186
186 186 186
186 186 186
186 186 186
186 186 186
186 186 186
186 186 186
186 186 186
186 186 186
186 186 186
186 186 186
186 186 186
186 186 186
186 186 186
186 186 186
186 186 186
186 186 186
186 186 186
186 186 186
186 186 186
186 186 186
186 186 186
186 186 186
186 186 186
186 186 186
186 186 186
186 186 186
186 186 186
186 186 186
186 186 186
186 186 186
186 186 186
186 186 186
186 186 186
186 186 186
186 186 186
186 186 186
186 186 186
186 186 186
186 186 186
186 186 186
186 186 186
186 186 186
186 186 186
186 186 186
186 186 186
186 186 186
186 186 186
186 186 186
186 186 186
186 186 186
186 186 186
186 186 186
186 186 186
186 186 186
186 186 186
186 186 186
186 186 186
186 186 186
186 186 186
186 186 186
186 186 186
186 186 186
186 186 186
186 186 186
186 186 186
186 186 186
186 186 186
186 186 186
186 186 186
186 186 186
186 186 186
186 186 186
186 186 186
186 186 186
186 186 186
186 186 186
186 186 186
186 186 186
186 186 186
186 186 186
186 186 186
186 186 186
186 186 186
186 186 186
186 186 186
186 186 186
186 186 186
186 186 186
186 186 186
186 186 186
186 186 186
186 186 186
186 186 186
186 186 186
186 186 186
186 186 186
186 186 186
186 186 186
186 186 186
186 186 186
186 186 186
186 186 186
186 186 186
186 186 186
186 186 186
186 186 186
186 186 186
186 186 186
186 186 186
186 186 186
186 186 186
186 186 186
186 186 186
186 186 186
186 186 186
186 186 186
186 186 186
186 186 186
186 186 186
186 186 186
186 186 186
186 186 186
186 186 186
186 186 186
186 186 186
186 186 186
186 186 186
186 186 186
186 186 186
186 186 186
186 186 186
186 186 186
186 186 186
186 186 186
186 186 186
186 186 186
186 186 186
186 186 186
186 186 186
186 186 186
186 186 186
186 186 186
186 186 186
186 186 186
186 186 186
186 186 186
186 186 186
186 186 186
186 186 186
186 186 186
186 186 186
186 186 186
186 186 186
186 186 186
186 186 186
186 186 186
186 186 186
186 186 186
186 186 186
186 186 186
186 186 186
186 186 186
186 186 186
186 186 186
186 186 186
186 186 186
186 186 186
186 186 186
186 186 186
186 186 186
186 186 186
186 186 186
186 186 186
186 186 186
186 186 186
186 186 186
186 186 186
186 186 186
186 186 186
186 186 186
186 186 186
186 186 186
186 186 186
186 186 186
186 186 186
186 186 186
186 186 186
186 186 186
186 186 186
186 186 186
186 186 186
186 186 186
186 186 186
186 186 186
186 186 186
186 186 186
186 186 186
186 186 186
186 186 186
186 186 186
186 186 186
186 186 186
186 186 186
186 186 186
186 186 186
186 186 186
186 186 186
186 186 186
186 186 186
186 186 186
186 186 186
186 186 186
186 186 186
186 186 186
186 186 186
186 186 186
186 186 186
186 186 186
186 186 186
186 186 186
186 186 186
186 186 186
186 186 186
186 186 186
186 186 186
186 186 186
186 186 186
186 186 186
186 186 186
186 186 186
186 186 186
186 186 186
186 186 186
186 186 186
186 186 186
186 186 186
186 186 186
186 186 186
186 186 186
186 186 186
186 186 186
186 186 186
186 186 186
186 186 186
186 186 186
186 186 186
186 186 186
186 186 186
186 186 186
186 186 186
186 186 186
186 186 186
186 186 186
186 186 186
186 186 186
186 186 186
186 186 186
186 186 186
186 186 186
186 186 186
186 186 186
186 186 186
186 186 186
186 186 186
186 186 186
186 186 186
186 186 186
186 186 186
186 186 186
186 186 186
186 186 186
186 186 186
186 186 186
186 186 186
186 186 186
186 186 186
186 186 186
186 186 186
186 186 186
186 186 186
186 186 186
186 186 186
186 186 186
186 186 186
186 186 186
186 186 186
186 186 186
186 186 186
186 186 186
186 186 186
186 186 186
186 186 186
186 186 186
186 186 186
186 186 186
186 186 186
186 186 186
186 186 186
186 186 186
186 186 186
186 186 186
186 186 186
186 186 186
186 186 186
186 186 186
186 186 186
186 186 186
186 186 186
186 186 186
186 186 186
186 186 186
186 186 186
186 186 186
186 186 186
186 186 186
186 186 186
186 186 186
186 186 186
186 186 186
186 186 186
186 186 186
186 186 186
186 186 186
186 186 186
186 186 186
186 186 186
186 186 186
186 186 186
186 186 186
186 186 186
186 186 186
186 186 186
186 186 186
186 186 186
186 186 186
186 186 186
186 186 186
186 186 186
186 186 186
186 186 186
186 186 186
186 186 186
186 186 186
186 186 186
186 186 186
186 186 186
186 186 186
186 186 186
186 186 186
186 186 186
186 186 186
186 186 186
186 186 186
186 186 186
186 186 186
186 186 186
186 186 186
186 186 186
186 186 186
186 186 186
186 186 186
186 186 186
186 186 186
186 186 186
186 186 186
186 186 186
186 186 186
186 186 186
186 186 186
186 186 186
186 186 186
186 186 186
186 186 186
186 186 186
186 186 186
186 186 186
186 186 186
186 186 186
186 186 186
186 186 186
186 186 186
186 186 186
186 186 186
186 186 186
186 186 186
186 186 186
186 186 186
186 186 186
186 186 186
186 186 186
186 186 186
186 186 186
186 186 186
186 186 186
186 186 186
186 186 186
186 186 186
186 186 186
186 186 186
186 186 186
186 186 186
186 186 186
186 186 186
186 186 186
186 186 186
186 186 186
186 186 186
186 186 186
186 186 186
186 186 186
186 186 186
186 186 186
186 186 186
186 186 186
186 186 186
186 186 186
186 186 186
186 186 186
186 186 186
186 186 186
186 186 186
186 186 186
186 186 186
186 186 186
186 186 186
186 186 186
186 186 186
186 186 186
186 186 186
186 186 186
186 186 186
186 186 186
186 186 186
186 186 186
186 186 186
186 186 186
186 186 186
186 186 186
186 186 186
186 186 186
186 186 186
186 186 186
186 186 186
186 186 186
186 186 186
186 186 186
186 186 186
186 186 186
186 186 186
186 186 186
186 186 186
186 186 186
186 186 186
186 186 186
186 186 186
186 186 186
186 186 186
186 186 186
186 186 186
186 186 186
186 186 186
186 186 186
186 186 186
186 186 186
186 186 186
186 186 186
186 186 186
186 186 186
186 186 186
186 186 186
186 186 186
186 186 186
186 186 186
186 186 186
186 186 186
186 186 186
186 186 186
186 186 186
186 186 186
186 186 186
186 186 186
186 186 186
186 186 186
186 186 186
186 186 186
186 186 186
186 186 186
186 186 186
186 186 186
186 186 186
186 186 186
186 186 186
186 186 186
186 186 186
186 186 186
186 186 186
186 186 186
186 186 186
186 186 186
186 186 186
186 186 186
186 186 186
186 186 186
186 186 186
186 186 186
186 186 186
186 186 186
186 186 186
186 186 186
186 186 186
186 186 186
186 186 186
186 186 186
186 186 186
186 186 186
186 186 186
186 186 186
186 186 186
186 186 186
186 186 186
186 186 186
186 186 186
186 186 186
186 186 186
186 186 186
186 186 186
186 186 186
186 186 186
186 186 186
186 186 186
186 186 186
186 186 186
186 186 186
186 186 186
186 186 186
186 186 186
186 186 186
186 186 186
186 186 186
186 186 186
186 186 186
186 186 186
186 186 186
186 186 186
186 186 186
186 186 186
186 186 186
186 186 186
186 186 186
186 186 186
186 186 186
186 186 186
186 186 186
186 186 186
186 186 186
186 186 186
186 186 186
186 186 186
186 186 186
186 186 186
186 186 186
186 186 186
186 186 186
186 186 186
186 186 186
186 186 186
186 186 186
186 186 186
186 186 186
186 186 186
186 186 186
186 186 186
186 186 186
186 186 186
186 186 186
186 186 186
186 186 186
186 186 186
186 186 186
186 186 186
186 186 186
186 186 186
186 186 186
186 186 186
186 186 186
186 186 186
186 186 186
186 186 186
186 186 186
186 186 186
186 186 186
186 186 186
186 186 186
186 186 186
186 186 186
186 186 186
186 186 186
186 186 186
186 186 186
186 186 186
186 186 186
186 186 186
186 186 186
186 186 186
186 186 186
186 186 186
186 186 186
186 186 186
186 186 186
186 186 186
186 186 186
186 186 186
186 186 186
186 186 186
186 186 186
186 186 186
186 186 186
186 186 186
186 186 186
186 186 186
186 186 186
186 186 186
186 186 186
186 186 186
186 186 186
186 186 186
186 186 186
186 186 186
186 186 186
186 186 186
186 186 186
186 186 186
186 186 186
186 186 186
186 186 186
186 186 186
186 186 186
186 186 186
186 186 186
186 186 186
186 186 186
186 186 186
186 186 186
186 186 186
186 186 186
186 186 186
186 186 186
186 186 186
186 186 186
186 186 186
186 186 186
186 186 186
186 186 186
186 186 186
186 186 186
186 186 186
186 186 186
186 186 186
186 186 186
186 186 186
186 186 186
186 186 186
186 186 186
186 186 186
186 186 186
186 186 186
186 186 186
186 186 186
186 186 186
186 186 186
186 186 186
186 186 186
186 186 186
186 186 186
186 186 186
186 186 186
186 186 186
186 186 186
186 186 186
186 186 186
186 186 186
186 186 186
186 186 186
186 186 186
186 186 186
186 186 186
186 186 186
186 186 186
186 186 186
186 186 186
186 186 186
186 186 186
186 186 186
186 186 186
186 186 186
186 186 186
186 186 186
186 186 186
186 186 186
186 186 186
186 186 186
186 186 186
186 186 186
186 186 186
186 186 186
186 186 186
186 186 186
186 186 186
186 186 186
186 186 186
186 186 186
186 186 186
186 186 186
186 186 186
186 186 186
186 186 186
186 186 186
186 186 186
186 186 186
186 186 186
186 186 186
186 186 186
186 186 186
186 186 186
186 186 186
186 186 186
186 186 186
186 186 186
186 186 186
186 186 186
186 186 186
186 186 186
186 186 186
186 186 186
186 186 186
186 186 186
186 186 186
186 186 186
186 186 186
186 186 186
186 186 186
186 186 186
186 186 186
186 186 186
186 186 186
186 186 186
186 186 186
186 186 186
186 186 186
186 186 186
186 186 186
186 186 186
186 186 186
186 186 186
186 186 186
186 186 186
186 186 186
186 186 186
186 186 186
186 186 186
186 186 186
186 186 186
186 186 186
186 186 186
186 186 186
186 186 186
186 186 186
186 186 186
186 186 186
186 186 186
186 186 186
186 186 186
186 186 186
186 186 186
186 186 186
186 186 186
186 186 186
186 186 186
186 186 186
186 186 186
186 186 186
186 186 186
186 186 186
186 186 186
186 186 186
186 186 186
186 186 186
186 186 186
186 186 186
186 186 186
186 186 186
186 186 186
186 186 186
186 186 186
186 186 186
186 186 186
186 186 186
186 186 186
186 186 186
186 186 186
186 186 186
186 186 186
186 186 186
186 186 186
186 186 186
186 186 186
186 186 186
186 186 186
186 186 186
186 186 186
186 186 186
186 186 186
186 186 186
186 186 186
186 186 186
186 186 186
186 186 186
186 186 186
186 186 186
186 186 186
186 186 186
186 186 186
186 186 186
186 186 186
186 186 186
186 186 186
186 186 186
186 186 186
186 186 186
186 186 186
186 186 186
186 186 186
186 186 186
186 186 186
186 186 186
186 186 186
186 186 186
186 186 186
186 186 186
186 186 186
186 186 186
186 186 186
186 186 186
186 186 186
186 186 186
186 186 186
186 186 186
186 186 186
186 186 186
186 186 186
186 186 186
186 186 186
186 186 186
186 186 186
186 186 186
186 186 186
186 186 186
186 186 186
186 186 186
186 186 186
186 186 186
186 186 186
186 186 186
186 186 186
186 186 186
186 186 186
186 186 186
186 186 186
186 186 186
186 186 186
186 186 186
186 186 186
186 186 186
186 186 186
186 186 186
186 186 186
186 186 186
186 186 186
186 186 186
186 186 186
186 186 186
186 186 186
186 186 186
186 186 186
186 186 186
186 186 186
186 186 186
186 186 186
186 186 186
186 186 186
186 186 186
186 186 186
186 186 186
186 186 186
186 186 186
186 186 186
186 186 186
186 186 186
186 186 186
186 186 186
186 186 186
186 186 186
186 186 186
186 186 186
186 186 186
186 186 186
186 186 186
186 186 186
186 186 186
186 186 186
186 186 186
186 186 186
186 186 186
186 186 186
186 186 186
186 186 186
186 186 186
186 186 186
186 186 186
186 186 186
186 186 186
186 186 186
186 186 186
186 186 186
186 186 186
186 186 186
186 186 186
186 186 186
186 186 186
186 186 186
186 186 186
186 186 186
186 186 186
186 186 186
186 186 186
186 186 186
186 186 186
186 186 186
186 186 186
186 186 186
186 186 186
186 186 186
186 186 186
186 186 186
186 186 186
186 186 186
186 186 186
186 186 186
186 186 186
186 186 186
186 186 186
186 186 186
186 186 186
186 186 186
186 186 186
186 186 186
186 186 186
186 186 186
186 186 186
186 186 186
186 186 186
186 186 186
186 186 186
186 186 186
186 186 186
186 186 186
186 186 186
186 186 186
186 186 186
186 186 186
186 186 186
186 186 186
186 186 186
186 186 186
186 186 186
186 186 186
186 186 186
186 186 186
186 186 186
186 186 186
186 186 186
186 186 186
186 186 186
186 186 186
186 186 186
186 186 186
186 186 186
186 186 186
186 186 186
186 186 186
186 186 186
186 186 186
186 186 186
186 186 186
186 186 186
186 186 186
186 186 186
186 186 186
186 186 186
186 186 186
186 186 186
186 186 186
186 186 186
186 186 186
186 186 186
186 186 186
186 186 186
186 186 186
186 186 186
186 186 186
186 186 186
186 186 186
186 186 186
186 186 186
186 186 186
186 186 186
186 186 186
186 186 186
186 186 186
186 186 186
186 186 186
186 186 186
186 186 186
186 186 186
186 186 186
186 186 186
186 186 186
186 186 186
186 186 186
186 186 186
186 186 186
186 186 186
186 186 186
186 186 186
186 186 186
186 186 186
186 186 186
186 186 186
186 186 186
186 186 186
186 186 186
186 186 186
186 186 186
186 186 186
186 186 186
186 186 186
186 186 186
186 186 186
186 186 186
186 186 186
186 186 186
186 186 186
186 186 186
186 186 186
186 186 186
186 186 186
186 186 186
186 186 186
186 186 186
186 186 186
186 186 186
186 186 186
186 186 186
186 186 186
186 186 186
186 186 186
186 186 186
186 186 186
186 186 186
186 186 186
186 186 186
186 186 186
186 186 186
186 186 186
186 186 186
186 186 186
186 186 186
186 186 186
186 186 186
186 186 186
186 186 186
186 186 186
186 186 186
186 186 186
186 186 186
186 186 186
186 186 186
186 186 186
186 186 186
186 186 186
186 186 186
186 186 186
186 186 186
186 186 186
186 186 186
186 186 186
186 186 186
186 186 186
186 186 186
186 186 186
186 186 186
186 186 186
186 186 186
186 186 186
186 186 186
186 186 186
186 186 186
186 186 186
186 186 186
186 186 186
186 186 186
186 186 186
186 186 186
186 186 186
186 186 186
186 186 186
186 186 186
186 186 186
186 186 186
186 186 186
186 186 186
186 186 186
186 186 186
186 186 186
186 186 186
186 186 186
186 186 186
186 186 186
186 186 186
186 186 186
186 186 186
186 186 186
186 186 186
186 186 186
186 186 186
186 186 186
186 186 186
186 186 186
186 186 186
186 186 186
186 186 186
186 186 186
186 186 186
186 186 186
186 186 186
186 186 186
186 186 186
186 186 186
186 186 186
186 186 186
186 186 186
186 186 186
186 186 186
186 186 186
186 186 186
186 186 186
186 186 186
186 186 186
186 186 186
186 186 186
186 186 186
186 186 186
186 186 186
186 186 186
186 186 186
186 186 186
186 186 186
186 186 186
186 186 186
186 186 186
186 186 186
186 186 186
186 186 186
186 186 186
186 186 186
186 186 186
186 186 186
186 186 186
186 186 186
186 186 186
186 186 186
186 186 186
186 186 186
186 186 186
186 186 186
186 186 186
186 186 186
186 186 186
186 186 186
186 186 186
186 186 186
186 186 186
186 186 186
186 186 186
186 186 186
186 186 186
186 186 186
186 186 186
186 186 186
186 186 186
186 186 186
186 186 186
186 186 186
186 186 186
186 186 186
186 186 186
186 186 186
186 186 186
186 186 186
186 186 186
186 186 186
186 186 186
186 186 186
186 186 186
186 186 186
186 186 186
186 186 186
186 186 186
186 186 186
186 186 186
186 186 186
186 186 186
186 186 186
186 186 186
186 186 186
186 186 186
186 186 186
186 186 186
186 186 186
186 186 186
186 186 186
186 186 186
186 186 186
186 186 186
186 186 186
186 186 186
186 186 186
186 186 186
186 186 186
186 186 186
186 186 186
186 186 186
186 186 186
186 186 186
186 186 186
186 186 186
186 186 186
186 186 186
186 186 186
186 186 186
186 186 186
186 186 186
186 186 186
186 186 186
186 186 186
186 186 186
186 186 186
186 186 186
186 186 186
186 186 186
186 186 186
186 186 186
186 186 186
186 186 186
186 186 186
186 186 186
186 186 186
186 186 186
186 186 186
186 186 186
186 186 186
186 186 186
186 186 186
186 186 186
186 186 186
186 186 186
186 186 186
186 186 186
186 186 186
186 186 186
186 186 186
186 186 186
186 186 186
186 186 186
186 186 186
186 186 186
186 186 186
186 186 186
186 186 186
186 186 186
186 186 186
186 186 186
186 186 186
186 186 186
186 186 186
186 186 186
186 186 186
186 186 186
186 186 186
186 186 186
186 186 186
186 186 186
186 186 186
186 186 186
186 186 186
186 186 186
186 186 186
186 186 186
186 186 186
186 186 186
186 186 186
186 186 186
186 186 186
186 186 186
186 186 186
186 186 186
186 186 186
186 186 186
186 186 186
186 186 186
186 186 186
186 186 186
186 186 186
186 186 186
186 186 186
186 186 186
186 186 186
186 186 186
186 186 186
186 186 186
186 186 186
186 186 186
186 186 186
186 186 186
186 186 186
186 186 186
186 186 186
186 186 186
186 186 186
186 186 186
186 186 186
186 186 186
186 186 186
186 186 186
186 186 186
186 186 186
186 186 186
186 186 186
186 186 186
186 186 186
186 186 186
186 186 186
186 186 186
186 186 186
186 186 186
186 186 186
186 186 186
186 186 186
186 186 186
186 186 186
186 186 186
186 186 186
186 186 186
186 186 186
186 186 186
186 186 186
186 186 186
186 186 186
186 186 186
186 186 186
186 186 186
186 186 186
186 186 186
186 186 186
186 186 186
186 186 186
186 186 186
186 186 186
186 186 186
186 186 186
186 186 186
186 186 186
186 186 186
186 186 186
186 186 186
186 186 186
186 186 186
186 186 186
186 186 186
186 186 186
186 186 186
186 186 186
186 186 186
186 186 186
186 186 186
186 186 186
186 186 186
186 186 186
186 186 186
186 186 186
186 186 186
186 186 186
186 186 186
186 186 186
186 186 186
186 186 186
186 186 186
186 186 186
186 186 186
186 186 186
186 186 186
186 186 186
186 186 186
186 186 186
186 186 186
186 186 186
186 186 186
186 186 186
186 186 186
186 186 186
186 186 186
186 186 186
186 186 186
186 186 186
186 186 186
186 186 186
186 186 186
186 186 186
186 186 186
186 186 186
186 186 186
186 186 186
186 186 186
186 186 186
186 186 186
186 186 186
186 186 186
186 186 186
186 186 186
186 186 186
186 186 186
186 186 186
186 186 186
186 186 186
186 186 186
186 186 186
186 186 186
186 186 186
186 186 186
186 186 186
186 186 186
186 186 186
186 186 186
186 186 186
186 186 186
186 186 186
186 186 186
186 186 186
186 186 186
186 186 186
186 186 186
186 186 186
186 186 186
186 186 186
186 186 186
186 186 186
186 186 186
186 186 186
186 186 186
186 186 186
186 186 186
186 186 186
186 186 186
186 186 186
186 186 186
186 186 186
186 186 186
186 186 186
186 186 186
186 186 186
186 186 186
186 186 186
186 186 186
186 186 186
186 186 186
186 186 186
186 186 186
186 186 186
186 186 186
186 186 186
186 186 186
186 186 186
186 186 186
186 186 186
186 186 186
186 186 186
186 186 186
186 186 186
186 186 186
186 186 186
186 186 186
186 186 186
186 186 186
186 186 186
186 186 186
186 186 186
186 186 186
186 186 186
186 186 186
186 186 186
186 186 186
186 186 186
186 186 186
186 186 186
186 186 186
186 186 186
186 186 186
186 186 186
186 186 186
186 186 186
186 186 186
186 186 186
186 186 186
186 186 186
186 186 186
186 186 186
186 186 186
186 186 186
186 186 186
186 186 186
186 186 186
186 186 186
186 186 186
186 186 186
186 186 186
186 186 186
186 186 186
186 186 186
186 186 186
186 186 186
186 186 186
186 186 186
186 186 186
186 186 186
186 186 186
186 186 186
186 186 186
186 186 186
186 186 186
186 186 186
186 186 186
186 186 186
186 186 186
186 186 186
186 186 186
186 186 186
186 186 186
186 186 186
186 186 186
186 186 186
186 186 186
186 186 186
186 186 186
186 186 186
186 186 186
186 186 186
186 186 186
186 186 186
186 186 186
186 186 186
186 186 186
186 186 186
186 186 186
186 186 186
186 186 186
186 186 186
186 186 186
186 186 186
186 186 186
186 186 186
186 186 186
186 186 186
186 186 186
186 186 186
186 186 186
186 186 186
186 186 186
186 186 186
186 186 186
186 186 186
186 186 186
186 186 186
186 186 186
186 186 186
186 186 186
186 186 186
186 186 186
186 186 186
186 186 186
186 186 186
186 186 186
186 186 186
186 186 186
186 186 186
186 186 186
186 186 186
186 186 186
186 186 186
186 186 186
186 186 186
186 186 186
186 186 186
186 186 186
186 186 186
186 186 186
186 186 186
186 186 186
186 186 186
186 186 186
186 186 186
186 186 186
186 186 186
186 186 186
186 186 186
186 186 186
186 186 186
186 186 186
186 186 186
186 186 186
186 186 186
186 186 186
186 186 186
186 186 186
186 186 186
186 186 186
186 186 186
186 186 186
186 186 186
186 186 186
186 186 186
186 186 186
186 186 186
186 186 186
186 186 186
186 186 186
186 186 186
186 186 186
186 186 186
186 186 186
186 186 186
186 186 186
186 186 186
186 186 186
186 186 186
186 186 186
186 186 186
186 186 186
186 186 186
186 186 186
186 186 186
186 186 186
186 186 186
186 186 186
186 186 186
186 186 186
186 186 186
186 186 186
186 186 186
186 186 186
186 186 186
186 186 186
186 186 186
186 186 186
186 186 186
186 186 186
186 186 186
186 186 186
186 186 186
186 186 186
186 186 186
186 186 186
186 186 186
186 186 186
186 186 186
186 186 186
186 186 186
186 186 186
186 186 186
186 186 186
186 186 186
186 186 186
186 186 186
186 186 186
186 186 186
186 186 186
186 186 186
186 186 186
186 186 186
186 186 186
186 186 186
186 186 186
186 186 186
186 186 186
186 186 186
186 186 186
186 186 186
186 186 186
186 186 186
186 186 186
186 186 186
186 186 186
186 186 186
186 186 186
186 186 186
186 186 186
186 186 186
186 186 186
186 186 186
186 186 186
186 186 186
186 186 186
186 186 186
186 186 186
186 186 186
186 186 186
186 186 186
186 186 186
186 186 186
186 186 186
186 186 186
186 186 186
186 186 186
186 186 186
186 186 186
186 186 186
186 186 186
186 186 186
186 186 186
186 186 186
186 186 186
186 186 186
186 186 186
186 186 186
186 186 186
186 186 186
186 186 186
186 186 186
186 186 186
186 186 186
186 186 186
186 186 186
186 186 186
186 186 186
186 186 186
186 186 186
186 186 186
186 186 186
186 186 186
186 186 186
186 186 186
186 186 186
186 186 186
186 186 186
186 186 186
186 186 186
186 186 186
186 186 186
186 186 186
186 186 186
186 186 186
186 186 186
186 186 186
186 186 186
186 186 186
186 186 186
186 186 186
186 186 186
186 186 186
186 186 186
186 186 186
186 186 186
186 186 186
186 186 186
186 186 186
186 186 186
186 186 186
186 186 186
186 186 186
186 186 186
186 186 186
186 186 186
186 186 186
186 186 186
186 186 186
186 186 186
186 186 186
186 186 186
186 186 186
186 186 186
186 186 186
186 186 186
186 186 186
186 186 186
186 186 186
186 186 186
186 186 186
186 186 186
186 186 186
186 186 186
186 186 186
186 186 186
186 186 186
186 186 186
186 186 186
186 186 186
186 186 186
186 186 186
186 186 186
186 186 186
186 186 186
186 186 186
186 186 186
186 186 186
186 186 186
186 186 186
186 186 186
186 186 186
186 186 186
186 186 186
186 186 186
186 186 186
186 186 186
186 186 186
186 186 186
186 186 186
186 186 186
186 186 186
186 186 186
186 186 186
186 186 186
186 186 186
186 186 186
186 186 186
186 186 186
186 186 186
186 186 186
186 186 186
186 186 186
186 186 186
186 186 186
186 186 186
186 186 186
186 186 186
186 186 186
186 186 186
186 186 186
186 186 186
186 186 186
186 186 186
186 186 186
186 186 186
186 186 186
186 186 186
186 186 186
186 186 186
186 186 186
186 186 186
186 186 186
186 186 186
186 186 186
186 186 186
186 186 186
186 186 186
186 186 186
186 186 186
186 186 186
186 186 186
186 186 186
186 186 186
186 186 186
186 186 186
186 186 186
186 186 186
186 186 186
186 186 186
186 186 186
186 186 186
186 186 186
186 186 186
186 186 186
186 186 186
186 186 186
186 186 186
186 186 186
186 186 186
186 186 186
186 186 186
186 186 186
186 186 186
186 186 186
186 186 186
186 186 186
186 186 186
186 186 186
186 186 186
186 186 186
186 186 186
186 186 186
186 186 186
186 186 186
186 186 186
186 186 186
186 186 186
186 186 186
186 186 186
186 186 186
186 186 186
186 186 186
186 186 186
186 186 186
186 186 186
186 186 186
186 186 186
186 186 186
186 186 186
186 186 186
186 186 186
186 186 186
186 186 186
186 186 186
186 186 186
186 186 186
186 186 186
186 186 186
186 186 186
186 186 186
186 186 186
186 186 186
186 186 186
186 186 186
186 186 186
186 186 186
186 186 186
186 186 186
186 186 186
186 186 186
186 186 186
186 186 186
186 186 186
186 186 186
186 186 186
186 186 186
186 186 186
186 186 186
186 186 186
186 186 186
186 186 186
186 186 186
186 186 186
186 186 186
186 186 186
186 186 186
186 186 186
186 186 186
186 186 186
186 186 186
186 186 186
186 186 186
186 186 186
186 186 186
186 186 186
186 186 186
186 186 186
186 186 186
186 186 186
186 186 186
186 186 186
186 186 186
186 186 186
186 186 186
186 186 186
186 186 186
186 186 186
186 186 186
186 186 186
186 186 186
186 186 186
186 186 186
186 186 186
186 186 186
186 186 186
186 186 186
186 186 186
186 186 186
186 186 186
186 186 186
186 186 186
186 186 186
186 186 186
186 186 186
186 186 186
186 186 186
186 186 186
186 186 186
186 186 186
186 186 186
186 186 186
186 186 186
186 186 186
186 186 186
186 186 186
186 186 186
186 186 186
186 186 186
186 186 186
186 186 186
186 186 186
186 186 186
186 186 186
186 186 186
186 186 186
186 186 186
186 186 186
186 186 186
186 186 186
186 186 186
186 186 186
186 186 186
186 186 186
186 186 186
186 186 186
186 186 186
186 186 186
186 186 186
186 186 186
186 186 186
186 186 186
186 186 186
186 186 186
186 186 186
186 186 186
186 186 186
186 186 186
186 186 186
186 186 186
186 186 186
186 186 186
186 186 186
186 186 186
186 186 186
186 186 186
186 186 186
186 186 186
186 186 186
186 186 186
186 186 186
186 186 186
186 186 186
186 186 186
186 186 186
186 186 186
186 186 186
186 186 186
186 186 186
186 186 186
186 186 186
186 186 186
186 186 186
186 186 186
186 186 186
186 186 186
186 186 186
186 186 186
186 186 186
186 186 186
186 186 186
186 186 186
186 186 186
186 186 186
186 186 186
186 186 186
186 186 186
186 186 186
186 186 186
186 186 186
186 186 186
186 186 186
186 186 186
186 186 186
186 186 186
186 186 186
186 186 186
186 186 186
186 186 186
186 186 186
186 186 186
186 186 186
186 186 186
186 186 186
186 186 186
186 186 186
186 186 186
186 186 186
186 186 186
186 186 186
186 186 186
186 186 186
186 186 186
186 186 186
186 186 186
186 186 186
186 186 186
186 186 186
186 186 186
186 186 186
186 186 186
186 186 186
186 186 186
186 186 186
186 186 186
186 186 186
186 186 186
186 186 186
186 186 186
186 186 186
186 186 186
186 186 186
186 186 186
186 186 186
186 186 186
186 186 186
186 186 186
186 186 186
186 186 186
186 186 186
186 186 186
186 186 186
186 186 186
186 186 186
186 186 186
186 186 186
186 186 186
186 186 186
186 186 186
186 186 186
186 186 186
186 186 186
186 186 186
186 186 186
186 186 186
186 186 186
186 186 186
186 186 186
186 186 186
186 186 186
186 186 186
186 186 186
186 186 186
186 186 186
186 186 186
186 186 186
186 186 186
186 186 186
186 186 186
186 186 186
186 186 186
186 186 186
186 186 186
186 186 186
186 186 186
186 186 186
186 186 186
186 186 186
186 186 186
186 186 186
186 186 186
186 186 186
186 186 186
186 186 186
186 186 186
186 186 186
186 186 186
186 186 186
186 186 186
186 186 186
186 186 186
186 186 186
186 186 186
186 186 186
186 186 186
186 186 186
186 186 186
186 186 186
186 186 186
186 186 186
186 186 186
186 186 186
186 186 186
186 186 186
186 186 186
186 186 186
186 186 186
186 186 186
186 186 186
186 186 186
186 186 186
186 186 186
186 186 186
186 186 186
186 186 186
186 186 186
186 186 186
186 186 186
186 186 186
186 186 186
186 186 186
186 186 186
186 186 186
186 186 186
186 186 186
186 186 186
186 186 186
186 186 186
186 186 186
186 186 186
186 186 186
186 186 186
186 186 186
186 186 186
186 186 186
186 186 186
186 186 186
186 186 186
186 186 186
186 186 186
186 186 186
186 186 186
186 186 186
186 186 186
186 186 186
186 186 186
186 186 186
186 186 186
186 186 186
186 186 186
186 186 186
186 186 186
186 186 186
186 186 186
186 186 186
186 186 186
186 186 186
186 186 186
186 186 186
186 186 186
186 186 186
186 186 186
186 186 186
186 186 186
186 186 186
186 186 186
186 186 186
186 186 186
186 186 186
186 186 186
186 186 186
186 186 186
186 186 186
186 186 186
186 186 186
186 186 186
186 186 186
186 186 186
186 186 186
186 186 186
186 186 186
186 186 186
186 186 186
186 186 186
186 186 186
186 186 186
186 186 186
186 186 186
186 186 186
186 186 186
186 186 186
186 186 186
186 186 186
186 186 186
186 186 186
186 186 186
186 186 186
186 186 186
186 186 186
186 186 186
186 186 186
186 186 186
186 186 186
186 186 186
186 186 186
186 186 186
186 186 186
186 186 186
186 186 186
186 186 186
186 186 186
186 186 186
186 186 186
186 186 186
186 186 186
186 186 186
186 186 186
186 186 186
186 186 186
186 186 186
186 186 186
186 186 186
186 186 186
186 186 186
186 186 186
186 186 186
186 186 186
186 186 186
186 186 186
186 186 186
186 186 186
186 186 186
186 186 186
186 186 186
186 186 186
186 186 186
186 186 186
186 186 186
186 186 186
186 186 186
186 186 186
186 186 186
186 186 186
186 186 186
186 186 186
186 186 186
186 186 186
186 186 186
186 186 186
186 186 186
186 186 186
186 186 186
186 186 186
186 186 186
186 186 186
186 186 186
186 186 186
186 186 186
186 186 186
186 186 186
186 186 186
186 186 186
186 186 186
186 186 186
186 186 186
186 186 186
186 186 186
186 186 186
186 186 186
186 186 186
186 186 186
186 186 186
186 186 186
186 186 186
186 186 186
186 186 186
186 186 186
186 186 186
186 186 186
186 186 186
186 186 186
186 186 186
186 186 186
186 186 186
186 186 186
186 186 186
186 186 186
186 186 186
186 186 186
186 186 186
186 186 186
186 186 186
186 186 186
186 186 186
186 186 186
186 186 186
186 186 186
186 186 186
186 186 186
186 186 186
186 186 186
186 186 186
186 186 186
186 186 186
186 186 186
186 186 186
186 186 186
186 186 186
186 186 186
186 186 186
186 186 186
186 186 186
186 186 186
186 186 186
186 186 186
186 186 186
186 186 186
186 186 186
186 186 186
186 186 186
186 186 186
186 186 186
186 186 186
186 186 186
186 186 186
186 186 186
186 186 186
186 186 186
186 186 186
186 186 186
186 186 186
186 186 186
186 186 186
186 186 186
186 186 186
186 186 186
186 186 186
186 186 186
186 186 186
186 186 186
186 186 186
186 186 186
186 186 186
186 186 186
186 186 186
186 186 186
186 186 186
186 186 186
186 186 186
186 186 186
186 186 186
186 186 186
186 186 186
186 186 186
186 186 186
186 186 186
186 186 186
186 186 186
186 186 186
186 186 186
186 186 186
186 186 186
186 186 186
186 186 186
186 186 186
186 186 186
186 186 186
186 186 186
186 186 186
186 186 186
186 186 186
186 186 186
186 186 186
186 186 186
186 186 186
186 186 186
186 186 186
186 186 186
186 186 186
186 186 186
186 186 186
186 186 186
186 186 186
186 186 186
186 186 186
186 186 186
186 186 186
186 186 186
186 186 186
186 186 186
186 186 186
186 186 186
186 186 186
186 186 186
186 186 186
186 186 186
186 186 186
186 186 186
186 186 186
186 186 186
186 186 186
186 186 186
186 186 186
186 186 186
186 186 186
186 186 186
186 186 186
186 186 186
186 186 186
186 186 186
186 186 186
186 186 186
186 186 186
186 186 186
186 186 186
186 186 186
186 186 186
186 186 186
186 186 186
186 186 186
186 186 186
186 186 186
186 186 186
186 186 186
186 186 186
186 186 186
186 186 186
186 186 186
186 186 186
186 186 186
186 186 186
186 186 186
186 186 186
186 186 186
186 186 186
186 186 186
186 186 186
186 186 186
186 186 186
186 186 186
186 186 186
186 186 186
186 186 186
186 186 186
186 186 186
186 186 186
186 186 186
186 186 186
186 186 186
186 186 186
186 186 186
186 186 186
186 186 186
186 186 186
186 186 186
186 186 186
186 186 186
186 186 186
186 186 186
186 186 186
186 186 186
186 186 186
186 186 186
186 186 186
186 186 186
186 186 186
186 186 186
186 186 186
186 186 186
186 186 186
186 186 186
186 186 186
186 186 186
186 186 186
186 186 186
186 186 186
186 186 186
186 186 186
186 186 186
186 186 186
186 186 186
186 186 186
186 186 186
186 186 186
186 186 186
186 186 186
186 186 186
186 186 186
186 186 186
186 186 186
186 186 186
186 186 186
186 186 186
186 186 186
186 186 186
186 186 186
186 186 186
186 186 186
186 186 186
186 186 186
186 186 186
186 186 186
186 186 186
186 186 186
186 186 186
186 186 186
186 186 186
186 186 186
186 186 186
186 186 186
186 186 186
186 186 186
186 186 186
186 186 186
186 186 186
186 186 186
186 186 186
186 186 186
186 186 186
186 186 186
186 186 186
186 186 186
186 186 186
186 186 186
186 186 186
186 186 186
186 186 186
186 186 186
186 186 186
186 186 186
186 186 186
186 186 186
186 186 186
186 186 186
186 186 186
186 186 186
186 186 186
186 186 186
186 186 186
186 186 186
186 186 186
186 186 186
186 186 186
186 186 186
186 186 186
186 186 186
186 186 186
186 186 186
186 186 186
186 186 186
186 186 186
186 186 186
186 186 186
186 186 186
186 186 186
186 186 186
186 186 186
186 186 186
186 186 186
186 186 186
186 186 186
186 186 186
186 186 186
186 186 186
186 186 186
186 186 186
186 186 186
186 186 186
186 186 186
186 186 186
186 186 186
186 186 186
186 186 186
186 186 186
186 186 186
186 186 186
186 186 186
186 186 186
186 186 186
186 186 186
186 186 186
186 186 186
186 186 186
186 186 186
186 186 186
186 186 186
186 186 186
186 186 186
186 186 186
186 186 186
186 186 186
186 186 186
186 186 186
186 186 186
186 186 186
186 186 186
186 186 186
186 186 186
186 186 186
186 186 186
186 186 186
186 186 186
186 186 186
186 186 186
186 186 186
186 186 186
186 186 186
186 186 186
186 186 186
186 186 186
186 186 186
186 186 186
186 186 186
186 186 186
186 186 186
186 186 186
186 186 186
186 186 186
186 186 186
186 186 186
186 186 186
186 186 186
186 186 186
186 186 186
186 186 186
186 186 186
186 186 186
186 186 186
186 186 186
186 186 186
186 186 186
186 186 186
186 186 186
186 186 186
186 186 186
186 186 186
186 186 186
186 186 186
186 186 186
186 186 186
186 186 186
186 186 186
186 186 186
186 186 186
186 186 186
186 186 186
186 186 186
186 186 186
186 186 186
186 186 186
186 186 186
186 186 186
186 186 186
186 186 186
186 186 186
186 186 186
186 186 186
186 186 186
186 186 186
186 186 186
186 186 186
186 186 186
186 186 186
186 186 186
186 186 186
186 186 186
186 186 186
186 186 186
186 186 186
186 186 186
186 186 186
186 186 186
186 186 186
186 186 186
186 186 186
186 186 186
186 186 186
186 186 186
186 186 186
186 186 186
186 186 186
186 186 186
186 186 186
186 186 186
186 186 186
186 186 186
186 186 186
186 186 186
186 186 186
186 186 186
186 186 186
186 186 186
186 186 186
186 186 186
186 186 186
186 186 186
186 186 186
186 186 186
186 186 186
186 186 186
186 186 186
186 186 186
186 186 186
186 186 186
186 186 186
186 186 186
186 186 186
186 186 186
186 186 186
186 186 186
186 186 186
186 186 186
186 186 186
186 186 186
186 186 186
186 186 186
186 186 186
186 186 186
186 186 186
186 186 186
186 186 186
186 186 186
186 186 186
186 186 186
186 186 186
186 186 186
186 186 186
186 186 186
186 186 186
186 186 186
186 186 186
186 186 186
186 186 186
186 186 186
186 186 186
186 186 186
186 186 186
186 186 186
186 186 186
186 186 186
186 186 186
186 186 186
186 186 186
186 186 186
186 186 186
186 186 186
186 186 186
186 186 186
186 186 186
186 186 186
186 186 186
186 186 186
186 186 186
186 186 186
186 186 186
186 186 186
186 186 186
186 186 186
186 186 186
186 186 186
186 186 186
186 186 186
186 186 186
186 186 186
186 186 186
186 186 186
186 186 186
186 186 186
186 186 186
186 186 186
186 186 186
186 186 186
186 186 186
186 186 186
186 186 186
186 186 186
186 186 186
186 186 186
186 186 186
186 186 186
186 186 186
186 186 186
186 186 186
186 186 186
186 186 186
186 186 186
186 186 186
186 186 186
186 186 186
186 186 186
186 186 186
186 186 186
186 186 186
186 186 186
186 186 186
186 186 186
186 186 186
186 186 186
186 186 186
186 186 186
186 186 186
186 186 186
186 186 186
186 186 186
186 186 186
186 186 186
186 186 186
186 186 186
186 186 186
186 186 186
186 186 186
186 186 186
186 186 186
186 186 186
186 186 186
186 186 186
186 186 186
186 186 186
186 186 186
186 186 186
186 186 186
186 186 186
186 186 186
186 186 186
186 186 186
186 186 186
186 186 186
186 186 186
186 186 186
186 186 186
186 186 186
186 186 186
186 186 186
186 186 186
186 186 186
186 186 186
186 186 186
186 186 186
186 186 186
186 186 186
186 186 186
186 186 186
186 186 186
186 186 186
186 186 186
186 186 186
186 186 186
186 186 186
186 186 186
186 186 186
186 186 186
186 186 186
186 186 186
186 186 186
186 186 186
186 186 186
186 186 186
186 186 186
186 186 186
186 186 186
186 186 186
186 186 186
186 186 186
186 186 186
186 186 186
186 186 186
186 186 186
186 186 186
186 186 186
186 186 186
186 186 186
186 186 186
186 186 186
186 186 186
186 186 186
186 186 186
186 186 186
186 186 186
186 186 186
186 186 186
186 186 186
186 186 186
186 186 186
186 186 186
186 186 186
186 186 186
186 186 186
186 186 186
186 186 186
186 186 186
186 186 186
186 186 186
186 186 186
186 186 186
186 186 186
186 186 186
186 186 186
186 186 186
186 186 186
186 186 186
186 186 186
186 186 186
186 186 186
186 186 186
186 186 186
186 186 186
186 186 186
186 186 186
186 186 186
186 186 186
186 186 186
186 186 186
186 186 186
186 186 186
186 186 186
186 186 186
186 186 186
186 186 186
186 186 186
186 186 186
186 186 186
186 186 186
186 186 186
186 186 186
186 186 186
186 186 186
186 186 186
186 186 186
186 186 186
186 186 186
186 186 186
186 186 186
186 186 186
186 186 186
186 186 186
186 186 186
186 186 186
186 186 186
186 186 186
186 186 186
186 186 186
186 186 186
186 186 186
186 186 186
186 186 186
186 186 186
186 186 186
186 186 186
186 186 186
186 186 186
186 186 186
186 186 186
186 186 186
186 186 186
186 186 186
186 186 186
186 186 186
186 186 186
186 186 186
186 186 186
186 186 186
186 186 186
186 186 186
186 186 186
186 186 186
186 186 186
186 186 186
186 186 186
186 186 186
186 186 186
186 186 186
186 186 186
186 186 186
186 186 186
186 186 186
186 186 186
186 186 186
186 186 186
186 186 186
186 186 186
186 186 186
186 186 186
186 186 186
186 186 186
186 186 186
186 186 186
186 186 186
186 186 186
186 186 186
186 186 186
186 186 186
186 186 186
186 186 186
186 186 186
186 186 186
186 186 186
186 186 186
186 186 186
186 186 186
186 186 186
186 186 186
186 186 186
186 186 186
186 186 186
186 186 186
186 186 186
186 186 186
186 186 186
186 186 186
186 186 186
186 186 186
186 186 186
186 186 186
186 186 186
186 186 186
186 186 186
186 186 186
186 186 186
186 186 186
186 186 186
186 186 186
186 186 186
186 186 186
186 186 186
186 186 186
186 186 186
186 186 186
186 186 186
186 186 186
186 186 186
186 186 186
186 186 186
186 186 186
186 186 186
186 186 186
186 186 186
186 186 186
186 186 186
186 186 186
186 186 186
186 186 186
186 186 186
186 186 186
186 186 186
186 186 186
186 186 186
186 186 186
186 186 186
186 186 186
186 186 186
186 186 186
186 186 186
186 186 186
186 186 186
186 186 186
186 186 186
186 186 186
186 186 186
186 186 186
186 186 186
186 186 186
186 186 186
186 186 186
186 186 186
186 186 186
186 186 186
186 186 186
186 186 186
186 186 186
186 186 186
186 186 186
186 186 186
186 186 186
186 186 186
186 186 186
186 186 186
186 186 186
186 186 186
186 186 186
186 186 186
186 186 186
186 186 186
186 186 186
186 186 186
186 186 186
186 186 186
186 186 186
186 186 186
186 186 186
186 186 186
186 186 186
186 186 186
186 186 186
186 186 186
186 186 186
186 186 186
186 186 186
186 186 186
186 186 186
186 186 186
186 186 186
186 186 186
186 186 186
186 186 186
186 186 186
186 186 186
186 186 186
186 186 186
186 186 186
186 186 186
186 186 186
186 186 186
186 186 186
186 186 186
186 186 186
186 186 186
186 186 186
186 186 186
186 186 186
186 186 186
186 186 186
186 186 186
186 186 186
186 186 186
186 186 186
186 186 186
186 186 186
186 186 186
186 186 186
186 186 186
186 186 186
186 186 186
186 186 186
186 186 186
186 186 186
186 186 186
186 186 186
186 186 186
186 186 186
186 186 186
186 186 186
186 186 186
186 186 186
186 186 186
186 186 186
186 186 186
186 186 186
186 186 186
186 186 186
186 186 186
186 186 186
186 186 186
186 186 186
186 186 186
186 186 186
186 186 186
186 186 186
186 186 186
186 186 186
186 186 186
186 186 186
186 186 186
186 186 186
186 186 186
186 186 186
186 186 186
186 186 186
186 186 186
186 186 186
186 186 186
186 186 186
186 186 186
186 186 186
186 186 186
186 186 186
186 186 186
186 186 186
186 186 186
186 186 186
186 186 186
186 186 186
186 186 186
186 186 186
186 186 186
186 186 186
186 186 186
186 186 186
186 186 186
186 186 186
186 186 186
186 186 186
186 186 186
186 186 186
186 186 186
186 186 186
186 186 186
186 186 186
186 186 186
186 186 186
186 186 186
186 186 186
186 186 186
186 186 186
186 186 186
186 186 186
186 186 186
186 186 186
186 186 186
186 186 186
186 186 186
186 186 186
186 186 186
186 186 186
186 186 186
186 186 186
186 186 186
186 186 186
186 186 186
186 186 186
186 186 186
186 186 186
186 186 186
186 186 186
186 186 186
186 186 186
186 186 186
186 186 186
186 186 186
186 186 186
186 186 186
186 186 186
186 186 186
186 186 186
186 186 186
186 186 186
186 186 186
186 186 186
186 186 186
186 186 186
186 186 186
186 186 186
186 186 186
186 186 186
186 186 186
186 186 186
186 186 186
186 186 186
186 186 186
186 186 186
186 186 186
186 186 186
186 186 186
186 186 186
186 186 186
186 186 186
186 186 186
186 186 186
186 186 186
186 186 186
186 186 186
186 186 186
186 186 186
186 186 186
186 186 186
186 186 186
186 186 186
186 186 186
186 186 186
186 186 186
186 186 186
186 186 186
186 186 186
186 186 186
186 186 186
186 186 186
186 186 186
186 186 186
186 186 186
186 186 186
186 186 186
186 186 186
186 186 186
186 186 186
186 186 186
186 186 186
186 186 186
186 186 186
186 186 186
186 186 186
186 186 186
186 186 186
186 186 186
186 186 186
186 186 186
186 186 186
186 186 186
186 186 186
186 186 186
186 186 186
186 186 186
186 186 186
186 186 186
186 186 186
186 186 186
186 186 186
186 186 186
186 186 186
186 186 186
186 186 186
186 186 186
186 186 186
186 186 186
186 186 186
186 186 186
186 186 186
186 186 186
186 186 186
186 186 186
186 186 186
186 186 186
186 186 186
186 186 186
186 186 186
186 186 186
186 186 186
186 186 186
186 186 186
186 186 186
186 186 186
186 186 186
186 186 186
186 186 186
186 186 186
186 186 186
186 186 186
186 186 186
186 186 186
186 186 186
186 186 186
186 186 186
186 186 186
186 186 186
186 186 186
186 186 186
186 186 186
186 186 186
186 186 186
186 186 186
186 186 186
186 186 186
186 186 186
186 186 186
186 186 186
186 186 186
186 186 186
186 186 186
186 186 186
186 186 186
186 186 186
186 186 186
186 186 186
186 186 186
186 186 186
186 186 186
186 186 186
186 186 186
186 186 186
186 186 186
186 186 186
186 186 186
186 186 186
186 186 186
186 186 186
186 186 186
186 186 186
186 186 186
186 186 186
186 186 186
186 186 186
186 186 186
186 186 186
186 186 186
186 186 186
186 186 186
186 186 186
186 186 186
186 186 186
186 186 186
186 186 186
186 186 186
186 186 186
186 186 186
186 186 186
186 186 186
186 186 186
186 186 186
186 186 186
186 186 186
186 186 186
186 186 186
186 186 186
186 186 186
186 186 186
186 186 186
186 186 186
186 186 186
186 186 186
186 186 186
186 186 186
186 186 186
186 186 186
186 186 186
186 186 186
186 186 186
186 186 186
186 186 186
186 186 186
186 186 186
186 186 186
186 186 186
186 186 186
186 186 186
186 186 186
186 186 186
186 186 186
186 186 186
186 186 186
186 186 186
186 186 186
186 186 186
186 186 186
186 186 186
186 186 186
186 186 186
186 186 186
186 186 186
186 186 186
186 186 186
186 186 186
186 186 186
186 186 186
186 186 186
186 186 186
186 186 186
186 186 186
186 186 186
186 186 186
186 186 186
186 186 186
186 186 186
186 186 186
186 186 186
186 186 186
186 186 186
186 186 186
186 186 186
186 186 186
186 186 186
186 186 186
186 186 186
186 186 186
186 186 186
186 186 186
186 186 186
186 186 186
186 186 186
186 186 186
186 186 186
186 186 186
186 186 186
186 186 186
186 186 186
186 186 186
186 186 186
186 186 186
186 186 186
186 186 186
186 186 186
186 186 186
186 186 186
186 186 186
186 186 186
186 186 186
186 186 186
186 186 186
186 186 186
186 186 186
186 186 186
186 186 186
186 186 186
186 186 186
186 186 186
186 186 186
186 186 186
186 186 186
186 186 186
186 186 186
186 186 186
186 186 186
186 186 186
186 186 186
186 186 186
186 186 186
186 186 186
186 186 186
186 186 186
186 186 186
186 186 186
186 186 186
186 186 186
186 186 186
186 186 186
186 186 186
186 186 186
186 186 186
186 186 186
186 186 186
186 186 186
186 186 186
186 186 186
186 186 186
186 186 186
186 186 186
186 186 186
186 186 186
186 186 186
186 186 186
186 186 186
186 186 186
186 186 186
186 186 186
186 186 186
186 186 186
186 186 186
186 186 186
186 186 186
186 186 186
186 186 186
186 186 186
186 186 186
186 186 186
186 186 186
186 186 186
186 186 186
186 186 186
186 186 186
186 186 186
186 186 186
186 186 186
186 186 186
186 186 186
186 186 186
186 186 186
186 186 186
186 186 186
186 186 186
186 186 186
186 186 186
186 186 186
186 186 186
186 186 186
186 186 186
186 186 186
186 186 186
186 186 186
186 186 186
186 186 186
186 186 186
186 186 186
186 186 186
186 186 186
186 186 186
186 186 186
186 186 186
186 186 186
186 186 186
186 186 186
186 186 186
186 186 186
186 186 186
186 186 186
186 186 186
186 186 186
186 186 186
186 186 186
186 186 186
186 186 186
186 186 186
186 186 186
186 186 186
186 186 186
186 186 186
186 186 186
186 186 186
186 186 186
186 186 186
186 186 186
186 186 186
186 186 186
186 186 186
186 186 186
186 186 186
186 186 186
186 186 186
186 186 186
186 186 186
186 186 186
186 186 186
186 186 186
186 186 186
186 186 186
186 186 186
186 186 186
186 186 186
186 186 186
186 186 186
186 186 186
186 186 186
186 186 186
186 186 186
186 186 186
186 186 186
186 186 186
186 186 186
186 186 186
186 186 186
186 186 186
186 186 186
186 186 186
186 186 186
186 186 186
186 186 186
186 186 186
186 186 186
186 186 186
186 186 186
186 186 186
186 186 186
186 186 186
186 186 186
186 186 186
186 186 186
186 186 186
186 186 186
186 186 186
186 186 186
186 186 186
186 186 186
186 186 186
186 186 186
186 186 186
186 186 186
186 186 186
186 186 186
186 186 186
186 186 186
186 186 186
186 186 186
186 186 186
186 186 186
186 186 186
186 186 186
186 186 186
186 186 186
186 186 186
186 186 186
186 186 186
186 186 186
186 186 186
186 186 186
186 186 186
186 186 186
186 186 186
186 186 186
186 186 186
186 186 186
186 186 186
186 186 186
186 186 186
186 186 186
186 186 186
186 186 186
186 186 186
186 186 186
186 186 186
186 186 186
186 186 186
186 186 186
186 186 186
186 186 186
186 186 186
186 186 186
186 186 186
186 186 186
186 186 186
186 186 186
186 186 186
186 186 186
186 186 186
186 186 186
186 186 186
186 186 186
186 186 186
186 186 186
186 186 186
186 186 186
186 186 186
186 186 186
186 186 186
186 186 186
186 186 186
186 186 186
186 186 186
186 186 186
186 186 186
186 186 186
186 186 186
186 186 186
186 186 186
186 186 186
186 186 186
186 186 186
186 186 186
186 186 186
186 186 186
186 186 186
186 186 186
186 186 186
186 186 186
186 186 186
186 186 186
186 186 186
186 186 186
186 186 186
186 186 186
186 186 186
186 186 186
186 186 186
186 186 186
186 186 186
186 186 186
186 186 186
186 186 186
186 186 186
186 186 186
186 186 186
186 186 186
186 186 186
186 186 186
186 186 186
186 186 186
186 186 186
186 186 186
186 186 186
186 186 186
186 186 186
186 186 186
186 186 186
186 186 186
186 186 186
186 186 186
186 186 186
186 186 186
186 186 186
186 186 186
186 186 186
186 186 186
186 186 186
186 186 186
186 186 186
186 186 186
186 186 186
186 186 186
186 186 186
186 186 186
186 186 186
186 186 186
186 186 186
186 186 186
186 186 186
186 186 186
186 186 186
186 186 186
186 186 186
186 186 186
186 186 186
186 186 186
186 186 186
186 186 186
186 186 186
186 186 186
186 186 186
186 186 186
186 186 186
186 186 186
186 186 186
186 186 186
186 186 186
186 186 186
186 186 186
186 186 186
186 186 186
186 186 186
186 186 186
186 186 186
186 186 186
186 186 186
186 186 186
186 186 186
186 186 186
186 186 186
186 186 186
186 186 186
186 186 186
186 186 186
186 186 186
186 186 186
186 186 186
186 186 186
186 186 186
186 186 186
186 186 186
186 186 186
186 186 186
186 186 186
186 186 186
186 186 186
186 186 186
186 186 186
186 186 186
186 186 186
186 186 186
186 186 186
186 186 186
186 186 186
186 186 186
186 186 186
186 186 186
186 186 186
186 186 186
186 186 186
186 186 186
186 186 186
186 186 186
186 186 186
186 186 186
186 186 186
186 186 186
186 186 186
186 186 186
186 186 186
186 186 186
186 186 186
186 186 186
186 186 186
186 186 186
186 186 186
186 186 186
186 186 186
186 186 186
186 186 186
186 186 186
186 186 186
186 186 186
186 186 186
186 186 186
186 186 186
186 186 186
186 186 186
186 186 186
186 186 186
186 186 186
186 186 186
186 186 186
186 186 186
186 186 186
186 186 186
186 186 186
186 186 186
186 186 186
186 186 186
186 186 186
186 186 186
186 186 186
186 186 186
186 186 186
186 186 186
186 186 186
186 186 186
186 186 186
186 186 186
186 186 186
186 186 186
186 186 186
186 186 186
186 186 186
186 186 186
186 186 186
186 186 186
186 186 186
186 186 186
186 186 186
186 186 186
186 186 186
186 186 186
186 186 186
186 186 186
186 186 186
186 186 186
186 186 186
186 186 186
186 186 186
186 186 186
186 186 186
186 186 186
186 186 186
186 186 186
186 186 186
186 186 186
186 186 186
186 186 186
186 186 186
186 186 186
186 186 186
186 186 186
186 186 186
186 186 186
186 186 186
186 186 186
186 186 186
186 186 186
186 186 186
186 186 186
186 186 186
186 186 186
186 186 186
186 186 186
186 186 186
186 186 186
186 186 186
186 186 186
186 186 186
186 186 186
186 186 186
186 186 186
186 186 186
186 186 186
186 186 186
186 186 186
186 186 186
186 186 186
186 186 186
186 186 186
186 186 186
186 186 186
186 186 186
186 186 186
186 186 186
186 186 186
186 186 186
186 186 186
186 186 186
186 186 186
186 186 186
186 186 186
186 186 186
186 186 186
186 186 186
186 186 186
186 186 186
186 186 186
186 186 186
186 186 186
186 186 186
186 186 186
186 186 186
186 186 186
186 186 186
186 186 186
186 186 186
186 186 186
186 186 186
186 186 186
186 186 186
186 186 186
186 186 186
186 186 186
186 186 186
186 186 186
186 186 186
186 186 186
186 186 186
186 186 186
186 186 186
186 186 186
186 186 186
186 186 186
186 186 186
186 186 186
186 186 186
186 186 186
186 186 186
186 186 186
186 186 186
186 186 186
186 186 186
186 186 186
186 186 186
186 186 186
186 186 186
186 186 186
186 186 186
186 186 186
186 186 186
186 186 186
186 186 186
186 186 186
186 186 186
186 186 186
186 186 186
186 186 186
186 186 186
186 186 186
186 186 186
186 186 186
186 186 186
186 186 186
186 186 186
186 186 186
186 186 186
186 186 186
186 186 186
186 186 186
186 186 186
186 186 186
186 186 186
186 186 186
186 186 186
186 186 186
186 186 186
186 186 186
186 186 186
186 186 186
186 186 186
186 186 186
186 186 186
186 186 186
186 186 186
186 186 186
186 186 186
186 186 186
186 186 186
186 186 186
186 186 186
186 186 186
186 186 186
186 186 186
186 186 186
186 186 186
186 186 186
186 186 186
186 186 186
186 186 186
186 186 186
186 186 186
186 186 186
186 186 186
186 186 186
186 186 186
186 186 186
186 186 186
186 186 186
186 186 186
186 186 186
186 186 186
186 186 186
186 186 186
186 186 186
186 186 186
186 186 186
186 186 186
186 186 186
186 186 186
186 186 186
186 186 186
186 186 186
186 186 186
186 186 186
186 186 186
186 186 186
186 186 186
186 186 186
186 186 186
186 186 186
186 186 186
186 186 186
186 186 186
186 186 186
186 186 186
186 186 186
186 186 186
186 186 186
186 186 186
186 186 186
186 186 186
186 186 186
186 186 186
186 186 186
186 186 186
186 186 186
186 186 186
186 186 186
186 186 186
186 186 186
186 186 186
186 186 186
186 186 186
186 186 186
186 186 186
186 186 186
186 186 186
186 186 186
186 186 186
186 186 186
186 186 186
186 186 186
186 186 186
186 186 186
186 186 186
186 186 186
186 186 186
186 186 186
186 186 186
186 186 186
186 186 186
186 186 186
186 186 186
186 186 186
186 186 186
186 186 186
186 186 186
186 186 186
186 186 186
186 186 186
186 186 186
186 186 186
186 186 186
186 186 186
186 186 186
186 186 186
186 186 186
186 186 186
186 186 186
186 186 186
186 186 186
186 186 186
186 186 186
186 186 186
186 186 186
186 186 186
186 186 186
186 186 186
186 186 186
186 186 186
186 186 186
186 186 186
186 186 186
186 186 186
186 186 186
186 186 186
186 186 186
186 186 186
186 186 186
186 186 186
186 186 186
186 186 186
186 186 186
186 186 186
186 186 186
186 186 186
186 186 186
186 186 186
186 186 186
186 186 186
186 186 186
186 186 186
186 186 186
186 186 186
186 186 186
186 186 186
186 186 186
186 186 186
186 186 186
186 186 186
186 186 186
186 186 186
186 186 186
186 186 186
186 186 186
186 186 186
186 186 186
186 186 186
186 186 186
186 186 186
186 186 186
186 186 186
186 186 186
186 186 186
186 186 186
186 186 186
186 186 186
186 186 186
186 186 186
186 186 186
186 186 186
186 186 186
186 186 186
186 186 186
186 186 186
186 186 186
186 186 186
186 186 186
186 186 186
186 186 186
186 186 186
186 186 186
186 186 186
186 186 186
186 186 186
186 186 186
186 186 186
186 186 186
186 186 186
186 186 186
186 186 186
186 186 186
186 186 186
186 186 186
186 186 186
186 186 186
186 186 186
186 186 186
186 186 186
186 186 186
186 186 186
186 186 186
186 186 186
186 186 186
186 186 186
186 186 186
186 186 186
186 186 186
186 186 186
186 186 186
186 186 186
186 186 186
186 186 186
186 186 186
186 186 186
186 186 186
186 186 186
186 186 186
186 186 186
186 186 186
186 186 186
186 186 186
186 186 186
186 186 186
186 186 186
186 186 186
186 186 186
186 186 186
186 186 186
186 186 186
186 186 186
186 186 186
186 186 186
186 186 186
186 186 186
186 186 186
186 186 186
186 186 186
186 186 186
186 186 186
186 186 186
186 186 186
186 186 186
186 186 186
186 186 186
186 186 186
186 186 186
186 186 186
186 186 186
186 186 186
186 186 186
186 186 186
186 186 186
186 186 186
186 186 186
186 186 186
186 186 186
186 186 186
186 186 186
186 186 186
186 186 186
186 186 186
186 186 186
186 186 186
186 186 186
186 186 186
186 186 186
186 186 186
186 186 186
186 186 186
186 186 186
186 186 186
186 186 186
186 186 186
186 186 186
186 186 186
186 186 186
186 186 186
186 186 186
186 186 186
186 186 186
186 186 186
186 186 186
186 186 186
186 186 186
186 186 186
186 186 186
186 186 186
186 186 186
186 186 186
186 186 186
186 186 186
186 186 186
186 186 186
186 186 186
186 186 186
186 186 186
186 186 186
186 186 186
186 186 186
186 186 186
186 186 186
186 186 186
186 186 186
186 186 186
186 186 186
186 186 186
186 186 186
186 186 186
186 186 186
186 186 186
186 186 186
186 186 186
186 186 186
186 186 186
186 186 186
186 186 186
186 186 186
186 186 186
186 186 186
186 186 186
186 186 186
186 186 186
186 186 186
186 186 186
186 186 186
186 186 186
186 186 186
186 186 186
186 186 186
186 186 186
186 186 186
186 186 186
186 186 186
186 186 186
186 186 186
186 186 186
186 186 186
186 186 186
186 186 186
186 186 186
186 186 186
186 186 186
186 186 186
186 186 186
186 186 186
186 186 186
186 186 186
186 186 186
186 186 186
186 186 186
186 186 186
186 186 186
186 186 186
186 186 186
186 186 186
186 186 186
186 186 186
186 186 186
186 186 186
186 186 186
186 186 186
186 186 186
186 186 186
186 186 186
186 186 186
186 186 186
186 186 186
186 186 186
186 186 186
186 186 186
186 186 186
186 186 186
186 186 186
186 186 186
186 186 186
186 186 186
186 186 186
186 186 186
186 186 186
186 186 186
186 186 186
186 186 186
186 186 186
186 186 186
186 186 186
186 186 186
186 186 186
186 186 186
186 186 186
186 186 186
186 186 186
186 186 186
186 186 186
186 186 186
186 186 186
186 186 186
186 186 186
186 186 186
186 186 186
186 186 186
186 186 186
186 186 186
186 186 186
186 186 186
186 186 186
186 186 186
186 186 186
186 186 186
186 186 186
186 186 186
186 186 186
186 186 186
186 186 186
186 186 186
186 186 186
186 186 186
186 186 186
186 186 186
186 186 186
186 186 186
186 186 186
186 186 186
186 186 186
186 186 186
186 186 186
186 186 186
186 186 186
186 186 186
186 186 186
186 186 186
186 186 186
186 186 186
186 186 186
186 186 186
186 186 186
186 186 186
186 186 186
186 186 186
186 186 186
186 186 186
186 186 186
186 186 186
186 186 186
186 186 186
186 186 186
186 186 186
186 186 186
186 186 186
186 186 186
186 186 186
186 186 186
186 186 186
186 186 186
186 186 186
186 186 186
186 186 186
186 186 186
186 186 186
186 186 186
186 186 186
186 186 186
186 186 186
186 186 186
186 186 186
186 186 186
186 186 186
186 186 186
186 186 186
186 186 186
186 186 186
186 186 186
186 186 186
186 186 186
186 186 186
186 186 186
186 186 186
186 186 186
186 186 186
186 186 186
186 186 186
186 186 186
186 186 186
186 186 186
186 186 186
186 186 186
186 186 186
186 186 186
186 186 186
186 186 186
186 186 186
186 186 186
186 186 186
186 186 186
186 186 186
186 186 186
186 186 186
186 186 186
186 186 186
186 186 186
186 186 186
186 186 186
186 186 186
186 186 186
186 186 186
186 186 186
186 186 186
186 186 186
186 186 186
186 186 186
186 186 186
186 186 186
186 186 186
186 186 186
186 186 186
186 186 186
186 186 186
186 186 186
186 186 186
186 186 186
186 186 186
186 186 186
186 186 186
186 186 186
186 186 186
186 186 186
186 186 186
186 186 186
186 186 186
186 186 186
186 186 186
186 186 186
186 186 186
186 186 186
186 186 186
186 186 186
186 186 186
186 186 186
186 186 186
186 186 186
186 186 186
186 186 186
186 186 186
186 186 186
186 186 186
186 186 186
186 186 186
186 186 186
186 186 186
186 186 186
186 186 186
186 186 186
186 186 186
186 186 186
186 186 186
186 186 186
186 186 186
186 186 186
186 186 186
186 186 186
186 186 186
186 186 186
186 186 186
186 186 186
186 186 186
186 186 186
186 186 186
186 186 186
186 186 186
186 186 186
186 186 186
186 186 186
186 186 186
186 186 186
186 186 186
186 186 186
186 186 186
186 186 186
186 186 186
186 186 186
186 186 186
186 186 186
186 186 186
186 186 186
186 186 186
186 186 186
186 186 186
186 186 186
186 186 186
186 186 186
186 186 186
186 186 186
186 186 186
186 186 186
186 186 186
186 186 186
186 186 186
186 186 186
186 186 186
186 186 186
186 186 186
186 186 186
186 186 186
186 186 186
186 186 186
186 186 186
186 186 186
186 186 186
186 186 186
186 186 186
186 186 186
186 186 186
186 186 186
186 186 186
186 186 186
186 186 186
186 186 186
186 186 186
186 186 186
186 186 186
186 186 186
186 186 186
186 186 186
186 186 186
186 186 186
186 186 186
186 186 186
186 186 186
186 186 186
186 186 186
186 186 186
186 186 186
186 186 186
186 186 186
186 186 186
186 186 186
186 186 186
186 186 186
186 186 186
186 186 186
186 186 186
186 186 186
186 186 186
186 186 186
186 186 186
186 186 186
186 186 186
186 186 186
186 186 186
186 186 186
186 186 186
186 186 186
186 186 186
186 186 186
186 186 186
186 186 186
186 186 186
186 186 186
186 186 186
186 186 186
186 186 186
186 186 186
186 186 186
186 186 186
186 186 186
186 186 186
186 186 186
186 186 186
186 186 186
186 186 186
186 186 186
186 186 186
186 186 186
186 186 186
186 186 186
186 186 186
186 186 186
186 186 186
186 186 186
186 186 186
186 186 186
186 186 186
186 186 186
186 186 186
186 186 186
186 186 186
186 186 186
186 186 186
186 186 186
186 186 186
186 186 186
186 186 186
186 186 186
186 186 186
186 186 186
186 186 186
186 186 186
186 186 186
186 186 186
186 186 186
186 186 186
186 186 186
186 186 186
186 186 186
186 186 186
186 186 186
186 186 186
186 186 186
186 186 186
186 186 186
186 186 186
186 186 186
186 186 186
186 186 186
186 186 186
186 186 186
186 186 186
186 186 186
186 186 186
186 186 186
186 186 186
186 186 186
186 186 186
186 186 186
186 186 186
186 186 186
186 186 186
186 186 186
186 186 186
186 186 186
186 186 186
186 186 186
186 186 186
186 186 186
186 186 186
186 186 186
186 186 186
186 186 186
186 186 186
186 186 186
186 186 186
186 186 186
186 186 186
186 186 186
186 186 186
186 186 186
186 186 186
186 186 186
186 186 186
186 186 186
186 186 186
186 186 186
186 186 186
186 186 186
186 186 186
186 186 186
186 186 186
186 186 186
186 186 186
186 186 186
186 186 186
186 186 186
186 186 186
186 186 186
186 186 186
186 186 186
186 186 186
186 186 186
186 186 186
186 186 186
186 186 186
186 186 186
186 186 186
186 186 186
186 186 186
186 186 186
186 186 186
186 186 186
186 186 186
186 186 186
186 186 186
186 186 186
186 186 186
186 186 186
186 186 186
186 186 186
186 186 186
186 186 186
186 186 186
186 186 186
186 186 186
186 186 186
186 186 186
186 186 186
186 186 186
186 186 186
186 186 186
186 186 186
186 186 186
186 186 186
186 186 186
186 186 186
186 186 186
186 186 186
186 186 186
186 186 186
186 186 186
186 186 186
186 186 186
186 186 186
186 186 186
186 186 186
186 186 186
186 186 186
186 186 186
186 186 186
186 186 186
186 186 186
186 186 186
186 186 186
186 186 186
186 186 186
186 186 186
186 186 186
186 186 186
186 186 186
186 186 186
186 186 186
186 186 186
186 186 186
186 186 186
186 186 186
186 186 186
186 186 186
186 186 186
186 186 186
186 186 186
186 186 186
186 186 186
186 186 186
186 186 186
186 186 186
186 186 186
186 186 186
186 186 186
186 186 186
186 186 186
186 186 186
186 186 186
186 186 186
186 186 186
186 186 186
186 186 186
186 186 186
186 186 186
186 186 186
186 186 186
186 186 186
186 186 186
186 186 186
186 186 186
186 186 186
186 186 186
186 186 186
186 186 186
186 186 186
186 186 186
186 186 186
186 186 186
186 186 186
186 186 186
186 186 186
186 186 186
186 186 186
186 186 186
186 186 186
186 186 186
186 186 186
186 186 186
186 186 186
186 186 186
186 186 186
186 186 186
186 186 186
186 186 186
186 186 186
186 186 186
186 186 186
186 186 186
186 186 186
186 186 186
186 186 186
186 186 186
186 186 186
186 186 186
186 186 186
186 186 186
186 186 186
186 186 186
186 186 186
186 186 186
186 186 186
186 186 186
186 186 186
186 186 186
186 186 186
186 186 186
186 186 186
186 186 186
186 186 186
186 186 186
186 186 186
186 186 186
186 186 186
186 186 186
186 186 186
186 186 186
186 186 186
186 186 186
186 186 186
186 186 186
186 186 186
186 186 186
186 186 186
186 186 186
186 186 186
186 186 186
186 186 186
186 186 186
186 186 186
186 186 186
186 186 186
186 186 186
186 186 186
186 186 186
186 186 186
186 186 186
186 186 186
186 186 186
186 186 186
186 186 186
186 186 186
186 186 186
186 186 186
186 186 186
186 186 186
186 186 186
186 186 186
186 186 186
186 186 186
186 186 186
186 186 186
186 186 186
186 186 186
186 186 186
186 186 186
186 186 186
186 186 186
186 186 186
186 186 186
186 186 186
186 186 186
186 186 186
186 186 186
186 186 186
186 186 186
186 186 186
186 186 186
186 186 186
186 186 186
186 186 186
186 186 186
186 186 186
186 186 186
186 186 186
186 186 186
186 186 186
186 186 186
186 186 186
186 186 186
186 186 186
186 186 186
186 186 186
186 186 186
186 186 186
186 186 186
186 186 186
186 186 186
186 186 186
186 186 186
186 186 186
186 186 186
186 186 186
186 186 186
186 186 186
186 186 186
186 186 186
186 186 186
186 186 186
186 186 186
186 186 186
186 186 186
186 186 186
186 186 186
186 186 186
186 186 186
186 186 186
186 186 186
186 186 186
186 186 186
186 186 186
186 186 186
186 186 186
186 186 186
186 186 186
186 186 186
186 186 186
186 186 186
186 186 186
186 186 186
186 186 186
186 186 186
186 186 186
186 186 186
186 186 186
186 186 186
186 186 186
186 186 186
186 186 186
186 186 186
186 186 186
186 186 186
186 186 186
186 186 186
186 186 186
186 186 186
186 186 186
186 186 186
186 186 186
186 186 186
186 186 186
186 186 186
186 186 186
186 186 186
186 186 186
186 186 186
186 186 186
186 186 186
186 186 186
186 186 186
186 186 186
186 186 186
186 186 186
186 186 186
186 186 186
186 186 186
186 186 186
186 186 186
186 186 186
186 186 186
186 186 186
186 186 186
186 186 186
186 186 186
186 186 186
186 186 186
186 186 186
186 186 186
186 186 186
186 186 186
186 186 186
186 186 186
186 186 186
186 186 186
186 186 186
186 186 186
186 186 186
186 186 186
186 186 186
186 186 186
186 186 186
186 186 186
186 186 186
186 186 186
186 186 186
186 186 186
186 186 186
186 186 186
186 186 186
186 186 186
186 186 186
186 186 186
186 186 186
186 186 186
186 186 186
186 186 186
186 186 186
186 186 186
186 186 186
186 186 186
186 186 186
186 186 186
186 186 186
186 186 186
186 186 186
186 186 186
186 186 186
186 186 186
186 186 186
186 186 186
186 186 186
186 186 186
186 186 186
186 186 186
186 186 186
186 186 186
186 186 186
186 186 186
186 186 186
186 186 186
186 186 186
186 186 186
186 186 186
186 186 186
186 186 186
186 186 186
186 186 186
186 186 186
186 186 186
186 186 186
186 186 186
186 186 186
186 186 186
186 186 186
186 186 186
186 186 186
186 186 186
186 186 186
186 186 186
186 186 186
186 186 186
186 186 186
186 186 186
186 186 186
186 186 186
186 186 186
186 186 186
186 186 186
186 186 186
186 186 186
186 186 186
186 186 186
186 186 186
186 186 186
186 186 186
186 186 186
186 186 186
186 186 186
186 186 186
186 186 186
186 186 186
186 186 186
186 186 186
186 186 186
186 186 186
186 186 186
186 186 186
186 186 186
186 186 186
186 186 186
186 186 186
186 186 186
186 186 186
186 186 186
186 186 186
186 186 186
186 186 186
186 186 186
186 186 186
186 186 186
186 186 186
186 186 186
186 186 186
186 186 186
186 186 186
186 186 186
186 186 186
186 186 186
186 186 186
186 186 186
186 186 186
186 186 186
186 186 186
186 186 186
186 186 186
186 186 186
186 186 186
186 186 186
186 186 186
186 186 186
186 186 186
186 186 186
186 186 186
186 186 186
186 186 186
186 186 186
186 186 186
186 186 186
186 186 186
186 186 186
186 186 186
186 186 186
186 186 186
186 186 186
186 186 186
186 186 186
186 186 186
186 186 186
186 186 186
186 186 186
186 186 186
186 186 186
186 186 186
186 186 186
186 186 186
186 186 186
186 186 186
186 186 186
186 186 186
186 186 186
186 186 186
186 186 186
186 186 186
186 186 186
186 186 186
186 186 186
186 186 186
186 186 186
186 186 186
186 186 186
186 186 186
186 186 186
186 186 186
186 186 186
186 186 186
186 186 186
186 186 186
186 186 186
186 186 186
186 186 186
186 186 186
186 186 186
186 186 186
186 186 186
186 186 186
186 186 186
186 186 186
186 186 186
186 186 186
186 186 186
186 186 186
186 186 186
186 186 186
186 186 186
186 186 186
186 186 186
186 186 186
186 186 186
186 186 186
186 186 186
186 186 186
186 186 186
186 186 186
186 186 186
186 186 186
186 186 186
186 186 186
186 186 186
186 186 186
186 186 186
186 186 186
186 186 186
186 186 186
186 186 186
186 186 186
186 186 186
186 186 186
186 186 186
186 186 186
186 186 186
186 186 186
186 186 186
186 186 186
186 186 186
186 186 186
186 186 186
186 186 186
186 186 186
186 186 186
186 186 186
186 186 186
186 186 186
186 186 186
186 186 186
186 186 186
186 186 186
186 186 186
186 186 186
186 186 186
186 186 186
186 186 186
186 186 186
186 186 186
186 186 186
186 186 186
186 186 186
186 186 186
186 186 186
186 186 186
186 186 186
186 186 186
186 186 186
186 186 186
186 186 186
186 186 186
186 186 186
186 186 186
186 186 186
186 186 186
186 186 186
186 186 186
186 186 186
186 186 186
186 186 186
186 186 186
186 186 186
186 186 186
186 186 186
186 186 186
186 186 186
186 186 186
186 186 186
186 186 186
186 186 186
186 186 186
186 186 186
186 186 186
186 186 186
186 186 186
186 186 186
186 186 186
186 186 186
186 186 186
186 186 186
186 186 186
186 186 186
186 186 186
186 186 186
186 186 186
186 186 186
186 186 186
186 186 186
186 186 186
186 186 186
186 186 186
186 186 186
186 186 186
186 186 186
186 186 186
186 186 186
186 186 186
186 186 186
186 186 186
186 186 186
186 186 186
186 186 186
186 186 186
186 186 186
186 186 186
186 186 186
186 186 186
186 186 186
186 186 186
186 186 186
186 186 186
186 186 186
186 186 186
186 186 186
186 186 186
186 186 186
186 186 186
186 186 186
186 186 186
186 186 186
186 186 186
186 186 186
186 186 186
186 186 186
186 186 186
186 186 186
186 186 186
186 186 186
186 186 186
186 186 186
186 186 186
186 186 186
186 186 186
186 186 186
186 186 186
186 186 186
186 186 186
186 186 186
186 186 186
186 186 186
186 186 186
186 186 186
186 186 186
186 186 186
186 186 186
186 186 186
186 186 186
186 186 186
186 186 186
186 186 186
186 186 186
186 186 186
186 186 186
186 186 186
186 186 186
186 186 186
186 186 186
186 186 186
186 186 186
186 186 186
186 186 186
186 186 186
186 186 186
186 186 186
186 186 186
186 186 186
186 186 186
186 186 186
186 186 186
186 186 186
186 186 186
186 186 186
186 186 186
186 186 186
186 186 186
186 186 186
186 186 186
186 186 186
186 186 186
186 186 186
186 186 186
186 186 186
186 186 186
186 186 186
186 186 186
186 186 186
186 186 186
186 186 186
186 186 186
186 186 186
186 186 186
186 186 186
186 186 186
186 186 186
186 186 186
186 186 186
186 186 186
186 186 186
186 186 186
186 186 186
186 186 186
186 186 186
186 186 186
186 186 186
186 186 186
186 186 186
186 186 186
186 186 186
186 186 186
186 186 186
186 186 186
186 186 186
186 186 186
186 186 186
186 186 186
186 186 186
186 186 186
186 186 186
186 186 186
186 186 186
186 186 186
186 186 186
186 186 186
186 186 186
186 186 186
186 186 186
186 186 186
186 186 186
186 186 186
186 186 186
186 186 186
186 186 186
186 186 186
186 186 186
186 186 186
186 186 186
186 186 186
186 186 186
186 186 186
186 186 186
186 186 186
186 186 186
186 186 186
186 186 186
186 186 186
186 186 186
186 186 186
186 186 186
186 186 186
186 186 186
186 186 186
186 186 186
186 186 186
186 186 186
186 186 186
186 186 186
186 186 186
186 186 186
186 186 186
186 186 186
186 186 186
186 186 186
186 186 186
186 186 186
186 186 186
186 186 186
186 186 186
186 186 186
186 186 186
186 186 186
186 186 186
186 186 186
186 186 186
186 186 186
186 186 186
186 186 186
186 186 186
186 186 186
186 186 186
186 186 186
186 186 186
186 186 186
186 186 186
186 186 186
186 186 186
186 186 186
186 186 186
186 186 186
186 186 186
186 186 186
186 186 186
186 186 186
186 186 186
186 186 186
186 186 186
186 186 186
186 186 186
186 186 186
186 186 186
186 186 186
186 186 186
186 186 186
186 186 186
186 186 186
186 186 186
186 186 186
186 186 186
186 186 186
186 186 186
186 186 186
186 186 186
186 186 186
186 186 186
186 186 186
186 186 186
186 186 186
186 186 186
186 186 186
186 186 186
186 186 186
186 186 186
186 186 186
186 186 186
186 186 186
186 186 186
186 186 186
186 186 186
186 186 186
186 186 186
186 186 186
186 186 186
186 186 186
186 186 186
186 186 186
186 186 186
186 186 186
186 186 186
186 186 186
186 186 186
186 186 186
186 186 186
186 186 186
186 186 186
186 186 186
186 186 186
186 186 186
186 186 186
186 186 186
186 186 186
186 186 186
186 186 186
186 186 186
186 186 186
186 186 186
186 186 186
186 186 186
186 186 186
186 186 186
186 186 186
186 186 186
186 186 186
186 186 186
186 186 186
186 186 186
186 186 186
186 186 186
186 186 186
186 186 186
186 186 186
186 186 186
186 186 186
186 186 186
186 186 186
186 186 186
186 186 186
186 186 186
186 186 186
186 186 186
186 186 186
186 186 186
186 186 186
186 186 186
186 186 186
186 186 186
186 186 186
186 186 186
186 186 186
186 186 186
186 186 186
186 186 186
186 186 186
186 186 186
186 186 186
186 186 186
186 186 186
186 186 186
186 186 186
186 186 186
186 186 186
186 186 186
186 186 186
186 186 186
186 186 186
186 186 186
186 186 186
186 186 186
186 186 186
186 186 186
186 186 186
186 186 186
186 186 186
186 186 186
186 186 186
186 186 186
186 186 186
186 186 186
186 186 186
186 186 186
186 186 186
186 186 186
186 186 186
186 186 186
186 186 186
186 186 186
186 186 186
186 186 186
186 186 186
186 186 186
186 186 186
186 186 186
186 186 186
186 186 186
186 186 186
186 186 186
186 186 186
186 186 186
186 186 186
186 186 186
186 186 186
186 186 186
186 186 186
186 186 186
186 186 186
186 186 186
186 186 186
186 186 186
186 186 186
186 186 186
186 186 186
186 186 186
186 186 186
186 186 186
186 186 186
186 186 186
186 186 186
186 186 186
186 186 186
186 186 186
186 186 186
186 186 186
186 186 186
186 186 186
186 186 186
186 186 186
186 186 186
186 186 186
186 186 186
186 186 186
186 186 186
186 186 186
186 186 186
186 186 186
186 186 186
186 186 186
186 186 186
186 186 186
186 186 186
186 186 186
186 186 186
186 186 186
186 186 186
186 186 186
186 186 186
186 186 186
186 186 186
186 186 186
186 186 186
186 186 186
186 186 186
186 186 186
186 186 186
186 186 186
186 186 186
186 186 186
186 186 186
186 186 186
186 186 186
186 186 186
186 186 186
186 186 186
186 186 186
186 186 186
186 186 186
186 186 186
186 186 186
186 186 186
186 186 186
186 186 186
186 186 186
186 186 186
186 186 186
186 186 186
186 186 186
186 186 186
186 186 186
186 186 186
186 186 186
186 186 186
186 186 186
186 186 186
186 186 186
186 186 186
186 186 186
186 186 186
186 186 186
186 186 186
186 186 186
186 186 186
186 186 186
186 186 186
186 186 186
186 186 186
186 186 186
186 186 186
186 186 186
186 186 186
186 186 186
186 186 186
186 186 186
186 186 186
186 186 186
186 186 186
186 186 186
186 186 186
186 186 186
186 186 186
186 186 186
186 186 186
186 186 186
186 186 186
186 186 186
186 186 186
186 186 186
186 186 186
186 186 186
186 186 186
186 186 186
186 186 186
186 186 186
186 186 186
186 186 186
186 186 186
186 186 186
186 186 186
186 186 186
186 186 186
186 186 186
186 186 186
186 186 186
186 186 186
186 186 186
186 186 186
186 186 186
186 186 186
186 186 186
186 186 186
186 186 186
186 186 186
186 186 186
186 186 186
186 186 186
186 186 186
186 186 186
186 186 186
186 186 186
186 186 186
186 186 186
186 186 186
186 186 186
186 186 186
186 186 186
186 186 186
186 186 186
186 186 186
186 186 186
186 186 186
186 186 186
186 186 186
186 186 186
186 186 186
186 186 186
186 186 186
186 186 186
186 186 186
186 186 186
186 186 186
186 186 186
186 186 186
186 186 186
186 186 186
186 186 186
186 186 186
186 186 186
186 186 186
186 186 186
186 186 186
186 186 186
186 186 186
186 186 186
186 186 186
186 186 186
186 186 186
186 186 186
186 186 186
186 186 186
186 186 186
186 186 186
186 186 186
186 186 186
186 186 186
186 186 186
186 186 186
186 186 186
186 186 186
186 186 186
186 186 186
186 186 186
186 186 186
186 186 186
186 186 186
186 186 186
186 186 186
186 186 186
186 186 186
186 186 186
186 186 186
186 186 186
186 186 186
186 186 186
186 186 186
186 186 186
186 186 186
186 186 186
186 186 186
186 186 186
186 186 186
186 186 186
186 186 186
186 186 186
186 186 186
186 186 186
186 186 186
186 186 186
186 186 186
186 186 186
186 186 186
186 186 186
186 186 186
186 186 186
186 186 186
186 186 186
186 186 186
186 186 186
186 186 186
186 186 186
186 186 186
186 186 186
186 186 186
186 186 186
186 186 186
186 186 186
186 186 186
186 186 186
186 186 186
186 186 186
186 186 186
186 186 186
186 186 186
186 186 186
186 186 186
186 186 186
186 186 186
186 186 186
186 186 186
186 186 186
186 186 186
186 186 186
186 186 186
186 186 186
186 186 186
186 186 186
186 186 186
186 186 186
186 186 186
186 186 186
186 186 186
186 186 186
186 186 186
186 186 186
186 186 186
186 186 186
186 186 186
186 186 186
186 186 186
186 186 186
186 186 186
186 186 186
186 186 186
186 186 186
186 186 186
186 186 186
186 186 186
186 186 186
186 186 186
186 186 186
186 186 186
186 186 186
186 186 186
186 186 186
186 186 186
186 186 186
186 186 186
186 186 186
186 186 186
186 186 186
186 186 186
186 186 186
186 186 186
186 186 186
186 186 186
186 186 186
186 186 186
186 186 186
186 186 186
186 186 186
186 186 186
186 186 186
186 186 186
186 186 186
186 186 186
186 186 186
186 186 186
186 186 186
186 186 186
186 186 186
186 186 186
186 186 186
186 186 186
186 186 186
186 186 186
186 186 186
186 186 186
186 186 186
186 186 186
186 186 186
186 186 186
186 186 186
186 186 186
186 186 186
186 186 186
186 186 186
186 186 186
186 186 186
186 186 186
186 186 186
186 186 186
186 186 186
186 186 186
186 186 186
186 186 186
186 186 186
186 186 186
186 186 186
186 186 186
186 186 186
186 186 186
186 186 186
186 186 186
186 186 186
186 186 186
186 186 186
186 186 186
186 186 186
186 186 186
186 186 186
186 186 186
186 186 186
186 186 186
186 186 186
186 186 186
186 186 186
186 186 186
186 186 186
186 186 186
186 186 186
186 186 186
186 186 186
186 186 186
186 186 186
186 186 186
186 186 186
186 186 186
186 186 186
186 186 186
186 186 186
186 186 186
186 186 186
186 186 186
186 186 186
186 186 186
186 186 186
186 186 186
186 186 186
186 186 186
186 186 186
186 186 186
186 186 186
186 186 186
186 186 186
186 186 186
186 186 186
186 186 186
186 186 186
186 186 186
186 186 186
186 186 186
186 186 186
186 186 186
186 186 186
186 186 186
186 186 186
186 186 186
186 186 186
186 186 186
186 186 186
186 186 186
186 186 186
186 186 186
186 186 186
186 186 186
186 186 186
186 186 186
186 186 186
186 186 186
186 186 186
186 186 186
186 186 186
186 186 186
186 186 186
186 186 186
186 186 186
186 186 186
186 186 186
186 186 186
186 186 186
186 186 186
186 186 186
186 186 186
186 186 186
186 186 186
186 186 186
186 186 186
186 186 186
186 186 186
186 186 186
186 186 186
186 186 186
186 186 186
186 186 186
186 186 186
186 186 186
186 186 186
186 186 186
186 186 186
186 186 186
186 186 186
186 186 186
186 186 186
186 186 186
186 186 186
186 186 186
186 186 186
186 186 186
186 186 186
186 186 186
186 186 186
186 186 186
186 186 186
186 186 186
186 186 186
186 186 186
186 186 186
186 186 186
186 186 186
186 186 186
186 186 186
186 186 186
186 186 186
186 186 186
186 186 186
186 186 186
186 186 186
186 186 186
186 186 186
186 186 186
186 186 186
186 186 186
186 186 186
186 186 186
186 186 186
186 186 186
186 186 186
186 186 186
186 186 186
186 186 186
186 186 186
186 186 186
186 186 186
186 186 186
186 186 186
186 186 186
186 186 186
186 186 186
186 186 186
186 186 186
186 186 186
186 186 186
186 186 186
186 186 186
186 186 186
186 186 186
186 186 186
186 186 186
186 186 186
186 186 186
186 186 186
186 186 186
186 186 186
186 186 186
186 186 186
186 186 186
186 186 186
186 186 186
186 186 186
186 186 186
186 186 186
186 186 186
186 186 186
186 186 186
186 186 186
186 186 186
186 186 186
186 186 186
186 186 186
186 186 186
186 186 186
186 186 186
186 186 186
186 186 186
186 186 186
186 186 186
186 186 186
186 186 186
186 186 186
186 186 186
186 186 186
186 186 186
186 186 186
186 186 186
186 186 186
186 186 186
186 186 186
186 186 186
186 186 186
186 186 186
186 186 186
186 186 186
186 186 186
186 186 186
186 186 186
186 186 186
186 186 186
186 186 186
186 186 186
186 186 186
186 186 186
186 186 186
186 186 186
186 186 186
186 186 186
186 186 186
186 186 186
186 186 186
186 186 186
186 186 186
186 186 186
186 186 186
186 186 186
186 186 186
186 186 186
186 186 186
186 186 186
186 186 186
186 186 186
186 186 186
186 186 186
186 186 186
186 186 186
186 186 186
186 186 186
186 186 186
186 186 186
186 186 186
186 186 186
186 186 186
186 186 186
186 186 186
186 186 186
186 186 186
186 186 186
186 186 186
186 186 186
186 186 186
186 186 186
186 186 186
186 186 186
186 186 186
186 186 186
186 186 186
186 186 186
186 186 186
186 186 186
186 186 186
186 186 186
186 186 186
186 186 186
186 186 186
186 186 186
186 186 186
186 186 186
186 186 186
186 186 186
186 186 186
186 186 186
186 186 186
186 186 186
186 186 186
186 186 186
186 186 186
186 186 186
186 186 186
186 186 186
186 186 186
186 186 186
186 186 186
186 186 186
186 186 186
186 186 186
186 186 186
186 186 186
186 186 186
186 186 186
186 186 186
186 186 186
186 186 186
186 186 186
186 186 186
186 186 186
186 186 186
186 186 186
186 186 186
186 186 186
186 186 186
186 186 186
186 186 186
186 186 186
186 186 186
186 186 186
186 186 186
186 186 186
186 186 186
186 186 186
186 186 186
186 186 186
186 186 186
186 186 186
186 186 186
186 186 186
186 186 186
186 186 186
186 186 186
186 186 186
186 186 186
186 186 186
186 186 186
186 186 186
186 186 186
186 186 186
186 186 186
186 186 186
186 186 186
186 186 186
186 186 186
186 186 186
186 186 186
186 186 186
186 186 186
186 186 186
186 186 186
186 186 186
186 186 186
186 186 186
186 186 186
186 186 186
186 186 186
186 186 186
186 186 186
186 186 186
186 186 186
186 186 186
186 186 186
186 186 186
186 186 186
186 186 186
186 186 186
186 186 186
186 186 186
186 186 186
186 186 186
186 186 186
186 186 186
186 186 186
186 186 186
186 186 186
186 186 186
186 186 186
186 186 186
186 186 186
186 186 186
186 186 186
186 186 186
186 186 186
186 186 186
186 186 186
186 186 186
186 186 186
186 186 186
186 186 186
186 186 186
186 186 186
186 186 186
186 186 186
186 186 186
186 186 186
186 186 186
186 186 186
186 186 186
186 186 186
186 186 186
186 186 186
186 186 186
186 186 186
186 186 186
186 186 186
186 186 186
186 186 186
186 186 186
186 186 186
186 186 186
186 186 186
186 186 186
186 186 186
186 186 186
186 186 186
186 186 186
186 186 186
186 186 186
186 186 186
186 186 186
186 186 186
186 186 186
186 186 186
186 186 186
186 186 186
186 186 186
186 186 186
186 186 186
186 186 186
186 186 186
186 186 186
186 186 186
186 186 186
186 186 186
186 186 186
186 186 186
186 186 186
186 186 186
186 186 186
186 186 186
186 186 186
186 186 186
186 186 186
186 186 186
186 186 186
186 186 186
186 186 186
186 186 186
186 186 186
186 186 186
186 186 186
186 186 186
186 186 186
186 186 186
186 186 186
186 186 186
186 186 186
186 186 186
186 186 186
186 186 186
186 186 186
186 186 186
186 186 186
186 186 186
186 186 186
186 186 186
186 186 186
186 186 186
186 186 186
186 186 186
186 186 186
186 186 186
186 186 186
186 186 186
186 186 186
186 186 186
186 186 186
186 186 186
186 186 186
186 186 186
186 186 186
186 186 186
186 186 186
186 186 186
186 186 186
186 186 186
186 186 186
186 186 186
186 186 186
186 186 186
186 186 186
186 186 186
186 186 186
186 186 186
186 186 186
186 186 186
186 186 186
186 186 186
186 186 186
186 186 186
186 186 186
186 186 186
186 186 186
186 186 186
186 186 186
186 186 186
186 186 186
186 186 186
186 186 186
186 186 186
186 186 186
186 186 186
186 186 186
186 186 186
186 186 186
186 186 186
186 186 186
186 186 186
186 186 186
186 186 186
186 186 186
186 186 186
186 186 186
186 186 186
186 186 186
186 186 186
186 186 186
186 186 186
186 186 186
186 186 186
186 186 186
186 186 186
186 186 186
186 186 186
186 186 186
186 186 186
186 186 186
186 186 186
186 186 186
186 186 186
186 186 186
186 186 186
186 186 186
186 186 186
186 186 186
186 186 186
186 186 186
186 186 186
186 186 186
186 186 186
186 186 186
186 186 186
186 186 186
186 186 186
186 186 186
186 186 186
186 186 186
186 186 186
186 186 186
186 186 186
186 186 186
186 186 186
186 186 186
186 186 186
186 186 186
186 186 186
186 186 186
186 186 186
186 186 186
186 186 186
186 186 186
186 186 186
186 186 186
186 186 186
186 186 186
186 186 186
186 186 186
186 186 186
186 186 186
186 186 186
186 186 186
186 186 186
186 186 186
186 186 186
186 186 186
186 186 186
186 186 186
186 186 186
186 186 186
186 186 186
186 186 186
186 186 186
186 186 186
186 186 186
186 186 186
186 186 186
186 186 186
186 186 186
186 186 186
186 186 186
186 186 186
186 186 186
186 186 186
186 186 186
186 186 186
186 186 186
186 186 186
186 186 186
186 186 186
186 186 186
186 186 186
186 186 186
186 186 186
186 186 186
186 186 186
186 186 186
186 186 186
186 186 186
186 186 186
186 186 186
186 186 186
186 186 186
186 186 186
186 186 186
186 186 186
186 186 186
186 186 186
186 186 186
186 186 186
186 186 186
186 186 186
186 186 186
186 186 186
186 186 186
186 186 186
186 186 186
186 186 186
186 186 186
186 186 186
186 186 186
186 186 186
186 186 186
186 186 186
186 186 186
186 186 186
186 186 186
186 186 186
186 186 186
186 186 186
186 186 186
186 186 186
186 186 186
186 186 186
186 186 186
186 186 186
186 186 186
186 186 186
186 186 186
186 186 186
186 186 186
186 186 186
186 186 186
186 186 186
186 186 186
186 186 186
186 186 186
186 186 186
186 186 186
186 186 186
186 186 186
186 186 186
186 186 186
186 186 186
186 186 186
186 186 186
186 186 186
186 186 186
186 186 186
186 186 186
186 186 186
186 186 186
186 186 186
186 186 186
186 186 186
186 186 186
186 186 186
186 186 186
186 186 186
186 186 186
186 186 186
186 186 186
186 186 186
186 186 186
186 186 186
186 186 186
186 186 186
186 186 186
186 186 186
186 186 186
186 186 186
186 186 186
186 186 186
186 186 186
186 186 186
186 186 186
186 186 186
186 186 186
186 186 186
186 186 186
186 186 186
186 186 186
186 186 186
186 186 186
186 186 186
186 186 186
186 186 186
186 186 186
186 186 186
186 186 186
186 186 186
186 186 186
186 186 186
186 186 186
186 186 186
186 186 186
186 186 186
186 186 186
186 186 186
186 186 186
186 186 186
186 186 186
186 186 186
186 186 186
186 186 186
186 186 186
186 186 186
186 186 186
186 186 186
186 186 186
186 186 186
186 186 186
186 186 186
186 186 186
186 186 186
186 186 186
186 186 186
186 186 186
186 186 186
186 186 186
186 186 186
186 186 186
186 186 186
186 186 186
186 186 186
186 186 186
186 186 186
186 186 186
186 186 186
186 186 186
186 186 186
186 186 186
186 186 186
186 186 186
186 186 186
186 186 186
186 186 186
186 186 186
186 186 186
186 186 186
186 186 186
186 186 186
186 186 186
186 186 186
186 186 186
186 186 186
186 186 186
186 186 186
186 186 186
186 186 186
186 186 186
186 186 186
186 186 186
186 186 186
186 186 186
186 186 186
186 186 186
186 186 186
186 186 186
186 186 186
186 186 186
186 186 186
186 186 186
186 186 186
186 186 186
186 186 186
186 186 186
186 186 186
186 186 186
186 186 186
186 186 186
186 186 186
186 186 186
186 186 186
186 186 186
186 186 186
186 186 186
186 186 186
186 186 186
186 186 186
186 186 186
186 186 186
186 186 186
186 186 186
186 186 186
186 186 186
186 186 186
186 186 186
186 186 186
186 186 186
186 186 186
186 186 186
186 186 186
186 186 186
186 186 186
186 186 186
186 186 186
186 186 186
186 186 186
186 186 186
186 186 186
186 186 186
186 186 186
186 186 186
186 186 186
186 186 186
186 186 186
186 186 186
186 186 186
186 186 186
186 186 186
186 186 186
186 186 186
186 186 186
186 186 186
186 186 186
186 186 186
186 186 186
186 186 186
186 186 186
186 186 186
186 186 186
186 186 186
186 186 186
186 186 186
186 186 186
186 186 186
186 186 186
186 186 186
186 186 186
186 186 186
186 186 186
186 186 186
186 186 186
186 186 186
186 186 186
186 186 186
186 186 186
186 186 186
186 186 186
186 186 186
186 186 186
186 186 186
186 186 186
186 186 186
186 186 186
186 186 186
186 186 186
186 186 186
186 186 186
186 186 186
186 186 186
186 186 186
186 186 186
186 186 186
186 186 186
186 186 186
186 186 186
186 186 186
186 186 186
186 186 186
186 186 186
186 186 186
186 186 186
186 186 186
186 186 186
186 186 186
186 186 186
186 186 186
186 186 186
186 186 186
186 186 186
186 186 186
186 186 186
186 186 186
186 186 186
186 186 186
186 186 186
186 186 186
186 186 186
186 186 186
186 186 186
186 186 186
186 186 186
186 186 186
186 186 186
186 186 186
186 186 186
186 186 186
186 186 186
186 186 186
186 186 186
186 186 186
186 186 186
186 186 186
186 186 186
186 186 186
186 186 186
186 186 186
186 186 186
186 186 186
186 186 186
186 186 186
186 186 186
186 186 186
186 186 186
186 186 186
186 186 186
186 186 186
186 186 186
186 186 186
186 186 186
186 186 186
186 186 186
186 186 186
186 186 186
186 186 186
186 186 186
186 186 186
186 186 186
186 186 186
186 186 186
186 186 186
186 186 186
186 186 186
186 186 186
186 186 186
186 186 186
186 186 186
186 186 186
186 186 186
186 186 186
186 186 186
186 186 186
186 186 186
186 186 186
186 186 186
186 186 186
186 186 186
186 186 186
186 186 186
186 186 186
186 186 186
186 186 186
186 186 186
186 186 186
186 186 186
186 186 186
186 186 186
186 186 186
186 186 186
186 186 186
186 186 186
186 186 186
186 186 186
186 186 186
186 186 186
186 186 186
186 186 186
186 186 186
186 186 186
186 186 186
186 186 186
186 186 186
186 186 186
186 186 186
186 186 186
186 186 186
186 186 186
186 186 186
186 186 186
186 186 186
186 186 186
186 186 186
186 186 186
186 186 186
186 186 186
186 186 186
186 186 186
186 186 186
186 186 186
186 186 186
186 186 186
186 186 186
186 186 186
186 186 186
186 186 186
186 186 186
186 186 186
186 186 186
186 186 186
186 186 186
186 186 186
186 186 186
186 186 186
186 186 186
186 186 186
186 186 186
186 186 186
186 186 186
186 186 186
186 186 186
186 186 186
186 186 186
186 186 186
186 186 186
186 186 186
186 186 186
186 186 186
186 186 186
186 186 186
186 186 186
186 186 186
186 186 186
186 186 186
186 186 186
186 186 186
186 186 186
186 186 186
186 186 186
186 186 186
186 186 186
186 186 186
186 186 186
186 186 186
186 186 186
186 186 186
186 186 186
186 186 186
186 186 186
186 186 186
186 186 186
186 186 186
186 186 186
186 186 186
186 186 186
186 186 186
186 186 186
186 186 186
186 186 186
186 186 186
186 186 186
186 186 186
186 186 186
186 186 186
186 186 186
186 186 186
186 186 186
186 186 186
186 186 186
186 186 186
186 186 186
186 186 186
186 186 186
186 186 186
186 186 186
186 186 186
186 186 186
186 186 186
186 186 186
186 186 186
186 186 186
186 186 186
186 186 186
186 186 186
186 186 186
186 186 186
186 186 186
186 186 186
186 186 186
186 186 186
186 186 186
186 186 186
186 186 186
186 186 186
186 186 186
186 186 186
186 186 186
186 186 186
186 186 186
186 186 186
186 186 186
186 186 186
186 186 186
186 186 186
186 186 186
186 186 186
186 186 186
186 186 186
186 186 186
186 186 186
186 186 186
186 186 186
186 186 186
186 186 186
186 186 186
186 186 186
186 186 186
186 186 186
186 186 186
186 186 186
186 186 186
186 186 186
186 186 186
186 186 186
186 186 186
186 186 186
186 186 186
186 186 186
186 186 186
186 186 186
186 186 186
186 186 186
186 186 186
186 186 186
186 186 186
186 186 186
186 186 186
186 186 186
186 186 186
186 186 186
186 186 186
186 186 186
186 186 186
186 186 186
186 186 186
186 186 186
186 186 186
186 186 186
186 186 186
186 186 186
186 186 186
186 186 186
186 186 186
186 186 186
186 186 186
186 186 186
186 186 186
186 186 186
186 186 186
186 186 186
186 186 186
186 186 186
186 186 186
186 186 186
186 186 186
186 186 186
186 186 186
186 186 186
186 186 186
186 186 186
186 186 186
186 186 186
186 186 186
186 186 186
186 186 186
186 186 186
186 186 186
186 186 186
186 186 186
186 186 186
186 186 186
186 186 186
186 186 186
186 186 186
186 186 186
186 186 186
186 186 186
186 186 186
186 186 186
186 186 186
186 186 186
186 186 186
186 186 186
186 186 186
186 186 186
186 186 186
186 186 186
186 186 186
186 186 186
186 186 186
186 186 186
186 186 186
186 186 186
186 186 186
186 186 186
186 186 186
186 186 186
186 186 186
186 186 186
186 186 186
186 186 186
186 186 186
186 186 186
186 186 186
186 186 186
186 186 186
186 186 186
186 186 186
186 186 186
186 186 186
186 186 186
186 186 186
186 186 186
186 186 186
186 186 186
186 186 186
186 186 186
186 186 186
186 186 186
186 186 186
186 186 186
186 186 186
186 186 186
186 186 186
186 186 186
186 186 186
186 186 186
186 186 186
186 186 186
186 186 186
186 186 186
186 186 186
186 186 186
186 186 186
186 186 186
186 186 186
186 186 186
186 186 186
186 186 186
186 186 186
186 186 186
186 186 186
186 186 186
186 186 186
186 186 186
186 186 186
186 186 186
186 186 186
186 186 186
186 186 186
186 186 186
186 186 186
186 186 186
186 186 186
186 186 186
186 186 186
186 186 186
186 186 186
186 186 186
186 186 186
186 186 186
186 186 186
186 186 186
186 186 186
186 186 186
186 186 186
186 186 186
186 186 186
186 186 186
186 186 186
186 186 186
186 186 186
186 186 186
186 186 186
186 186 186
186 186 186
186 186 186
186 186 186
186 186 186
186 186 186
186 186 186
186 186 186
186 186 186
186 186 186
186 186 186
186 186 186
186 186 186
186 186 186
186 186 186
186 186 186
186 186 186
186 186 186
186 186 186
186 186 186
186 186 186
186 186 186
186 186 186
186 186 186
186 186 186
186 186 186
186 186 186
186 186 186
186 186 186
186 186 186
186 186 186
186 186 186
186 186 186
186 186 186
186 186 186
186 186 186
186 186 186
186 186 186
186 186 186
186 186 186
186 186 186
186 186 186
186 186 186
186 186 186
186 186 186
186 186 186
186 186 186
186 186 186
186 186 186
186 186 186
186 186 186
186 186 186
186 186 186
186 186 186
186 186 186
186 186 186
186 186 186
186 186 186
186 186 186
186 186 186
186 186 186
186 186 186
186 186 186
186 186 186
186 186 186
186 186 186
186 186 186
186 186 186
186 186 186
186 186 186
186 186 186
186 186 186
186 186 186
186 186 186
186 186 186
186 186 186
186 186 186
186 186 186
186 186 186
186 186 186
186 186 186
186 186 186
186 186 186
186 186 186
186 186 186
186 186 186
186 186 186
186 186 186
186 186 186
186 186 186
186 186 186
186 186 186
186 186 186
186 186 186
186 186 186
186 186 186
186 186 186
186 186 186
186 186 186
186 186 186
186 186 186
186 186 186
186 186 186
186 186 186
186 186 186
186 186 186
186 186 186
186 186 186
186 186 186
186 186 186
186 186 186
186 186 186
186 186 186
186 186 186
186 186 186
186 186 186
186 186 186
186 186 186
186 186 186
186 186 186
186 186 186
186 186 186
186 186 186
186 186 186
186 186 186
186 186 186
186 186 186
186 186 186
186 186 186
186 186 186
186 186 186
186 186 186
186 186 186
186 186 186
186 186 186
186 186 186
186 186 186
186 186 186
186 186 186
186 186 186
186 186 186
186 186 186
186 186 186
186 186 186
186 186 186
186 186 186
186 186 186
186 186 186
186 186 186
186 186 186
186 186 186
186 186 186
186 186 186
186 186 186
186 186 186
186 186 186
186 186 186
186 186 186
186 186 186
186 186 186
186 186 186
186 186 186
186 186 186
186 186 186
186 186 186
186 186 186
186 186 186
186 186 186
186 186 186
186 186 186
186 186 186
186 186 186
186 186 186
186 186 186
186 186 186
186 186 186
186 186 186
186 186 186
186 186 186
186 186 186
186 186 186
186 186 186
186 186 186
186 186 186
186 186 186
186 186 186
186 186 186
186 186 186
186 186 186
186 186 186
186 186 186
186 186 186
186 186 186
186 186 186
186 186 186
186 186 186
186 186 186
186 186 186
186 186 186
186 186 186
186 186 186
186 186 186
186 186 186
186 186 186
186 186 186
186 186 186
186 186 186
186 186 186
186 186 186
186 186 186
186 186 186
186 186 186
186 186 186
186 186 186
186 186 186
186 186 186
186 186 186
186 186 186
186 186 186
186 186 186
186 186 186
186 186 186
186 186 186
186 186 186
186 186 186
186 186 186
186 186 186
186 186 186
186 186 186
186 186 186
186 186 186
186 186 186
186 186 186
186 186 186
186 186 186
186 186 186
186 186 186
186 186 186
186 186 186
186 186 186
186 186 186
186 186 186
186 186 186
186 186 186
186 186 186
186 186 186
186 186 186
186 186 186
186 186 186
186 186 186
186 186 186
186 186 186
186 186 186
186 186 186
186 186 186
186 186 186
186 186 186
186 186 186
186 186 186
186 186 186
186 186 186
186 186 186
186 186 186
186 186 186
186 186 186
186 186 186
186 186 186
186 186 186
186 186 186
186 186 186
186 186 186
186 186 186
186 186 186
186 186 186
186 186 186
186 186 186
186 186 186
186 186 186
186 186 186
186 186 186
186 186 186
186 186 186
186 186 186
186 186 186
186 186 186
186 186 186
186 186 186
186 186 186
186 186 186
186 186 186
186 186 186
186 186 186
186 186 186
186 186 186
186 186 186
186 186 186
186 186 186
186 186 186
186 186 186
186 186 186
186 186 186
186 186 186
186 186 186
186 186 186
186 186 186
186 186 186
186 186 186
186 186 186
186 186 186
186 186 186
186 186 186
186 186 186
186 186 186
186 186 186
186 186 186
186 186 186
186 186 186
186 186 186
186 186 186
186 186 186
186 186 186
186 186 186
186 186 186
186 186 186
186 186 186
186 186 186
186 186 186
186 186 186
186 186 186
186 186 186
186 186 186
186 186 186
186 186 186
186 186 186
186 186 186
186 186 186
186 186 186
186 186 186
186 186 186
186 186 186
186 186 186
186 186 186
186 186 186
186 186 186
186 186 186
186 186 186
186 186 186
186 186 186
186 186 186
186 186 186
186 186 186
186 186 186
186 186 186
186 186 186
186 186 186
186 186 186
186 186 186
186 186 186
186 186 186
186 186 186
186 186 186
186 186 186
186 186 186
186 186 186
186 186 186
186 186 186
186 186 186
186 186 186
186 186 186
186 186 186
186 186 186
186 186 186
186 186 186
186 186 186
186 186 186
186 186 186
186 186 186
186 186 186
186 186 186
186 186 186
186 186 186
186 186 186
186 186 186
186 186 186
186 186 186
186 186 186
186 186 186
186 186 186
186 186 186
186 186 186
186 186 186
186 186 186
186 186 186
186 186 186
186 186 186
186 186 186
186 186 186
186 186 186
186 186 186
186 186 186
186 186 186
186 186 186
186 186 186
186 186 186
186 186 186
186 186 186
186 186 186
186 186 186
186 186 186
186 186 186
186 186 186
186 186 186
186 186 186
186 186 186
186 186 186
186 186 186
186 186 186
186 186 186
186 186 186
186 186 186
186 186 186
186 186 186
186 186 186
186 186 186
186 186 186
186 186 186
186 186 186
186 186 186
186 186 186
186 186 186
186 186 186
186 186 186
186 186 186
186 186 186
186 186 186
186 186 186
186 186 186
186 186 186
186 186 186
186 186 186
186 186 186
186 186 186
186 186 186
186 186 186
186 186 186
186 186 186
186 186 186
186 186 186
186 186 186
186 186 186
186 186 186
186 186 186
186 186 186
186 186 186
186 186 186
186 186 186
186 186 186
186 186 186
186 186 186
186 186 186
186 186 186
186 186 186
186 186 186
186 186 186
186 186 186
186 186 186
186 186 186
186 186 186
186 186 186
186 186 186
186 186 186
186 186 186
186 186 186
186 186 186
186 186 186
186 186 186
186 186 186
186 186 186
186 186 186
186 186 186
186 186 186
186 186 186
186 186 186
186 186 186
186 186 186
186 186 186
186 186 186
186 186 186
186 186 186
186 186 186
186 186 186
186 186 186
186 186 186
186 186 186
186 186 186
186 186 186
186 186 186
186 186 186
186 186 186
186 186 186
186 186 186
186 186 186
186 186 186
186 186 186
186 186 186
186 186 186
186 186 186
186 186 186
186 186 186
186 186 186
186 186 186
186 186 186
186 186 186
186 186 186
186 186 186
186 186 186
186 186 186
186 186 186
186 186 186
186 186 186
186 186 186
186 186 186
186 186 186
186 186 186
186 186 186
186 186 186
186 186 186
186 186 186
186 186 186
186 186 186
186 186 186
186 186 186
186 186 186
186 186 186
186 186 186
186 186 186
186 186 186
186 186 186
186 186 186
186 186 186
186 186 186
186 186 186
186 186 186
186 186 186
186 186 186
186 186 186
186 186 186
186 186 186
186 186 186
186 186 186
186 186 186
186 186 186
186 186 186
186 186 186
186 186 186
186 186 186
186 186 186
186 186 186
186 186 186
186 186 186
186 186 186
186 186 186
186 186 186
186 186 186
186 186 186
186 186 186
186 186 186
186 186 186
186 186 186
186 186 186
186 186 186
186 186 186
186 186 186
186 186 186
186 186 186
186 186 186
186 186 186
186 186 186
186 186 186
186 186 186
186 186 186
186 186 186
186 186 186
186 186 186
186 186 186
186 186 186
186 186 186
186 186 186
186 186 186
186 186 186
186 186 186
186 186 186
186 186 186
186 186 186
186 186 186
186 186 186
186 186 186
186 186 186
186 186 186
186 186 186
186 186 186
186 186 186
186 186 186
186 186 186
186 186 186
186 186 186
186 186 186
186 186 186
186 186 186
186 186 186
186 186 186
186 186 186
186 186 186
186 186 186
186 186 186
186 186 186
186 186 186
186 186 186
186 186 186
186 186 186
186 186 186
186 186 186
186 186 186
186 186 186
186 186 186
186 186 186
186 186 186
186 186 186
186 186 186
186 186 186
186 186 186
186 186 186
186 186 186
186 186 186
186 186 186
186 186 186
186 186 186
186 186 186
186 186 186
186 186 186
186 186 186
186 186 186
186 186 186
186 186 186
186 186 186
186 186 186
186 186 186
186 186 186
186 186 186
186 186 186
186 186 186
186 186 186
186 186 186
186 186 186
186 186 186
186 186 186
186 186 186
186 186 186
186 186 186
186 186 186
186 186 186
186 186 186
186 186 186
186 186 186
186 186 186
186 186 186
186 186 186
186 186 186
186 186 186
186 186 186
186 186 186
186 186 186
186 186 186
186 186 186
186 186 186
186 186 186
186 186 186
186 186 186
186 186 186
186 186 186
186 186 186
186 186 186
186 186 186
186 186 186
186 186 186
186 186 186
186 186 186
186 186 186
186 186 186
186 186 186
186 186 186
186 186 186
186 186 186
186 186 186
186 186 186
186 186 186
186 186 186
186 186 186
186 186 186
186 186 186
186 186 186
186 186 186
186 186 186
186 186 186
186 186 186
186 186 186
186 186 186
186 186 186
186 186 186
186 186 186
186 186 186
186 186 186
186 186 186
186 186 186
186 186 186
186 186 186
186 186 186
186 186 186
186 186 186
186 186 186
186 186 186
186 186 186
186 186 186
186 186 186
186 186 186
186 186 186
186 186 186
186 186 186
186 186 186
186 186 186
186 186 186
186 186 186
186 186 186
186 186 186
186 186 186
186 186 186
186 186 186
186 186 186
186 186 186
186 186 186
186 186 186
186 186 186
186 186 186
186 186 186
186 186 186
186 186 186
186 186 186
186 186 186
186 186 186
186 186 186
186 186 186
186 186 186
186 186 186
186 186 186
186 186 186
186 186 186
186 186 186
186 186 186
186 186 186
186 186 186
186 186 186
186 186 186
186 186 186
186 186 186
186 186 186
186 186 186
186 186 186
186 186 186
186 186 186
186 186 186
186 186 186
186 186 186
186 186 186
186 186 186
186 186 186
186 186 186
186 186 186
186 186 186
186 186 186
186 186 186
186 186 186
186 186 186
186 186 186
186 186 186
186 186 186
186 186 186
186 186 186
186 186 186
186 186 186
186 186 186
186 186 186
186 186 186
186 186 186
186 186 186
186 186 186
186 186 186
186 186 186
186 186 186
186 186 186
186 186 186
186 186 186
186 186 186
186 186 186
186 186 186
186 186 186
186 186 186
186 186 186
186 186 186
186 186 186
186 186 186
186 186 186
186 186 186
186 186 186
186 186 186
186 186 186
186 186 186
186 186 186
186 186 186
186 186 186
186 186 186
186 186 186
186 186 186
186 186 186
186 186 186
186 186 186
186 186 186
186 186 186
186 186 186
186 186 186
186 186 186
186 186 186
186 186 186
186 186 186
186 186 186
186 186 186
186 186 186
186 186 186
186 186 186
186 186 186
186 186 186
186 186 186
186 186 186
186 186 186
186 186 186
186 186 186
186 186 186
186 186 186
186 186 186
186 186 186
186 186 186
186 186 186
186 186 186
186 186 186
186 186 186
186 186 186
186 186 186
186 186 186
186 186 186
186 186 186
186 186 186
186 186 186
186 186 186
186 186 186
186 186 186
186 186 186
186 186 186
186 186 186
186 186 186
186 186 186
186 186 186
186 186 186
186 186 186
186 186 186
186 186 186
186 186 186
186 186 186
186 186 186
186 186 186
186 186 186
186 186 186
186 186 186
186 186 186
186 186 186
186 186 186
186 186 186
186 186 186
186 186 186
186 186 186
186 186 186
186 186 186
186 186 186
186 186 186
186 186 186
186 186 186
186 186 186
186 186 186
186 186 186
186 186 186
186 186 186
186 186 186
186 186 186
186 186 186
186 186 186
186 186 186
186 186 186
186 186 186
186 186 186
186 186 186
186 186 186
186 186 186
186 186 186
186 186 186
186 186 186
186 186 186
186 186 186
186 186 186
186 186 186
186 186 186
186 186 186
186 186 186
186 186 186
186 186 186
186 186 186
186 186 186
186 186 186
186 186 186
186 186 186
186 186 186
186 186 186
186 186 186
186 186 186
186 186 186
186 186 186
186 186 186
186 186 186
186 186 186
186 186 186
186 186 186
186 186 186
186 186 186
186 186 186
186 186 186
186 186 186
186 186 186
186 186 186
186 186 186
186 186 186
186 186 186
186 186 186
186 186 186
186 186 186
186 186 186
186 186 186
186 186 186
186 186 186
186 186 186
186 186 186
186 186 186
186 186 186
186 186 186
186 186 186
186 186 186
186 186 186
186 186 186
186 186 186
186 186 186
186 186 186
186 186 186
186 186 186
186 186 186
186 186 186
186 186 186
186 186 186
186 186 186
186 186 186
186 186 186
186 186 186
186 186 186
186 186 186
186 186 186
186 186 186
186 186 186
186 186 186
186 186 186
186 186 186
186 186 186
186 186 186
186 186 186
186 186 186
186 186 186
186 186 186
186 186 186
186 186 186
186 186 186
186 186 186
186 186 186
186 186 186
186 186 186
186 186 186
186 186 186
186 186 186
186 186 186
186 186 186
186 186 186
186 186 186
186 186 186
186 186 186
186 186 186
186 186 186
186 186 186
186 186 186
186 186 186
186 186 186
186 186 186
186 186 186
186 186 186
186 186 186
186 186 186
186 186 186
186 186 186
186 186 186
186 186 186
186 186 186
186 186 186
186 186 186
186 186 186
186 186 186
186 186 186
186 186 186
186 186 186
186 186 186
186 186 186
186 186 186
186 186 186
186 186 186
186 186 186
186 186 186
186 186 186
186 186 186
186 186 186
186 186 186
186 186 186
186 186 186
186 186 186
186 186 186
186 186 186
186 186 186
186 186 186
186 186 186
186 186 186
186 186 186
186 186 186
186 186 186
186 186 186
186 186 186
186 186 186
186 186 186
186 186 186
186 186 186
186 186 186
186 186 186
186 186 186
186 186 186
186 186 186
186 186 186
186 186 186
186 186 186
186 186 186
186 186 186
186 186 186
186 186 186
186 186 186
186 186 186
186 186 186
186 186 186
186 186 186
186 186 186
186 186 186
186 186 186
186 186 186
186 186 186
186 186 186
186 186 186
186 186 186
186 186 186
186 186 186
186 186 186
186 186 186
186 186 186
186 186 186
186 186 186
186 186 186
186 186 186
186 186 186
186 186 186
186 186 186
186 186 186
186 186 186
186 186 186
186 186 186
186 186 186
186 186 186
186 186 186
186 186 186
186 186 186
186 186 186
186 186 186
186 186 186
186 186 186
186 186 186
186 186 186
186 186 186
186 186 186
186 186 186
186 186 186
186 186 186
186 186 186
186 186 186
186 186 186
186 186 186
186 186 186
186 186 186
186 186 186
186 186 186
186 186 186
186 186 186
186 186 186
186 186 186
186 186 186
186 186 186
186 186 186
186 186 186
186 186 186
186 186 186
186 186 186
186 186 186
186 186 186
186 186 186
186 186 186
186 186 186
186 186 186
186 186 186
186 186 186
186 186 186
186 186 186
186 186 186
186 186 186
186 186 186
186 186 186
186 186 186
186 186 186
186 186 186
186 186 186
186 186 186
186 186 186
186 186 186
186 186 186
186 186 186
186 186 186
186 186 186
186 186 186
186 186 186
186 186 186
186 186 186
186 186 186
186 186 186
186 186 186
186 186 186
186 186 186
186 186 186
186 186 186
186 186 186
186 186 186
186 186 186
186 186 186
186 186 186
186 186 186
186 186 186
186 186 186
186 186 186
186 186 186
186 186 186
186 186 186
186 186 186
186 186 186
186 186 186
186 186 186
186 186 186
186 186 186
186 186 186
186 186 186
186 186 186
186 186 186
186 186 186
186 186 186
186 186 186
186 186 186
186 186 186
186 186 186
186 186 186
186 186 186
186 186 186
186 186 186
186 186 186
186 186 186
186 186 186
186 186 186
186 186 186
186 186 186
186 186 186
186 186 186
186 186 186
186 186 186
186 186 186
186 186 186
186 186 186
186 186 186
186 186 186
186 186 186
186 186 186
186 186 186
186 186 186
186 186 186
186 186 186
186 186 186
186 186 186
186 186 186
186 186 186
186 186 186
186 186 186
186 186 186
186 186 186
186 186 186
186 186 186
186 186 186
186 186 186
186 186 186
186 186 186
186 186 186
186 186 186
186 186 186
186 186 186
186 186 186
186 186 186
186 186 186
186 186 186
186 186 186
186 186 186
186 186 186
186 186 186
186 186 186
186 186 186
186 186 186
186 186 186
186 186 186
186 186 186
186 186 186
186 186 186
186 186 186
186 186 186
186 186 186
186 186 186
186 186 186
186 186 186
186 186 186
186 186 186
186 186 186
186 186 186
186 186 186
186 186 186
186 186 186
186 186 186
186 186 186
186 186 186
186 186 186
186 186 186
186 186 186
186 186 186
186 186 186
186 186 186
186 186 186
186 186 186
186 186 186
186 186 186
186 186 186
186 186 186
186 186 186
186 186 186
186 186 186
186 186 186
186 186 186
186 186 186
186 186 186
186 186 186
186 186 186
186 186 186
186 186 186
186 186 186
186 186 186
186 186 186
186 186 186
186 186 186
186 186 186
186 186 186
186 186 186
186 186 186
186 186 186
186 186 186
186 186 186
186 186 186
186 186 186
186 186 186
186 186 186
186 186 186
186 186 186
186 186 186
186 186 186
186 186 186
186 186 186
186 186 186
186 186 186
186 186 186
186 186 186
186 186 186
186 186 186
186 186 186
186 186 186
186 186 186
186 186 186
186 186 186
186 186 186
186 186 186
186 186 186
186 186 186
186 186 186
186 186 186
186 186 186
186 186 186
186 186 186
186 186 186
186 186 186
186 186 186
186 186 186
186 186 186
186 186 186
186 186 186
186 186 186
186 186 186
186 186 186
186 186 186
186 186 186
186 186 186
186 186 186
186 186 186
186 186 186
186 186 186
186 186 186
186 186 186
186 186 186
186 186 186
186 186 186
186 186 186
186 186 186
186 186 186
186 186 186
186 186 186
186 186 186
186 186 186
186 186 186
186 186 186
186 186 186
186 186 186
186 186 186
186 186 186
186 186 186
186 186 186
186 186 186
186 186 186
186 186 186
186 186 186
186 186 186
186 186 186
186 186 186
186 186 186
186 186 186
186 186 186
186 186 186
186 186 186
186 186 186
186 186 186
186 186 186
186 186 186
186 186 186
186 186 186
186 186 186
186 186 186
186 186 186
186 186 186
186 186 186
186 186 186
186 186 186
186 186 186
186 186 186
186 186 186
186 186 186
186 186 186
186 186 186
186 186 186
186 186 186
186 186 186
186 186 186
186 186 186
186 186 186
186 186 186
186 186 186
186 186 186
186 186 186
186 186 186
186 186 186
186 186 186
186 186 186
186 186 186
186 186 186
186 186 186
186 186 186
186 186 186
186 186 186
186 186 186
186 186 186
186 186 186
186 186 186
186 186 186
186 186 186
186 186 186
186 186 186
186 186 186
186 186 186
186 186 186
186 186 186
186 186 186
186 186 186
186 186 186
186 186 186
186 186 186
186 186 186
186 186 186
186 186 186
186 186 186
186 186 186
186 186 186
186 186 186
186 186 186
186 186 186
186 186 186
186 186 186
186 186 186
186 186 186
186 186 186
186 186 186
186 186 186
186 186 186
186 186 186
186 186 186
186 186 186
186 186 186
186 186 186
186 186 186
186 186 186
186 186 186
186 186 186
186 186 186
186 186 186
186 186 186
186 186 186
186 186 186
186 186 186
186 186 186
186 186 186
186 186 186
186 186 186
186 186 186
186 186 186
186 186 186
186 186 186
186 186 186
186 186 186
186 186 186
186 186 186
186 186 186
186 186 186
186 186 186
186 186 186
186 186 186
186 186 186
186 186 186
186 186 186
186 186 186
186 186 186
186 186 186
186 186 186
186 186 186
186 186 186
186 186 186
186 186 186
186 186 186
186 186 186
186 186 186
186 186 186
186 186 186
186 186 186
186 186 186
186 186 186
186 186 186
186 186 186
186 186 186
186 186 186
186 186 186
186 186 186
186 186 186
186 186 186
186 186 186
186 186 186
186 186 186
186 186 186
186 186 186
186 186 186
186 186 186
186 186 186
186 186 186
186 186 186
186 186 186
186 186 186
186 186 186
186 186 186
186 186 186
186 186 186
186 186 186
186 186 186
186 186 186
186 186 186
186 186 186
186 186 186
186 186 186
186 186 186
186 186 186
186 186 186
186 186 186
186 186 186
186 186 186
186 186 186
186 186 186
186 186 186
186 186 186
186 186 186
186 186 186
186 186 186
186 186 186
186 186 186
186 186 186
186 186 186
186 186 186
186 186 186
186 186 186
186 186 186
186 186 186
186 186 186
186 186 186
186 186 186
186 186 186
186 186 186
186 186 186
186 186 186
186 186 186
186 186 186
186 186 186
186 186 186
186 186 186
186 186 186
186 186 186
186 186 186
186 186 186
186 186 186
186 186 186
186 186 186
186 186 186
186 186 186
186 186 186
186 186 186
186 186 186
186 186 186
186 186 186
186 186 186
186 186 186
186 186 186
186 186 186
186 186 186
186 186 186
186 186 186
186 186 186
186 186 186
186 186 186
186 186 186
186 186 186
186 186 186
186 186 186
186 186 186
186 186 186
186 186 186
186 186 186
186 186 186
186 186 186
186 186 186
186 186 186
186 186 186
186 186 186
186 186 186
186 186 186
186 186 186
186 186 186
186 186 186
186 186 186
186 186 186
186 186 186
186 186 186
186 186 186
186 186 186
186 186 186
186 186 186
186 186 186
186 186 186
186 186 186
186 186 186
186 186 186
186 186 186
186 186 186
186 186 186
186 186 186
186 186 186
186 186 186
186 186 186
186 186 186
186 186 186
186 186 186
186 186 186
186 186 186
186 186 186
186 186 186
186 186 186
186 186 186
186 186 186
186 186 186
186 186 186
186 186 186
186 186 186
186 186 186
186 186 186
186 186 186
186 186 186
186 186 186
186 186 186
186 186 186
186 186 186
186 186 186
186 186 186
186 186 186
186 186 186
186 186 186
186 186 186
186 186 186
186 186 186
186 186 186
186 186 186
186 186 186
186 186 186
186 186 186
186 186 186
186 186 186
186 186 186
186 186 186
186 186 186
186 186 186
186 186 186
186 186 186
186 186 186
186 186 186
186 186 186
186 186 186
186 186 186
186 186 186
186 186 186
186 186 186
186 186 186
186 186 186
186 186 186
186 186 186
186 186 186
186 186 186
186 186 186
186 186 186
186 186 186
186 186 186
186 186 186
186 186 186
186 186 186
186 186 186
186 186 186
186 186 186
186 186 186
186 186 186
186 186 186
186 186 186
186 186 186
186 186 186
186 186 186
186 186 186
186 186 186
186 186 186
186 186 186
186 186 186
186 186 186
186 186 186
186 186 186
186 186 186
186 186 186
186 186 186
186 186 186
186 186 186
186 186 186
186 186 186
186 186 186
186 186 186
186 186 186
186 186 186
186 186 186
186 186 186
186 186 186
186 186 186
186 186 186
186 186 186
186 186 186
186 186 186
186 186 186
186 186 186
186 186 186
186 186 186
186 186 186
186 186 186
186 186 186
186 186 186
186 186 186
186 186 186
186 186 186
186 186 186
186 186 186
186 186 186
186 186 186
186 186 186
186 186 186
186 186 186
186 186 186
186 186 186
186 186 186
186 186 186
186 186 186
186 186 186
186 186 186
186 186 186
186 186 186
186 186 186
186 186 186
186 186 186
186 186 186
186 186 186
186 186 186
186 186 186
186 186 186
186 186 186
186 186 186
186 186 186
186 186 186
186 186 186
186 186 186
186 186 186
186 186 186
186 186 186
186 186 186
186 186 186
186 186 186
186 186 186
186 186 186
186 186 186
186 186 186
186 186 186
186 186 186
186 186 186
186 186 186
186 186 186
186 186 186
186 186 186
186 186 186
186 186 186
186 186 186
186 186 186
186 186 186
186 186 186
186 186 186
186 186 186
186 186 186
186 186 186
186 186 186
186 186 186
186 186 186
186 186 186
186 186 186
186 186 186
186 186 186
186 186 186
186 186 186
186 186 186
186 186 186
186 186 186
186 186 186
186 186 186
186 186 186
186 186 186
186 186 186
186 186 186
186 186 186
186 186 186
186 186 186
186 186 186
186 186 186
186 186 186
186 186 186
186 186 186
186 186 186
186 186 186
186 186 186
186 186 186
186 186 186
186 186 186
186 186 186
186 186 186
186 186 186
186 186 186
186 186 186
186 186 186
186 186 186
186 186 186
186 186 186
186 186 186
186 186 186
186 186 186
186 186 186
186 186 186
186 186 186
186 186 186
186 186 186
186 186 186
186 186 186
186 186 186
186 186 186
186 186 186
186 186 186
186 186 186
186 186 186
186 186 186
186 186 186
186 186 186
186 186 186
186 186 186
186 186 186
186 186 186
186 186 186
186 186 186
186 186 186
186 186 186
186 186 186
186 186 186
186 186 186
186 186 186
186 186 186
186 186 186
186 186 186
186 186 186
186 186 186
186 186 186
186 186 186
186 186 186
186 186 186
186 186 186
186 186 186
186 186 186
186 186 186
186 186 186
186 186 186
186 186 186
186 186 186
186 186 186
186 186 186
186 186 186
186 186 186
186 186 186
186 186 186
186 186 186
186 186 186
186 186 186
186 186 186
186 186 186
186 186 186
186 186 186
186 186 186
186 186 186
186 186 186
186 186 186
186 186 186
186 186 186
186 186 186
186 186 186
186 186 186
186 186 186
186 186 186
186 186 186
186 186 186
186 186 186
186 186 186
186 186 186
186 186 186
186 186 186
186 186 186
186 186 186
186 186 186
186 186 186
186 186 186
186 186 186
186 186 186
186 186 186
186 186 186
186 186 186
186 186 186
186 186 186
186 186 186
186 186 186
186 186 186
186 186 186
186 186 186
186 186 186
186 186 186
186 186 186
186 186 186
186 186 186
186 186 186
186 186 186
186 186 186
186 186 186
186 186 186
186 186 186
186 186 186
186 186 186
186 186 186
186 186 186
186 186 186
186 186 186
186 186 186
186 186 186
186 186 186
186 186 186
186 186 186
186 186 186
186 186 186
186 186 186
186 186 186
186 186 186
186 186 186
186 186 186
186 186 186
186 186 186
186 186 186
186 186 186
186 186 186
186 186 186
186 186 186
186 186 186
186 186 186
186 186 186
186 186 186
186 186 186
186 186 186
186 186 186
186 186 186
186 186 186
186 186 186
186 186 186
186 186 186
186 186 186
186 186 186
186 186 186
186 186 186
186 186 186
186 186 186
186 186 186
186 186 186
186 186 186
186 186 186
186 186 186
186 186 186
186 186 186
186 186 186
186 186 186
186 186 186
186 186 186
186 186 186
186 186 186
186 186 186
186 186 186
186 186 186
186 186 186
186 186 186
186 186 186
186 186 186
186 186 186
186 186 186
186 186 186
186 186 186
186 186 186
186 186 186
186 186 186
186 186 186
186 186 186
186 186 186
186 186 186
186 186 186
186 186 186
186 186 186
186 186 186
186 186 186
186 186 186
186 186 186
186 186 186
186 186 186
186 186 186
186 186 186
186 186 186
186 186 186
186 186 186
186 186 186
186 186 186
186 186 186
186 186 186
186 186 186
186 186 186
186 186 186
186 186 186
186 186 186
186 186 186
186 186 186
186 186 186
186 186 186
186 186 186
186 186 186
186 186 186
186 186 186
186 186 186
186 186 186
186 186 186
186 186 186
186 186 186
186 186 186
186 186 186
186 186 186
186 186 186
186 186 186
186 186 186
186 186 186
186 186 186
186 186 186
186 186 186
186 186 186
186 186 186
186 186 186
186 186 186
186 186 186
186 186 186
186 186 186
186 186 186
186 186 186
186 186 186
186 186 186
186 186 186
186 186 186
186 186 186
186 186 186
186 186 186
186 186 186
186 186 186
186 186 186
186 186 186
186 186 186
186 186 186
186 186 186
186 186 186
186 186 186
186 186 186
186 186 186
186 186 186
186 186 186
186 186 186
186 186 186
186 186 186
186 186 186
186 186 186
186 186 186
186 186 186
186 186 186
186 186 186
186 186 186
186 186 186
186 186 186
186 186 186
186 186 186
186 186 186
186 186 186
186 186 186
186 186 186
186 186 186
186 186 186
186 186 186
186 186 186
186 186 186
186 186 186
186 186 186
186 186 186
186 186 186
186 186 186
186 186 186
186 186 186
186 186 186
186 186 186
186 186 186
186 186 186
186 186 186
186 186 186
186 186 186
186 186 186
186 186 186
186 186 186
186 186 186
186 186 186
186 186 186
186 186 186
186 186 186
186 186 186
186 186 186
186 186 186
186 186 186
186 186 186
186 186 186
186 186 186
186 186 186
186 186 186
186 186 186
186 186 186
186 186 186
186 186 186
186 186 186
186 186 186
186 186 186
186 186 186
186 186 186
186 186 186
186 186 186
186 186 186
186 186 186
186 186 186
186 186 186
186 186 186
186 186 186
186 186 186
186 186 186
186 186 186
186 186 186
186 186 186
186 186 186
186 186 186
186 186 186
186 186 186
186 186 186
186 186 186
186 186 186
186 186 186
186 186 186
186 186 186
186 186 186
186 186 186
186 186 186
186 186 186
186 186 186
186 186 186
186 186 186
186 186 186
186 186 186
186 186 186
186 186 186
186 186 186
186 186 186
186 186 186
186 186 186
186 186 186
186 186 186
186 186 186
186 186 186
186 186 186
186 186 186
186 186 186
186 186 186
186 186 186
186 186 186
186 186 186
186 186 186
186 186 186
186 186 186
186 186 186
186 186 186
186 186 186
186 186 186
186 186 186
186 186 186
186 186 186
186 186 186
186 186 186
186 186 186
186 186 186
186 186 186
186 186 186
186 186 186
186 186 186
186 186 186
186 186 186
186 186 186
186 186 186
186 186 186
186 186 186
186 186 186
186 186 186
186 186 186
186 186 186
186 186 186
186 186 186
186 186 186
186 186 186
186 186 186
186 186 186
186 186 186
186 186 186
186 186 186
186 186 186
186 186 186
186 186 186
186 186 186
186 186 186
186 186 186
186 186 186
186 186 186
186 186 186
186 186 186
186 186 186
186 186 186
186 186 186
186 186 186
186 186 186
186 186 186
186 186 186
186 186 186
186 186 186
186 186 186
186 186 186
186 186 186
186 186 186
186 186 186
186 186 186
186 186 186
186 186 186
186 186 186
186 186 186
186 186 186
186 186 186
186 186 186
186 186 186
186 186 186
186 186 186
186 186 186
186 186 186
186 186 186
186 186 186
186 186 186
186 186 186
186 186 186
186 186 186
186 186 186
186 186 186
186 186 186
186 186 186
186 186 186
186 186 186
186 186 186
186 186 186
186 186 186
186 186 186
186 186 186
186 186 186
186 186 186
186 186 186
186 186 186
186 186 186
186 186 186
186 186 186
186 186 186
186 186 186
186 186 186
186 186 186
186 186 186
186 186 186
186 186 186
186 186 186
186 186 186
186 186 186
186 186 186
186 186 186
186 186 186
186 186 186
186 186 186
186 186 186
186 186 186
186 186 186
186 186 186
186 186 186
186 186 186
186 186 186
186 186 186
186 186 186
186 186 186
186 186 186
186 186 186
186 186 186
186 186 186
186 186 186
186 186 186
186 186 186
186 186 186
186 186 186
186 186 186
186 186 186
186 186 186
186 186 186
186 186 186
186 186 186
186 186 186
186 186 186
186 186 186
186 186 186
186 186 186
186 186 186
186 186 186
186 186 186
186 186 186
186 186 186
186 186 186
186 186 186
186 186 186
186 186 186
186 186 186
186 186 186
186 186 186
186 186 186
186 186 186
186 186 186
186 186 186
186 186 186
186 186 186
186 186 186
186 186 186
186 186 186
186 186 186
186 186 186
186 186 186
186 186 186
186 186 186
186 186 186
186 186 186
186 186 186
186 186 186
186 186 186
186 186 186
186 186 186
186 186 186
186 186 186
186 186 186
186 186 186
186 186 186
186 186 186
186 186 186
186 186 186
186 186 186
186 186 186
186 186 186
186 186 186
186 186 186
186 186 186
186 186 186
186 186 186
186 186 186
186 186 186
186 186 186
186 186 186
186 186 186
186 186 186
186 186 186
186 186 186
186 186 186
186 186 186
186 186 186
186 186 186
186 186 186
186 186 186
186 186 186
186 186 186
186 186 186
186 186 186
186 186 186
186 186 186
186 186 186
186 186 186
186 186 186
186 186 186
186 186 186
186 186 186
186 186 186
186 186 186
186 186 186
186 186 186
186 186 186
186 186 186
186 186 186
186 186 186
186 186 186
186 186 186
186 186 186
186 186 186
186 186 186
186 186 186
186 186 186
186 186 186
186 186 186
186 186 186
186 186 186
186 186 186
186 186 186
186 186 186
186 186 186
186 186 186
186 186 186
186 186 186
186 186 186
186 186 186
186 186 186
186 186 186
186 186 186
186 186 186
186 186 186
186 186 186
186 186 186
186 186 186
186 186 186
186 186 186
186 186 186
186 186 186
186 186 186
186 186 186
186 186 186
186 186 186
186 186 186
186 186 186
186 186 186
186 186 186
186 186 186
186 186 186
186 186 186
186 186 186
186 186 186
186 186 186
186 186 186
186 186 186
186 186 186
186 186 186
186 186 186
186 186 186
186 186 186
186 186 186
186 186 186
186 186 186
186 186 186
186 186 186
186 186 186
186 186 186
186 186 186
186 186 186
186 186 186
186 186 186
186 186 186
186 186 186
186 186 186
186 186 186
186 186 186
186 186 186
186 186 186
186 186 186
186 186 186
186 186 186
186 186 186
186 186 186
186 186 186
186 186 186
186 186 186
186 186 186
186 186 186
186 186 186
186 186 186
186 186 186
186 186 186
186 186 186
186 186 186
186 186 186
186 186 186
186 186 186
186 186 186
186 186 186
186 186 186
186 186 186
186 186 186
186 186 186
186 186 186
186 186 186
186 186 186
186 186 186
186 186 186
186 186 186
186 186 186
186 186 186
186 186 186
186 186 186
186 186 186
186 186 186
186 186 186
186 186 186
186 186 186
186 186 186
186 186 186
186 186 186
186 186 186
186 186 186
186 186 186
186 186 186
186 186 186
186 186 186
186 186 186
186 186 186
186 186 186
186 186 186
186 186 186
186 186 186
186 186 186
186 186 186
186 186 186
186 186 186
186 186 186
186 186 186
186 186 186
186 186 186
186 186 186
186 186 186
186 186 186
186 186 186
186 186 186
186 186 186
186 186 186
186 186 186
186 186 186
186 186 186
186 186 186
186 186 186
186 186 186
186 186 186
186 186 186
186 186 186
186 186 186
186 186 186
186 186 186
186 186 186
186 186 186
186 186 186
186 186 186
186 186 186
186 186 186
186 186 186
186 186 186
186 186 186
186 186 186
186 186 186
186 186 186
186 186 186
186 186 186
186 186 186
186 186 186
186 186 186
186 186 186
186 186 186
186 186 186
186 186 186
186 186 186
186 186 186
186 186 186
186 186 186
186 186 186
186 186 186
186 186 186
186 186 186
186 186 186
186 186 186
186 186 186
186 186 186
186 186 186
186 186 186
186 186 186
186 186 186
186 186 186
186 186 186
186 186 186
186 186 186
186 186 186
186 186 186
186 186 186
186 186 186
186 186 186
186 186 186
186 186 186
186 186 186
186 186 186
186 186 186
186 186 186
186 186 186
186 186 186
186 186 186
186 186 186
186 186 186
186 186 186
186 186 186
186 186 186
186 186 186
186 186 186
186 186 186
186 186 186
186 186 186
186 186 186
186 186 186
186 186 186
186 186 186
186 186 186
186 186 186
186 186 186
186 186 186
186 186 186
186 186 186
186 186 186
186 186 186
186 186 186
186 186 186
186 186 186
186 186 186
186 186 186
186 186 186
186 186 186
186 186 186
186 186 186
186 186 186
186 186 186
186 186 186
186 186 186
186 186 186
186 186 186
186 186 186
186 186 186
186 186 186
186 186 186
186 186 186
186 186 186
186 186 186
186 186 186
186 186 186
186 186 186
186 186 186
186 186 186
186 186 186
186 186 186
186 186 186
186 186 186
186 186 186
186 186 186
186 186 186
186 186 186
186 186 186
186 186 186
186 186 186
186 186 186
186 186 186
186 186 186
186 186 186
186 186 186
186 186 186
186 186 186
186 186 186
186 186 186
186 186 186
186 186 186
186 186 186
186 186 186
186 186 186
186 186 186
186 186 186
186 186 186
186 186 186
186 186 186
186 186 186
186 186 186
186 186 186
186 186 186
186 186 186
186 186 186
186 186 186
186 186 186
186 186 186
186 186 186
186 186 186
186 186 186
186 186 186
186 186 186
186 186 186
186 186 186
186 186 186
186 186 186
186 186 186
186 186 186
186 186 186
186 186 186
186 186 186
186 186 186
186 186 186
186 186 186
186 186 186
186 186 186
186 186 186
186 186 186
186 186 186
186 186 186
186 186 186
186 186 186
186 186 186
186 186 186
186 186 186
186 186 186
186 186 186
186 186 186
186 186 186
186 186 186
186 186 186
186 186 186
186 186 186
186 186 186
186 186 186
186 186 186
186 186 186
186 186 186
186 186 186
186 186 186
186 186 186
186 186 186
186 186 186
186 186 186
186 186 186
186 186 186
186 186 186
186 186 186
186 186 186
186 186 186
186 186 186
186 186 186
186 186 186
186 186 186
186 186 186
186 186 186
186 186 186
186 186 186
186 186 186
186 186 186
186 186 186
186 186 186
186 186 186
186 186 186
186 186 186
186 186 186
186 186 186
186 186 186
186 186 186
186 186 186
186 186 186
186 186 186
186 186 186
186 186 186
186 186 186
186 186 186
186 186 186
186 186 186
186 186 186
186 186 186
186 186 186
186 186 186
186 186 186
186 186 186
186 186 186
186 186 186
186 186 186
186 186 186
186 186 186
186 186 186
186 186 186
186 186 186
186 186 186
186 186 186
186 186 186
186 186 186
186 186 186
186 186 186
186 186 186
186 186 186
186 186 186
186 186 186
186 186 186
186 186 186
186 186 186
186 186 186
186 186 186
186 186 186
186 186 186
186 186 186
186 186 186
186 186 186
186 186 186
186 186 186
186 186 186
186 186 186
186 186 186
186 186 186
186 186 186
186 186 186
186 186 186
186 186 186
186 186 186
186 186 186
186 186 186
186 186 186
186 186 186
186 186 186
186 186 186
186 186 186
186 186 186
186 186 186
186 186 186
186 186 186
186 186 186
186 186 186
186 186 186
186 186 186
186 186 186
186 186 186
186 186 186
186 186 186
186 186 186
186 186 186
186 186 186
186 186 186
186 186 186
186 186 186
186 186 186
186 186 186
186 186 186
186 186 186
186 186 186
186 186 186
186 186 186
186 186 186
186 186 186
186 186 186
186 186 186
186 186 186
186 186 186
186 186 186
186 186 186
186 186 186
186 186 186
186 186 186
186 186 186
186 186 186
186 186 186
186 186 186
186 186 186
186 186 186
186 186 186
186 186 186
186 186 186
186 186 186
186 186 186
186 186 186
186 186 186
186 186 186
186 186 186
186 186 186
186 186 186
186 186 186
186 186 186
186 186 186
186 186 186
186 186 186
186 186 186
186 186 186
186 186 186
186 186 186
186 186 186
186 186 186
186 186 186
186 186 186
186 186 186
186 186 186
186 186 186
186 186 186
186 186 186
186 186 186
186 186 186
186 186 186
186 186 186
186 186 186
186 186 186
186 186 186
186 186 186
186 186 186
186 186 186
186 186 186
186 186 186
186 186 186
186 186 186
186 186 186
186 186 186
186 186 186
186 186 186
186 186 186
186 186 186
186 186 186
186 186 186
186 186 186
186 186 186
186 186 186
186 186 186
186 186 186
186 186 186
186 186 186
186 186 186
186 186 186
186 186 186
186 186 186
186 186 186
186 186 186
186 186 186
186 186 186
186 186 186
186 186 186
186 186 186
186 186 186
186 186 186
186 186 186
186 186 186
186 186 186
186 186 186
186 186 186
186 186 186
186 186 186
186 186 186
186 186 186
186 186 186
186 186 186
186 186 186
186 186 186
186 186 186
186 186 186
186 186 186
186 186 186
186 186 186
186 186 186
186 186 186
186 186 186
186 186 186
186 186 186
186 186 186
186 186 186
186 186 186
186 186 186
186 186 186
186 186 186
186 186 186
186 186 186
186 186 186
186 186 186
186 186 186
186 186 186
186 186 186
186 186 186
186 186 186
186 186 186
186 186 186
186 186 186
186 186 186
186 186 186
186 186 186
186 186 186
186 186 186
186 186 186
186 186 186
186 186 186
186 186 186
186 186 186
186 186 186
186 186 186
186 186 186
186 186 186
186 186 186
186 186 186
186 186 186
186 186 186
186 186 186
186 186 186
186 186 186
186 186 186
186 186 186
186 186 186
186 186 186
186 186 186
186 186 186
186 186 186
186 186 186
186 186 186
186 186 186
186 186 186
186 186 186
186 186 186
186 186 186
186 186 186
186 186 186
186 186 186
186 186 186
186 186 186
186 186 186
186 186 186
186 186 186
186 186 186
186 186 186
186 186 186
186 186 186
186 186 186
186 186 186
186 186 186
186 186 186
186 186 186
186 186 186
186 186 186
186 186 186
186 186 186
186 186 186
186 186 186
186 186 186
186 186 186
186 186 186
186 186 186
186 186 186
186 186 186
186 186 186
186 186 186
186 186 186
186 186 186
186 186 186
186 186 186
186 186 186
186 186 186
186 186 186
186 186 186
186 186 186
186 186 186
186 186 186
186 186 186
186 186 186
186 186 186
186 186 186
186 186 186
186 186 186
186 186 186
186 186 186
186 186 186
186 186 186
186 186 186
186 186 186
186 186 186
186 186 186
186 186 186
186 186 186
186 186 186
186 186 186
186 186 186
186 186 186
186 186 186
186 186 186
186 186 186
186 186 186
186 186 186
186 186 186
186 186 186
186 186 186
186 186 186
186 186 186
186 186 186
186 186 186
186 186 186
186 186 186
186 186 186
186 186 186
186 186 186
186 186 186
186 186 186
186 186 186
186 186 186
186 186 186
186 186 186
186 186 186
186 186 186
186 186 186
186 186 186
186 186 186
186 186 186
186 186 186
186 186 186
186 186 186
186 186 186
186 186 186
186 186 186
186 186 186
186 186 186
186 186 186
186 186 186
186 186 186
186 186 186
186 186 186
186 186 186
186 186 186
186 186 186
186 186 186
186 186 186
186 186 186
186 186 186
186 186 186
186 186 186
186 186 186
186 186 186
186 186 186
186 186 186
186 186 186
186 186 186
186 186 186
186 186 186
186 186 186
186 186 186
186 186 186
186 186 186
186 186 186
186 186 186
186 186 186
186 186 186
186 186 186
186 186 186
186 186 186
186 186 186
186 186 186
186 186 186
186 186 186
186 186 186
186 186 186
186 186 186
186 186 186
186 186 186
186 186 186
186 186 186
186 186 186
186 186 186
186 186 186
186 186 186
186 186 186
186 186 186
186 186 186
186 186 186
186 186 186
186 186 186
186 186 186
186 186 186
186 186 186
186 186 186
186 186 186
186 186 186
186 186 186
186 186 186
186 186 186
186 186 186
186 186 186
186 186 186
186 186 186
186 186 186
186 186 186
186 186 186
186 186 186
186 186 186
186 186 186
186 186 186
186 186 186
186 186 186
186 186 186
186 186 186
186 186 186
186 186 186
186 186 186
186 186 186
186 186 186
186 186 186
186 186 186
186 186 186
186 186 186
186 186 186
186 186 186
186 186 186
186 186 186
186 186 186
186 186 186
186 186 186
186 186 186
186 186 186
186 186 186
186 186 186
186 186 186
186 186 186
186 186 186
186 186 186
186 186 186
186 186 186
186 186 186
186 186 186
186 186 186
186 186 186
186 186 186
186 186 186
186 186 186
186 186 186
186 186 186
186 186 186
186 186 186
186 186 186
186 186 186
186 186 186
186 186 186
186 186 186
186 186 186
186 186 186
186 186 186
186 186 186
186 186 186
186 186 186
186 186 186
186 186 186
186 186 186
186 186 186
186 186 186
186 186 186
186 186 186
186 186 186
186 186 186
186 186 186
186 186 186
186 186 186
186 186 186
186 186 186
186 186 186
186 186 186
186 186 186
186 186 186
186 186 186
186 186 186
186 186 186
186 186 186
186 186 186
186 186 186
186 186 186
186 186 186
186 186 186
186 186 186
186 186 186
186 186 186
186 186 186
186 186 186
186 186 186
186 186 186
186 186 186
186 186 186
186 186 186
186 186 186
186 186 186
186 186 186
186 186 186
186 186 186
186 186 186
186 186 186
186 186 186
186 186 186
186 186 186
186 186 186
186 186 186
186 186 186
186 186 186
186 186 186
186 186 186
186 186 186
186 186 186
186 186 186
186 186 186
186 186 186
186 186 186
186 186 186
186 186 186
186 186 186
186 186 186
186 186 186
186 186 186
186 186 186
186 186 186
186 186 186
186 186 186
186 186 186
186 186 186
186 186 186
186 186 186
186 186 186
186 186 186
186 186 186
186 186 186
186 186 186
186 186 186
186 186 186
186 186 186
186 186 186
186 186 186
186 186 186
186 186 186
186 186 186
186 186 186
186 186 186
186 186 186
186 186 186
186 186 186
186 186 186
186 186 186
186 186 186
186 186 186
186 186 186
186 186 186
186 186 186
186 186 186
186 186 186
186 186 186
186 186 186
186 186 186
186 186 186
186 186 186
186 186 186
186 186 186
186 186 186
186 186 186
186 186 186
186 186 186
186 186 186
186 186 186
186 186 186
186 186 186
186 186 186
186 186 186
186 186 186
186 186 186
186 186 186
186 186 186
186 186 186
186 186 186
186 186 186
186 186 186
186 186 186
186 186 186
186 186 186
186 186 186
186 186 186
186 186 186
186 186 186
186 186 186
186 186 186
186 186 186
186 186 186
186 186 186
186 186 186
186 186 186
186 186 186
186 186 186
186 186 186
186 186 186
186 186 186
186 186 186
186 186 186
186 186 186
186 186 186
186 186 186
186 186 186
186 186 186
186 186 186
186 186 186
186 186 186
186 186 186
186 186 186
186 186 186
186 186 186
186 186 186
186 186 186
186 186 186
186 186 186
186 186 186
186 186 186
186 186 186
186 186 186
186 186 186
186 186 186
186 186 186
186 186 186
186 186 186
186 186 186
186 186 186
186 186 186
186 186 186
186 186 186
186 186 186
186 186 186
186 186 186
186 186 186
186 186 186
186 186 186
186 186 186
186 186 186
186 186 186
186 186 186
186 186 186
186 186 186
186 186 186
186 186 186
186 186 186
186 186 186
186 186 186
186 186 186
186 186 186
186 186 186
186 186 186
186 186 186
186 186 186
186 186 186
186 186 186
186 186 186
186 186 186
186 186 186
186 186 186
186 186 186
186 186 186
186 186 186
186 186 186
186 186 186
186 186 186
186 186 186
186 186 186
186 186 186
186 186 186
186 186 186
186 186 186
186 186 186
186 186 186
186 186 186
186 186 186
186 186 186
186 186 186
186 186 186
186 186 186
186 186 186
186 186 186
186 186 186
186 186 186
186 186 186
186 186 186
186 186 186
186 186 186
186 186 186
186 186 186
186 186 186
186 186 186
186 186 186
186 186 186
186 186 186
186 186 186
186 186 186
186 186 186
186 186 186
186 186 186
186 186 186
186 186 186
186 186 186
186 186 186
186 186 186
186 186 186
186 186 186
186 186 186
186 186 186
186 186 186
186 186 186
186 186 186
186 186 186
186 186 186
186 186 186
186 186 186
186 186 186
186 186 186
186 186 186
186 186 186
186 186 186
186 186 186
186 186 186
186 186 186
186 186 186
186 186 186
186 186 186
186 186 186
186 186 186
186 186 186
186 186 186
186 186 186
186 186 186
186 186 186
186 186 186
186 186 186
186 186 186
186 186 186
186 186 186
186 186 186
186 186 186
186 186 186
186 186 186
186 186 186
186 186 186
186 186 186
186 186 186
186 186 186
186 186 186
186 186 186
186 186 186
186 186 186
186 186 186
186 186 186
186 186 186
186 186 186
186 186 186
186 186 186
186 186 186
186 186 186
186 186 186
186 186 186
186 186 186
186 186 186
186 186 186
186 186 186
186 186 186
186 186 186
186 186 186
186 186 186
186 186 186
186 186 186
186 186 186
186 186 186
186 186 186
186 186 186
186 186 186
186 186 186
186 186 186
186 186 186
186 186 186
186 186 186
186 186 186
186 186 186
186 186 186
186 186 186
186 186 186
186 186 186
186 186 186
186 186 186
186 186 186
186 186 186
186 186 186
186 186 186
186 186 186
186 186 186
186 186 186
186 186 186
186 186 186
186 186 186
186 186 186
186 186 186
186 186 186
186 186 186
186 186 186
186 186 186
186 186 186
186 186 186
186 186 186
186 186 186
186 186 186
186 186 186
186 186 186
186 186 186
186 186 186
186 186 186
186 186 186
186 186 186
186 186 186
186 186 186
186 186 186
186 186 186
186 186 186
186 186 186
186 186 186
186 186 186
186 186 186
186 186 186
186 186 186
186 186 186
186 186 186
186 186 186
186 186 186
186 186 186
186 186 186
186 186 186
186 186 186
186 186 186
186 186 186
186 186 186
186 186 186
186 186 186
186 186 186
186 186 186
186 186 186
186 186 186
186 186 186
186 186 186
186 186 186
186 186 186
186 186 186
186 186 186
186 186 186
186 186 186
186 186 186
186 186 186
186 186 186
186 186 186
186 186 186
186 186 186
186 186 186
186 186 186
186 186 186
186 186 186
186 186 186
186 186 186
186 186 186
186 186 186
186 186 186
186 186 186
186 186 186
186 186 186
186 186 186
186 186 186
186 186 186
186 186 186
186 186 186
186 186 186
186 186 186
186 186 186
186 186 186
186 186 186
186 186 186
186 186 186
186 186 186
186 186 186
186 186 186
186 186 186
186 186 186
186 186 186
186 186 186
186 186 186
186 186 186
186 186 186
186 186 186
186 186 186
186 186 186
186 186 186
186 186 186
186 186 186
186 186 186
186 186 186
186 186 186
186 186 186
186 186 186
186 186 186
186 186 186
186 186 186
186 186 186
186 186 186
186 186 186
186 186 186
186 186 186
186 186 186
186 186 186
186 186 186
186 186 186
186 186 186
186 186 186
186 186 186
186 186 186
186 186 186
186 186 186
186 186 186
186 186 186
186 186 186
186 186 186
186 186 186
186 186 186
186 186 186
186 186 186
186 186 186
186 186 186
186 186 186
186 186 186
186 186 186
186 186 186
186 186 186
186 186 186
186 186 186
186 186 186
186 186 186
186 186 186
186 186 186
186 186 186
186 186 186
186 186 186
186 186 186
186 186 186
186 186 186
186 186 186
186 186 186
186 186 186
186 186 186
186 186 186
186 186 186
186 186 186
186 186 186
186 186 186
186 186 186
186 186 186
186 186 186
186 186 186
186 186 186
186 186 186
186 186 186
186 186 186
186 186 186
186 186 186
186 186 186
186 186 186
186 186 186
186 186 186
186 186 186
186 186 186
186 186 186
186 186 186
186 186 186
186 186 186
186 186 186
186 186 186
186 186 186
186 186 186
186 186 186
186 186 186
186 186 186
186 186 186
186 186 186
186 186 186
186 186 186
186 186 186
186 186 186
186 186 186
186 186 186
186 186 186
186 186 186
186 186 186
186 186 186
186 186 186
186 186 186
186 186 186
186 186 186
186 186 186
186 186 186
186 186 186
186 186 186
186 186 186
186 186 186
186 186 186
186 186 186
186 186 186
186 186 186
186 186 186
186 186 186
186 186 186
186 186 186
186 186 186
186 186 186
186 186 186
186 186 186
186 186 186
186 186 186
186 186 186
186 186 186
186 186 186
186 186 186
186 186 186
186 186 186
186 186 186
186 186 186
186 186 186
186 186 186
186 186 186
186 186 186
186 186 186
186 186 186
186 186 186
186 186 186
186 186 186
186 186 186
186 186 186
186 186 186
186 186 186
186 186 186
186 186 186
186 186 186
186 186 186
186 186 186
186 186 186
186 186 186
186 186 186
186 186 186
186 186 186
186 186 186
186 186 186
186 186 186
186 186 186
186 186 186
186 186 186
186 186 186
186 186 186
186 186 186
186 186 186
186 186 186
186 186 186
186 186 186
186 186 186
186 186 186
186 186 186
186 186 186
186 186 186
186 186 186
186 186 186
186 186 186
186 186 186
186 186 186
186 186 186
186 186 186
186 186 186
186 186 186
186 186 186
186 186 186
186 186 186
186 186 186
186 186 186
186 186 186
186 186 186
186 186 186
186 186 186
186 186 186
186 186 186
186 186 186
186 186 186
186 186 186
186 186 186
186 186 186
186 186 186
186 186 186
186 186 186
186 186 186
186 186 186
186 186 186
186 186 186
186 186 186
186 186 186
186 186 186
186 186 186
186 186 186
186 186 186
186 186 186
186 186 186
186 186 186
186 186 186
186 186 186
186 186 186
186 186 186
186 186 186
186 186 186
186 186 186
186 186 186
186 186 186
186 186 186
186 186 186
186 186 186
186 186 186
186 186 186
186 186 186
186 186 186
186 186 186
186 186 186
186 186 186
186 186 186
186 186 186
186 186 186
186 186 186
186 186 186
186 186 186
186 186 186
186 186 186
186 186 186
186 186 186
186 186 186
186 186 186
186 186 186
186 186 186
186 186 186
186 186 186
186 186 186
186 186 186
186 186 186
186 186 186
186 186 186
186 186 186
186 186 186
186 186 186
186 186 186
186 186 186
186 186 186
186 186 186
186 186 186
186 186 186
186 186 186
186 186 186
186 186 186
186 186 186
186 186 186
186 186 186
186 186 186
186 186 186
186 186 186
186 186 186
186 186 186
186 186 186
186 186 186
186 186 186
186 186 186
186 186 186
186 186 186
186 186 186
186 186 186
186 186 186
186 186 186
186 186 186
186 186 186
186 186 186
186 186 186
186 186 186
186 186 186
186 186 186
186 186 186
186 186 186
186 186 186
186 186 186
186 186 186
186 186 186
186 186 186
186 186 186
186 186 186
186 186 186
186 186 186
186 186 186
186 186 186
186 186 186
186 186 186
186 186 186
186 186 186
186 186 186
186 186 186
186 186 186
186 186 186
186 186 186
186 186 186
186 186 186
186 186 186
186 186 186
186 186 186
186 186 186
186 186 186
186 186 186
186 186 186
186 186 186
186 186 186
186 186 186
186 186 186
186 186 186
186 186 186
186 186 186
186 186 186
186 186 186
186 186 186
186 186 186
186 186 186
186 186 186
186 186 186
186 186 186
186 186 186
186 186 186
186 186 186
186 186 186
186 186 186
186 186 186
186 186 186
186 186 186
186 186 186
186 186 186
186 186 186
186 186 186
186 186 186
186 186 186
186 186 186
186 186 186
186 186 186
186 186 186
186 186 186
186 186 186
186 186 186
186 186 186
186 186 186
186 186 186
186 186 186
186 186 186
186 186 186
186 186 186
186 186 186
186 186 186
186 186 186
186 186 186
186 186 186
186 186 186
186 186 186
186 186 186
186 186 186
186 186 186
186 186 186
186 186 186
186 186 186
186 186 186
186 186 186
186 186 186
186 186 186
186 186 186
186 186 186
186 186 186
186 186 186
186 186 186
186 186 186
186 186 186
186 186 186
186 186 186
186 186 186
186 186 186
186 186 186
186 186 186
186 186 186
186 186 186
186 186 186
186 186 186
186 186 186
186 186 186
186 186 186
186 186 186
186 186 186
186 186 186
186 186 186
186 186 186
186 186 186
186 186 186
186 186 186
186 186 186
186 186 186
186 186 186
186 186 186
186 186 186
186 186 186
186 186 186
186 186 186
186 186 186
186 186 186
186 186 186
186 186 186
186 186 186
186 186 186
186 186 186
186 186 186
186 186 186
186 186 186
186 186 186
186 186 186
186 186 186
186 186 186
186 186 186
186 186 186
186 186 186
186 186 186
186 186 186
186 186 186
186 186 186
186 186 186
186 186 186
186 186 186
186 186 186
186 186 186
186 186 186
186 186 186
186 186 186
186 186 186
186 186 186
186 186 186
186 186 186
186 186 186
186 186 186
186 186 186
186 186 186
186 186 186
186 186 186
186 186 186
186 186 186
186 186 186
186 186 186
186 186 186
186 186 186
186 186 186
186 186 186
186 186 186
186 186 186
186 186 186
186 186 186
186 186 186
186 186 186
186 186 186
186 186 186
186 186 186
186 186 186
186 186 186
186 186 186
186 186 186
186 186 186
186 186 186
186 186 186
186 186 186
186 186 186
186 186 186
186 186 186
186 186 186
186 186 186
186 186 186
186 186 186
186 186 186
186 186 186
186 186 186
186 186 186
186 186 186
186 186 186
186 186 186
186 186 186
186 186 186
186 186 186
186 186 186
186 186 186
186 186 186
186 186 186
186 186 186
186 186 186
186 186 186
186 186 186
186 186 186
186 186 186
186 186 186
186 186 186
186 186 186
186 186 186
186 186 186
186 186 186
186 186 186
186 186 186
186 186 186
186 186 186
186 186 186
186 186 186
186 186 186
186 186 186
186 186 186
186 186 186
186 186 186
186 186 186
186 186 186
186 186 186
186 186 186
186 186 186
186 186 186
186 186 186
186 186 186
186 186 186
186 186 186
186 186 186
186 186 186
186 186 186
186 186 186
186 186 186
186 186 186
186 186 186
186 186 186
186 186 186
186 186 186
186 186 186
186 186 186
186 186 186
186 186 186
186 186 186
186 186 186
186 186 186
186 186 186
186 186 186
186 186 186
186 186 186
186 186 186
186 186 186
186 186 186
186 186 186
186 186 186
186 186 186
186 186 186
186 186 186
186 186 186
186 186 186
186 186 186
186 186 186
186 186 186
186 186 186
186 186 186
186 186 186
186 186 186
186 186 186
186 186 186
186 186 186
186 186 186
186 186 186
186 186 186
186 186 186
186 186 186
186 186 186
186 186 186
186 186 186
186 186 186
186 186 186
186 186 186
186 186 186
186 186 186
186 186 186
186 186 186
186 186 186
186 186 186
186 186 186
186 186 186
186 186 186
186 186 186
186 186 186
186 186 186
186 186 186
186 186 186
186 186 186
186 186 186
186 186 186
186 186 186
186 186 186
186 186 186
186 186 186
186 186 186
186 186 186
186 186 186
186 186 186
186 186 186
186 186 186
186 186 186
186 186 186
186 186 186
186 186 186
186 186 186
186 186 186
186 186 186
186 186 186
186 186 186
186 186 186
186 186 186
186 186 186
186 186 186
186 186 186
186 186 186
186 186 186
186 186 186
186 186 186
186 186 186
186 186 186
186 186 186
186 186 186
186 186 186
186 186 186
186 186 186
186 186 186
186 186 186
186 186 186
186 186 186
186 186 186
186 186 186
186 186 186
186 186 186
186 186 186
186 186 186
186 186 186
186 186 186
186 186 186
186 186 186
186 186 186
186 186 186
186 186 186
186 186 186
186 186 186
186 186 186
186 186 186
186 186 186
186 186 186
186 186 186
186 186 186
186 186 186
186 186 186
186 186 186
186 186 186
186 186 186
186 186 186
186 186 186
186 186 186
186 186 186
186 186 186
186 186 186
186 186 186
186 186 186
186 186 186
186 186 186
186 186 186
186 186 186
186 186 186
186 186 186
186 186 186
186 186 186
186 186 186
186 186 186
186 186 186
186 186 186
186 186 186
186 186 186
186 186 186
186 186 186
186 186 186
186 186 186
186 186 186
186 186 186
186 186 186
186 186 186
186 186 186
186 186 186
186 186 186
186 186 186
186 186 186
186 186 186
186 186 186
186 186 186
186 186 186
186 186 186
186 186 186
186 186 186
186 186 186
186 186 186
186 186 186
186 186 186
186 186 186
186 186 186
186 186 186
186 186 186
186 186 186
186 186 186
186 186 186
186 186 186
186 186 186
186 186 186
186 186 186
186 186 186
186 186 186
186 186 186
186 186 186
186 186 186
186 186 186
186 186 186
186 186 186
186 186 186
186 186 186
186 186 186
186 186 186
186 186 186
186 186 186
186 186 186
186 186 186
186 186 186
186 186 186
186 186 186
186 186 186
186 186 186
186 186 186
186 186 186
186 186 186
186 186 186
186 186 186
186 186 186
186 186 186
186 186 186
186 186 186
186 186 186
186 186 186
186 186 186
186 186 186
186 186 186
186 186 186
186 186 186
186 186 186
186 186 186
186 186 186
186 186 186
186 186 186
186 186 186
186 186 186
186 186 186
186 186 186
186 186 186
186 186 186
186 186 186
186 186 186
186 186 186
186 186 186
186 186 186
186 186 186
186 186 186
186 186 186
186 186 186
186 186 186
186 186 186
186 186 186
186 186 186
186 186 186
186 186 186
186 186 186
186 186 186
186 186 186
186 186 186
186 186 186
186 186 186
186 186 186
186 186 186
186 186 186
186 186 186
186 186 186
186 186 186
186 186 186
186 186 186
186 186 186
186 186 186
186 186 186
186 186 186
186 186 186
186 186 186
186 186 186
186 186 186
186 186 186
186 186 186
186 186 186
186 186 186
186 186 186
186 186 186
186 186 186
186 186 186
186 186 186
186 186 186
186 186 186
186 186 186
186 186 186
186 186 186
186 186 186
186 186 186
186 186 186
186 186 186
186 186 186
186 186 186
186 186 186
186 186 186
186 186 186
186 186 186
186 186 186
186 186 186
186 186 186
186 186 186
186 186 186
186 186 186
186 186 186
186 186 186
186 186 186
186 186 186
186 186 186
186 186 186
186 186 186
186 186 186
186 186 186
186 186 186
186 186 186
186 186 186
186 186 186
186 186 186
186 186 186
186 186 186
186 186 186
186 186 186
186 186 186
186 186 186
186 186 186
186 186 186
186 186 186
186 186 186
186 186 186
186 186 186
186 186 186
186 186 186
186 186 186
186 186 186
186 186 186
186 186 186
186 186 186
186 186 186
186 186 186
186 186 186
186 186 186
186 186 186
186 186 186
186 186 186
186 186 186
186 186 186
186 186 186
186 186 186
186 186 186
186 186 186
186 186 186
186 186 186
186 186 186
186 186 186
186 186 186
186 186 186
186 186 186
186 186 186
186 186 186
186 186 186
186 186 186
186 186 186
186 186 186
186 186 186
186 186 186
186 186 186
186 186 186
186 186 186
186 186 186
186 186 186
186 186 186
186 186 186
186 186 186
186 186 186
186 186 186
186 186 186
186 186 186
186 186 186
186 186 186
186 186 186
186 186 186
186 186 186
186 186 186
186 186 186
186 186 186
186 186 186
186 186 186
186 186 186
186 186 186
186 186 186
186 186 186
186 186 186
186 186 186
186 186 186
186 186 186
186 186 186
186 186 186
186 186 186
186 186 186
186 186 186
186 186 186
186 186 186
186 186 186
186 186 186
186 186 186
186 186 186
186 186 186
186 186 186
186 186 186
186 186 186
186 186 186
186 186 186
186 186 186
186 186 186
186 186 186
186 186 186
186 186 186
186 186 186
186 186 186
186 186 186
186 186 186
186 186 186
186 186 186
186 186 186
186 186 186
186 186 186
186 186 186
186 186 186
186 186 186
186 186 186
186 186 186
186 186 186
186 186 186
186 186 186
186 186 186
186 186 186
186 186 186
186 186 186
186 186 186
186 186 186
186 186 186
186 186 186
186 186 186
186 186 186
186 186 186
186 186 186
186 186 186
186 186 186
186 186 186
186 186 186
186 186 186
186 186 186
186 186 186
186 186 186
186 186 186
186 186 186
186 186 186
186 186 186
186 186 186
186 186 186
186 186 186
186 186 186
186 186 186
186 186 186
186 186 186
186 186 186
186 186 186
186 186 186
186 186 186
186 186 186
186 186 186
186 186 186
186 186 186
186 186 186
186 186 186
186 186 186
186 186 186
186 186 186
186 186 186
186 186 186
186 186 186
186 186 186
186 186 186
186 186 186
186 186 186
186 186 186
186 186 186
186 186 186
186 186 186
186 186 186
186 186 186
186 186 186
186 186 186
186 186 186
186 186 186
186 186 186
186 186 186
186 186 186
186 186 186
186 186 186
186 186 186
186 186 186
186 186 186
186 186 186
186 186 186
186 186 186
186 186 186
186 186 186
186 186 186
186 186 186
186 186 186
186 186 186
186 186 186
186 186 186
186 186 186
186 186 186
186 186 186
186 186 186
186 186 186
186 186 186
186 186 186
186 186 186
186 186 186
186 186 186
186 186 186
186 186 186
186 186 186
186 186 186
186 186 186
186 186 186
186 186 186
186 186 186
186 186 186
186 186 186
186 186 186
186 186 186
186 186 186
186 186 186
186 186 186
186 186 186
186 186 186
186 186 186
186 186 186
186 186 186
186 186 186
186 186 186
186 186 186
186 186 186
186 186 186
186 186 186
186 186 186
186 186 186
186 186 186
186 186 186
186 186 186
186 186 186
186 186 186
186 186 186
186 186 186
186 186 186
186 186 186
186 186 186
186 186 186
186 186 186
186 186 186
186 186 186
186 186 186
186 186 186
186 186 186
186 186 186
186 186 186
186 186 186
186 186 186
186 186 186
186 186 186
186 186 186
186 186 186
186 186 186
186 186 186
186 186 186
186 186 186
186 186 186
186 186 186
186 186 186
186 186 186
186 186 186
186 186 186
186 186 186
186 186 186
186 186 186
186 186 186
186 186 186
186 186 186
186 186 186
186 186 186
186 186 186
186 186 186
186 186 186
186 186 186
186 186 186
186 186 186
186 186 186
186 186 186
186 186 186
186 186 186
186 186 186
186 186 186
186 186 186
186 186 186
186 186 186
186 186 186
186 186 186
186 186 186
186 186 186
186 186 186
186 186 186
186 186 186
186 186 186
186 186 186
186 186 186
186 186 186
186 186 186
186 186 186
186 186 186
186 186 186
186 186 186
186 186 186
186 186 186
186 186 186
186 186 186
186 186 186
186 186 186
186 186 186
186 186 186
186 186 186
186 186 186
186 186 186
186 186 186
186 186 186
186 186 186
186 186 186
186 186 186
186 186 186
186 186 186
186 186 186
186 186 186
186 186 186
186 186 186
186 186 186
186 186 186
186 186 186
186 186 186
186 186 186
186 186 186
186 186 186
186 186 186
186 186 186
186 186 186
186 186 186
186 186 186
186 186 186
186 186 186
186 186 186
186 186 186
186 186 186
186 186 186
186 186 186
186 186 186
186 186 186
186 186 186
186 186 186
186 186 186
186 186 186
186 186 186
186 186 186
186 186 186
186 186 186
186 186 186
186 186 186
186 186 186
186 186 186
186 186 186
186 186 186
186 186 186
186 186 186
186 186 186
186 186 186
186 186 186
186 186 186
186 186 186
186 186 186
186 186 186
186 186 186
186 186 186
186 186 186
186 186 186
186 186 186
186 186 186
186 186 186
186 186 186
186 186 186
186 186 186
186 186 186
186 186 186
186 186 186
186 186 186
186 186 186
186 186 186
186 186 186
186 186 186
186 186 186
186 186 186
186 186 186
186 186 186
186 186 186
186 186 186
186 186 186
186 186 186
186 186 186
186 186 186
186 186 186
186 186 186
186 186 186
186 186 186
186 186 186
186 186 186
186 186 186
186 186 186
186 186 186
186 186 186
186 186 186
186 186 186
186 186 186
186 186 186
186 186 186
186 186 186
186 186 186
186 186 186
186 186 186
186 186 186
186 186 186
186 186 186
186 186 186
186 186 186
186 186 186
186 186 186
186 186 186
186 186 186
186 186 186
186 186 186
186 186 186
186 186 186
186 186 186
186 186 186
186 186 186
186 186 186
186 186 186
186 186 186
186 186 186
186 186 186
186 186 186
186 186 186
186 186 186
186 186 186
186 186 186
186 186 186
186 186 186
186 186 186
186 186 186
186 186 186
186 186 186
186 186 186
186 186 186
186 186 186
186 186 186
186 186 186
186 186 186
186 186 186
186 186 186
186 186 186
186 186 186
186 186 186
186 186 186
186 186 186
186 186 186
186 186 186
186 186 186
186 186 186
186 186 186
186 186 186
186 186 186
186 186 186
186 186 186
186 186 186
186 186 186
186 186 186
186 186 186
186 186 186
186 186 186
186 186 186
186 186 186
186 186 186
186 186 186
186 186 186
186 186 186
186 186 186
186 186 186
186 186 186
186 186 186
186 186 186
186 186 186
186 186 186
186 186 186
186 186 186
186 186 186
186 186 186
186 186 186
186 186 186
186 186 186
186 186 186
186 186 186
186 186 186
186 186 186
186 186 186
186 186 186
186 186 186
186 186 186
186 186 186
186 186 186
186 186 186
186 186 186
186 186 186
186 186 186
186 186 186
186 186 186
186 186 186
186 186 186
186 186 186
186 186 186
186 186 186
186 186 186
186 186 186
186 186 186
186 186 186
186 186 186
186 186 186
186 186 186
186 186 186
186 186 186
186 186 186
186 186 186
186 186 186
186 186 186
186 186 186
186 186 186
186 186 186
186 186 186
186 186 186
186 186 186
186 186 186
186 186 186
186 186 186
186 186 186
186 186 186
186 186 186
186 186 186
186 186 186
186 186 186
186 186 186
186 186 186
186 186 186
186 186 186
186 186 186
186 186 186
186 186 186
186 186 186
186 186 186
186 186 186
186 186 186
186 186 186
186 186 186
186 186 186
186 186 186
186 186 186
186 186 186
186 186 186
186 186 186
186 186 186
186 186 186
186 186 186
186 186 186
186 186 186
186 186 186
186 186 186
186 186 186
186 186 186
186 186 186
186 186 186
186 186 186
186 186 186
186 186 186
186 186 186
186 186 186
186 186 186
186 186 186
186 186 186
186 186 186
186 186 186
186 186 186
186 186 186
186 186 186
186 186 186
186 186 186
186 186 186
186 186 186
186 186 186
186 186 186
186 186 186
186 186 186
186 186 186
186 186 186
186 186 186
186 186 186
186 186 186
186 186 186
186 186 186
186 186 186
186 186 186
186 186 186
186 186 186
186 186 186
186 186 186
186 186 186
186 186 186
186 186 186
186 186 186
186 186 186
186 186 186
186 186 186
186 186 186
186 186 186
186 186 186
186 186 186
186 186 186
186 186 186
186 186 186
186 186 186
186 186 186
186 186 186
186 186 186
186 186 186
186 186 186
186 186 186
186 186 186
186 186 186
186 186 186
186 186 186
186 186 186
186 186 186
186 186 186
186 186 186
186 186 186
186 186 186
186 186 186
186 186 186
186 186 186
186 186 186
186 186 186
186 186 186
186 186 186
186 186 186
186 186 186
186 186 186
186 186 186
186 186 186
186 186 186
186 186 186
186 186 186
186 186 186
186 186 186
186 186 186
186 186 186
186 186 186
186 186 186
186 186 186
186 186 186
186 186 186
186 186 186
186 186 186
186 186 186
186 186 186
186 186 186
186 186 186
186 186 186
186 186 186
186 186 186
186 186 186
186 186 186
186 186 186
186 186 186
186 186 186
186 186 186
186 186 186
186 186 186
186 186 186
186 186 186
186 186 186
186 186 186
186 186 186
186 186 186
186 186 186
186 186 186
186 186 186
186 186 186
186 186 186
186 186 186
186 186 186
186 186 186
186 186 186
186 186 186
186 186 186
186 186 186
186 186 186
186 186 186
186 186 186
186 186 186
186 186 186
186 186 186
186 186 186
186 186 186
186 186 186
186 186 186
186 186 186
186 186 186
186 186 186
186 186 186
186 186 186
186 186 186
186 186 186
186 186 186
186 186 186
186 186 186
186 186 186
186 186 186
186 186 186
186 186 186
186 186 186
186 186 186
186 186 186
186 186 186
186 186 186
186 186 186
186 186 186
186 186 186
186 186 186
186 186 186
186 186 186
186 186 186
186 186 186
186 186 186
186 186 186
186 186 186
186 186 186
186 186 186
186 186 186
186 186 186
186 186 186
186 186 186
186 186 186
186 186 186
186 186 186
186 186 186
186 186 186
186 186 186
186 186 186
186 186 186
186 186 186
186 186 186
186 186 186
186 186 186
186 186 186
186 186 186
186 186 186
186 186 186
186 186 186
186 186 186
186 186 186
186 186 186
186 186 186
186 186 186
186 186 186
186 186 186
186 186 186
186 186 186
186 186 186
186 186 186
186 186 186
186 186 186
186 186 186
186 186 186
186 186 186
186 186 186
186 186 186
186 186 186
186 186 186
186 186 186
186 186 186
186 186 186
186 186 186
186 186 186
186 186 186
186 186 186
186 186 186
186 186 186
186 186 186
186 186 186
186 186 186
186 186 186
186 186 186
186 186 186
186 186 186
186 186 186
186 186 186
186 186 186
186 186 186
186 186 186
186 186 186
186 186 186
186 186 186
186 186 186
186 186 186
186 186 186
186 186 186
186 186 186
186 186 186
186 186 186
186 186 186
186 186 186
186 186 186
186 186 186
186 186 186
186 186 186
186 186 186
186 186 186
186 186 186
186 186 186
186 186 186
186 186 186
186 186 186
186 186 186
186 186 186
186 186 186
186 186 186
186 186 186
186 186 186
186 186 186
186 186 186
186 186 186
186 186 186
186 186 186
186 186 186
186 186 186
186 186 186
186 186 186
186 186 186
186 186 186
186 186 186
186 186 186
186 186 186
186 186 186
186 186 186
186 186 186
186 186 186
186 186 186
186 186 186
186 186 186
186 186 186
186 186 186
186 186 186
186 186 186
186 186 186
186 186 186
186 186 186
186 186 186
186 186 186
186 186 186
186 186 186
186 186 186
186 186 186
186 186 186
186 186 186
186 186 186
186 186 186
186 186 186
186 186 186
186 186 186
186 186 186
186 186 186
186 186 186
186 186 186
186 186 186
186 186 186
186 186 186
186 186 186
186 186 186
186 186 186
186 186 186
186 186 186
186 186 186
186 186 186
186 186 186
186 186 186
186 186 186
186 186 186
186 186 186
186 186 186
186 186 186
186 186 186
186 186 186
186 186 186
186 186 186
186 186 186
186 186 186
186 186 186
186 186 186
186 186 186
186 186 186
186 186 186
186 186 186
186 186 186
186 186 186
186 186 186
186 186 186
186 186 186
186 186 186
186 186 186
186 186 186
186 186 186
186 186 186
186 186 186
186 186 186
186 186 186
186 186 186
186 186 186
186 186 186
186 186 186
186 186 186
186 186 186
186 186 186
186 186 186
186 186 186
186 186 186
186 186 186
186 186 186
186 186 186
186 186 186
186 186 186
186 186 186
186 186 186
186 186 186
186 186 186
186 186 186
186 186 186
186 186 186
186 186 186
186 186 186
186 186 186
186 186 186
186 186 186
186 186 186
186 186 186
186 186 186
186 186 186
186 186 186
186 186 186
186 186 186
186 186 186
186 186 186
186 186 186
186 186 186
186 186 186
186 186 186
186 186 186
186 186 186
186 186 186
186 186 186
186 186 186
186 186 186
186 186 186
186 186 186
186 186 186
186 186 186
186 186 186
186 186 186
186 186 186
186 186 186
186 186 186
186 186 186
186 186 186
186 186 186
186 186 186
186 186 186
186 186 186
186 186 186
186 186 186
186 186 186
186 186 186
186 186 186
186 186 186
186 186 186
186 186 186
186 186 186
186 186 186
186 186 186
186 186 186
186 186 186
186 186 186
186 186 186
186 186 186
186 186 186
186 186 186
186 186 186
186 186 186
186 186 186
186 186 186
186 186 186
186 186 186
186 186 186
186 186 186
186 186 186
186 186 186
186 186 186
186 186 186
186 186 186
186 186 186
186 186 186
186 186 186
186 186 186
186 186 186
186 186 186
186 186 186
186 186 186
186 186 186
186 186 186
186 186 186
186 186 186
186 186 186
186 186 186
186 186 186
186 186 186
186 186 186
186 186 186
186 186 186
186 186 186
186 186 186
186 186 186
186 186 186
186 186 186
186 186 186
186 186 186
186 186 186
186 186 186
186 186 186
186 186 186
186 186 186
186 186 186
186 186 186
186 186 186
186 186 186
186 186 186
186 186 186
186 186 186
186 186 186
186 186 186
186 186 186
186 186 186
186 186 186
186 186 186
186 186 186
186 186 186
186 186 186
186 186 186
186 186 186
186 186 186
186 186 186
186 186 186
186 186 186
186 186 186
186 186 186
186 186 186
186 186 186
186 186 186
186 186 186
186 186 186
186 186 186
186 186 186
186 186 186
186 186 186
186 186 186
186 186 186
186 186 186
186 186 186
186 186 186
186 186 186
186 186 186
186 186 186
186 186 186
186 186 186
186 186 186
186 186 186
186 186 186
186 186 186
186 186 186
186 186 186
186 186 186
186 186 186
186 186 186
186 186 186
186 186 186
186 186 186
186 186 186
186 186 186
186 186 186
186 186 186
186 186 186
186 186 186
186 186 186
186 186 186
186 186 186
186 186 186
186 186 186
186 186 186
186 186 186
186 186 186
186 186 186
186 186 186
186 186 186
186 186 186
186 186 186
186 186 186
186 186 186
186 186 186
186 186 186
186 186 186
186 186 186
186 186 186
186 186 186
186 186 186
186 186 186
186 186 186
186 186 186
186 186 186
186 186 186
186 186 186
186 186 186
186 186 186
186 186 186
186 186 186
186 186 186
186 186 186
186 186 186
186 186 186
186 186 186
186 186 186
186 186 186
186 186 186
186 186 186
186 186 186
186 186 186
186 186 186
186 186 186
186 186 186
186 186 186
186 186 186
186 186 186
186 186 186
186 186 186
186 186 186
186 186 186
186 186 186
186 186 186
186 186 186
186 186 186
186 186 186
186 186 186
186 186 186
186 186 186
186 186 186
186 186 186
186 186 186
186 186 186
186 186 186
186 186 186
186 186 186
186 186 186
186 186 186
186 186 186
186 186 186
186 186 186
186 186 186
186 186 186
186 186 186
186 186 186
186 186 186
186 186 186
186 186 186
186 186 186
186 186 186
186 186 186
186 186 186
186 186 186
186 186 186
186 186 186
186 186 186
186 186 186
186 186 186
186 186 186
186 186 186
186 186 186
186 186 186
186 186 186
186 186 186
186 186 186
186 186 186
186 186 186
186 186 186
186 186 186
186 186 186
186 186 186
186 186 186
186 186 186
186 186 186
186 186 186
186 186 186
186 186 186
186 186 186
186 186 186
186 186 186
186 186 186
186 186 186
186 186 186
186 186 186
186 186 186
186 186 186
186 186 186
186 186 186
186 186 186
186 186 186
186 186 186
186 186 186
186 186 186
186 186 186
186 186 186
186 186 186
186 186 186
186 186 186
186 186 186
186 186 186
186 186 186
186 186 186
186 186 186
186 186 186
186 186 186
186 186 186
186 186 186
186 186 186
186 186 186
186 186 186
186 186 186
186 186 186
186 186 186
186 186 186
186 186 186
186 186 186
186 186 186
186 186 186
186 186 186
186 186 186
186 186 186
186 186 186
186 186 186
186 186 186
186 186 186
186 186 186
186 186 186
186 186 186
186 186 186
186 186 186
186 186 186
186 186 186
186 186 186
186 186 186
186 186 186
186 186 186
186 186 186
186 186 186
186 186 186
186 186 186
186 186 186
186 186 186
186 186 186
186 186 186
186 186 186
186 186 186
186 186 186
186 186 186
186 186 186
186 186 186
186 186 186
186 186 186
186 186 186
186 186 186
186 186 186
186 186 186
186 186 186
186 186 186
186 186 186
186 186 186
186 186 186
186 186 186
186 186 186
186 186 186
186 186 186
186 186 186
186 186 186
186 186 186
186 186 186
186 186 186
186 186 186
186 186 186
186 186 186
186 186 186
186 186 186
186 186 186
186 186 186
186 186 186
186 186 186
186 186 186
186 186 186
186 186 186
186 186 186
186 186 186
186 186 186
186 186 186
186 186 186
186 186 186
186 186 186
186 186 186
186 186 186
186 186 186
186 186 186
186 186 186
186 186 186
186 186 186
186 186 186
186 186 186
186 186 186
186 186 186
186 186 186
186 186 186
186 186 186
186 186 186
186 186 186
186 186 186
186 186 186
186 186 186
186 186 186
186 186 186
186 186 186
186 186 186
186 186 186
186 186 186
186 186 186
186 186 186
186 186 186
186 186 186
186 186 186
186 186 186
186 186 186
186 186 186
186 186 186
186 186 186
186 186 186
186 186 186
186 186 186
186 186 186
186 186 186
186 186 186
186 186 186
186 186 186
186 186 186
186 186 186
186 186 186
186 186 186
186 186 186
186 186 186
186 186 186
186 186 186
186 186 186
186 186 186
186 186 186
186 186 186
186 186 186
186 186 186
186 186 186
186 186 186
186 186 186
186 186 186
186 186 186
186 186 186
186 186 186
186 186 186
186 186 186
186 186 186
186 186 186
186 186 186
186 186 186
186 186 186
186 186 186
186 186 186
186 186 186
186 186 186
186 186 186
186 186 186
186 186 186
186 186 186
186 186 186
186 186 186
186 186 186
186 186 186
186 186 186
186 186 186
186 186 186
186 186 186
186 186 186
186 186 186
186 186 186
186 186 186
186 186 186
186 186 186
186 186 186
186 186 186
186 186 186
186 186 186
186 186 186
186 186 186
186 186 186
186 186 186
186 186 186
186 186 186
186 186 186
186 186 186
186 186 186
186 186 186
186 186 186
186 186 186
186 186 186
186 186 186
186 186 186
186 186 186
186 186 186
186 186 186
186 186 186
186 186 186
186 186 186
186 186 186
186 186 186
186 186 186
186 186 186
186 186 186
186 186 186
186 186 186
186 186 186
186 186 186
186 186 186
186 186 186
186 186 186
186 186 186
186 186 186
186 186 186
186 186 186
186 186 186
186 186 186
186 186 186
186 186 186
186 186 186
186 186 186
186 186 186
186 186 186
186 186 186
186 186 186
186 186 186
186 186 186
186 186 186
186 186 186
186 186 186
186 186 186
186 186 186
186 186 186
186 186 186
186 186 186
186 186 186
186 186 186
186 186 186
186 186 186
186 186 186
186 186 186
186 186 186
186 186 186
186 186 186
186 186 186
186 186 186
186 186 186
186 186 186
186 186 186
186 186 186
186 186 186
186 186 186
186 186 186
186 186 186
186 186 186
186 186 186
186 186 186
186 186 186
186 186 186
186 186 186
186 186 186
186 186 186
186 186 186
186 186 186
186 186 186
186 186 186
186 186 186
186 186 186
186 186 186
186 186 186
186 186 186
186 186 186
186 186 186
186 186 186
186 186 186
186 186 186
186 186 186
186 186 186
186 186 186
186 186 186
186 186 186
186 186 186
186 186 186
186 186 186
186 186 186
186 186 186
186 186 186
186 186 186
186 186 186
186 186 186
186 186 186
186 186 186
186 186 186
186 186 186
186 186 186
186 186 186
186 186 186
186 186 186
186 186 186
186 186 186
186 186 186
186 186 186
186 186 186
186 186 186
186 186 186
186 186 186
186 186 186
186 186 186
186 186 186
186 186 186
186 186 186
186 186 186
186 186 186
186 186 186
186 186 186
186 186 186
186 186 186
186 186 186
186 186 186
186 186 186
186 186 186
186 186 186
186 186 186
186 186 186
186 186 186
186 186 186
186 186 186
186 186 186
186 186 186
186 186 186
186 186 186
186 186 186
186 186 186
186 186 186
186 186 186
186 186 186
186 186 186
186 186 186
186 186 186
186 186 186
186 186 186
186 186 186
186 186 186
186 186 186
186 186 186
186 186 186
186 186 186
186 186 186
186 186 186
186 186 186
186 186 186
186 186 186
186 186 186
186 186 186
186 186 186
186 186 186
186 186 186
186 186 186
186 186 186
186 186 186
186 186 186
186 186 186
186 186 186
186 186 186
186 186 186
186 186 186
186 186 186
186 186 186
186 186 186
186 186 186
186 186 186
186 186 186
186 186 186
186 186 186
186 186 186
186 186 186
186 186 186
186 186 186
186 186 186
186 186 186
186 186 186
186 186 186
186 186 186
186 186 186
186 186 186
186 186 186
186 186 186
186 186 186
186 186 186
186 186 186
186 186 186
186 186 186
186 186 186
186 186 186
186 186 186
186 186 186
186 186 186
186 186 186
186 186 186
186 186 186
186 186 186
186 186 186
186 186 186
186 186 186
186 186 186
186 186 186
186 186 186
186 186 186
186 186 186
186 186 186
186 186 186
186 186 186
186 186 186
186 186 186
186 186 186
186 186 186
186 186 186
186 186 186
186 186 186
186 186 186
186 186 186
186 186 186
186 186 186
186 186 186
186 186 186
186 186 186
186 186 186
186 186 186
186 186 186
186 186 186
186 186 186
186 186 186
186 186 186
186 186 186
186 186 186
186 186 186
186 186 186
186 186 186
186 186 186
186 186 186
186 186 186
186 186 186
186 186 186
186 186 186
186 186 186
186 186 186
186 186 186
186 186 186
186 186 186
186 186 186
186 186 186
186 186 186
186 186 186
186 186 186
186 186 186
186 186 186
186 186 186
186 186 186
186 186 186
186 186 186
186 186 186
186 186 186
186 186 186
186 186 186
186 186 186
186 186 186
186 186 186
186 186 186
186 186 186
186 186 186
186 186 186
186 186 186
186 186 186
186 186 186
186 186 186
186 186 186
186 186 186
186 186 186
186 186 186
186 186 186
186 186 186
186 186 186
186 186 186
186 186 186
186 186 186
186 186 186
186 186 186
186 186 186
186 186 186
186 186 186
186 186 186
186 186 186
186 186 186
186 186 186
186 186 186
186 186 186
186 186 186
186 186 186
186 186 186
186 186 186
186 186 186
186 186 186
186 186 186
186 186 186
186 186 186
186 186 186
186 186 186
186 186 186
186 186 186
186 186 186
186 186 186
186 186 186
186 186 186
186 186 186
186 186 186
186 186 186
186 186 186
186 186 186
186 186 186
186 186 186
186 186 186
186 186 186
186 186 186
186 186 186
186 186 186
186 186 186
186 186 186
186 186 186
186 186 186
186 186 186
186 186 186
186 186 186
186 186 186
186 186 186
186 186 186
186 186 186
186 186 186
186 186 186
186 186 186
186 186 186
186 186 186
186 186 186
186 186 186
186 186 186
186 186 186
186 186 186
186 186 186
186 186 186
186 186 186
186 186 186
186 186 186
186 186 186
186 186 186
186 186 186
186 186 186
186 186 186
186 186 186
186 186 186
186 186 186
186 186 186
186 186 186
186 186 186
186 186 186
186 186 186
186 186 186
186 186 186
186 186 186
186 186 186
186 186 186
186 186 186
186 186 186
186 186 186
186 186 186
186 186 186
186 186 186
186 186 186
186 186 186
186 186 186
186 186 186
186 186 186
186 186 186
186 186 186
186 186 186
186 186 186
186 186 186
186 186 186
186 186 186
186 186 186
186 186 186
186 186 186
186 186 186
186 186 186
186 186 186
186 186 186
186 186 186
186 186 186
186 186 186
186 186 186
186 186 186
186 186 186
186 186 186
186 186 186
186 186 186
186 186 186
186 186 186
186 186 186
186 186 186
186 186 186
186 186 186
186 186 186
186 186 186
186 186 186
186 186 186
186 186 186
186 186 186
186 186 186
186 186 186
186 186 186
186 186 186
186 186 186
186 186 186
186 186 186
186 186 186
186 186 186
186 186 186
186 186 186
186 186 186
186 186 186
186 186 186
186 186 186
186 186 186
186 186 186
186 186 186
186 186 186
186 186 186
186 186 186
186 186 186
186 186 186
186 186 186
186 186 186
186 186 186
186 186 186
186 186 186
186 186 186
186 186 186
186 186 186
186 186 186
186 186 186
186 186 186
186 186 186
186 186 186
186 186 186
186 186 186
186 186 186
186 186 186
186 186 186
186 186 186
186 186 186
186 186 186
186 186 186
186 186 186
186 186 186
186 186 186
186 186 186
186 186 186
186 186 186
186 186 186
186 186 186
186 186 186
186 186 186
186 186 186
186 186 186
186 186 186
186 186 186
186 186 186
186 186 186
186 186 186
186 186 186
186 186 186
186 186 186
186 186 186
186 186 186
186 186 186
186 186 186
186 186 186
186 186 186
186 186 186
186 186 186
186 186 186
186 186 186
186 186 186
186 186 186
186 186 186
186 186 186
186 186 186
186 186 186
186 186 186
186 186 186
186 186 186
186 186 186
186 186 186
186 186 186
186 186 186
186 186 186
186 186 186
186 186 186
186 186 186
186 186 186
186 186 186
186 186 186
186 186 186
186 186 186
186 186 186
186 186 186
186 186 186
186 186 186
186 186 186
186 186 186
186 186 186
186 186 186
186 186 186
186 186 186
186 186 186
186 186 186
186 186 186
186 186 186
186 186 186
186 186 186
186 186 186
186 186 186
186 186 186
186 186 186
186 186 186
186 186 186
186 186 186
186 186 186
186 186 186
186 186 186
186 186 186
186 186 186
186 186 186
186 186 186
186 186 186
186 186 186
186 186 186
186 186 186
186 186 186
186 186 186
186 186 186
186 186 186
186 186 186
186 186 186
186 186 186
186 186 186
186 186 186
186 186 186
186 186 186
186 186 186
186 186 186
186 186 186
186 186 186
186 186 186
186 186 186
186 186 186
186 186 186
186 186 186
186 186 186
186 186 186
186 186 186
186 186 186
186 186 186
186 186 186
186 186 186
186 186 186
186 186 186
186 186 186
186 186 186
186 186 186
186 186 186
186 186 186
186 186 186
186 186 186
186 186 186
186 186 186
186 186 186
186 186 186
186 186 186
186 186 186
186 186 186
186 186 186
186 186 186
186 186 186
186 186 186
186 186 186
186 186 186
186 186 186
186 186 186
186 186 186
186 186 186
186 186 186
186 186 186
186 186 186
186 186 186
186 186 186
186 186 186
186 186 186
186 186 186
186 186 186
186 186 186
186 186 186
186 186 186
186 186 186
186 186 186
186 186 186
186 186 186
186 186 186
186 186 186
186 186 186
186 186 186
186 186 186
186 186 186
186 186 186
186 186 186
186 186 186
186 186 186
186 186 186
186 186 186
186 186 186
186 186 186
186 186 186
186 186 186
186 186 186
186 186 186
186 186 186
186 186 186
186 186 186
186 186 186
186 186 186
186 186 186
186 186 186
186 186 186
186 186 186
186 186 186
186 186 186
186 186 186
186 186 186
186 186 186
186 186 186
186 186 186
186 186 186
186 186 186
186 186 186
186 186 186
186 186 186
186 186 186
186 186 186
186 186 186
186 186 186
186 186 186
186 186 186
186 186 186
186 186 186
186 186 186
186 186 186
186 186 186
186 186 186
186 186 186
186 186 186
186 186 186
186 186 186
186 186 186
186 186 186
186 186 186
186 186 186
186 186 186
186 186 186
186 186 186
186 186 186
186 186 186
186 186 186
186 186 186
186 186 186
186 186 186
186 186 186
186 186 186
186 186 186
186 186 186
186 186 186
186 186 186
186 186 186
186 186 186
186 186 186
186 186 186
186 186 186
186 186 186
186 186 186
186 186 186
186 186 186
186 186 186
186 186 186
186 186 186
186 186 186
186 186 186
186 186 186
186 186 186
186 186 186
186 186 186
186 186 186
186 186 186
186 186 186
186 186 186
186 186 186
186 186 186
186 186 186
186 186 186
186 186 186
186 186 186
186 186 186
186 186 186
186 186 186
186 186 186
186 186 186
186 186 186
186 186 186
186 186 186
186 186 186
186 186 186
186 186 186
186 186 186
186 186 186
186 186 186
186 186 186
186 186 186
186 186 186
186 186 186
186 186 186
186 186 186
186 186 186
186 186 186
186 186 186
186 186 186
186 186 186
186 186 186
186 186 186
186 186 186
186 186 186
186 186 186
186 186 186
186 186 186
186 186 186
186 186 186
186 186 186
186 186 186
186 186 186
186 186 186
186 186 186
186 186 186
186 186 186
186 186 186
186 186 186
186 186 186
186 186 186
186 186 186
186 186 186
186 186 186
186 186 186
186 186 186
186 186 186
186 186 186
186 186 186
186 186 186
186 186 186
186 186 186
186 186 186
186 186 186
186 186 186
186 186 186
186 186 186
186 186 186
186 186 186
186 186 186
186 186 186
186 186 186
186 186 186
186 186 186
186 186 186
186 186 186
186 186 186
186 186 186
186 186 186
186 186 186
186 186 186
186 186 186
186 186 186
186 186 186
186 186 186
186 186 186
186 186 186
186 186 186
186 186 186
186 186 186
186 186 186
186 186 186
186 186 186
186 186 186
186 186 186
186 186 186
186 186 186
186 186 186
186 186 186
186 186 186
186 186 186
186 186 186
186 186 186
186 186 186
186 186 186
186 186 186
186 186 186
186 186 186
186 186 186
186 186 186
186 186 186
186 186 186
186 186 186
186 186 186
186 186 186
186 186 186
186 186 186
186 186 186
186 186 186
186 186 186
186 186 186
186 186 186
186 186 186
186 186 186
186 186 186
186 186 186
186 186 186
186 186 186
186 186 186
186 186 186
186 186 186
186 186 186
186 186 186
186 186 186
186 186 186
186 186 186
186 186 186
186 186 186
186 186 186
186 186 186
186 186 186
186 186 186
186 186 186
186 186 186
186 186 186
186 186 186
186 186 186
186 186 186
186 186 186
186 186 186
186 186 186
186 186 186
186 186 186
186 186 186
186 186 186
186 186 186
186 186 186
186 186 186
186 186 186
186 186 186
186 186 186
186 186 186
186 186 186
186 186 186
186 186 186
186 186 186
186 186 186
186 186 186
186 186 186
186 186 186
186 186 186
186 186 186
186 186 186
186 186 186
186 186 186
186 186 186
186 186 186
186 186 186
186 186 186
186 186 186
186 186 186
186 186 186
186 186 186
186 186 186
186 186 186
186 186 186
186 186 186
186 186 186
186 186 186
186 186 186
186 186 186
186 186 186
186 186 186
186 186 186
186 186 186
186 186 186
186 186 186
186 186 186
186 186 186
186 186 186
186 186 186
186 186 186
186 186 186
186 186 186
186 186 186
186 186 186
186 186 186
186 186 186
186 186 186
186 186 186
186 186 186
186 186 186
186 186 186
186 186 186
186 186 186
186 186 186
186 186 186
186 186 186
186 186 186
186 186 186
186 186 186
186 186 186
186 186 186
186 186 186
186 186 186
186 186 186
186 186 186
186 186 186
186 186 186
186 186 186
186 186 186
186 186 186
186 186 186
186 186 186
186 186 186
186 186 186
186 186 186
186 186 186
186 186 186
186 186 186
186 186 186
186 186 186
186 186 186
186 186 186
186 186 186
186 186 186
186 186 186
186 186 186
186 186 186
186 186 186
186 186 186
186 186 186
186 186 186
186 186 186
186 186 186
186 186 186
186 186 186
186 186 186
186 186 186
186 186 186
186 186 186
186 186 186
186 186 186
186 186 186
186 186 186
186 186 186
186 186 186
186 186 186
186 186 186
186 186 186
186 186 186
186 186 186
186 186 186
186 186 186
186 186 186
186 186 186
186 186 186
186 186 186
186 186 186
186 186 186
186 186 186
186 186 186
186 186 186
186 186 186
186 186 186
186 186 186
186 186 186
186 186 186
186 186 186
186 186 186
186 186 186
186 186 186
186 186 186
186 186 186
186 186 186
186 186 186
186 186 186
186 186 186
186 186 186
186 186 186
186 186 186
186 186 186
186 186 186
186 186 186
186 186 186
186 186 186
186 186 186
186 186 186
186 186 186
186 186 186
186 186 186
186 186 186
186 186 186
186 186 186
186 186 186
186 186 186
186 186 186
186 186 186
186 186 186
186 186 186
186 186 186
186 186 186
186 186 186
186 186 186
186 186 186
186 186 186
186 186 186
186 186 186
186 186 186
186 186 186
186 186 186
186 186 186
186 186 186
186 186 186
186 186 186
186 186 186
186 186 186
186 186 186
186 186 186
186 186 186
186 186 186
186 186 186
186 186 186
186 186 186
186 186 186
186 186 186
186 186 186
186 186 186
186 186 186
186 186 186
186 186 186
186 186 186
186 186 186
186 186 186
186 186 186
186 186 186
186 186 186
186 186 186
186 186 186
186 186 186
186 186 186
186 186 186
186 186 186
186 186 186
186 186 186
186 186 186
186 186 186
186 186 186
186 186 186
186 186 186
186 186 186
186 186 186
186 186 186
186 186 186
186 186 186
186 186 186
186 186 186
186 186 186
186 186 186
186 186 186
186 186 186
186 186 186
186 186 186
186 186 186
186 186 186
186 186 186
186 186 186
186 186 186
186 186 186
186 186 186
186 186 186
186 186 186
186 186 186
186 186 186
186 186 186
186 186 186
186 186 186
186 186 186
186 186 186
186 186 186
186 186 186
186 186 186
186 186 186
186 186 186
186 186 186
186 186 186
186 186 186
186 186 186
186 186 186
186 186 186
186 186 186
186 186 186
186 186 186
186 186 186
186 186 186
186 186 186
186 186 186
186 186 186
186 186 186
186 186 186
186 186 186
186 186 186
186 186 186
186 186 186
186 186 186
186 186 186
186 186 186
186 186 186
186 186 186
186 186 186
186 186 186
186 186 186
186 186 186
186 186 186
186 186 186
186 186 186
186 186 186
186 186 186
186 186 186
186 186 186
186 186 186
186 186 186
186 186 186
186 186 186
186 186 186
186 186 186
186 186 186
186 186 186
186 186 186
186 186 186
186 186 186
186 186 186
186 186 186
186 186 186
186 186 186
186 186 186
186 186 186
186 186 186
186 186 186
186 186 186
186 186 186
186 186 186
186 186 186
186 186 186
186 186 186
186 186 186
186 186 186
186 186 186
186 186 186
186 186 186
186 186 186
186 186 186
186 186 186
186 186 186
186 186 186
186 186 186
186 186 186
186 186 186
186 186 186
186 186 186
186 186 186
186 186 186
186 186 186
186 186 186
186 186 186
186 186 186
186 186 186
186 186 186
186 186 186
186 186 186
186 186 186
186 186 186
186 186 186
186 186 186
186 186 186
186 186 186
186 186 186
186 186 186
186 186 186
186 186 186
186 186 186
186 186 186
186 186 186
186 186 186
186 186 186
186 186 186
186 186 186
186 186 186
186 186 186
186 186 186
186 186 186
186 186 186
186 186 186
186 186 186
186 186 186
186 186 186
186 186 186
186 186 186
186 186 186
186 186 186
186 186 186
186 186 186
186 186 186
186 186 186
186 186 186
186 186 186
186 186 186
186 186 186
186 186 186
186 186 186
186 186 186
186 186 186
186 186 186
186 186 186
186 186 186
186 186 186
186 186 186
186 186 186
186 186 186
186 186 186
186 186 186
186 186 186
186 186 186
186 186 186
186 186 186
186 186 186
186 186 186
186 186 186
186 186 186
186 186 186
186 186 186
186 186 186
186 186 186
186 186 186
186 186 186
186 186 186
186 186 186
186 186 186
186 186 186
186 186 186
186 186 186
186 186 186
186 186 186
186 186 186
186 186 186
186 186 186
186 186 186
186 186 186
186 186 186
186 186 186
186 186 186
186 186 186
186 186 186
186 186 186
186 186 186
186 186 186
186 186 186
186 186 186
186 186 186
186 186 186
186 186 186
186 186 186
186 186 186
186 186 186
186 186 186
186 186 186
186 186 186
186 186 186
186 186 186
186 186 186
186 186 186
186 186 186
186 186 186
186 186 186
186 186 186
186 186 186
186 186 186
186 186 186
186 186 186
186 186 186
186 186 186
186 186 186
186 186 186
186 186 186
186 186 186
186 186 186
186 186 186
186 186 186
186 186 186
186 186 186
186 186 186
186 186 186
186 186 186
186 186 186
186 186 186
186 186 186
186 186 186
186 186 186
186 186 186
186 186 186
186 186 186
186 186 186
186 186 186
186 186 186
186 186 186
186 186 186
186 186 186
186 186 186
186 186 186
186 186 186
186 186 186
186 186 186
186 186 186
186 186 186
186 186 186
186 186 186
186 186 186
186 186 186
186 186 186
186 186 186
186 186 186
186 186 186
186 186 186
186 186 186
186 186 186
186 186 186
186 186 186
186 186 186
186 186 186
186 186 186
186 186 186
186 186 186
186 186 186
186 186 186
186 186 186
186 186 186
186 186 186
186 186 186
186 186 186
186 186 186
186 186 186
186 186 186
186 186 186
186 186 186
186 186 186
186 186 186
186 186 186
186 186 186
186 186 186
186 186 186
186 186 186
186 186 186
186 186 186
186 186 186
186 186 186
186 186 186
186 186 186
186 186 186
186 186 186
186 186 186
186 186 186
186 186 186
186 186 186
186 186 186
186 186 186
186 186 186
186 186 186
186 186 186
186 186 186
186 186 186
186 186 186
186 186 186
186 186 186
186 186 186
186 186 186
186 186 186
186 186 186
186 186 186
186 186 186
186 186 186
186 186 186
186 186 186
186 186 186
186 186 186
186 186 186
186 186 186
186 186 186
186 186 186
186 186 186
186 186 186
186 186 186
186 186 186
186 186 186
186 186 186
186 186 186
186 186 186
186 186 186
186 186 186
186 186 186
186 186 186
186 186 186
186 186 186
186 186 186
186 186 186
186 186 186
186 186 186
186 186 186
186 186 186
186 186 186
186 186 186
186 186 186
186 186 186
186 186 186
186 186 186
186 186 186
186 186 186
186 186 186
186 186 186
186 186 186
186 186 186
186 186 186
186 186 186
186 186 186
186 186 186
186 186 186
186 186 186
186 186 186
186 186 186
186 186 186
186 186 186
186 186 186
186 186 186
186 186 186
186 186 186
186 186 186
186 186 186
186 186 186
186 186 186
186 186 186
186 186 186
186 186 186
186 186 186
186 186 186
186 186 186
186 186 186
186 186 186
186 186 186
186 186 186
186 186 186
186 186 186
186 186 186
186 186 186
186 186 186
186 186 186
186 186 186
186 186 186
186 186 186
186 186 186
186 186 186
186 186 186
186 186 186
186 186 186
186 186 186
186 186 186
186 186 186
186 186 186
186 186 186
186 186 186
186 186 186
186 186 186
186 186 186
186 186 186
186 186 186
186 186 186
186 186 186
186 186 186
186 186 186
186 186 186
186 186 186
186 186 186
186 186 186
186 186 186
186 186 186
186 186 186
186 186 186
186 186 186
186 186 186
186 186 186
186 186 186
186 186 186
186 186 186
186 186 186
186 186 186
186 186 186
186 186 186
186 186 186
186 186 186
186 186 186
186 186 186
186 186 186
186 186 186
186 186 186
186 186 186
186 186 186
186 186 186
186 186 186
186 186 186
186 186 186
186 186 186
186 186 186
186 186 186
186 186 186
186 186 186
186 186 186
186 186 186
186 186 186
186 186 186
186 186 186
186 186 186
186 186 186
186 186 186
186 186 186
186 186 186
186 186 186
186 186 186
186 186 186
186 186 186
186 186 186
186 186 186
186 186 186
186 186 186
186 186 186
186 186 186
186 186 186
186 186 186
186 186 186
186 186 186
186 186 186
186 186 186
186 186 186
186 186 186
186 186 186
186 186 186
186 186 186
186 186 186
186 186 186
186 186 186
186 186 186
186 186 186
186 186 186
186 186 186
186 186 186
186 186 186
186 186 186
186 186 186
186 186 186
186 186 186
186 186 186
186 186 186
186 186 186
186 186 186
186 186 186
186 186 186
186 186 186
186 186 186
186 186 186
186 186 186
186 186 186
186 186 186
186 186 186
186 186 186
186 186 186
186 186 186
186 186 186
186 186 186
186 186 186
186 186 186
186 186 186
186 186 186
186 186 186
186 186 186
186 186 186
186 186 186
186 186 186
186 186 186
186 186 186
186 186 186
186 186 186
186 186 186
186 186 186
186 186 186
186 186 186
186 186 186
186 186 186
186 186 186
186 186 186
186 186 186
186 186 186
186 186 186
186 186 186
186 186 186
186 186 186
186 186 186
186 186 186
186 186 186
186 186 186
186 186 186
186 186 186
186 186 186
186 186 186
186 186 186
186 186 186
186 186 186
186 186 186
186 186 186
186 186 186
186 186 186
186 186 186
186 186 186
186 186 186
186 186 186
186 186 186
186 186 186
186 186 186
186 186 186
186 186 186
186 186 186
186 186 186
186 186 186
186 186 186
186 186 186
186 186 186
186 186 186
186 186 186
186 186 186
186 186 186
186 186 186
186 186 186
186 186 186
186 186 186
186 186 186
186 186 186
186 186 186
186 186 186
186 186 186
186 186 186
186 186 186
186 186 186
186 186 186
186 186 186
186 186 186
186 186 186
186 186 186
186 186 186
186 186 186
186 186 186
186 186 186
186 186 186
186 186 186
186 186 186
186 186 186
186 186 186
186 186 186
186 186 186
186 186 186
186 186 186
186 186 186
186 186 186
186 186 186
186 186 186
186 186 186
186 186 186
186 186 186
186 186 186
186 186 186
186 186 186
186 186 186
186 186 186
186 186 186
186 186 186
186 186 186
186 186 186
186 186 186
186 186 186
186 186 186
186 186 186
186 186 186
186 186 186
186 186 186
186 186 186
186 186 186
186 186 186
186 186 186
186 186 186
186 186 186
186 186 186
186 186 186
186 186 186
186 186 186
186 186 186
186 186 186
186 186 186
186 186 186
186 186 186
186 186 186
186 186 186
186 186 186
186 186 186
186 186 186
186 186 186
186 186 186
186 186 186
186 186 186
186 186 186
186 186 186
186 186 186
186 186 186
186 186 186
186 186 186
186 186 186
186 186 186
186 186 186
186 186 186
186 186 186
186 186 186
186 186 186
186 186 186
186 186 186
186 186 186
186 186 186
186 186 186
186 186 186
186 186 186
186 186 186
186 186 186
186 186 186
186 186 186
186 186 186
186 186 186
186 186 186
186 186 186
186 186 186
186 186 186
186 186 186
186 186 186
186 186 186
186 186 186
186 186 186
186 186 186
186 186 186
186 186 186
186 186 186
186 186 186
186 186 186
186 186 186
186 186 186
186 186 186
186 186 186
186 186 186
186 186 186
186 186 186
186 186 186
186 186 186
186 186 186
186 186 186
186 186 186
186 186 186
186 186 186
186 186 186
186 186 186
186 186 186
186 186 186
186 186 186
186 186 186
186 186 186
186 186 186
186 186 186
186 186 186
186 186 186
186 186 186
186 186 186
186 186 186
186 186 186
186 186 186
186 186 186
186 186 186
186 186 186
186 186 186
186 186 186
186 186 186
186 186 186
186 186 186
186 186 186
186 186 186
186 186 186
186 186 186
186 186 186
186 186 186
186 186 186
186 186 186
186 186 186
186 186 186
186 186 186
186 186 186
186 186 186
186 186 186
186 186 186
186 186 186
186 186 186
186 186 186
186 186 186
186 186 186
186 186 186
186 186 186
186 186 186
186 186 186
186 186 186
186 186 186
186 186 186
186 186 186
186 186 186
186 186 186
186 186 186
186 186 186
186 186 186
186 186 186
186 186 186
186 186 186
186 186 186
186 186 186
186 186 186
186 186 186
186 186 186
186 186 186
186 186 186
186 186 186
186 186 186
186 186 186
186 186 186
186 186 186
186 186 186
186 186 186
186 186 186
186 186 186
186 186 186
186 186 186
186 186 186
186 186 186
186 186 186
186 186 186
186 186 186
186 186 186
186 186 186
186 186 186
186 186 186
186 186 186
186 186 186
186 186 186
186 186 186
186 186 186
186 186 186
186 186 186
186 186 186
186 186 186
186 186 186
186 186 186
186 186 186
186 186 186
186 186 186
186 186 186
186 186 186
186 186 186
186 186 186
186 186 186
186 186 186
186 186 186
186 186 186
186 186 186
186 186 186
186 186 186
186 186 186
186 186 186
186 186 186
186 186 186
186 186 186
186 186 186
186 186 186
186 186 186
186 186 186
186 186 186
186 186 186
186 186 186
186 186 186
186 186 186
186 186 186
186 186 186
186 186 186
186 186 186
186 186 186
186 186 186
186 186 186
186 186 186
186 186 186
186 186 186
186 186 186
186 186 186
186 186 186
186 186 186
186 186 186
186 186 186
186 186 186
186 186 186
186 186 186
186 186 186
186 186 186
186 186 186
186 186 186
186 186 186
186 186 186
186 186 186
186 186 186
186 186 186
186 186 186
186 186 186
186 186 186
186 186 186
186 186 186
186 186 186
186 186 186
186 186 186
186 186 186
186 186 186
186 186 186
186 186 186
186 186 186
186 186 186
186 186 186
186 186 186
186 186 186
186 186 186
186 186 186
186 186 186
186 186 186
186 186 186
186 186 186
186 186 186
186 186 186
186 186 186
186 186 186
186 186 186
186 186 186
186 186 186
186 186 186
186 186 186
186 186 186
186 186 186
186 186 186
186 186 186
186 186 186
186 186 186
186 186 186
186 186 186
186 186 186
186 186 186
186 186 186
186 186 186
186 186 186
186 186 186
186 186 186
186 186 186
186 186 186
186 186 186
186 186 186
186 186 186
186 186 186
186 186 186
186 186 186
186 186 186
186 186 186
186 186 186
186 186 186
186 186 186
186 186 186
186 186 186
186 186 186
186 186 186
186 186 186
186 186 186
186 186 186
186 186 186
186 186 186
186 186 186
186 186 186
186 186 186
186 186 186
186 186 186
186 186 186
186 186 186
186 186 186
186 186 186
186 186 186
186 186 186
186 186 186
186 186 186
186 186 186
186 186 186
186 186 186
186 186 186
186 186 186
186 186 186
186 186 186
186 186 186
186 186 186
186 186 186
186 186 186
186 186 186
186 186 186
186 186 186
186 186 186
186 186 186
186 186 186
186 186 186
186 186 186
186 186 186
186 186 186
186 186 186
186 186 186
186 186 186
186 186 186
186 186 186
186 186 186
186 186 186
186 186 186
186 186 186
186 186 186
186 186 186
186 186 186
186 186 186
186 186 186
186 186 186
186 186 186
186 186 186
186 186 186
186 186 186
186 186 186
186 186 186
186 186 186
186 186 186
186 186 186
186 186 186
186 186 186
186 186 186
186 186 186
186 186 186
186 186 186
186 186 186
186 186 186
186 186 186
186 186 186
186 186 186
186 186 186
186 186 186
186 186 186
186 186 186
186 186 186
186 186 186
186 186 186
186 186 186
186 186 186
186 186 186
186 186 186
186 186 186
186 186 186
186 186 186
186 186 186
186 186 186
186 186 186
186 186 186
186 186 186
186 186 186
186 186 186
186 186 186
186 186 186
186 186 186
186 186 186
186 186 186
186 186 186
186 186 186
186 186 186
186 186 186
186 186 186
186 186 186
186 186 186
186 186 186
186 186 186
186 186 186
186 186 186
186 186 186
186 186 186
186 186 186
186 186 186
186 186 186
186 186 186
186 186 186
186 186 186
186 186 186
186 186 186
186 186 186
186 186 186
186 186 186
186 186 186
186 186 186
186 186 186
186 186 186
186 186 186
186 186 186
186 186 186
186 186 186
186 186 186
186 186 186
186 186 186
186 186 186
186 186 186
186 186 186
186 186 186
186 186 186
186 186 186
186 186 186
186 186 186
186 186 186
186 186 186
186 186 186
186 186 186
186 186 186
186 186 186
186 186 186
186 186 186
186 186 186
186 186 186
186 186 186
186 186 186
186 186 186
186 186 186
186 186 186
186 186 186
186 186 186
186 186 186
186 186 186
186 186 186
186 186 186
186 186 186
186 186 186
186 186 186
186 186 186
186 186 186
186 186 186
186 186 186
186 186 186
186 186 186
186 186 186
186 186 186
186 186 186
186 186 186
186 186 186
186 186 186
186 186 186
186 186 186
186 186 186
186 186 186
186 186 186
186 186 186
186 186 186
186 186 186
186 186 186
186 186 186
186 186 186
186 186 186
186 186 186
186 186 186
186 186 186
186 186 186
186 186 186
186 186 186
186 186 186
186 186 186
186 186 186
186 186 186
186 186 186
186 186 186
186 186 186
186 186 186
186 186 186
186 186 186
186 186 186
186 186 186
186 186 186
186 186 186
186 186 186
186 186 186
186 186 186
186 186 186
186 186 186
186 186 186
186 186 186
186 186 186
186 186 186
186 186 186
186 186 186
186 186 186
186 186 186
186 186 186
186 186 186
186 186 186
186 186 186
186 186 186
186 186 186
186 186 186
186 186 186
186 186 186
186 186 186
186 186 186
186 186 186
186 186 186
186 186 186
186 186 186
186 186 186
186 186 186
186 186 186
186 186 186
186 186 186
186 186 186
186 186 186
186 186 186
186 186 186
186 186 186
186 186 186
186 186 186
186 186 186
186 186 186
186 186 186
186 186 186
186 186 186
186 186 186
186 186 186
186 186 186
186 186 186
186 186 186
186 186 186
186 186 186
186 186 186
186 186 186
186 186 186
186 186 186
186 186 186
186 186 186
186 186 186
186 186 186
186 186 186
186 186 186
186 186 186
186 186 186
186 186 186
186 186 186
186 186 186
186 186 186
186 186 186
186 186 186
186 186 186
186 186 186
186 186 186
186 186 186
186 186 186
186 186 186
186 186 186
186 186 186
186 186 186
186 186 186
186 186 186
186 186 186
186 186 186
186 186 186
186 186 186
186 186 186
186 186 186
186 186 186
186 186 186
186 186 186
186 186 186
186 186 186
186 186 186
186 186 186
186 186 186
186 186 186
186 186 186
186 186 186
186 186 186
186 186 186
186 186 186
186 186 186
186 186 186
186 186 186
186 186 186
186 186 186
186 186 186
186 186 186
186 186 186
186 186 186
186 186 186
186 186 186
186 186 186
186 186 186
186 186 186
186 186 186
186 186 186
186 186 186
186 186 186
186 186 186
186 186 186
186 186 186
186 186 186
186 186 186
186 186 186
186 186 186
186 186 186
186 186 186
186 186 186
186 186 186
186 186 186
186 186 186
186 186 186
186 186 186
186 186 186
186 186 186
186 186 186
186 186 186
186 186 186
186 186 186
186 186 186
186 186 186
186 186 186
186 186 186
186 186 186
186 186 186
186 186 186
186 186 186
186 186 186
186 186 186
186 186 186
186 186 186
186 186 186
186 186 186
186 186 186
186 186 186
186 186 186
186 186 186
186 186 186
186 186 186
186 186 186
186 186 186
186 186 186
186 186 186
186 186 186
186 186 186
186 186 186
186 186 186
186 186 186
186 186 186
186 186 186
186 186 186
186 186 186
186 186 186
186 186 186
186 186 186
186 186 186
186 186 186
186 186 186
186 186 186
186 186 186
186 186 186
186 186 186
186 186 186
186 186 186
186 186 186
186 186 186
186 186 186
186 186 186
186 186 186
186 186 186
186 186 186
186 186 186
186 186 186
186 186 186
186 186 186
186 186 186
186 186 186
186 186 186
186 186 186
186 186 186
186 186 186
186 186 186
186 186 186
186 186 186
186 186 186
186 186 186
186 186 186
186 186 186
186 186 186
186 186 186
186 186 186
186 186 186
186 186 186
186 186 186
186 186 186
186 186 186
186 186 186
186 186 186
186 186 186
186 186 186
186 186 186
186 186 186
186 186 186
186 186 186
186 186 186
186 186 186
186 186 186
186 186 186
186 186 186
186 186 186
186 186 186
186 186 186
186 186 186
186 186 186
186 186 186
186 186 186
186 186 186
186 186 186
186 186 186
186 186 186
186 186 186
186 186 186
186 186 186
186 186 186
186 186 186
186 186 186
186 186 186
186 186 186
186 186 186
186 186 186
186 186 186
186 186 186
186 186 186
186 186 186
186 186 186
186 186 186
186 186 186
186 186 186
186 186 186
186 186 186
186 186 186
186 186 186
186 186 186
186 186 186
186 186 186
186 186 186
186 186 186
186 186 186
186 186 186
186 186 186
186 186 186
186 186 186
186 186 186
186 186 186
186 186 186
186 186 186
186 186 186
186 186 186
186 186 186
186 186 186
186 186 186
186 186 186
186 186 186
186 186 186
186 186 186
186 186 186
186 186 186
186 186 186
186 186 186
186 186 186
186 186 186
186 186 186
186 186 186
186 186 186
186 186 186
186 186 186
186 186 186
186 186 186
186 186 186
186 186 186
186 186 186
186 186 186
186 186 186
186 186 186
186 186 186
186 186 186
186 186 186
186 186 186
186 186 186
186 186 186
186 186 186
186 186 186
186 186 186
186 186 186
186 186 186
186 186 186
186 186 186
186 186 186
186 186 186
186 186 186
186 186 186
186 186 186
186 186 186
186 186 186
186 186 186
186 186 186
186 186 186
186 186 186
186 186 186
186 186 186
186 186 186
186 186 186
186 186 186
186 186 186
186 186 186
186 186 186
186 186 186
186 186 186
186 186 186
186 186 186
186 186 186
186 186 186
186 186 186
186 186 186
186 186 186
186 186 186
186 186 186
186 186 186
186 186 186
186 186 186
186 186 186
186 186 186
186 186 186
186 186 186
186 186 186
186 186 186
186 186 186
186 186 186
186 186 186
186 186 186
186 186 186
186 186 186
186 186 186
186 186 186
186 186 186
186 186 186
186 186 186
186 186 186
186 186 186
186 186 186
186 186 186
186 186 186
186 186 186
186 186 186
186 186 186
186 186 186
186 186 186
186 186 186
186 186 186
186 186 186
186 186 186
186 186 186
186 186 186
186 186 186
186 186 186
186 186 186
186 186 186
186 186 186
186 186 186
186 186 186
186 186 186
186 186 186
186 186 186
186 186 186
186 186 186
186 186 186
186 186 186
186 186 186
186 186 186
186 186 186
186 186 186
186 186 186
186 186 186
186 186 186
186 186 186
186 186 186
186 186 186
186 186 186
186 186 186
186 186 186
186 186 186
186 186 186
186 186 186
186 186 186
186 186 186
186 186 186
186 186 186
186 186 186
186 186 186
186 186 186
186 186 186
186 186 186
186 186 186
186 186 186
186 186 186
186 186 186
186 186 186
186 186 186
186 186 186
186 186 186
186 186 186
186 186 186
186 186 186
186 186 186
186 186 186
186 186 186
186 186 186
186 186 186
186 186 186
186 186 186
186 186 186
186 186 186
186 186 186
186 186 186
186 186 186
186 186 186
186 186 186
186 186 186
186 186 186
186 186 186
186 186 186
186 186 186
186 186 186
186 186 186
186 186 186
186 186 186
186 186 186
186 186 186
186 186 186
186 186 186
186 186 186
186 186 186
186 186 186
186 186 186
186 186 186
186 186 186
186 186 186
186 186 186
186 186 186
186 186 186
186 186 186
186 186 186
186 186 186
186 186 186
186 186 186
186 186 186
186 186 186
186 186 186
186 186 186
186 186 186
186 186 186
186 186 186
186 186 186
186 186 186
186 186 186
186 186 186
186 186 186
186 186 186
186 186 186
186 186 186
186 186 186
186 186 186
186 186 186
186 186 186
186 186 186
186 186 186
186 186 186
186 186 186
186 186 186
186 186 186
186 186 186
186 186 186
186 186 186
186 186 186
186 186 186
186 186 186
186 186 186
186 186 186
186 186 186
186 186 186
186 186 186
186 186 186
186 186 186
186 186 186
186 186 186
186 186 186
186 186 186
186 186 186
186 186 186
186 186 186
186 186 186
186 186 186
186 186 186
186 186 186
186 186 186
186 186 186
186 186 186
186 186 186
186 186 186
186 186 186
186 186 186
186 186 186
186 186 186
186 186 186
186 186 186
186 186 186
186 186 186
186 186 186
186 186 186
186 186 186
186 186 186
186 186 186
186 186 186
186 186 186
186 186 186
186 186 186
186 186 186
186 186 186
186 186 186
186 186 186
186 186 186
186 186 186
186 186 186
186 186 186
186 186 186
186 186 186
186 186 186
186 186 186
186 186 186
186 186 186
186 186 186
186 186 186
186 186 186
186 186 186
186 186 186
186 186 186
186 186 186
186 186 186
186 186 186
186 186 186
186 186 186
186 186 186
186 186 186
186 186 186
186 186 186
186 186 186
186 186 186
186 186 186
186 186 186
186 186 186
186 186 186
186 186 186
186 186 186
186 186 186
186 186 186
186 186 186
186 186 186
186 186 186
186 186 186
186 186 186
186 186 186
186 186 186
186 186 186
186 186 186
186 186 186
186 186 186
186 186 186
186 186 186
186 186 186
186 186 186
186 186 186
186 186 186
186 186 186
186 186 186
186 186 186
186 186 186
186 186 186
186 186 186
186 186 186
186 186 186
186 186 186
186 186 186
186 186 186
186 186 186
186 186 186
186 186 186
186 186 186
186 186 186
186 186 186
186 186 186
186 186 186
186 186 186
186 186 186
186 186 186
186 186 186
186 186 186
186 186 186
186 186 186
186 186 186
186 186 186
186 186 186
186 186 186
186 186 186
186 186 186
186 186 186
186 186 186
186 186 186
186 186 186
186 186 186
186 186 186
186 186 186
186 186 186
186 186 186
186 186 186
186 186 186
186 186 186
186 186 186
186 186 186
186 186 186
186 186 186
186 186 186
186 186 186
186 186 186
186 186 186
186 186 186
186 186 186
186 186 186
186 186 186
186 186 186
186 186 186
186 186 186
186 186 186
186 186 186
186 186 186
186 186 186
186 186 186
186 186 186
186 186 186
186 186 186
186 186 186
186 186 186
186 186 186
186 186 186
186 186 186
186 186 186
186 186 186
186 186 186
186 186 186
186 186 186
186 186 186
186 186 186
186 186 186
186 186 186
186 186 186
186 186 186
186 186 186
186 186 186
186 186 186
186 186 186
186 186 186
186 186 186
186 186 186
186 186 186
186 186 186
186 186 186
186 186 186
186 186 186
186 186 186
186 186 186
186 186 186
186 186 186
186 186 186
186 186 186
186 186 186
186 186 186
186 186 186
186 186 186
186 186 186
186 186 186
186 186 186
186 186 186
186 186 186
186 186 186
186 186 186
186 186 186
186 186 186
186 186 186
186 186 186
186 186 186
186 186 186
186 186 186
186 186 186
186 186 186
186 186 186
186 186 186
186 186 186
186 186 186
186 186 186
186 186 186
186 186 186
186 186 186
186 186 186
186 186 186
186 186 186
186 186 186
186 186 186
186 186 186
186 186 186
186 186 186
186 186 186
186 186 186
186 186 186
186 186 186
186 186 186
186 186 186
186 186 186
186 186 186
186 186 186
186 186 186
186 186 186
186 186 186
186 186 186
186 186 186
186 186 186
186 186 186
186 186 186
186 186 186
186 186 186
186 186 186
186 186 186
186 186 186
186 186 186
186 186 186
186 186 186
186 186 186
186 186 186
186 186 186
186 186 186
186 186 186
186 186 186
186 186 186
186 186 186
186 186 186
186 186 186
186 186 186
186 186 186
186 186 186
186 186 186
186 186 186
186 186 186
186 186 186
186 186 186
186 186 186
186 186 186
186 186 186
186 186 186
186 186 186
186 186 186
186 186 186
186 186 186
186 186 186
186 186 186
186 186 186
186 186 186
186 186 186
186 186 186
186 186 186
186 186 186
186 186 186
186 186 186
186 186 186
186 186 186
186 186 186
186 186 186
186 186 186
186 186 186
186 186 186
186 186 186
186 186 186
186 186 186
186 186 186
186 186 186
186 186 186
186 186 186
186 186 186
186 186 186
186 186 186
186 186 186
186 186 186
186 186 186
186 186 186
186 186 186
186 186 186
186 186 186
186 186 186
186 186 186
186 186 186
186 186 186
186 186 186
186 186 186
186 186 186
186 186 186
186 186 186
186 186 186
186 186 186
186 186 186
186 186 186
186 186 186
186 186 186
186 186 186
186 186 186
186 186 186
186 186 186
186 186 186
186 186 186
186 186 186
186 186 186
186 186 186
186 186 186
186 186 186
186 186 186
186 186 186
186 186 186
186 186 186
186 186 186
186 186 186
186 186 186
186 186 186
186 186 186
186 186 186
186 186 186
186 186 186
186 186 186
186 186 186
186 186 186
186 186 186
186 186 186
186 186 186
186 186 186
186 186 186
186 186 186
186 186 186
186 186 186
186 186 186
186 186 186
186 186 186
186 186 186
186 186 186
186 186 186
186 186 186
186 186 186
186 186 186
186 186 186
186 186 186
186 186 186
186 186 186
186 186 186
186 186 186
186 186 186
186 186 186
186 186 186
186 186 186
186 186 186
186 186 186
186 186 186
186 186 186
186 186 186
186 186 186
186 186 186
186 186 186
186 186 186
186 186 186
186 186 186
186 186 186
186 186 186
186 186 186
186 186 186
186 186 186
186 186 186
186 186 186
186 186 186
186 186 186
186 186 186
186 186 186
186 186 186
186 186 186
186 186 186
186 186 186
186 186 186
186 186 186
186 186 186
186 186 186
186 186 186
186 186 186
186 186 186
186 186 186
186 186 186
186 186 186
186 186 186
186 186 186
186 186 186
186 186 186
186 186 186
186 186 186
186 186 186
186 186 186
186 186 186
186 186 186
186 186 186
186 186 186
186 186 186
186 186 186
186 186 186
186 186 186
186 186 186
186 186 186
186 186 186
186 186 186
186 186 186
186 186 186
186 186 186
186 186 186
186 186 186
186 186 186
186 186 186
186 186 186
186 186 186
186 186 186
186 186 186
186 186 186
186 186 186
186 186 186
186 186 186
186 186 186
186 186 186
186 186 186
186 186 186
186 186 186
186 186 186
186 186 186
186 186 186
186 186 186
186 186 186
186 186 186
186 186 186
186 186 186
186 186 186
186 186 186
186 186 186
186 186 186
186 186 186
186 186 186
186 186 186
186 186 186
186 186 186
186 186 186
186 186 186
186 186 186
186 186 186
186 186 186
186 186 186
186 186 186
186 186 186
186 186 186
186 186 186
186 186 186
186 186 186
186 186 186
186 186 186
186 186 186
186 186 186
186 186 186
186 186 186
186 186 186
186 186 186
186 186 186
186 186 186
186 186 186
186 186 186
186 186 186
186 186 186
186 186 186
186 186 186
186 186 186
186 186 186
186 186 186
186 186 186
186 186 186
186 186 186
186 186 186
186 186 186
186 186 186
186 186 186
186 186 186
186 186 186
186 186 186
186 186 186
186 186 186
186 186 186
186 186 186
186 186 186
186 186 186
186 186 186
186 186 186
186 186 186
186 186 186
186 186 186
186 186 186
186 186 186
186 186 186
186 186 186
186 186 186
186 186 186
186 186 186
186 186 186
186 186 186
186 186 186
186 186 186
186 186 186
186 186 186
186 186 186
186 186 186
186 186 186
186 186 186
186 186 186
186 186 186
186 186 186
186 186 186
186 186 186
186 186 186
186 186 186
186 186 186
186 186 186
186 186 186
186 186 186
186 186 186
186 186 186
186 186 186
186 186 186
186 186 186
186 186 186
186 186 186
186 186 186
186 186 186
186 186 186
186 186 186
186 186 186
186 186 186
186 186 186
186 186 186
186 186 186
186 186 186
186 186 186
186 186 186
186 186 186
186 186 186
186 186 186
186 186 186
186 186 186
186 186 186
186 186 186
186 186 186
186 186 186
186 186 186
186 186 186
186 186 186
186 186 186
186 186 186
186 186 186
186 186 186
186 186 186
186 186 186
186 186 186
186 186 186
186 186 186
186 186 186
186 186 186
186 186 186
186 186 186
186 186 186
186 186 186
186 186 186
186 186 186
186 186 186
186 186 186
186 186 186
186 186 186
186 186 186
186 186 186
186 186 186
186 186 186
186 186 186
186 186 186
186 186 186
186 186 186
186 186 186
186 186 186
186 186 186
186 186 186
186 186 186
186 186 186
186 186 186
186 186 186
186 186 186
186 186 186
186 186 186
186 186 186
186 186 186
186 186 186
186 186 186
186 186 186
186 186 186
186 186 186
186 186 186
186 186 186
186 186 186
186 186 186
186 186 186
186 186 186
186 186 186
186 186 186
186 186 186
186 186 186
186 186 186
186 186 186
186 186 186
186 186 186
186 186 186
186 186 186
186 186 186
186 186 186
186 186 186
186 186 186
186 186 186
186 186 186
186 186 186
186 186 186
186 186 186
186 186 186
186 186 186
186 186 186
186 186 186
186 186 186
186 186 186
186 186 186
186 186 186
186 186 186
186 186 186
186 186 186
186 186 186
186 186 186
186 186 186
186 186 186
186 186 186
186 186 186
186 186 186
186 186 186
186 186 186
186 186 186
186 186 186
186 186 186
186 186 186
186 186 186
186 186 186
186 186 186
186 186 186
186 186 186
186 186 186
186 186 186
186 186 186
186 186 186
186 186 186
186 186 186
186 186 186
186 186 186
186 186 186
186 186 186
186 186 186
186 186 186
186 186 186
186 186 186
186 186 186
186 186 186
186 186 186
186 186 186
186 186 186
186 186 186
186 186 186
186 186 186
186 186 186
186 186 186
186 186 186
186 186 186
186 186 186
186 186 186
186 186 186
186 186 186
186 186 186
186 186 186
186 186 186
186 186 186
186 186 186
186 186 186
186 186 186
186 186 186
186 186 186
186 186 186
186 186 186
186 186 186
186 186 186
186 186 186
186 186 186
186 186 186
186 186 186
186 186 186
186 186 186
186 186 186
186 186 186
186 186 186
186 186 186
186 186 186
186 186 186
186 186 186
186 186 186
186 186 186
186 186 186
186 186 186
186 186 186
186 186 186
186 186 186
186 186 186
186 186 186
186 186 186
186 186 186
186 186 186
186 186 186
186 186 186
186 186 186
186 186 186
186 186 186
186 186 186
186 186 186
186 186 186
186 186 186
186 186 186
186 186 186
186 186 186
186 186 186
186 186 186
186 186 186
186 186 186
186 186 186
186 186 186
186 186 186
186 186 186
186 186 186
186 186 186
186 186 186
186 186 186
186 186 186
186 186 186
186 186 186
186 186 186
186 186 186
186 186 186
186 186 186
186 186 186
186 186 186
186 186 186
186 186 186
186 186 186
186 186 186
186 186 186
186 186 186
186 186 186
186 186 186
186 186 186
186 186 186
186 186 186
186 186 186
186 186 186
186 186 186
186 186 186
186 186 186
186 186 186
186 186 186
186 186 186
186 186 186
186 186 186
186 186 186
186 186 186
186 186 186
186 186 186
186 186 186
186 186 186
186 186 186
186 186 186
186 186 186
186 186 186
186 186 186
186 186 186
186 186 186
186 186 186
186 186 186
186 186 186
186 186 186
186 186 186
186 186 186
186 186 186
186 186 186
186 186 186
186 186 186
186 186 186
186 186 186
186 186 186
186 186 186
186 186 186
186 186 186
186 186 186
186 186 186
186 186 186
186 186 186
186 186 186
186 186 186
186 186 186
186 186 186
186 186 186
186 186 186
186 186 186
186 186 186
186 186 186
186 186 186
186 186 186
186 186 186
186 186 186
186 186 186
186 186 186
186 186 186
186 186 186
186 186 186
186 186 186
186 186 186
186 186 186
186 186 186
186 186 186
186 186 186
186 186 186
186 186 186
186 186 186
186 186 186
186 186 186
186 186 186
186 186 186
186 186 186
186 186 186
186 186 186
186 186 186
186 186 186
186 186 186
186 186 186
186 186 186
186 186 186
186 186 186
186 186 186
186 186 186
186 186 186
186 186 186
186 186 186
186 186 186
186 186 186
186 186 186
186 186 186
186 186 186
186 186 186
186 186 186
186 186 186
186 186 186
186 186 186
186 186 186
186 186 186
186 186 186
186 186 186
186 186 186
186 186 186
186 186 186
186 186 186
186 186 186
186 186 186
186 186 186
186 186 186
186 186 186
186 186 186
186 186 186
186 186 186
186 186 186
186 186 186
186 186 186
186 186 186
186 186 186
186 186 186
186 186 186
186 186 186
186 186 186
186 186 186
186 186 186
186 186 186
186 186 186
186 186 186
186 186 186
186 186 186
186 186 186
186 186 186
186 186 186
186 186 186
186 186 186
186 186 186
186 186 186
186 186 186
186 186 186
186 186 186
186 186 186
186 186 186
186 186 186
186 186 186
186 186 186
186 186 186
186 186 186
186 186 186
186 186 186
186 186 186
186 186 186
186 186 186
186 186 186
186 186 186
186 186 186
186 186 186
186 186 186
186 186 186
186 186 186
186 186 186
186 186 186
186 186 186
186 186 186
186 186 186
186 186 186
186 186 186
186 186 186
186 186 186
186 186 186
186 186 186
186 186 186
186 186 186
186 186 186
186 186 186
186 186 186
186 186 186
186 186 186
186 186 186
186 186 186
186 186 186
186 186 186
186 186 186
186 186 186
186 186 186
186 186 186
186 186 186
186 186 186
186 186 186
186 186 186
186 186 186
186 186 186
186 186 186
186 186 186
186 186 186
186 186 186
186 186 186
186 186 186
186 186 186
186 186 186
186 186 186
186 186 186
186 186 186
186 186 186
186 186 186
186 186 186
186 186 186
186 186 186
186 186 186
186 186 186
186 186 186
186 186 186
186 186 186
186 186 186
186 186 186
186 186 186
186 186 186
186 186 186
186 186 186
186 186 186
186 186 186
186 186 186
186 186 186
186 186 186
186 186 186
186 186 186
186 186 186
186 186 186
186 186 186
186 186 186
186 186 186
186 186 186
186 186 186
186 186 186
186 186 186
186 186 186
186 186 186
186 186 186
186 186 186
186 186 186
186 186 186
186 186 186
186 186 186
186 186 186
186 186 186
186 186 186
186 186 186
186 186 186
186 186 186
186 186 186
186 186 186
186 186 186
186 186 186
186 186 186
186 186 186
186 186 186
186 186 186
186 186 186
186 186 186
186 186 186
186 186 186
186 186 186
186 186 186
186 186 186
186 186 186
186 186 186
186 186 186
186 186 186
186 186 186
186 186 186
186 186 186
186 186 186
186 186 186
186 186 186
186 186 186
186 186 186
186 186 186
186 186 186
186 186 186
186 186 186
186 186 186
186 186 186
186 186 186
186 186 186
186 186 186
186 186 186
186 186 186
186 186 186
186 186 186
186 186 186
186 186 186
186 186 186
186 186 186
186 186 186
186 186 186
186 186 186
186 186 186
186 186 186
186 186 186
186 186 186
186 186 186
186 186 186
186 186 186
186 186 186
186 186 186
186 186 186
186 186 186
186 186 186
186 186 186
186 186 186
186 186 186
186 186 186
186 186 186
186 186 186
186 186 186
186 186 186
186 186 186
186 186 186
186 186 186
186 186 186
186 186 186
186 186 186
186 186 186
186 186 186
186 186 186
186 186 186
186 186 186
186 186 186
186 186 186
186 186 186
186 186 186
186 186 186
186 186 186
186 186 186
186 186 186
186 186 186
186 186 186
186 186 186
186 186 186
186 186 186
186 186 186
186 186 186
186 186 186
186 186 186
186 186 186
186 186 186
186 186 186
186 186 186
186 186 186
186 186 186
186 186 186
186 186 186
186 186 186
186 186 186
186 186 186
186 186 186
186 186 186
186 186 186
186 186 186
186 186 186
186 186 186
186 186 186
186 186 186
186 186 186
186 186 186
186 186 186
186 186 186
186 186 186
186 186 186
186 186 186
186 186 186
186 186 186
186 186 186
186 186 186
186 186 186
186 186 186
186 186 186
186 186 186
186 186 186
186 186 186
186 186 186
186 186 186
186 186 186
186 186 186
186 186 186
186 186 186
186 186 186
186 186 186
186 186 186
186 186 186
186 186 186
186 186 186
186 186 186
186 186 186
186 186 186
186 186 186
186 186 186
186 186 186
186 186 186
186 186 186
186 186 186
186 186 186
186 186 186
186 186 186
186 186 186
186 186 186
186 186 186
186 186 186
186 186 186
186 186 186
186 186 186
186 186 186
186 186 186
186 186 186
186 186 186
186 186 186
186 186 186
186 186 186
186 186 186
186 186 186
186 186 186
186 186 186
186 186 186
186 186 186
186 186 186
186 186 186
186 186 186
186 186 186
186 186 186
186 186 186
186 186 186
186 186 186
186 186 186
186 186 186
186 186 186
186 186 186
186 186 186
186 186 186
186 186 186
186 186 186
186 186 186
186 186 186
186 186 186
186 186 186
186 186 186
186 186 186
186 186 186
186 186 186
186 186 186
186 186 186
186 186 186
186 186 186
186 186 186
186 186 186
186 186 186
186 186 186
186 186 186
186 186 186
186 186 186
186 186 186
186 186 186
186 186 186
186 186 186
186 186 186
186 186 186
186 186 186
186 186 186
186 186 186
186 186 186
186 186 186
186 186 186
186 186 186
186 186 186
186 186 186
186 186 186
186 186 186
186 186 186
186 186 186
186 186 186
186 186 186
186 186 186
186 186 186
186 186 186
186 186 186
186 186 186
186 186 186
186 186 186
186 186 186
186 186 186
186 186 186
186 186 186
186 186 186
186 186 186
186 186 186
186 186 186
186 186 186
186 186 186
186 186 186
186 186 186
186 186 186
186 186 186
186 186 186
186 186 186
186 186 186
186 186 186
186 186 186
186 186 186
186 186 186
186 186 186
186 186 186
186 186 186
186 186 186
186 186 186
186 186 186
186 186 186
186 186 186
186 186 186
186 186 186
186 186 186
186 186 186
186 186 186
186 186 186
186 186 186
186 186 186
186 186 186
186 186 186
186 186 186
186 186 186
186 186 186
186 186 186
186 186 186
186 186 186
186 186 186
186 186 186
186 186 186
186 186 186
186 186 186
186 186 186
186 186 186
186 186 186
186 186 186
186 186 186
186 186 186
186 186 186
186 186 186
186 186 186
186 186 186
186 186 186
186 186 186
186 186 186
186 186 186
186 186 186
186 186 186
186 186 186
186 186 186
186 186 186
186 186 186
186 186 186
186 186 186
186 186 186
186 186 186
186 186 186
186 186 186
186 186 186
186 186 186
186 186 186
186 186 186
186 186 186
186 186 186
186 186 186
186 186 186
186 186 186
186 186 186
186 186 186
186 186 186
186 186 186
186 186 186
186 186 186
186 186 186
186 186 186
186 186 186
186 186 186
186 186 186
186 186 186
186 186 186
186 186 186
186 186 186
186 186 186
186 186 186
186 186 186
186 186 186
186 186 186
186 186 186
186 186 186
186 186 186
186 186 186
186 186 186
186 186 186
186 186 186
186 186 186
186 186 186
186 186 186
186 186 186
186 186 186
186 186 186
186 186 186
186 186 186
186 186 186
186 186 186
186 186 186
186 186 186
186 186 186
186 186 186
186 186 186
186 186 186
186 186 186
186 186 186
186 186 186
186 186 186
186 186 186
186 186 186
186 186 186
186 186 186
186 186 186
186 186 186
186 186 186
186 186 186
186 186 186
186 186 186
186 186 186
186 186 186
186 186 186
186 186 186
186 186 186
186 186 186
186 186 186
186 186 186
186 186 186
186 186 186
186 186 186
186 186 186
186 186 186
186 186 186
186 186 186
186 186 186
186 186 186
186 186 186
186 186 186
186 186 186
186 186 186
186 186 186
186 186 186
186 186 186
186 186 186
186 186 186
186 186 186
186 186 186
186 186 186
186 186 186
186 186 186
186 186 186
186 186 186
186 186 186
186 186 186
186 186 186
186 186 186
186 186 186
186 186 186
186 186 186
186 186 186
186 186 186
186 186 186
186 186 186
186 186 186
186 186 186
186 186 186
186 186 186
186 186 186
186 186 186
186 186 186
186 186 186
186 186 186
186 186 186
186 186 186
186 186 186
186 186 186
186 186 186
186 186 186
186 186 186
186 186 186
186 186 186
186 186 186
186 186 186
186 186 186
186 186 186
186 186 186
186 186 186
186 186 186
186 186 186
186 186 186
186 186 186
186 186 186
186 186 186
186 186 186
186 186 186
186 186 186
186 186 186
186 186 186
186 186 186
186 186 186
186 186 186
186 186 186
186 186 186
186 186 186
186 186 186
186 186 186
186 186 186
186 186 186
186 186 186
186 186 186
186 186 186
186 186 186
186 186 186
186 186 186
186 186 186
186 186 186
186 186 186
186 186 186
186 186 186
186 186 186
186 186 186
186 186 186
186 186 186
186 186 186
186 186 186
186 186 186
186 186 186
186 186 186
186 186 186
186 186 186
186 186 186
186 186 186
186 186 186
186 186 186
186 186 186
186 186 186
186 186 186
186 186 186
186 186 186
186 186 186
186 186 186
186 186 186
186 186 186
186 186 186
186 186 186
186 186 186
186 186 186
186 186 186
186 186 186
186 186 186
186 186 186
186 186 186
186 186 186
186 186 186
186 186 186
186 186 186
186 186 186
186 186 186
186 186 186
186 186 186
186 186 186
186 186 186
186 186 186
186 186 186
186 186 186
186 186 186
186 186 186
186 186 186
186 186 186
186 186 186
186 186 186
186 186 186
186 186 186
186 186 186
186 186 186
186 186 186
186 186 186
186 186 186
186 186 186
186 186 186
186 186 186
186 186 186
186 186 186
186 186 186
186 186 186
186 186 186
186 186 186
186 186 186
186 186 186
186 186 186
186 186 186
186 186 186
186 186 186
186 186 186
186 186 186
186 186 186
186 186 186
186 186 186
186 186 186
186 186 186
186 186 186
186 186 186
186 186 186
186 186 186
186 186 186
186 186 186
186 186 186
186 186 186
186 186 186
186 186 186
186 186 186
186 186 186
186 186 186
186 186 186
186 186 186
186 186 186
186 186 186
186 186 186
186 186 186
186 186 186
186 186 186
186 186 186
186 186 186
186 186 186
186 186 186
186 186 186
186 186 186
186 186 186
186 186 186
186 186 186
186 186 186
186 186 186
186 186 186
186 186 186
186 186 186
186 186 186
186 186 186
186 186 186
186 186 186
186 186 186
186 186 186
186 186 186
186 186 186
186 186 186
186 186 186
186 186 186
186 186 186
186 186 186
186 186 186
186 186 186
186 186 186
186 186 186
186 186 186
186 186 186
186 186 186
186 186 186
186 186 186
186 186 186
186 186 186
186 186 186
186 186 186
186 186 186
186 186 186
186 186 186
186 186 186
186 186 186
186 186 186
186 186 186
186 186 186
186 186 186
186 186 186
186 186 186
186 186 186
186 186 186
186 186 186
186 186 186
186 186 186
186 186 186
186 186 186
186 186 186
186 186 186
186 186 186
186 186 186
186 186 186
186 186 186
186 186 186
186 186 186
186 186 186
186 186 186
186 186 186
186 186 186
186 186 186
186 186 186
186 186 186
186 186 186
186 186 186
186 186 186
186 186 186
186 186 186
186 186 186
186 186 186
186 186 186
186 186 186
186 186 186
186 186 186
186 186 186
186 186 186
186 186 186
186 186 186
186 186 186
186 186 186
186 186 186
186 186 186
186 186 186
186 186 186
186 186 186
186 186 186
186 186 186
186 186 186
186 186 186
186 186 186
186 186 186
186 186 186
186 186 186
186 186 186
186 186 186
186 186 186
186 186 186
186 186 186
186 186 186
186 186 186
186 186 186
186 186 186
186 186 186
186 186 186
186 186 186
186 186 186
186 186 186
186 186 186
186 186 186
186 186 186
186 186 186
186 186 186
186 186 186
186 186 186
186 186 186
186 186 186
186 186 186
186 186 186
186 186 186
186 186 186
186 186 186
186 186 186
186 186 186
186 186 186
186 186 186
186 186 186
186 186 186
186 186 186
186 186 186
186 186 186
186 186 186
186 186 186
186 186 186
186 186 186
186 186 186
186 186 186
186 186 186
186 186 186
186 186 186
186 186 186
186 186 186
186 186 186
186 186 186
186 186 186
186 186 186
186 186 186
186 186 186
186 186 186
186 186 186
186 186 186
186 186 186
186 186 186
186 186 186
186 186 186
186 186 186
186 186 186
186 186 186
186 186 186
186 186 186
186 186 186
186 186 186
186 186 186
186 186 186
186 186 186
186 186 186
186 186 186
186 186 186
186 186 186
186 186 186
186 186 186
186 186 186
186 186 186
186 186 186
186 186 186
186 186 186
186 186 186
186 186 186
186 186 186
186 186 186
186 186 186
186 186 186
186 186 186
186 186 186
186 186 186
186 186 186
186 186 186
186 186 186
186 186 186
186 186 186
186 186 186
186 186 186
186 186 186
186 186 186
186 186 186
186 186 186
186 186 186
186 186 186
186 186 186
186 186 186
186 186 186
186 186 186
186 186 186
186 186 186
186 186 186
186 186 186
186 186 186
186 186 186
186 186 186
186 186 186
186 186 186
186 186 186
186 186 186
186 186 186
186 186 186
186 186 186
186 186 186
186 186 186
186 186 186
186 186 186
186 186 186
186 186 186
186 186 186
186 186 186
186 186 186
186 186 186
186 186 186
186 186 186
186 186 186
186 186 186
186 186 186
186 186 186
186 186 186
186 186 186
186 186 186
186 186 186
186 186 186
186 186 186
186 186 186
186 186 186
186 186 186
186 186 186
186 186 186
186 186 186
186 186 186
186 186 186
186 186 186
186 186 186
186 186 186
186 186 186
186 186 186
186 186 186
186 186 186
186 186 186
186 186 186
186 186 186
186 186 186
186 186 186
186 186 186
186 186 186
186 186 186
186 186 186
186 186 186
186 186 186
186 186 186
186 186 186
186 186 186
186 186 186
186 186 186
186 186 186
186 186 186
186 186 186
186 186 186
186 186 186
186 186 186
186 186 186
186 186 186
186 186 186
186 186 186
186 186 186
186 186 186
186 186 186
186 186 186
186 186 186
186 186 186
186 186 186
186 186 186
186 186 186
186 186 186
186 186 186
186 186 186
186 186 186
186 186 186
186 186 186
186 186 186
186 186 186
186 186 186
186 186 186
186 186 186
186 186 186
186 186 186
186 186 186
186 186 186
186 186 186
186 186 186
186 186 186
186 186 186
186 186 186
186 186 186
186 186 186
186 186 186
186 186 186
186 186 186
186 186 186
186 186 186
186 186 186
186 186 186
186 186 186
186 186 186
186 186 186
186 186 186
186 186 186
186 186 186
186 186 186
186 186 186
186 186 186
186 186 186
186 186 186
186 186 186
186 186 186
186 186 186
186 186 186
186 186 186
186 186 186
186 186 186
186 186 186
186 186 186
186 186 186
186 186 186
186 186 186
186 186 186
186 186 186
186 186 186
186 186 186
186 186 186
186 186 186
186 186 186
186 186 186
186 186 186
186 186 186
186 186 186
186 186 186
186 186 186
186 186 186
186 186 186
186 186 186
186 186 186
186 186 186
186 186 186
186 186 186
186 186 186
186 186 186
186 186 186
186 186 186
186 186 186
186 186 186
186 186 186
186 186 186
186 186 186
186 186 186
186 186 186
186 186 186
186 186 186
186 186 186
186 186 186
186 186 186
186 186 186
186 186 186
186 186 186
186 186 186
186 186 186
186 186 186
186 186 186
186 186 186
186 186 186
186 186 186
186 186 186
186 186 186
186 186 186
186 186 186
186 186 186
186 186 186
186 186 186
186 186 186
186 186 186
186 186 186
186 186 186
186 186 186
186 186 186
186 186 186
186 186 186
186 186 186
186 186 186
186 186 186
186 186 186
186 186 186
186 186 186
186 186 186
186 186 186
186 186 186
186 186 186
186 186 186
186 186 186
186 186 186
186 186 186
186 186 186
186 186 186
186 186 186
186 186 186
186 186 186
186 186 186
186 186 186
186 186 186
186 186 186
186 186 186
186 186 186
186 186 186
186 186 186
186 186 186
186 186 186
186 186 186
186 186 186
186 186 186
186 186 186
186 186 186
186 186 186
186 186 186
186 186 186
186 186 186
186 186 186
186 186 186
186 186 186
186 186 186
186 186 186
186 186 186
186 186 186
186 186 186
186 186 186
186 186 186
186 186 186
186 186 186
186 186 186
186 186 186
186 186 186
186 186 186
186 186 186
186 186 186
186 186 186
186 186 186
186 186 186
186 186 186
186 186 186
186 186 186
186 186 186
186 186 186
186 186 186
186 186 186
186 186 186
186 186 186
186 186 186
186 186 186
186 186 186
186 186 186
186 186 186
186 186 186
186 186 186
186 186 186
186 186 186
186 186 186
186 186 186
186 186 186
186 186 186
186 186 186
186 186 186
186 186 186
186 186 186
186 186 186
186 186 186
186 186 186
186 186 186
186 186 186
186 186 186
186 186 186
186 186 186
186 186 186
186 186 186
186 186 186
186 186 186
186 186 186
186 186 186
186 186 186
186 186 186
186 186 186
186 186 186
186 186 186
186 186 186
186 186 186
186 186 186
186 186 186
186 186 186
186 186 186
186 186 186
186 186 186
186 186 186
186 186 186
186 186 186
186 186 186
186 186 186
186 186 186
186 186 186
186 186 186
186 186 186
186 186 186
186 186 186
186 186 186
186 186 186
186 186 186
186 186 186
186 186 186
186 186 186
186 186 186
186 186 186
186 186 186
186 186 186
186 186 186
186 186 186
186 186 186
186 186 186
186 186 186
186 186 186
186 186 186
186 186 186
186 186 186
186 186 186
186 186 186
186 186 186
186 186 186
186 186 186
186 186 186
186 186 186
186 186 186
186 186 186
186 186 186
186 186 186
186 186 186
186 186 186
186 186 186
186 186 186
186 186 186
186 186 186
186 186 186
186 186 186
186 186 186
186 186 186
186 186 186
186 186 186
186 186 186
186 186 186
186 186 186
186 186 186
186 186 186
186 186 186
186 186 186
186 186 186
186 186 186
186 186 186
186 186 186
186 186 186
186 186 186
186 186 186
186 186 186
186 186 186
186 186 186
186 186 186
186 186 186
186 186 186
186 186 186
186 186 186
186 186 186
186 186 186
186 186 186
186 186 186
186 186 186
186 186 186
186 186 186
186 186 186
186 186 186
186 186 186
186 186 186
186 186 186
186 186 186
186 186 186
186 186 186
186 186 186
186 186 186
186 186 186
186 186 186
186 186 186
186 186 186
186 186 186
186 186 186
186 186 186
186 186 186
186 186 186
186 186 186
186 186 186
186 186 186
186 186 186
186 186 186
186 186 186
186 186 186
186 186 186
186 186 186
186 186 186
186 186 186
186 186 186
186 186 186
186 186 186
186 186 186
186 186 186
186 186 186
186 186 186
186 186 186
186 186 186
186 186 186
186 186 186
186 186 186
186 186 186
186 186 186
186 186 186
186 186 186
186 186 186
186 186 186
186 186 186
186 186 186
186 186 186
186 186 186
186 186 186
186 186 186
186 186 186
186 186 186
186 186 186
186 186 186
186 186 186
186 186 186
186 186 186
186 186 186
186 186 186
186 186 186
186 186 186
186 186 186
186 186 186
186 186 186
186 186 186
186 186 186
186 186 186
186 186 186
186 186 186
186 186 186
186 186 186
186 186 186
186 186 186
186 186 186
186 186 186
186 186 186
186 186 186
186 186 186
186 186 186
186 186 186
186 186 186
186 186 186
186 186 186
186 186 186
186 186 186
186 186 186
186 186 186
186 186 186
186 186 186
186 186 186
186 186 186
186 186 186
186 186 186
186 186 186
186 186 186
186 186 186
186 186 186
186 186 186
186 186 186
186 186 186
186 186 186
186 186 186
186 186 186
186 186 186
186 186 186
186 186 186
186 186 186
186 186 186
186 186 186
186 186 186
186 186 186
186 186 186
186 186 186
186 186 186
186 186 186
186 186 186
186 186 186
186 186 186
186 186 186
186 186 186
186 186 186
186 186 186
186 186 186
186 186 186
186 186 186
186 186 186
186 186 186
186 186 186
186 186 186
186 186 186
186 186 186
186 186 186
186 186 186
186 186 186
186 186 186
186 186 186
186 186 186
186 186 186
186 186 186
186 186 186
186 186 186
186 186 186
186 186 186
186 186 186
186 186 186
186 186 186
186 186 186
186 186 186
186 186 186
186 186 186
186 186 186
186 186 186
186 186 186
186 186 186
186 186 186
186 186 186
186 186 186
186 186 186
186 186 186
186 186 186
186 186 186
186 186 186
186 186 186
186 186 186
186 186 186
186 186 186
186 186 186
186 186 186
186 186 186
186 186 186
186 186 186
186 186 186
186 186 186
186 186 186
186 186 186
186 186 186
186 186 186
186 186 186
186 186 186
186 186 186
186 186 186
186 186 186
186 186 186
186 186 186
186 186 186
186 186 186
186 186 186
186 186 186
186 186 186
186 186 186
186 186 186
186 186 186
186 186 186
186 186 186
186 186 186
186 186 186
186 186 186
186 186 186
186 186 186
186 186 186
186 186 186
186 186 186
186 186 186
186 186 186
186 186 186
186 186 186
186 186 186
186 186 186
186 186 186
186 186 186
186 186 186
186 186 186
186 186 186
186 186 186
186 186 186
186 186 186
186 186 186
186 186 186
186 186 186
186 186 186
186 186 186
186 186 186
186 186 186
186 186 186
186 186 186
186 186 186
186 186 186
186 186 186
186 186 186
186 186 186
186 186 186
186 186 186
186 186 186
186 186 186
186 186 186
186 186 186
186 186 186
186 186 186
186 186 186
186 186 186
186 186 186
186 186 186
186 186 186
186 186 186
186 186 186
186 186 186
186 186 186
186 186 186
186 186 186
186 186 186
186 186 186
186 186 186
186 186 186
186 186 186
186 186 186
186 186 186
186 186 186
186 186 186
186 186 186
186 186 186
186 186 186
186 186 186
186 186 186
186 186 186
186 186 186
186 186 186
186 186 186
186 186 186
186 186 186
186 186 186
186 186 186
186 186 186
186 186 186
186 186 186
186 186 186
186 186 186
186 186 186
186 186 186
186 186 186
186 186 186
186 186 186
186 186 186
186 186 186
186 186 186
186 186 186
186 186 186
186 186 186
186 186 186
186 186 186
186 186 186
186 186 186
186 186 186
186 186 186
186 186 186
186 186 186
186 186 186
186 186 186
186 186 186
186 186 186
186 186 186
186 186 186
186 186 186
186 186 186
186 186 186
186 186 186
186 186 186
186 186 186
186 186 186
186 186 186
186 186 186
186 186 186
186 186 186
186 186 186
186 186 186
186 186 186
186 186 186
186 186 186
186 186 186
186 186 186
186 186 186
186 186 186
186 186 186
186 186 186
186 186 186
186 186 186
186 186 186
186 186 186
186 186 186
186 186 186
186 186 186
186 186 186
186 186 186
186 186 186
186 186 186
186 186 186
186 186 186
186 186 186
186 186 186
186 186 186
186 186 186
186 186 186
186 186 186
186 186 186
186 186 186
186 186 186
186 186 186
186 186 186
186 186 186
186 186 186
186 186 186
186 186 186
186 186 186
186 186 186
186 186 186
186 186 186
186 186 186
186 186 186
186 186 186
186 186 186
186 186 186
186 186 186
186 186 186
186 186 186
186 186 186
186 186 186
186 186 186
186 186 186
186 186 186
186 186 186
186 186 186
186 186 186
186 186 186
186 186 186
186 186 186
186 186 186
186 186 186
186 186 186
186 186 186
186 186 186
186 186 186
186 186 186
186 186 186
186 186 186
186 186 186
186 186 186
186 186 186
186 186 186
186 186 186
186 186 186
186 186 186
186 186 186
186 186 186
186 186 186
186 186 186
186 186 186
186 186 186
186 186 186
186 186 186
186 186 186
186 186 186
186 186 186
186 186 186
186 186 186
186 186 186
186 186 186
186 186 186
186 186 186
186 186 186
186 186 186
186 186 186
186 186 186
186 186 186
186 186 186
186 186 186
186 186 186
186 186 186
186 186 186
186 186 186
186 186 186
186 186 186
186 186 186
186 186 186
186 186 186
186 186 186
186 186 186
186 186 186
186 186 186
186 186 186
186 186 186
186 186 186
186 186 186
186 186 186
186 186 186
186 186 186
186 186 186
186 186 186
186 186 186
186 186 186
186 186 186
186 186 186
186 186 186
186 186 186
186 186 186
186 186 186
186 186 186
186 186 186
186 186 186
186 186 186
186 186 186
186 186 186
186 186 186
186 186 186
186 186 186
186 186 186
186 186 186
186 186 186
186 186 186
186 186 186
186 186 186
186 186 186
186 186 186
186 186 186
186 186 186
186 186 186
186 186 186
186 186 186
186 186 186
186 186 186
186 186 186
186 186 186
186 186 186
186 186 186
186 186 186
186 186 186
186 186 186
186 186 186
186 186 186
186 186 186
186 186 186
186 186 186
186 186 186
186 186 186
186 186 186
186 186 186
186 186 186
186 186 186
186 186 186
186 186 186
186 186 186
186 186 186
186 186 186
186 186 186
186 186 186
186 186 186
186 186 186
186 186 186
186 186 186
186 186 186
186 186 186
186 186 186
186 186 186
186 186 186
186 186 186
186 186 186
186 186 186
186 186 186
186 186 186
186 186 186
186 186 186
186 186 186
186 186 186
186 186 186
186 186 186
186 186 186
186 186 186
186 186 186
186 186 186
186 186 186
186 186 186
186 186 186
186 186 186
186 186 186
186 186 186
186 186 186
186 186 186
186 186 186
186 186 186
186 186 186
186 186 186
186 186 186
186 186 186
186 186 186
186 186 186
186 186 186
186 186 186
186 186 186
186 186 186
186 186 186
186 186 186
186 186 186
186 186 186
186 186 186
186 186 186
186 186 186
186 186 186
186 186 186
186 186 186
186 186 186
186 186 186
186 186 186
186 186 186
186 186 186
186 186 186
186 186 186
186 186 186
186 186 186
186 186 186
186 186 186
186 186 186
186 186 186
186 186 186
186 186 186
186 186 186
186 186 186
186 186 186
186 186 186
186 186 186
186 186 186
186 186 186
186 186 186
186 186 186
186 186 186
186 186 186
186 186 186
186 186 186
186 186 186
186 186 186
186 186 186
186 186 186
186 186 186
186 186 186
186 186 186
186 186 186
186 186 186
186 186 186
186 186 186
186 186 186
186 186 186
186 186 186
186 186 186
186 186 186
186 186 186
186 186 186
186 186 186
186 186 186
186 186 186
186 186 186
186 186 186
186 186 186
186 186 186
186 186 186
186 186 186
186 186 186
186 186 186
186 186 186
186 186 186
186 186 186
186 186 186
186 186 186
186 186 186
186 186 186
186 186 186
186 186 186
186 186 186
186 186 186
186 186 186
186 186 186
186 186 186
186 186 186
186 186 186
186 186 186
186 186 186
186 186 186
186 186 186
186 186 186
186 186 186
186 186 186
186 186 186
186 186 186
186 186 186
186 186 186
186 186 186
186 186 186
186 186 186
186 186 186
186 186 186
186 186 186
186 186 186
186 186 186
186 186 186
186 186 186
186 186 186
186 186 186
186 186 186
186 186 186
186 186 186
186 186 186
186 186 186
186 186 186
186 186 186
186 186 186
186 186 186
186 186 186
186 186 186
186 186 186
186 186 186
186 186 186
186 186 186
186 186 186
186 186 186
186 186 186
186 186 186
186 186 186
186 186 186
186 186 186
186 186 186
186 186 186
186 186 186
186 186 186
186 186 186
186 186 186
186 186 186
186 186 186
186 186 186
186 186 186
186 186 186
186 186 186
186 186 186
186 186 186
186 186 186
186 186 186
186 186 186
186 186 186
186 186 186
186 186 186
186 186 186
186 186 186
186 186 186
186 186 186
186 186 186
186 186 186
186 186 186
186 186 186
186 186 186
186 186 186
186 186 186
186 186 186
186 186 186
186 186 186
186 186 186
186 186 186
186 186 186
186 186 186
186 186 186
186 186 186
186 186 186
186 186 186
186 186 186
186 186 186
186 186 186
186 186 186
186 186 186
186 186 186
186 186 186
186 186 186
186 186 186
186 186 186
186 186 186
186 186 186
186 186 186
186 186 186
186 186 186
186 186 186
186 186 186
186 186 186
186 186 186
186 186 186
186 186 186
186 186 186
186 186 186
186 186 186
186 186 186
186 186 186
186 186 186
186 186 186
186 186 186
186 186 186
186 186 186
186 186 186
186 186 186
186 186 186
186 186 186
186 186 186
186 186 186
186 186 186
186 186 186
186 186 186
186 186 186
186 186 186
186 186 186
186 186 186
186 186 186
186 186 186
186 186 186
186 186 186
186 186 186
186 186 186
186 186 186
186 186 186
186 186 186
186 186 186
186 186 186
186 186 186
186 186 186
186 186 186
186 186 186
186 186 186
186 186 186
186 186 186
186 186 186
186 186 186
186 186 186
186 186 186
186 186 186
186 186 186
186 186 186
186 186 186
186 186 186
186 186 186
186 186 186
186 186 186
186 186 186
186 186 186
186 186 186
186 186 186
186 186 186
186 186 186
186 186 186
186 186 186
186 186 186
186 186 186
186 186 186
186 186 186
186 186 186
186 186 186
186 186 186
186 186 186
186 186 186
186 186 186
186 186 186
186 186 186
186 186 186
186 186 186
186 186 186
186 186 186
186 186 186
186 186 186
186 186 186
186 186 186
186 186 186
186 186 186
186 186 186
186 186 186
186 186 186
186 186 186
186 186 186
186 186 186
186 186 186
186 186 186
186 186 186
186 186 186
186 186 186
186 186 186
186 186 186
186 186 186
186 186 186
186 186 186
186 186 186
186 186 186
186 186 186
186 186 186
186 186 186
186 186 186
186 186 186
186 186 186
186 186 186
186 186 186
186 186 186
186 186 186
186 186 186
186 186 186
186 186 186
186 186 186
186 186 186
186 186 186
186 186 186
186 186 186
186 186 186
186 186 186
186 186 186
186 186 186
186 186 186
186 186 186
186 186 186
186 186 186
186 186 186
186 186 186
186 186 186
186 186 186
186 186 186
186 186 186
186 186 186
186 186 186
186 186 186
186 186 186
186 186 186
186 186 186
186 186 186
186 186 186
186 186 186
186 186 186
186 186 186
186 186 186
186 186 186
186 186 186
186 186 186
186 186 186
186 186 186
186 186 186
186 186 186
186 186 186
186 186 186
186 186 186
186 186 186
186 186 186
186 186 186
186 186 186
186 186 186
186 186 186
186 186 186
186 186 186
186 186 186
186 186 186
186 186 186
186 186 186
186 186 186
186 186 186
186 186 186
186 186 186
186 186 186
186 186 186
186 186 186
186 186 186
186 186 186
186 186 186
186 186 186
186 186 186
186 186 186
186 186 186
186 186 186
186 186 186
186 186 186
186 186 186
186 186 186
186 186 186
186 186 186
186 186 186
186 186 186
186 186 186
186 186 186
186 186 186
186 186 186
186 186 186
186 186 186
186 186 186
186 186 186
186 186 186
186 186 186
186 186 186
186 186 186
186 186 186
186 186 186
186 186 186
186 186 186
186 186 186
186 186 186
186 186 186
186 186 186
186 186 186
186 186 186
186 186 186
186 186 186
186 186 186
186 186 186
186 186 186
186 186 186
186 186 186
186 186 186
186 186 186
186 186 186
186 186 186
186 186 186
186 186 186
186 186 186
186 186 186
186 186 186
186 186 186
186 186 186
186 186 186
186 186 186
186 186 186
186 186 186
186 186 186
186 186 186
186 186 186
186 186 186
186 186 186
186 186 186
186 186 186
186 186 186
186 186 186
186 186 186
186 186 186
186 186 186
186 186 186
186 186 186
186 186 186
186 186 186
186 186 186
186 186 186
186 186 186
186 186 186
186 186 186
186 186 186
186 186 186
186 186 186
186 186 186
186 186 186
186 186 186
186 186 186
186 186 186
186 186 186
186 186 186
186 186 186
186 186 186
186 186 186
186 186 186
186 186 186
186 186 186
186 186 186
186 186 186
186 186 186
186 186 186
186 186 186
186 186 186
186 186 186
186 186 186
186 186 186
186 186 186
186 186 186
186 186 186
186 186 186
186 186 186
186 186 186
186 186 186
186 186 186
186 186 186
186 186 186
186 186 186
186 186 186
186 186 186
186 186 186
186 186 186
186 186 186
186 186 186
186 186 186
186 186 186
186 186 186
186 186 186
186 186 186
186 186 186
186 186 186
186 186 186
186 186 186
186 186 186
186 186 186
186 186 186
186 186 186
186 186 186
186 186 186
186 186 186
186 186 186
186 186 186
186 186 186
186 186 186
186 186 186
186 186 186
186 186 186
186 186 186
186 186 186
186 186 186
186 186 186
186 186 186
186 186 186
186 186 186
186 186 186
186 186 186
186 186 186
186 186 186
186 186 186
186 186 186
186 186 186
186 186 186
186 186 186
186 186 186
186 186 186
186 186 186
186 186 186
186 186 186
186 186 186
186 186 186
186 186 186
186 186 186
186 186 186
186 186 186
186 186 186
186 186 186
186 186 186
186 186 186
186 186 186
186 186 186
186 186 186
186 186 186
186 186 186
186 186 186
186 186 186
186 186 186
186 186 186
186 186 186
186 186 186
186 186 186
186 186 186
186 186 186
186 186 186
186 186 186
186 186 186
186 186 186
186 186 186
186 186 186
186 186 186
186 186 186
186 186 186
186 186 186
186 186 186
186 186 186
186 186 186
186 186 186
186 186 186
186 186 186
186 186 186
186 186 186
186 186 186
186 186 186
186 186 186
186 186 186
186 186 186
186 186 186
186 186 186
186 186 186
186 186 186
186 186 186
186 186 186
186 186 186
186 186 186
186 186 186
186 186 186
186 186 186
186 186 186
186 186 186
186 186 186
186 186 186
186 186 186
186 186 186
186 186 186
186 186 186
186 186 186
186 186 186
186 186 186
186 186 186
186 186 186
186 186 186
186 186 186
186 186 186
186 186 186
186 186 186
186 186 186
186 186 186
186 186 186
186 186 186
186 186 186
186 186 186
186 186 186
186 186 186
186 186 186
186 186 186
186 186 186
186 186 186
186 186 186
186 186 186
186 186 186
186 186 186
186 186 186
186 186 186
186 186 186
186 186 186
186 186 186
186 186 186
186 186 186
186 186 186
186 186 186
186 186 186
186 186 186
186 186 186
186 186 186
186 186 186
186 186 186
186 186 186
186 186 186
186 186 186
186 186 186
186 186 186
186 186 186
186 186 186
186 186 186
186 186 186
186 186 186
186 186 186
186 186 186
186 186 186
186 186 186
186 186 186
186 186 186
186 186 186
186 186 186
186 186 186
186 186 186
186 186 186
186 186 186
186 186 186
186 186 186
186 186 186
186 186 186
186 186 186
186 186 186
186 186 186
186 186 186
186 186 186
186 186 186
186 186 186
186 186 186
186 186 186
186 186 186
186 186 186
186 186 186
186 186 186
186 186 186
186 186 186
186 186 186
186 186 186
186 186 186
186 186 186
186 186 186
186 186 186
186 186 186
186 186 186
186 186 186
186 186 186
186 186 186
186 186 186
186 186 186
186 186 186
186 186 186
186 186 186
186 186 186
186 186 186
186 186 186
186 186 186
186 186 186
186 186 186
186 186 186
186 186 186
186 186 186
186 186 186
186 186 186
186 186 186
186 186 186
186 186 186
186 186 186
186 186 186
186 186 186
186 186 186
186 186 186
186 186 186
186 186 186
186 186 186
186 186 186
186 186 186
186 186 186
186 186 186
186 186 186
186 186 186
186 186 186
186 186 186
186 186 186
186 186 186
186 186 186
186 186 186
186 186 186
186 186 186
186 186 186
186 186 186
186 186 186
186 186 186
186 186 186
186 186 186
186 186 186
186 186 186
186 186 186
186 186 186
186 186 186
186 186 186
186 186 186
186 186 186
186 186 186
186 186 186
186 186 186
186 186 186
186 186 186
186 186 186
186 186 186
186 186 186
186 186 186
186 186 186
186 186 186
186 186 186
186 186 186
186 186 186
186 186 186
186 186 186
186 186 186
186 186 186
186 186 186
186 186 186
186 186 186
186 186 186
186 186 186
186 186 186
186 186 186
186 186 186
186 186 186
186 186 186
186 186 186
186 186 186
186 186 186
186 186 186
186 186 186
186 186 186
186 186 186
186 186 186
186 186 186
186 186 186
186 186 186
186 186 186
186 186 186
186 186 186
186 186 186
186 186 186
186 186 186
186 186 186
186 186 186
186 186 186
186 186 186
186 186 186
186 186 186
186 186 186
186 186 186
186 186 186
186 186 186
186 186 186
186 186 186
186 186 186
186 186 186
186 186 186
186 186 186
186 186 186
186 186 186
186 186 186
186 186 186
186 186 186
186 186 186
186 186 186
186 186 186
186 186 186
186 186 186
186 186 186
186 186 186
186 186 186
186 186 186
186 186 186
186 186 186
186 186 186
186 186 186
186 186 186
186 186 186
186 186 186
186 186 186
186 186 186
186 186 186
186 186 186
186 186 186
186 186 186
186 186 186
186 186 186
186 186 186
186 186 186
186 186 186
186 186 186
186 186 186
186 186 186
186 186 186
186 186 186
186 186 186
186 186 186
186 186 186
186 186 186
186 186 186
186 186 186
186 186 186
186 186 186
186 186 186
186 186 186
186 186 186
186 186 186
186 186 186
186 186 186
186 186 186
186 186 186
186 186 186
186 186 186
186 186 186
186 186 186
186 186 186
186 186 186
186 186 186
186 186 186
186 186 186
186 186 186
186 186 186
186 186 186
186 186 186
186 186 186
186 186 186
186 186 186
186 186 186
186 186 186
186 186 186
186 186 186
186 186 186
186 186 186
186 186 186
186 186 186
186 186 186
186 186 186
186 186 186
186 186 186
186 186 186
186 186 186
186 186 186
186 186 186
186 186 186
186 186 186
186 186 186
186 186 186
186 186 186
186 186 186
186 186 186
186 186 186
186 186 186
186 186 186
186 186 186
186 186 186
186 186 186
186 186 186
186 186 186
186 186 186
186 186 186
186 186 186
186 186 186
186 186 186
186 186 186
186 186 186
186 186 186
186 186 186
186 186 186
186 186 186
186 186 186
186 186 186
186 186 186
186 186 186
186 186 186
186 186 186
186 186 186
186 186 186
186 186 186
186 186 186
186 186 186
186 186 186
186 186 186
186 186 186
186 186 186
186 186 186
186 186 186
186 186 186
186 186 186
186 186 186
186 186 186
186 186 186
186 186 186
186 186 186
186 186 186
186 186 186
186 186 186
186 186 186
186 186 186
186 186 186
186 186 186
186 186 186
186 186 186
186 186 186
186 186 186
186 186 186
186 186 186
186 186 186
186 186 186
186 186 186
186 186 186
186 186 186
186 186 186
186 186 186
186 186 186
186 186 186
186 186 186
186 186 186
186 186 186
186 186 186
186 186 186
186 186 186
186 186 186
186 186 186
186 186 186
186 186 186
186 186 186
186 186 186
186 186 186
186 186 186
186 186 186
186 186 186
186 186 186
186 186 186
186 186 186
186 186 186
186 186 186
186 186 186
186 186 186
186 186 186
186 186 186
186 186 186
186 186 186
186 186 186
186 186 186
186 186 186
186 186 186
186 186 186
186 186 186
186 186 186
186 186 186
186 186 186
186 186 186
186 186 186
186 186 186
186 186 186
186 186 186
186 186 186
186 186 186
186 186 186
186 186 186
186 186 186
186 186 186
186 186 186
186 186 186
186 186 186
186 186 186
186 186 186
186 186 186
186 186 186
186 186 186
186 186 186
186 186 186
186 186 186
186 186 186
186 186 186
186 186 186
186 186 186
186 186 186
186 186 186
186 186 186
186 186 186
186 186 186
186 186 186
186 186 186
186 186 186
186 186 186
186 186 186
186 186 186
186 186 186
186 186 186
186 186 186
186 186 186
186 186 186
186 186 186
186 186 186
186 186 186
186 186 186
186 186 186
186 186 186
186 186 186
186 186 186
186 186 186
186 186 186
186 186 186
186 186 186
186 186 186
186 186 186
186 186 186
186 186 186
186 186 186
186 186 186
186 186 186
186 186 186
186 186 186
186 186 186
186 186 186
186 186 186
186 186 186
186 186 186
186 186 186
186 186 186
186 186 186
186 186 186
186 186 186
186 186 186
186 186 186
186 186 186
186 186 186
186 186 186
186 186 186
186 186 186
186 186 186
186 186 186
186 186 186
186 186 186
186 186 186
186 186 186
186 186 186
186 186 186
186 186 186
186 186 186
186 186 186
186 186 186
186 186 186
186 186 186
186 186 186
186 186 186
186 186 186
186 186 186
186 186 186
186 186 186
186 186 186
186 186 186
186 186 186
186 186 186
186 186 186
186 186 186
186 186 186
186 186 186
186 186 186
186 186 186
186 186 186
186 186 186
186 186 186
186 186 186
186 186 186
186 186 186
186 186 186
186 186 186
186 186 186
186 186 186
186 186 186
186 186 186
186 186 186
186 186 186
186 186 186
186 186 186
186 186 186
186 186 186
186 186 186
186 186 186
186 186 186
186 186 186
186 186 186
186 186 186
186 186 186
186 186 186
186 186 186
186 186 186
186 186 186
186 186 186
186 186 186
186 186 186
186 186 186
186 186 186
186 186 186
186 186 186
186 186 186
186 186 186
186 186 186
186 186 186
186 186 186
186 186 186
186 186 186
186 186 186
186 186 186
186 186 186
186 186 186
186 186 186
186 186 186
186 186 186
186 186 186
186 186 186
186 186 186
186 186 186
186 186 186
186 186 186
186 186 186
186 186 186
186 186 186
186 186 186
186 186 186
186 186 186
186 186 186
186 186 186
186 186 186
186 186 186
186 186 186
186 186 186
186 186 186
186 186 186
186 186 186
186 186 186
186 186 186
186 186 186
186 186 186
186 186 186
186 186 186
186 186 186
186 186 186
186 186 186
186 186 186
186 186 186
186 186 186
186 186 186
186 186 186
186 186 186
186 186 186
186 186 186
186 186 186
186 186 186
186 186 186
186 186 186
186 186 186
186 186 186
186 186 186
186 186 186
186 186 186
186 186 186
186 186 186
186 186 186
186 186 186
186 186 186
186 186 186
186 186 186
186 186 186
186 186 186
186 186 186
186 186 186
186 186 186
186 186 186
186 186 186
186 186 186
186 186 186
186 186 186
186 186 186
186 186 186
186 186 186
186 186 186
186 186 186
186 186 186
186 186 186
186 186 186
186 186 186
186 186 186
186 186 186
186 186 186
186 186 186
186 186 186
186 186 186
186 186 186
186 186 186
186 186 186
186 186 186
186 186 186
186 186 186
186 186 186
186 186 186
186 186 186
186 186 186
186 186 186
186 186 186
186 186 186
186 186 186
186 186 186
186 186 186
186 186 186
186 186 186
186 186 186
186 186 186
186 186 186
186 186 186
186 186 186
186 186 186
186 186 186
186 186 186
186 186 186
186 186 186
186 186 186
186 186 186
186 186 186
186 186 186
186 186 186
186 186 186
186 186 186
186 186 186
186 186 186
186 186 186
186 186 186
186 186 186
186 186 186
186 186 186
186 186 186
186 186 186
186 186 186
186 186 186
186 186 186
186 186 186
186 186 186
186 186 186
186 186 186
186 186 186
186 186 186
186 186 186
186 186 186
186 186 186
186 186 186
186 186 186
186 186 186
186 186 186
186 186 186
186 186 186
186 186 186
186 186 186
186 186 186
186 186 186
186 186 186
186 186 186
186 186 186
186 186 186
186 186 186
186 186 186
186 186 186
186 186 186
186 186 186
186 186 186
186 186 186
186 186 186
186 186 186
186 186 186
186 186 186
186 186 186
186 186 186
186 186 186
186 186 186
186 186 186
186 186 186
186 186 186
186 186 186
186 186 186
186 186 186
186 186 186
186 186 186
186 186 186
186 186 186
186 186 186
186 186 186
186 186 186
186 186 186
186 186 186
186 186 186
186 186 186
186 186 186
186 186 186
186 186 186
186 186 186
186 186 186
186 186 186
186 186 186
186 186 186
186 186 186
186 186 186
186 186 186
186 186 186
186 186 186
186 186 186
186 186 186
186 186 186
186 186 186
186 186 186
186 186 186
186 186 186
186 186 186
186 186 186
186 186 186
186 186 186
186 186 186
186 186 186
186 186 186
186 186 186
186 186 186
186 186 186
186 186 186
186 186 186
186 186 186
186 186 186
186 186 186
186 186 186
186 186 186
186 186 186
186 186 186
186 186 186
186 186 186
186 186 186
186 186 186
186 186 186
186 186 186
186 186 186
186 186 186
186 186 186
186 186 186
186 186 186
186 186 186
186 186 186
186 186 186
186 186 186
186 186 186
186 186 186
186 186 186
186 186 186
186 186 186
186 186 186
186 186 186
186 186 186
186 186 186
186 186 186
186 186 186
186 186 186
186 186 186
186 186 186
186 186 186
186 186 186
186 186 186
186 186 186
186 186 186
186 186 186
186 186 186
186 186 186
186 186 186
186 186 186
186 186 186
186 186 186
186 186 186
186 186 186
186 186 186
186 186 186
186 186 186
186 186 186
186 186 186
186 186 186
186 186 186
186 186 186
186 186 186
186 186 186
186 186 186
186 186 186
186 186 186
186 186 186
186 186 186
186 186 186
186 186 186
186 186 186
186 186 186
186 186 186
186 186 186
186 186 186
186 186 186
186 186 186
186 186 186
186 186 186
186 186 186
186 186 186
186 186 186
186 186 186
186 186 186
186 186 186
186 186 186
186 186 186
186 186 186
186 186 186
186 186 186
186 186 186
186 186 186
186 186 186
186 186 186
186 186 186
186 186 186
186 186 186
186 186 186
186 186 186
186 186 186
186 186 186
186 186 186
186 186 186
186 186 186
186 186 186
186 186 186
186 186 186
186 186 186
186 186 186
186 186 186
186 186 186
186 186 186
186 186 186
186 186 186
186 186 186
186 186 186
186 186 186
186 186 186
186 186 186
186 186 186
186 186 186
186 186 186
186 186 186
186 186 186
186 186 186
186 186 186
186 186 186
186 186 186
186 186 186
186 186 186
186 186 186
186 186 186
186 186 186
186 186 186
186 186 186
186 186 186
186 186 186
186 186 186
186 186 186
186 186 186
186 186 186
186 186 186
186 186 186
186 186 186
186 186 186
186 186 186
186 186 186
186 186 186
186 186 186
186 186 186
186 186 186
186 186 186
186 186 186
186 186 186
186 186 186
186 186 186
186 186 186
186 186 186
186 186 186
186 186 186
186 186 186
186 186 186
186 186 186
186 186 186
186 186 186
186 186 186
186 186 186
186 186 186
186 186 186
186 186 186
186 186 186
186 186 186
186 186 186
186 186 186
186 186 186
186 186 186
186 186 186
186 186 186
186 186 186
186 186 186
186 186 186
186 186 186
186 186 186
186 186 186
186 186 186
186 186 186
186 186 186
186 186 186
186 186 186
186 186 186
186 186 186
186 186 186
186 186 186
186 186 186
186 186 186
186 186 186
186 186 186
186 186 186
186 186 186
186 186 186
186 186 186
186 186 186
186 186 186
186 186 186
186 186 186
186 186 186
186 186 186
186 186 186
186 186 186
186 186 186
186 186 186
186 186 186
186 186 186
186 186 186
186 186 186
186 186 186
186 186 186
186 186 186
186 186 186
186 186 186
186 186 186
186 186 186
186 186 186
186 186 186
186 186 186
186 186 186
186 186 186
186 186 186
186 186 186
186 186 186
186 186 186
186 186 186
186 186 186
186 186 186
186 186 186
186 186 186
186 186 186
186 186 186
186 186 186
186 186 186
186 186 186
186 186 186
186 186 186
186 186 186
186 186 186
186 186 186
186 186 186
186 186 186
186 186 186
186 186 186
186 186 186
186 186 186
186 186 186
186 186 186
186 186 186
186 186 186
186 186 186
186 186 186
186 186 186
186 186 186
186 186 186
186 186 186
186 186 186
186 186 186
186 186 186
186 186 186
186 186 186
186 186 186
186 186 186
186 186 186
186 186 186
186 186 186
186 186 186
186 186 186
186 186 186
186 186 186
186 186 186
186 186 186
186 186 186
186 186 186
186 186 186
186 186 186
186 186 186
186 186 186
186 186 186
186 186 186
186 186 186
186 186 186
186 186 186
186 186 186
186 186 186
186 186 186
186 186 186
186 186 186
186 186 186
186 186 186
186 186 186
186 186 186
186 186 186
186 186 186
186 186 186
186 186 186
186 186 186
186 186 186
186 186 186
186 186 186
186 186 186
186 186 186
186 186 186
186 186 186
186 186 186
186 186 186
186 186 186
186 186 186
186 186 186
186 186 186
186 186 186
186 186 186
186 186 186
186 186 186
186 186 186
186 186 186
186 186 186
186 186 186
186 186 186
186 186 186
186 186 186
186 186 186
186 186 186
186 186 186
186 186 186
186 186 186
186 186 186
186 186 186
186 186 186
186 186 186
186 186 186
186 186 186
186 186 186
186 186 186
186 186 186
186 186 186
186 186 186
186 186 186
186 186 186
186 186 186
186 186 186
186 186 186
186 186 186
186 186 186
186 186 186
186 186 186
186 186 186
186 186 186
186 186 186
186 186 186
186 186 186
186 186 186
186 186 186
186 186 186
186 186 186
186 186 186
186 186 186
186 186 186
186 186 186
186 186 186
186 186 186
186 186 186
186 186 186
186 186 186
186 186 186
186 186 186
186 186 186
186 186 186
186 186 186
186 186 186
186 186 186
186 186 186
186 186 186
186 186 186
186 186 186
186 186 186
186 186 186
186 186 186
186 186 186
186 186 186
186 186 186
186 186 186
186 186 186
186 186 186
186 186 186
186 186 186
186 186 186
186 186 186
186 186 186
186 186 186
186 186 186
186 186 186
186 186 186
186 186 186
186 186 186
186 186 186
186 186 186
186 186 186
186 186 186
186 186 186
186 186 186
186 186 186
186 186 186
186 186 186
186 186 186
186 186 186
186 186 186
186 186 186
186 186 186
186 186 186
186 186 186
186 186 186
186 186 186
186 186 186
186 186 186
186 186 186
186 186 186
186 186 186
186 186 186
186 186 186
186 186 186
186 186 186
186 186 186
186 186 186
186 186 186
186 186 186
186 186 186
186 186 186
186 186 186
186 186 186
186 186 186
186 186 186
186 186 186
186 186 186
186 186 186
186 186 186
186 186 186
186 186 186
186 186 186
186 186 186
186 186 186
186 186 186
186 186 186
186 186 186
186 186 186
186 186 186
186 186 186
186 186 186
186 186 186
186 186 186
186 186 186
186 186 186
186 186 186
186 186 186
186 186 186
186 186 186
186 186 186
186 186 186
186 186 186
186 186 186
186 186 186
186 186 186
186 186 186
186 186 186
186 186 186
186 186 186
186 186 186
186 186 186
186 186 186
186 186 186
186 186 186
186 186 186
186 186 186
186 186 186
186 186 186
186 186 186
186 186 186
186 186 186
186 186 186
186 186 186
186 186 186
186 186 186
186 186 186
186 186 186
186 186 186
186 186 186
186 186 186
186 186 186
186 186 186
186 186 186
186 186 186
186 186 186
186 186 186
186 186 186
186 186 186
186 186 186
186 186 186
186 186 186
186 186 186
186 186 186
186 186 186
186 186 186
186 186 186
186 186 186
186 186 186
186 186 186
186 186 186
186 186 186
186 186 186
186 186 186
186 186 186
186 186 186
186 186 186
186 186 186
186 186 186
186 186 186
186 186 186
186 186 186
186 186 186
186 186 186
186 186 186
186 186 186
186 186 186
186 186 186
186 186 186
186 186 186
186 186 186
186 186 186
186 186 186
186 186 186
186 186 186
186 186 186
186 186 186
186 186 186
186 186 186
186 186 186
186 186 186
186 186 186
186 186 186
186 186 186
186 186 186
186 186 186
186 186 186
186 186 186
186 186 186
186 186 186
186 186 186
186 186 186
186 186 186
186 186 186
186 186 186
186 186 186
186 186 186
186 186 186
186 186 186
186 186 186
186 186 186
186 186 186
186 186 186
186 186 186
186 186 186
186 186 186
186 186 186
186 186 186
186 186 186
186 186 186
186 186 186
186 186 186
186 186 186
186 186 186
186 186 186
186 186 186
186 186 186
186 186 186
186 186 186
186 186 186
186 186 186
186 186 186
186 186 186
186 186 186
186 186 186
186 186 186
186 186 186
186 186 186
186 186 186
186 186 186
186 186 186
186 186 186
186 186 186
186 186 186
186 186 186
186 186 186
186 186 186
186 186 186
186 186 186
186 186 186
186 186 186
186 186 186
186 186 186
186 186 186
186 186 186
186 186 186
186 186 186
186 186 186
186 186 186
186 186 186
186 186 186
186 186 186
186 186 186
186 186 186
186 186 186
186 186 186
186 186 186
186 186 186
186 186 186
186 186 186
186 186 186
186 186 186
186 186 186
186 186 186
186 186 186
186 186 186
186 186 186
186 186 186
186 186 186
186 186 186
186 186 186
186 186 186
186 186 186
186 186 186
186 186 186
186 186 186
186 186 186
186 186 186
186 186 186
186 186 186
186 186 186
186 186 186
186 186 186
186 186 186
186 186 186
186 186 186
186 186 186
186 186 186
186 186 186
186 186 186
186 186 186
186 186 186
186 186 186
186 186 186
186 186 186
186 186 186
186 186 186
186 186 186
186 186 186
186 186 186
186 186 186
186 186 186
186 186 186
186 186 186
186 186 186
186 186 186
186 186 186
186 186 186
186 186 186
186 186 186
186 186 186
186 186 186
186 186 186
186 186 186
186 186 186
186 186 186
186 186 186
186 186 186
186 186 186
186 186 186
186 186 186
186 186 186
186 186 186
186 186 186
186 186 186
186 186 186
186 186 186
186 186 186
186 186 186
186 186 186
186 186 186
186 186 186
186 186 186
186 186 186
186 186 186
186 186 186
186 186 186
186 186 186
186 186 186
186 186 186
186 186 186
186 186 186
186 186 186
186 186 186
186 186 186
186 186 186
186 186 186
186 186 186
186 186 186
186 186 186
186 186 186
186 186 186
186 186 186
186 186 186
186 186 186
186 186 186
186 186 186
186 186 186
186 186 186
186 186 186
186 186 186
186 186 186
186 186 186
186 186 186
186 186 186
186 186 186
186 186 186
186 186 186
186 186 186
186 186 186
186 186 186
186 186 186
186 186 186
186 186 186
186 186 186
186 186 186
186 186 186
186 186 186
186 186 186
186 186 186
186 186 186
186 186 186
186 186 186
186 186 186
186 186 186
186 186 186
186 186 186
186 186 186
186 186 186
186 186 186
186 186 186
186 186 186
186 186 186
186 186 186
186 186 186
186 186 186
186 186 186
186 186 186
186 186 186
186 186 186
186 186 186
186 186 186
186 186 186
186 186 186
186 186 186
186 186 186
186 186 186
186 186 186
186 186 186
186 186 186
186 186 186
186 186 186
186 186 186
186 186 186
186 186 186
186 186 186
186 186 186
186 186 186
186 186 186
186 186 186
186 186 186
186 186 186
186 186 186
186 186 186
186 186 186
186 186 186
186 186 186
186 186 186
186 186 186
186 186 186
186 186 186
186 186 186
186 186 186
186 186 186
186 186 186
186 186 186
186 186 186
186 186 186
186 186 186
186 186 186
186 186 186
186 186 186
186 186 186
186 186 186
186 186 186
186 186 186
186 186 186
186 186 186
186 186 186
186 186 186
186 186 186
186 186 186
186 186 186
186 186 186
186 186 186
186 186 186
186 186 186
186 186 186
186 186 186
186 186 186
186 186 186
186 186 186
186 186 186
186 186 186
186 186 186
186 186 186
186 186 186
186 186 186
186 186 186
186 186 186
186 186 186
186 186 186
186 186 186
186 186 186
186 186 186
186 186 186
186 186 186
186 186 186
186 186 186
186 186 186
186 186 186
186 186 186
186 186 186
186 186 186
186 186 186
186 186 186
186 186 186
186 186 186
186 186 186
186 186 186
186 186 186
186 186 186
186 186 186
186 186 186
186 186 186
186 186 186
186 186 186
186 186 186
186 186 186
186 186 186
186 186 186
186 186 186
186 186 186
186 186 186
186 186 186
186 186 186
186 186 186
186 186 186
186 186 186
186 186 186
186 186 186
186 186 186
186 186 186
186 186 186
186 186 186
186 186 186
186 186 186
186 186 186
186 186 186
186 186 186
186 186 186
186 186 186
186 186 186
186 186 186
186 186 186
186 186 186
186 186 186
186 186 186
186 186 186
186 186 186
186 186 186
186 186 186
186 186 186
186 186 186
186 186 186
186 186 186
186 186 186
186 186 186
186 186 186
186 186 186
186 186 186
186 186 186
186 186 186
186 186 186
186 186 186
186 186 186
186 186 186
186 186 186
186 186 186
186 186 186
186 186 186
186 186 186
186 186 186
186 186 186
186 186 186
186 186 186
186 186 186
186 186 186
186 186 186
186 186 186
186 186 186
186 186 186
186 186 186
186 186 186
186 186 186
186 186 186
186 186 186
186 186 186
186 186 186
186 186 186
186 186 186
186 186 186
186 186 186
186 186 186
186 186 186
186 186 186
186 186 186
186 186 186
186 186 186
186 186 186
186 186 186
186 186 186
186 186 186
186 186 186
186 186 186
186 186 186
186 186 186
186 186 186
186 186 186
186 186 186
186 186 186
186 186 186
186 186 186
186 186 186
186 186 186
186 186 186
186 186 186
186 186 186
186 186 186
186 186 186
186 186 186
186 186 186
186 186 186
186 186 186
186 186 186
186 186 186
186 186 186
186 186 186
186 186 186
186 186 186
186 186 186
186 186 186
186 186 186
186 186 186
186 186 186
186 186 186
186 186 186
186 186 186
186 186 186
186 186 186
186 186 186
186 186 186
186 186 186
186 186 186
186 186 186
186 186 186
186 186 186
186 186 186
186 186 186
186 186 186
186 186 186
186 186 186
186 186 186
186 186 186
186 186 186
186 186 186
186 186 186
186 186 186
186 186 186
186 186 186
186 186 186
186 186 186
186 186 186
186 186 186
186 186 186
186 186 186
186 186 186
186 186 186
186 186 186
186 186 186
186 186 186
186 186 186
186 186 186
186 186 186
186 186 186
186 186 186
186 186 186
186 186 186
186 186 186
186 186 186
186 186 186
186 186 186
186 186 186
186 186 186
186 186 186
186 186 186
186 186 186
186 186 186
186 186 186
186 186 186
186 186 186
186 186 186
186 186 186
186 186 186
186 186 186
186 186 186
186 186 186
186 186 186
186 186 186
186 186 186
186 186 186
186 186 186
186 186 186
186 186 186
186 186 186
186 186 186
186 186 186
186 186 186
186 186 186
186 186 186
186 186 186
186 186 186
186 186 186
186 186 186
186 186 186
186 186 186
186 186 186
186 186 186
186 186 186
186 186 186
186 186 186
186 186 186
186 186 186
186 186 186
186 186 186
186 186 186
186 186 186
186 186 186
186 186 186
186 186 186
186 186 186
186 186 186
186 186 186
186 186 186
186 186 186
186 186 186
186 186 186
186 186 186
186 186 186
186 186 186
186 186 186
186 186 186
186 186 186
186 186 186
186 186 186
186 186 186
186 186 186
186 186 186
186 186 186
186 186 186
186 186 186
186 186 186
186 186 186
186 186 186
186 186 186
186 186 186
186 186 186
186 186 186
186 186 186
186 186 186
186 186 186
186 186 186
186 186 186
186 186 186
186 186 186
186 186 186
186 186 186
186 186 186
186 186 186
186 186 186
186 186 186
186 186 186
186 186 186
186 186 186
186 186 186
186 186 186
186 186 186
186 186 186
186 186 186
186 186 186
186 186 186
186 186 186
186 186 186
186 186 186
186 186 186
186 186 186
186 186 186
186 186 186
186 186 186
186 186 186
186 186 186
186 186 186
186 186 186
186 186 186
186 186 186
186 186 186
186 186 186
186 186 186
186 186 186
186 186 186
186 186 186
186 186 186
186 186 186
186 186 186
186 186 186
186 186 186
186 186 186
186 186 186
186 186 186
186 186 186
186 186 186
186 186 186
186 186 186
186 186 186
186 186 186
186 186 186
186 186 186
186 186 186
186 186 186
186 186 186
186 186 186
186 186 186
186 186 186
186 186 186
186 186 186
186 186 186
186 186 186
186 186 186
186 186 186
186 186 186
186 186 186
186 186 186
186 186 186
186 186 186
186 186 186
186 186 186
186 186 186
186 186 186
186 186 186
186 186 186
186 186 186
186 186 186
186 186 186
186 186 186
186 186 186
186 186 186
186 186 186
186 186 186
186 186 186
186 186 186
186 186 186
186 186 186
186 186 186
186 186 186
186 186 186
186 186 186
186 186 186
186 186 186
186 186 186
186 186 186
186 186 186
186 186 186
186 186 186
186 186 186
186 186 186
186 186 186
186 186 186
186 186 186
186 186 186
186 186 186
186 186 186
186 186 186
186 186 186
186 186 186
186 186 186
186 186 186
186 186 186
186 186 186
186 186 186
186 186 186
186 186 186
186 186 186
186 186 186
186 186 186
186 186 186
186 186 186
186 186 186
186 186 186
186 186 186
186 186 186
186 186 186
186 186 186
186 186 186
186 186 186
186 186 186
186 186 186
186 186 186
186 186 186
186 186 186
186 186 186
186 186 186
186 186 186
186 186 186
186 186 186
186 186 186
186 186 186
186 186 186
186 186 186
186 186 186
186 186 186
186 186 186
186 186 186
186 186 186
186 186 186
186 186 186
186 186 186
186 186 186
186 186 186
186 186 186
186 186 186
186 186 186
186 186 186
186 186 186
186 186 186
186 186 186
186 186 186
186 186 186
186 186 186
186 186 186
186 186 186
186 186 186
186 186 186
186 186 186
186 186 186
186 186 186
186 186 186
186 186 186
186 186 186
186 186 186
186 186 186
186 186 186
186 186 186
186 186 186
186 186 186
186 186 186
186 186 186
186 186 186
186 186 186
186 186 186
186 186 186
186 186 186
186 186 186
186 186 186
186 186 186
186 186 186
186 186 186
186 186 186
186 186 186
186 186 186
186 186 186
186 186 186
186 186 186
186 186 186
186 186 186
186 186 186
186 186 186
186 186 186
186 186 186
186 186 186
186 186 186
186 186 186
186 186 186
186 186 186
186 186 186
186 186 186
186 186 186
186 186 186
186 186 186
186 186 186
186 186 186
186 186 186
186 186 186
186 186 186
186 186 186
186 186 186
186 186 186
186 186 186
186 186 186
186 186 186
186 186 186
186 186 186
186 186 186
186 186 186
186 186 186
186 186 186
186 186 186
186 186 186
186 186 186
186 186 186
186 186 186
186 186 186
186 186 186
186 186 186
186 186 186
186 186 186
186 186 186
186 186 186
186 186 186
186 186 186
186 186 186
186 186 186
186 186 186
186 186 186
186 186 186
186 186 186
186 186 186
186 186 186
186 186 186
186 186 186
186 186 186
186 186 186
186 186 186
186 186 186
186 186 186
186 186 186
186 186 186
186 186 186
186 186 186
186 186 186
186 186 186
186 186 186
186 186 186
186 186 186
186 186 186
186 186 186
186 186 186
186 186 186
186 186 186
186 186 186
186 186 186
186 186 186
186 186 186
186 186 186
186 186 186
186 186 186
186 186 186
186 186 186
186 186 186
186 186 186
186 186 186
186 186 186
186 186 186
186 186 186
186 186 186
186 186 186
186 186 186
186 186 186
186 186 186
186 186 186
186 186 186
186 186 186
186 186 186
186 186 186
186 186 186
186 186 186
186 186 186
186 186 186
186 186 186
186 186 186
186 186 186
186 186 186
186 186 186
186 186 186
186 186 186
186 186 186
186 186 186
186 186 186
186 186 186
186 186 186
186 186 186
186 186 186
186 186 186
186 186 186
186 186 186
186 186 186
186 186 186
186 186 186
186 186 186
186 186 186
186 186 186
186 186 186
186 186 186
186 186 186
186 186 186
186 186 186
186 186 186
186 186 186
186 186 186
186 186 186
186 186 186
186 186 186
186 186 186
186 186 186
186 186 186
186 186 186
186 186 186
186 186 186
186 186 186
186 186 186
186 186 186
186 186 186
186 186 186
186 186 186
186 186 186
186 186 186
186 186 186
186 186 186
186 186 186
186 186 186
186 186 186
186 186 186
186 186 186
186 186 186
186 186 186
186 186 186
186 186 186
186 186 186
186 186 186
186 186 186
186 186 186
186 186 186
186 186 186
186 186 186
186 186 186
186 186 186
186 186 186
186 186 186
186 186 186
186 186 186
186 186 186
186 186 186
186 186 186
186 186 186
186 186 186
186 186 186
186 186 186
186 186 186
186 186 186
186 186 186
186 186 186
186 186 186
186 186 186
186 186 186
186 186 186
186 186 186
186 186 186
186 186 186
186 186 186
186 186 186
186 186 186
186 186 186
186 186 186
186 186 186
186 186 186
186 186 186
186 186 186
186 186 186
186 186 186
186 186 186
186 186 186
186 186 186
186 186 186
186 186 186
186 186 186
186 186 186
186 186 186
186 186 186
186 186 186
186 186 186
186 186 186
186 186 186
186 186 186
186 186 186
186 186 186
186 186 186
186 186 186
186 186 186
186 186 186
186 186 186
186 186 186
186 186 186
186 186 186
186 186 186
186 186 186
186 186 186
186 186 186
186 186 186
186 186 186
186 186 186
186 186 186
186 186 186
186 186 186
186 186 186
186 186 186
186 186 186
186 186 186
186 186 186
186 186 186
186 186 186
186 186 186
186 186 186
186 186 186
186 186 186
186 186 186
186 186 186
186 186 186
186 186 186
186 186 186
186 186 186
186 186 186
186 186 186
186 186 186
186 186 186
186 186 186
186 186 186
186 186 186
186 186 186
186 186 186
186 186 186
186 186 186
186 186 186
186 186 186
186 186 186
186 186 186
186 186 186
186 186 186
186 186 186
186 186 186
186 186 186
186 186 186
186 186 186
186 186 186
186 186 186
186 186 186
186 186 186
186 186 186
186 186 186
186 186 186
186 186 186
186 186 186
186 186 186
186 186 186
186 186 186
186 186 186
186 186 186
186 186 186
186 186 186
186 186 186
186 186 186
186 186 186
186 186 186
186 186 186
186 186 186
186 186 186
186 186 186
186 186 186
186 186 186
186 186 186
186 186 186
186 186 186
186 186 186
186 186 186
186 186 186
186 186 186
186 186 186
186 186 186
186 186 186
186 186 186
186 186 186
186 186 186
186 186 186
186 186 186
186 186 186
186 186 186
186 186 186
186 186 186
186 186 186
186 186 186
186 186 186
186 186 186
186 186 186
186 186 186
186 186 186
186 186 186
186 186 186
186 186 186
186 186 186
186 186 186
186 186 186
186 186 186
186 186 186
186 186 186
186 186 186
186 186 186
186 186 186
186 186 186
186 186 186
186 186 186
186 186 186
186 186 186
186 186 186
186 186 186
186 186 186
186 186 186
186 186 186
186 186 186
186 186 186
186 186 186
186 186 186
186 186 186
186 186 186
186 186 186
186 186 186
186 186 186
186 186 186
186 186 186
186 186 186
186 186 186
186 186 186
186 186 186
186 186 186
186 186 186
186 186 186
186 186 186
186 186 186
186 186 186
186 186 186
186 186 186
186 186 186
186 186 186
186 186 186
186 186 186
186 186 186
186 186 186
186 186 186
186 186 186
186 186 186
186 186 186
186 186 186
186 186 186
186 186 186
186 186 186
186 186 186
186 186 186
186 186 186
186 186 186
186 186 186
186 186 186
186 186 186
186 186 186
186 186 186
186 186 186
186 186 186
186 186 186
186 186 186
186 186 186
186 186 186
186 186 186
186 186 186
186 186 186
186 186 186
186 186 186
186 186 186
186 186 186
186 186 186
186 186 186
186 186 186
186 186 186
186 186 186
186 186 186
186 186 186
186 186 186
186 186 186
186 186 186
186 186 186
186 186 186
186 186 186
186 186 186
186 186 186
186 186 186
186 186 186
186 186 186
186 186 186
186 186 186
186 186 186
186 186 186
186 186 186
186 186 186
186 186 186
186 186 186
186 186 186
186 186 186
186 186 186
186 186 186
186 186 186
186 186 186
186 186 186
186 186 186
186 186 186
186 186 186
186 186 186
186 186 186
186 186 186
186 186 186
186 186 186
186 186 186
186 186 186
186 186 186
186 186 186
186 186 186
186 186 186
186 186 186
186 186 186
186 186 186
186 186 186
186 186 186
186 186 186
186 186 186
186 186 186
186 186 186
186 186 186
186 186 186
186 186 186
186 186 186
186 186 186
186 186 186
186 186 186
186 186 186
186 186 186
186 186 186
186 186 186
186 186 186
186 186 186
186 186 186
186 186 186
186 186 186
186 186 186
186 186 186
186 186 186
186 186 186
186 186 186
186 186 186
186 186 186
186 186 186
186 186 186
186 186 186
186 186 186
186 186 186
186 186 186
186 186 186
186 186 186
186 186 186
186 186 186
186 186 186
186 186 186
186 186 186
186 186 186
186 186 186
186 186 186
186 186 186
186 186 186
186 186 186
186 186 186
186 186 186
186 186 186
186 186 186
186 186 186
186 186 186
186 186 186
186 186 186
186 186 186
186 186 186
186 186 186
186 186 186
186 186 186
186 186 186
186 186 186
186 186 186
186 186 186
186 186 186
186 186 186
186 186 186
186 186 186
186 186 186
186 186 186
186 186 186
186 186 186
186 186 186
186 186 186
186 186 186
186 186 186
186 186 186
186 186 186
186 186 186
186 186 186
186 186 186
186 186 186
186 186 186
186 186 186
186 186 186
186 186 186
186 186 186
186 186 186
186 186 186
186 186 186
186 186 186
186 186 186
186 186 186
186 186 186
186 186 186
186 186 186
186 186 186
186 186 186
186 186 186
186 186 186
186 186 186
186 186 186
186 186 186
186 186 186
186 186 186
186 186 186
186 186 186
186 186 186
186 186 186
186 186 186
186 186 186
186 186 186
186 186 186
186 186 186
186 186 186
186 186 186
186 186 186
186 186 186
186 186 186
186 186 186
186 186 186
186 186 186
186 186 186
186 186 186
186 186 186
186 186 186
186 186 186
186 186 186
186 186 186
186 186 186
186 186 186
186 186 186
186 186 186
186 186 186
186 186 186
186 186 186
186 186 186
186 186 186
186 186 186
186 186 186
186 186 186
186 186 186
186 186 186
186 186 186
186 186 186
186 186 186
186 186 186
186 186 186
186 186 186
186 186 186
186 186 186
186 186 186
186 186 186
186 186 186
186 186 186
186 186 186
186 186 186
186 186 186
186 186 186
186 186 186
186 186 186
186 186 186
186 186 186
186 186 186
186 186 186
186 186 186
186 186 186
186 186 186
186 186 186
186 186 186
186 186 186
186 186 186
186 186 186
186 186 186
186 186 186
186 186 186
186 186 186
186 186 186
186 186 186
186 186 186
186 186 186
186 186 186
186 186 186
186 186 186
186 186 186
186 186 186
186 186 186
186 186 186
186 186 186
186 186 186
186 186 186
186 186 186
186 186 186
186 186 186
186 186 186
186 186 186
186 186 186
186 186 186
186 186 186
186 186 186
186 186 186
186 186 186
186 186 186
186 186 186
186 186 186
186 186 186
186 186 186
186 186 186
186 186 186
186 186 186
186 186 186
186 186 186
186 186 186
186 186 186
186 186 186
186 186 186
186 186 186
186 186 186
186 186 186
186 186 186
186 186 186
186 186 186
186 186 186
186 186 186
186 186 186
186 186 186
186 186 186
186 186 186
186 186 186
186 186 186
186 186 186
186 186 186
186 186 186
186 186 186
186 186 186
186 186 186
186 186 186
186 186 186
186 186 186
186 186 186
186 186 186
186 186 186
186 186 186
186 186 186
186 186 186
186 186 186
186 186 186
186 186 186
186 186 186
186 186 186
186 186 186
186 186 186
186 186 186
186 186 186
186 186 186
186 186 186
186 186 186
186 186 186
186 186 186
186 186 186
186 186 186
186 186 186
186 186 186
186 186 186
186 186 186
186 186 186
186 186 186
186 186 186
186 186 186
186 186 186
186 186 186
186 186 186
186 186 186
186 186 186
186 186 186
186 186 186
186 186 186
186 186 186
186 186 186
186 186 186
186 186 186
186 186 186
186 186 186
186 186 186
186 186 186
186 186 186
186 186 186
186 186 186
186 186 186
186 186 186
186 186 186
186 186 186
186 186 186
186 186 186
186 186 186
186 186 186
186 186 186
186 186 186
186 186 186
186 186 186
186 186 186
186 186 186
186 186 186
186 186 186
186 186 186
186 186 186
186 186 186
186 186 186
186 186 186
186 186 186
186 186 186
186 186 186
186 186 186
186 186 186
186 186 186
186 186 186
186 186 186
186 186 186
186 186 186
186 186 186
186 186 186
186 186 186
186 186 186
186 186 186
186 186 186
186 186 186
186 186 186
186 186 186
186 186 186
186 186 186
186 186 186
186 186 186
186 186 186
186 186 186
186 186 186
186 186 186
186 186 186
186 186 186
186 186 186
186 186 186
186 186 186
186 186 186
186 186 186
186 186 186
186 186 186
186 186 186
186 186 186
186 186 186
186 186 186
186 186 186
186 186 186
186 186 186
186 186 186
186 186 186
186 186 186
186 186 186
186 186 186
186 186 186
186 186 186
186 186 186
186 186 186
186 186 186
186 186 186
186 186 186
186 186 186
186 186 186
186 186 186
186 186 186
186 186 186
186 186 186
186 186 186
186 186 186
186 186 186
186 186 186
186 186 186
186 186 186
186 186 186
186 186 186
186 186 186
186 186 186
186 186 186
186 186 186
186 186 186
186 186 186
186 186 186
186 186 186
186 186 186
186 186 186
186 186 186
186 186 186
186 186 186
186 186 186
186 186 186
186 186 186
186 186 186
186 186 186
186 186 186
186 186 186
186 186 186
186 186 186
186 186 186
186 186 186
186 186 186
186 186 186
186 186 186
186 186 186
186 186 186
186 186 186
186 186 186
186 186 186
186 186 186
186 186 186
186 186 186
186 186 186
186 186 186
186 186 186
186 186 186
186 186 186
186 186 186
186 186 186
186 186 186
186 186 186
186 186 186
186 186 186
186 186 186
186 186 186
186 186 186
186 186 186
186 186 186
186 186 186
186 186 186
186 186 186
186 186 186
186 186 186
186 186 186
186 186 186
186 186 186
186 186 186
186 186 186
186 186 186
186 186 186
186 186 186
186 186 186
186 186 186
186 186 186
186 186 186
186 186 186
186 186 186
186 186 186
186 186 186
186 186 186
186 186 186
186 186 186
186 186 186
186 186 186
186 186 186
186 186 186
186 186 186
186 186 186
186 186 186
186 186 186
186 186 186
186 186 186
186 186 186
186 186 186
186 186 186
186 186 186
186 186 186
186 186 186
186 186 186
186 186 186
186 186 186
186 186 186
186 186 186
186 186 186
186 186 186
186 186 186
186 186 186
186 186 186
186 186 186
186 186 186
186 186 186
186 186 186
186 186 186
186 186 186
186 186 186
186 186 186
186 186 186
186 186 186
186 186 186
186 186 186
186 186 186
186 186 186
186 186 186
186 186 186
186 186 186
186 186 186
186 186 186
186 186 186
186 186 186
186 186 186
186 186 186
186 186 186
186 186 186
186 186 186
186 186 186
186 186 186
186 186 186
186 186 186
186 186 186
186 186 186
186 186 186
186 186 186
186 186 186
186 186 186
186 186 186
186 186 186
186 186 186
186 186 186
186 186 186
186 186 186
186 186 186
186 186 186
186 186 186
186 186 186
186 186 186
186 186 186
186 186 186
186 186 186
186 186 186
186 186 186
186 186 186
186 186 186
186 186 186
186 186 186
186 186 186
186 186 186
186 186 186
186 186 186
186 186 186
186 186 186
186 186 186
186 186 186
186 186 186
186 186 186
186 186 186
186 186 186
186 186 186
186 186 186
186 186 186
186 186 186
186 186 186
186 186 186
186 186 186
186 186 186
186 186 186
186 186 186
186 186 186
186 186 186
186 186 186
186 186 186
186 186 186
186 186 186
186 186 186
186 186 186
186 186 186
186 186 186
186 186 186
186 186 186
186 186 186
186 186 186
186 186 186
186 186 186
186 186 186
186 186 186
186 186 186
186 186 186
186 186 186
186 186 186
186 186 186
186 186 186
186 186 186
186 186 186
186 186 186
186 186 186
186 186 186
186 186 186
186 186 186
186 186 186
186 186 186
186 186 186
186 186 186
186 186 186
186 186 186
186 186 186
186 186 186
186 186 186
186 186 186
186 186 186
186 186 186
186 186 186
186 186 186
186 186 186
186 186 186
186 186 186
186 186 186
186 186 186
186 186 186
186 186 186
186 186 186
186 186 186
186 186 186
186 186 186
186 186 186
186 186 186
186 186 186
186 186 186
186 186 186
186 186 186
186 186 186
186 186 186
186 186 186
186 186 186
186 186 186
186 186 186
186 186 186
186 186 186
186 186 186
186 186 186
186 186 186
186 186 186
186 186 186
186 186 186
186 186 186
186 186 186
186 186 186
186 186 186
186 186 186
186 186 186
186 186 186
186 186 186
186 186 186
186 186 186
186 186 186
186 186 186
186 186 186
186 186 186
186 186 186
186 186 186
186 186 186
186 186 186
186 186 186
186 186 186
186 186 186
186 186 186
186 186 186
186 186 186
186 186 186
186 186 186
186 186 186
186 186 186
186 186 186
186 186 186
186 186 186
186 186 186
186 186 186
186 186 186
186 186 186
186 186 186
186 186 186
186 186 186
186 186 186
186 186 186
186 186 186
186 186 186
186 186 186
186 186 186
186 186 186
186 186 186
186 186 186
186 186 186
186 186 186
186 186 186
186 186 186
186 186 186
186 186 186
186 186 186
186 186 186
186 186 186
186 186 186
186 186 186
186 186 186
186 186 186
186 186 186
186 186 186
186 186 186
186 186 186
186 186 186
186 186 186
186 186 186
186 186 186
186 186 186
186 186 186
186 186 186
186 186 186
186 186 186
186 186 186
186 186 186
186 186 186
186 186 186
186 186 186
186 186 186
186 186 186
186 186 186
186 186 186
186 186 186
186 186 186
186 186 186
186 186 186
186 186 186
186 186 186
186 186 186
186 186 186
186 186 186
186 186 186
186 186 186
186 186 186
186 186 186
186 186 186
186 186 186
186 186 186
186 186 186
186 186 186
186 186 186
186 186 186
186 186 186
186 186 186
186 186 186
186 186 186
186 186 186
186 186 186
186 186 186
186 186 186
186 186 186
186 186 186
186 186 186
186 186 186
186 186 186
186 186 186
186 186 186
186 186 186
186 186 186
186 186 186
186 186 186
186 186 186
186 186 186
186 186 186
186 186 186
186 186 186
186 186 186
186 186 186
186 186 186
186 186 186
186 186 186
186 186 186
186 186 186
186 186 186
186 186 186
186 186 186
186 186 186
186 186 186
186 186 186
186 186 186
186 186 186
186 186 186
186 186 186
186 186 186
186 186 186
186 186 186
186 186 186
186 186 186
186 186 186
186 186 186
186 186 186
186 186 186
186 186 186
186 186 186
186 186 186
186 186 186
186 186 186
186 186 186
186 186 186
186 186 186
186 186 186
186 186 186
186 186 186
186 186 186
186 186 186
186 186 186
186 186 186
186 186 186
186 186 186
186 186 186
186 186 186
186 186 186
186 186 186
186 186 186
186 186 186
186 186 186
186 186 186
186 186 186
186 186 186
186 186 186
186 186 186
186 186 186
186 186 186
186 186 186
186 186 186
186 186 186
186 186 186
186 186 186
186 186 186
186 186 186
186 186 186
186 186 186
186 186 186
186 186 186
186 186 186
186 186 186
186 186 186
186 186 186
186 186 186
186 186 186
186 186 186
186 186 186
186 186 186
186 186 186
186 186 186
186 186 186
186 186 186
186 186 186
186 186 186
186 186 186
186 186 186
186 186 186
186 186 186
186 186 186
186 186 186
186 186 186
186 186 186
186 186 186
186 186 186
186 186 186
186 186 186
186 186 186
186 186 186
186 186 186
186 186 186
186 186 186
186 186 186
186 186 186
186 186 186
186 186 186
186 186 186
186 186 186
186 186 186
186 186 186
186 186 186
186 186 186
186 186 186
186 186 186
186 186 186
186 186 186
186 186 186
186 186 186
186 186 186
186 186 186
186 186 186
186 186 186
186 186 186
186 186 186
186 186 186
186 186 186
186 186 186
186 186 186
186 186 186
186 186 186
186 186 186
186 186 186
186 186 186
186 186 186
186 186 186
186 186 186
186 186 186
186 186 186
186 186 186
186 186 186
186 186 186
186 186 186
186 186 186
186 186 186
186 186 186
186 186 186
186 186 186
186 186 186
186 186 186
186 186 186
186 186 186
186 186 186
186 186 186
186 186 186
186 186 186
186 186 186
186 186 186
186 186 186
186 186 186
186 186 186
186 186 186
186 186 186
186 186 186
186 186 186
186 186 186
186 186 186
186 186 186
186 186 186
186 186 186
186 186 186
186 186 186
186 186 186
186 186 186
186 186 186
186 186 186
186 186 186
186 186 186
186 186 186
186 186 186
186 186 186
186 186 186
186 186 186
186 186 186
186 186 186
186 186 186
186 186 186
186 186 186
186 186 186
186 186 186
186 186 186
186 186 186
186 186 186
186 186 186
186 186 186
186 186 186
186 186 186
186 186 186
186 186 186
186 186 186
186 186 186
186 186 186
186 186 186
186 186 186
186 186 186
186 186 186
186 186 186
186 186 186
186 186 186
186 186 186
186 186 186
186 186 186
186 186 186
186 186 186
186 186 186
186 186 186
186 186 186
186 186 186
186 186 186
186 186 186
186 186 186
186 186 186
186 186 186
186 186 186
186 186 186
186 186 186
186 186 186
186 186 186
186 186 186
186 186 186
186 186 186
186 186 186
186 186 186
186 186 186
186 186 186
186 186 186
186 186 186
186 186 186
186 186 186
186 186 186
186 186 186
186 186 186
186 186 186
186 186 186
186 186 186
186 186 186
186 186 186
186 186 186
186 186 186
186 186 186
186 186 186
186 186 186
186 186 186
186 186 186
186 186 186
186 186 186
186 186 186
186 186 186
186 186 186
186 186 186
186 186 186
186 186 186
186 186 186
186 186 186
186 186 186
186 186 186
186 186 186
186 186 186
186 186 186
186 186 186
186 186 186
186 186 186
186 186 186
186 186 186
186 186 186
186 186 186
186 186 186
186 186 186
186 186 186
186 186 186
186 186 186
186 186 186
186 186 186
186 186 186
186 186 186
186 186 186
186 186 186
186 186 186
186 186 186
186 186 186
186 186 186
186 186 186
186 186 186
186 186 186
186 186 186
186 186 186
186 186 186
186 186 186
186 186 186
186 186 186
186 186 186
186 186 186
186 186 186
186 186 186
186 186 186
186 186 186
186 186 186
186 186 186
186 186 186
186 186 186
186 186 186
186 186 186
186 186 186
186 186 186
186 186 186
186 186 186
186 186 186
186 186 186
186 186 186
186 186 186
186 186 186
186 186 186
186 186 186
186 186 186
186 186 186
186 186 186
186 186 186
186 186 186
186 186 186
186 186 186
186 186 186
186 186 186
186 186 186
186 186 186
186 186 186
186 186 186
186 186 186
186 186 186
186 186 186
186 186 186
186 186 186
186 186 186
186 186 186
186 186 186
186 186 186
186 186 186
186 186 186
186 186 186
186 186 186
186 186 186
186 186 186
186 186 186
186 186 186
186 186 186
186 186 186
186 186 186
186 186 186
186 186 186
186 186 186
186 186 186
186 186 186
186 186 186
186 186 186
186 186 186
186 186 186
186 186 186
186 186 186
186 186 186
186 186 186
186 186 186
186 186 186
186 186 186
186 186 186
186 186 186
186 186 186
186 186 186
186 186 186
186 186 186
186 186 186
186 186 186
186 186 186
186 186 186
186 186 186
186 186 186
186 186 186
186 186 186
186 186 186
186 186 186
186 186 186
186 186 186
186 186 186
186 186 186
186 186 186
186 186 186
186 186 186
186 186 186
186 186 186
186 186 186
186 186 186
186 186 186
186 186 186
186 186 186
186 186 186
186 186 186
186 186 186
186 186 186
186 186 186
186 186 186
186 186 186
186 186 186
186 186 186
186 186 186
186 186 186
186 186 186
186 186 186
186 186 186
186 186 186
186 186 186
186 186 186
186 186 186
186 186 186
186 186 186
186 186 186
186 186 186
186 186 186
186 186 186
186 186 186
186 186 186
186 186 186
186 186 186
186 186 186
186 186 186
186 186 186
186 186 186
186 186 186
186 186 186
186 186 186
186 186 186
186 186 186
186 186 186
186 186 186
186 186 186
186 186 186
186 186 186
186 186 186
186 186 186
186 186 186
186 186 186
186 186 186
186 186 186
186 186 186
186 186 186
186 186 186
186 186 186
186 186 186
186 186 186
186 186 186
186 186 186
186 186 186
186 186 186
186 186 186
186 186 186
186 186 186
186 186 186
186 186 186
186 186 186
186 186 186
186 186 186
186 186 186
186 186 186
186 186 186
186 186 186
186 186 186
186 186 186
186 186 186
186 186 186
186 186 186
186 186 186
186 186 186
186 186 186
186 186 186
186 186 186
186 186 186
186 186 186
186 186 186
186 186 186
186 186 186
186 186 186
186 186 186
186 186 186
186 186 186
186 186 186
186 186 186
186 186 186
186 186 186
186 186 186
186 186 186
186 186 186
186 186 186
186 186 186
186 186 186
186 186 186
186 186 186
186 186 186
186 186 186
186 186 186
186 186 186
186 186 186
186 186 186
186 186 186
186 186 186
186 186 186
186 186 186
186 186 186
186 186 186
186 186 186
186 186 186
186 186 186
186 186 186
186 186 186
186 186 186
186 186 186
186 186 186
186 186 186
186 186 186
186 186 186
186 186 186
186 186 186
186 186 186
186 186 186
186 186 186
186 186 186
186 186 186
186 186 186
186 186 186
186 186 186
186 186 186
186 186 186
186 186 186
186 186 186
186 186 186
186 186 186
186 186 186
186 186 186
186 186 186
186 186 186
186 186 186
186 186 186
186 186 186
186 186 186
186 186 186
186 186 186
186 186 186
186 186 186
186 186 186
186 186 186
186 186 186
186 186 186
186 186 186
186 186 186
186 186 186
186 186 186
186 186 186
186 186 186
186 186 186
186 186 186
186 186 186
186 186 186
186 186 186
186 186 186
186 186 186
186 186 186
186 186 186
186 186 186
186 186 186
186 186 186
186 186 186
186 186 186
186 186 186
186 186 186
186 186 186
186 186 186
186 186 186
186 186 186
186 186 186
186 186 186
186 186 186
186 186 186
186 186 186
186 186 186
186 186 186
186 186 186
186 186 186
186 186 186
186 186 186
186 186 186
186 186 186
186 186 186
186 186 186
186 186 186
186 186 186
186 186 186
186 186 186
186 186 186
186 186 186
186 186 186
186 186 186
186 186 186
186 186 186
186 186 186
186 186 186
186 186 186
186 186 186
186 186 186
186 186 186
186 186 186
186 186 186
186 186 186
186 186 186
186 186 186
186 186 186
186 186 186
186 186 186
186 186 186
186 186 186
186 186 186
186 186 186
186 186 186
186 186 186
186 186 186
186 186 186
186 186 186
186 186 186
186 186 186
186 186 186
186 186 186
186 186 186
186 186 186
186 186 186
186 186 186
186 186 186
186 186 186
186 186 186
186 186 186
186 186 186
186 186 186
186 186 186
186 186 186
186 186 186
186 186 186
186 186 186
186 186 186
186 186 186
186 186 186
186 186 186
186 186 186
186 186 186
186 186 186
186 186 186
186 186 186
186 186 186
186 186 186
186 186 186
186 186 186
186 186 186
186 186 186
186 186 186
186 186 186
186 186 186
186 186 186
186 186 186
186 186 186
186 186 186
186 186 186
186 186 186
186 186 186
186 186 186
186 186 186
186 186 186
186 186 186
186 186 186
186 186 186
186 186 186
186 186 186
186 186 186
186 186 186
186 186 186
186 186 186
186 186 186
186 186 186
186 186 186
186 186 186
186 186 186
186 186 186
186 186 186
186 186 186
186 186 186
186 186 186
186 186 186
186 186 186
186 186 186
186 186 186
186 186 186
186 186 186
186 186 186
186 186 186
186 186 186
186 186 186
186 186 186
186 186 186
186 186 186
186 186 186
186 186 186
186 186 186
186 186 186
186 186 186
186 186 186
186 186 186
186 186 186
186 186 186
186 186 186
186 186 186
186 186 186
186 186 186
186 186 186
186 186 186
186 186 186
186 186 186
186 186 186
186 186 186
186 186 186
186 186 186
186 186 186
186 186 186
186 186 186
186 186 186
186 186 186
186 186 186
186 186 186
186 186 186
186 186 186
186 186 186
186 186 186
186 186 186
186 186 186
186 186 186
186 186 186
186 186 186
186 186 186
186 186 186
186 186 186
186 186 186
186 186 186
186 186 186
186 186 186
186 186 186
186 186 186
186 186 186
186 186 186
186 186 186
186 186 186
186 186 186
186 186 186
186 186 186
186 186 186
186 186 186
186 186 186
186 186 186
186 186 186
186 186 186
186 186 186
186 186 186
186 186 186
186 186 186
186 186 186
186 186 186
186 186 186
186 186 186
186 186 186
186 186 186
186 186 186
186 186 186
186 186 186
186 186 186
186 186 186
186 186 186
186 186 186
186 186 186
186 186 186
186 186 186
186 186 186
186 186 186
186 186 186
186 186 186
186 186 186
186 186 186
186 186 186
186 186 186
186 186 186
186 186 186
186 186 186
186 186 186
186 186 186
186 186 186
186 186 186
186 186 186
186 186 186
186 186 186
186 186 186
186 186 186
186 186 186
186 186 186
186 186 186
186 186 186
186 186 186
186 186 186
186 186 186
186 186 186
186 186 186
186 186 186
186 186 186
186 186 186
186 186 186
186 186 186
186 186 186
186 186 186
186 186 186
186 186 186
186 186 186
186 186 186
186 186 186
186 186 186
186 186 186
186 186 186
186 186 186
186 186 186
186 186 186
186 186 186
186 186 186
186 186 186
186 186 186
186 186 186
186 186 186
186 186 186
186 186 186
186 186 186
186 186 186
186 186 186
186 186 186
186 186 186
186 186 186
186 186 186
186 186 186
186 186 186
186 186 186
186 186 186
186 186 186
186 186 186
186 186 186
186 186 186
186 186 186
186 186 186
186 186 186
186 186 186
186 186 186
186 186 186
186 186 186
186 186 186
186 186 186
186 186 186
186 186 186
186 186 186
186 186 186
186 186 186
186 186 186
186 186 186
186 186 186
186 186 186
186 186 186
186 186 186
186 186 186
186 186 186
186 186 186
186 186 186
186 186 186
186 186 186
186 186 186
186 186 186
186 186 186
186 186 186
186 186 186
186 186 186
186 186 186
186 186 186
186 186 186
186 186 186
186 186 186
186 186 186
186 186 186
186 186 186
186 186 186
186 186 186
186 186 186
186 186 186
186 186 186
186 186 186
186 186 186
186 186 186
186 186 186
186 186 186
186 186 186
186 186 186
186 186 186
186 186 186
186 186 186
186 186 186
186 186 186
186 186 186
186 186 186
186 186 186
186 186 186
186 186 186
186 186 186
186 186 186
186 186 186
186 186 186
186 186 186
186 186 186
186 186 186
186 186 186
186 186 186
186 186 186
186 186 186
186 186 186
186 186 186
186 186 186
186 186 186
186 186 186
186 186 186
186 186 186
186 186 186
186 186 186
186 186 186
186 186 186
186 186 186
186 186 186
186 186 186
186 186 186
186 186 186
186 186 186
186 186 186
186 186 186
186 186 186
186 186 186
186 186 186
186 186 186
186 186 186
186 186 186
186 186 186
186 186 186
186 186 186
186 186 186
186 186 186
186 186 186
186 186 186
186 186 186
186 186 186
186 186 186
186 186 186
186 186 186
186 186 186
186 186 186
186 186 186
186 186 186
186 186 186
186 186 186
186 186 186
186 186 186
186 186 186
186 186 186
186 186 186
186 186 186
186 186 186
186 186 186
186 186 186
186 186 186
186 186 186
186 186 186
186 186 186
186 186 186
186 186 186
186 186 186
186 186 186
186 186 186
186 186 186
186 186 186
186 186 186
186 186 186
186 186 186
186 186 186
186 186 186
186 186 186
186 186 186
186 186 186
186 186 186
186 186 186
186 186 186
186 186 186
186 186 186
186 186 186
186 186 186
186 186 186
186 186 186
186 186 186
186 186 186
186 186 186
186 186 186
186 186 186
186 186 186
186 186 186
186 186 186
186 186 186
186 186 186
186 186 186
186 186 186
186 186 186
186 186 186
186 186 186
186 186 186
186 186 186
186 186 186
186 186 186
186 186 186
186 186 186
186 186 186
186 186 186
186 186 186
186 186 186
186 186 186
186 186 186
186 186 186
186 186 186
186 186 186
186 186 186
186 186 186
186 186 186
186 186 186
186 186 186
186 186 186
186 186 186
186 186 186
186 186 186
186 186 186
186 186 186
186 186 186
186 186 186
186 186 186
186 186 186
186 186 186
186 186 186
186 186 186
186 186 186
186 186 186
186 186 186
186 186 186
186 186 186
186 186 186
186 186 186
186 186 186
186 186 186
186 186 186
186 186 186
186 186 186
186 186 186
186 186 186
186 186 186
186 186 186
186 186 186
186 186 186
186 186 186
186 186 186
186 186 186
186 186 186
186 186 186
186 186 186
186 186 186
186 186 186
186 186 186
186 186 186
186 186 186
186 186 186
186 186 186
186 186 186
186 186 186
186 186 186
186 186 186
186 186 186
186 186 186
186 186 186
186 186 186
186 186 186
186 186 186
186 186 186
186 186 186
186 186 186
186 186 186
186 186 186
186 186 186
186 186 186
186 186 186
186 186 186
186 186 186
186 186 186
186 186 186
186 186 186
186 186 186
186 186 186
186 186 186
186 186 186
186 186 186
186 186 186
186 186 186
186 186 186
186 186 186
186 186 186
186 186 186
186 186 186
186 186 186
186 186 186
186 186 186
186 186 186
186 186 186
186 186 186
186 186 186
186 186 186
186 186 186
186 186 186
186 186 186
186 186 186
186 186 186
186 186 186
186 186 186
186 186 186
186 186 186
186 186 186
186 186 186
186 186 186
186 186 186
186 186 186
186 186 186
186 186 186
186 186 186
186 186 186
186 186 186
186 186 186
186 186 186
186 186 186
186 186 186
186 186 186
186 186 186
186 186 186
186 186 186
186 186 186
186 186 186
186 186 186
186 186 186
186 186 186
186 186 186
186 186 186
186 186 186
186 186 186
186 186 186
186 186 186
186 186 186
186 186 186
186 186 186
186 186 186
186 186 186
186 186 186
186 186 186
186 186 186
186 186 186
186 186 186
186 186 186
186 186 186
186 186 186
186 186 186
186 186 186
186 186 186
186 186 186
186 186 186
186 186 186
186 186 186
186 186 186
186 186 186
186 186 186
186 186 186
186 186 186
186 186 186
186 186 186
186 186 186
186 186 186
186 186 186
186 186 186
186 186 186
186 186 186
186 186 186
186 186 186
186 186 186
186 186 186
186 186 186
186 186 186
186 186 186
186 186 186
186 186 186
186 186 186
186 186 186
186 186 186
186 186 186
186 186 186
186 186 186
186 186 186
186 186 186
186 186 186
186 186 186
186 186 186
186 186 186
186 186 186
186 186 186
186 186 186
186 186 186
186 186 186
186 186 186
186 186 186
186 186 186
186 186 186
186 186 186
186 186 186
186 186 186
186 186 186
186 186 186
186 186 186
186 186 186
186 186 186
186 186 186
186 186 186
186 186 186
186 186 186
186 186 186
186 186 186
186 186 186
186 186 186
186 186 186
186 186 186
186 186 186
186 186 186
186 186 186
186 186 186
186 186 186
186 186 186
186 186 186
186 186 186
186 186 186
186 186 186
186 186 186
186 186 186
186 186 186
186 186 186
186 186 186
186 186 186
186 186 186
186 186 186
186 186 186
186 186 186
186 186 186
186 186 186
186 186 186
186 186 186
186 186 186
186 186 186
186 186 186
186 186 186
186 186 186
186 186 186
186 186 186
186 186 186
186 186 186
186 186 186
186 186 186
186 186 186
186 186 186
186 186 186
186 186 186
186 186 186
186 186 186
186 186 186
186 186 186
186 186 186
186 186 186
186 186 186
186 186 186
186 186 186
186 186 186
186 186 186
186 186 186
186 186 186
186 186 186
186 186 186
186 186 186
186 186 186
186 186 186
186 186 186
186 186 186
186 186 186
186 186 186
186 186 186
186 186 186
186 186 186
186 186 186
186 186 186
186 186 186
186 186 186
186 186 186
186 186 186
186 186 186
186 186 186
186 186 186
186 186 186
186 186 186
186 186 186
186 186 186
186 186 186
186 186 186
186 186 186
186 186 186
186 186 186
186 186 186
186 186 186
186 186 186
186 186 186
186 186 186
186 186 186
186 186 186
186 186 186
186 186 186
186 186 186
186 186 186
186 186 186
186 186 186
186 186 186
186 186 186
186 186 186
186 186 186
186 186 186
186 186 186
186 186 186
186 186 186
186 186 186
186 186 186
186 186 186
186 186 186
186 186 186
186 186 186
186 186 186
186 186 186
186 186 186
186 186 186
186 186 186
186 186 186
186 186 186
186 186 186
186 186 186
186 186 186
186 186 186
186 186 186
186 186 186
186 186 186
186 186 186
186 186 186
186 186 186
186 186 186
186 186 186
186 186 186
186 186 186
186 186 186
186 186 186
186 186 186
186 186 186
186 186 186
186 186 186
186 186 186
186 186 186
186 186 186
186 186 186
186 186 186
186 186 186
186 186 186
186 186 186
186 186 186
186 186 186
186 186 186
186 186 186
186 186 186
186 186 186
186 186 186
186 186 186
186 186 186
186 186 186
186 186 186
186 186 186
186 186 186
186 186 186
186 186 186
186 186 186
186 186 186
186 186 186
186 186 186
186 186 186
186 186 186
186 186 186
186 186 186
186 186 186
186 186 186
186 186 186
186 186 186
186 186 186
186 186 186
186 186 186
186 186 186
186 186 186
186 186 186
186 186 186
186 186 186
186 186 186
186 186 186
186 186 186
186 186 186
186 186 186
186 186 186
186 186 186
186 186 186
186 186 186
186 186 186
186 186 186
186 186 186
186 186 186
186 186 186
186 186 186
186 186 186
186 186 186
186 186 186
186 186 186
186 186 186
186 186 186
186 186 186
186 186 186
186 186 186
186 186 186
186 186 186
186 186 186
186 186 186
186 186 186
186 186 186
186 186 186
186 186 186
186 186 186
186 186 186
186 186 186
186 186 186
186 186 186
186 186 186
186 186 186
186 186 186
186 186 186
186 186 186
186 186 186
186 186 186
186 186 186
186 186 186
186 186 186
186 186 186
186 186 186
186 186 186
186 186 186
186 186 186
186 186 186
186 186 186
186 186 186
186 186 186
186 186 186
186 186 186
186 186 186
186 186 186
186 186 186
186 186 186
186 186 186
186 186 186
186 186 186
186 186 186
186 186 186
186 186 186
186 186 186
186 186 186
186 186 186
186 186 186
186 186 186
186 186 186
186 186 186
186 186 186
186 186 186
186 186 186
186 186 186
186 186 186
186 186 186
186 186 186
186 186 186
186 186 186
186 186 186
186 186 186
186 186 186
186 186 186
186 186 186
186 186 186
186 186 186
186 186 186
186 186 186
186 186 186
186 186 186
186 186 186
186 186 186
186 186 186
186 186 186
186 186 186
186 186 186
186 186 186
186 186 186
186 186 186
186 186 186
186 186 186
186 186 186
186 186 186
186 186 186
186 186 186
186 186 186
186 186 186
186 186 186
186 186 186
186 186 186
186 186 186
186 186 186
186 186 186
186 186 186
186 186 186
186 186 186
186 186 186
186 186 186
186 186 186
186 186 186
186 186 186
186 186 186
186 186 186
186 186 186
186 186 186
186 186 186
186 186 186
186 186 186
186 186 186
186 186 186
186 186 186
186 186 186
186 186 186
186 186 186
186 186 186
186 186 186
186 186 186
186 186 186
186 186 186
186 186 186
186 186 186
186 186 186
186 186 186
186 186 186
186 186 186
186 186 186
186 186 186
186 186 186
186 186 186
186 186 186
186 186 186
186 186 186
186 186 186
186 186 186
186 186 186
186 186 186
186 186 186
186 186 186
186 186 186
186 186 186
186 186 186
186 186 186
186 186 186
186 186 186
186 186 186
186 186 186
186 186 186
186 186 186
186 186 186
186 186 186
186 186 186
186 186 186
186 186 186
186 186 186
186 186 186
186 186 186
186 186 186
186 186 186
186 186 186
186 186 186
186 186 186
186 186 186
186 186 186
186 186 186
186 186 186
186 186 186
186 186 186
186 186 186
186 186 186
186 186 186
186 186 186
186 186 186
186 186 186
186 186 186
186 186 186
186 186 186
186 186 186
186 186 186
186 186 186
186 186 186
186 186 186
186 186 186
186 186 186
186 186 186
186 186 186
186 186 186
186 186 186
186 186 186
186 186 186
186 186 186
186 186 186
186 186 186
186 186 186
186 186 186
186 186 186
186 186 186
186 186 186
186 186 186
186 186 186
186 186 186
186 186 186
186 186 186
186 186 186
186 186 186
186 186 186
186 186 186
186 186 186
186 186 186
186 186 186
186 186 186
186 186 186
186 186 186
186 186 186
186 186 186
186 186 186
186 186 186
186 186 186
186 186 186
186 186 186
186 186 186
186 186 186
186 186 186
186 186 186
186 186 186
186 186 186
186 186 186
186 186 186
186 186 186
186 186 186
186 186 186
186 186 186
186 186 186
186 186 186
186 186 186
186 186 186
186 186 186
186 186 186
186 186 186
186 186 186
186 186 186
186 186 186
186 186 186
186 186 186
186 186 186
186 186 186
186 186 186
186 186 186
186 186 186
186 186 186
186 186 186
186 186 186
186 186 186
186 186 186
186 186 186
186 186 186
186 186 186
186 186 186
186 186 186
186 186 186
186 186 186
186 186 186
186 186 186
186 186 186
186 186 186
186 186 186
186 186 186
186 186 186
186 186 186
186 186 186
186 186 186
186 186 186
186 186 186
186 186 186
186 186 186
186 186 186
186 186 186
186 186 186
186 186 186
186 186 186
186 186 186
186 186 186
186 186 186
186 186 186
186 186 186
186 186 186
186 186 186
186 186 186
186 186 186
186 186 186
186 186 186
186 186 186
186 186 186
186 186 186
186 186 186
186 186 186
186 186 186
186 186 186
186 186 186
186 186 186
186 186 186
186 186 186
186 186 186
186 186 186
186 186 186
186 186 186
186 186 186
186 186 186
186 186 186
186 186 186
186 186 186
186 186 186
186 186 186
186 186 186
186 186 186
186 186 186
186 186 186
186 186 186
186 186 186
186 186 186
186 186 186
186 186 186
186 186 186
186 186 186
186 186 186
186 186 186
186 186 186
186 186 186
186 186 186
186 186 186
186 186 186
186 186 186
186 186 186
186 186 186
186 186 186
186 186 186
186 186 186
186 186 186
186 186 186
186 186 186
186 186 186
186 186 186
186 186 186
186 186 186
186 186 186
186 186 186
186 186 186
186 186 186
186 186 186
186 186 186
186 186 186
186 186 186
186 186 186
186 186 186
186 186 186
186 186 186
186 186 186
186 186 186
186 186 186
186 186 186
186 186 186
186 186 186
186 186 186
186 186 186
186 186 186
186 186 186
186 186 186
186 186 186
186 186 186
186 186 186
186 186 186
186 186 186
186 186 186
186 186 186
186 186 186
186 186 186
186 186 186
186 186 186
186 186 186
186 186 186
186 186 186
186 186 186
186 186 186
186 186 186
186 186 186
186 186 186
186 186 186
186 186 186
186 186 186
186 186 186
186 186 186
186 186 186
186 186 186
186 186 186
186 186 186
186 186 186
186 186 186
186 186 186
186 186 186
186 186 186
186 186 186
186 186 186
186 186 186
186 186 186
186 186 186
186 186 186
186 186 186
186 186 186
186 186 186
186 186 186
186 186 186
186 186 186
186 186 186
186 186 186
186 186 186
186 186 186
186 186 186
186 186 186
186 186 186
186 186 186
186 186 186
186 186 186
186 186 186
186 186 186
186 186 186
186 186 186
186 186 186
186 186 186
186 186 186
186 186 186
186 186 186
186 186 186
186 186 186
186 186 186
186 186 186
186 186 186
186 186 186
186 186 186
186 186 186
186 186 186
186 186 186
186 186 186
186 186 186
186 186 186
186 186 186
186 186 186
186 186 186
186 186 186
186 186 186
186 186 186
186 186 186
186 186 186
186 186 186
186 186 186
186 186 186
186 186 186
186 186 186
186 186 186
186 186 186
186 186 186
186 186 186
186 186 186
186 186 186
186 186 186
186 186 186
186 186 186
186 186 186
186 186 186
186 186 186
186 186 186
186 186 186
186 186 186
186 186 186
186 186 186
186 186 186
186 186 186
186 186 186
186 186 186
186 186 186
186 186 186
186 186 186
186 186 186
186 186 186
186 186 186
186 186 186
186 186 186
186 186 186
186 186 186
186 186 186
186 186 186
186 186 186
186 186 186
186 186 186
186 186 186
186 186 186
186 186 186
186 186 186
186 186 186
186 186 186
186 186 186
186 186 186
186 186 186
186 186 186
186 186 186
186 186 186
186 186 186
186 186 186
186 186 186
186 186 186
186 186 186
186 186 186
186 186 186
186 186 186
186 186 186
186 186 186
186 186 186
186 186 186
186 186 186
186 186 186
186 186 186
186 186 186
186 186 186
186 186 186
186 186 186
186 186 186
186 186 186
186 186 186
186 186 186
186 186 186
186 186 186
186 186 186
186 186 186
186 186 186
186 186 186
186 186 186
186 186 186
186 186 186
186 186 186
186 186 186
186 186 186
186 186 186
186 186 186
186 186 186
186 186 186
186 186 186
186 186 186
186 186 186
186 186 186
186 186 186
186 186 186
186 186 186
186 186 186
186 186 186
186 186 186
186 186 186
186 186 186
186 186 186
186 186 186
186 186 186
186 186 186
186 186 186
186 186 186
186 186 186
186 186 186
186 186 186
186 186 186
186 186 186
186 186 186
186 186 186
186 186 186
186 186 186
186 186 186
186 186 186
186 186 186
186 186 186
186 186 186
186 186 186
186 186 186
186 186 186
186 186 186
186 186 186
186 186 186
186 186 186
186 186 186
186 186 186
186 186 186
186 186 186
186 186 186
186 186 186
186 186 186
186 186 186
186 186 186
186 186 186
186 186 186
186 186 186
186 186 186
186 186 186
186 186 186
186 186 186
186 186 186
186 186 186
186 186 186
186 186 186
186 186 186
186 186 186
186 186 186
186 186 186
186 186 186
186 186 186
186 186 186
186 186 186
186 186 186
186 186 186
186 186 186
186 186 186
186 186 186
186 186 186
186 186 186
186 186 186
186 186 186
186 186 186
186 186 186
186 186 186
186 186 186
186 186 186
186 186 186
186 186 186
186 186 186
186 186 186
186 186 186
186 186 186
186 186 186
186 186 186
186 186 186
186 186 186
186 186 186
186 186 186
186 186 186
186 186 186
186 186 186
186 186 186
186 186 186
186 186 186
186 186 186
186 186 186
186 186 186
186 186 186
186 186 186
186 186 186
186 186 186
186 186 186
186 186 186
186 186 186
186 186 186
186 186 186
186 186 186
186 186 186
186 186 186
186 186 186
186 186 186
186 186 186
186 186 186
186 186 186
186 186 186
186 186 186
186 186 186
186 186 186
186 186 186
186 186 186
186 186 186
186 186 186
186 186 186
186 186 186
186 186 186
186 186 186
186 186 186
186 186 186
186 186 186
186 186 186
186 186 186
186 186 186
186 186 186
186 186 186
186 186 186
186 186 186
186 186 186
186 186 186
186 186 186
186 186 186
186 186 186
186 186 186
186 186 186
186 186 186
186 186 186
186 186 186
186 186 186
186 186 186
186 186 186
186 186 186
186 186 186
186 186 186
186 186 186
186 186 186
186 186 186
186 186 186
186 186 186
186 186 186
186 186 186
186 186 186
186 186 186
186 186 186
186 186 186
186 186 186
186 186 186
186 186 186
186 186 186
186 186 186
186 186 186
186 186 186
186 186 186
186 186 186
186 186 186
186 186 186
186 186 186
186 186 186
186 186 186
186 186 186
186 186 186
186 186 186
186 186 186
186 186 186
186 186 186
186 186 186
186 186 186
186 186 186
186 186 186
186 186 186
186 186 186
186 186 186
186 186 186
186 186 186
186 186 186
186 186 186
186 186 186
186 186 186
186 186 186
186 186 186
186 186 186
186 186 186
186 186 186
186 186 186
186 186 186
186 186 186
186 186 186
186 186 186
186 186 186
186 186 186
186 186 186
186 186 186
186 186 186
186 186 186
186 186 186
186 186 186
186 186 186
186 186 186
186 186 186
186 186 186
186 186 186
186 186 186
186 186 186
186 186 186
186 186 186
186 186 186
186 186 186
186 186 186
186 186 186
186 186 186
186 186 186
186 186 186
186 186 186
186 186 186
186 186 186
186 186 186
186 186 186
186 186 186
186 186 186
186 186 186
186 186 186
186 186 186
186 186 186
186 186 186
186 186 186
186 186 186
186 186 186
186 186 186
186 186 186
186 186 186
186 186 186
186 186 186
186 186 186
186 186 186
186 186 186
186 186 186
186 186 186
186 186 186
186 186 186
186 186 186
186 186 186
186 186 186
186 186 186
186 186 186
186 186 186
186 186 186
186 186 186
186 186 186
186 186 186
186 186 186
186 186 186
186 186 186
186 186 186
186 186 186
186 186 186
186 186 186
186 186 186
186 186 186
186 186 186
186 186 186
186 186 186
186 186 186
186 186 186
186 186 186
186 186 186
186 186 186
186 186 186
186 186 186
186 186 186
186 186 186
186 186 186
186 186 186
186 186 186
186 186 186
186 186 186
186 186 186
186 186 186
186 186 186
186 186 186
186 186 186
186 186 186
186 186 186
186 186 186
186 186 186
186 186 186
186 186 186
186 186 186
186 186 186
186 186 186
186 186 186
186 186 186
186 186 186
186 186 186
186 186 186
186 186 186
186 186 186
186 186 186
186 186 186
186 186 186
186 186 186
186 186 186
186 186 186
186 186 186
186 186 186
186 186 186
186 186 186
186 186 186
186 186 186
186 186 186
186 186 186
186 186 186
186 186 186
186 186 186
186 186 186
186 186 186
186 186 186
186 186 186
186 186 186
186 186 186
186 186 186
186 186 186
186 186 186
186 186 186
186 186 186
186 186 186
186 186 186
186 186 186
186 186 186
186 186 186
186 186 186
186 186 186
186 186 186
186 186 186
186 186 186
186 186 186
186 186 186
186 186 186
186 186 186
186 186 186
186 186 186
186 186 186
186 186 186
186 186 186
186 186 186
186 186 186
186 186 186
186 186 186
186 186 186
186 186 186
186 186 186
186 186 186
186 186 186
186 186 186
186 186 186
186 186 186
186 186 186
186 186 186
186 186 186
186 186 186
186 186 186
186 186 186
186 186 186
186 186 186
186 186 186
186 186 186
186 186 186
186 186 186
186 186 186
186 186 186
186 186 186
186 186 186
186 186 186
186 186 186
186 186 186
186 186 186
186 186 186
186 186 186
186 186 186
186 186 186
186 186 186
186 186 186
186 186 186
186 186 186
186 186 186
186 186 186
186 186 186
186 186 186
186 186 186
186 186 186
186 186 186
186 186 186
186 186 186
186 186 186
186 186 186
186 186 186
186 186 186
186 186 186
186 186 186
186 186 186
186 186 186
186 186 186
186 186 186
186 186 186
186 186 186
186 186 186
186 186 186
186 186 186
186 186 186
186 186 186
186 186 186
186 186 186
186 186 186
186 186 186
186 186 186
186 186 186
186 186 186
186 186 186
186 186 186
186 186 186
186 186 186
186 186 186
186 186 186
186 186 186
186 186 186
186 186 186
186 186 186
186 186 186
186 186 186
186 186 186
186 186 186
186 186 186
186 186 186
186 186 186
186 186 186
186 186 186
186 186 186
186 186 186
186 186 186
186 186 186
186 186 186
186 186 186
186 186 186
186 186 186
186 186 186
186 186 186
186 186 186
186 186 186
186 186 186
186 186 186
186 186 186
186 186 186
186 186 186
186 186 186
186 186 186
186 186 186
186 186 186
186 186 186
186 186 186
186 186 186
186 186 186
186 186 186
186 186 186
186 186 186
186 186 186
186 186 186
186 186 186
186 186 186
186 186 186
186 186 186
186 186 186
186 186 186
186 186 186
186 186 186
186 186 186
186 186 186
186 186 186
186 186 186
186 186 186
186 186 186
186 186 186
186 186 186
186 186 186
186 186 186
186 186 186
186 186 186
186 186 186
186 186 186
186 186 186
186 186 186
186 186 186
186 186 186
186 186 186
186 186 186
186 186 186
186 186 186
186 186 186
186 186 186
186 186 186
186 186 186
186 186 186
186 186 186
186 186 186
186 186 186
186 186 186
186 186 186
186 186 186
186 186 186
186 186 186
186 186 186
186 186 186
186 186 186
186 186 186
186 186 186
186 186 186
186 186 186
186 186 186
186 186 186
186 186 186
186 186 186
186 186 186
186 186 186
186 186 186
186 186 186
186 186 186
186 186 186
186 186 186
186 186 186
186 186 186
186 186 186
186 186 186
186 186 186
186 186 186
186 186 186
186 186 186
186 186 186
186 186 186
186 186 186
186 186 186
186 186 186
186 186 186
186 186 186
186 186 186
186 186 186
186 186 186
186 186 186
186 186 186
186 186 186
186 186 186
186 186 186
186 186 186
186 186 186
186 186 186
186 186 186
186 186 186
186 186 186
186 186 186
186 186 186
186 186 186
186 186 186
186 186 186
186 186 186
186 186 186
186 186 186
186 186 186
186 186 186
186 186 186
186 186 186
186 186 186
186 186 186
186 186 186
186 186 186
186 186 186
186 186 186
186 186 186
186 186 186
186 186 186
186 186 186
186 186 186
186 186 186
186 186 186
186 186 186
186 186 186
186 186 186
186 186 186
186 186 186
186 186 186
186 186 186
186 186 186
186 186 186
186 186 186
186 186 186
186 186 186
186 186 186
186 186 186
186 186 186
186 186 186
186 186 186
186 186 186
186 186 186
186 186 186
186 186 186
186 186 186
186 186 186
186 186 186
186 186 186
186 186 186
186 186 186
186 186 186
186 186 186
186 186 186
186 186 186
186 186 186
186 186 186
186 186 186
186 186 186
186 186 186
186 186 186
186 186 186
186 186 186
186 186 186
186 186 186
186 186 186
186 186 186
186 186 186
186 186 186
186 186 186
186 186 186
186 186 186
186 186 186
186 186 186
186 186 186
186 186 186
186 186 186
186 186 186
186 186 186
186 186 186
186 186 186
186 186 186
186 186 186
186 186 186
186 186 186
186 186 186
186 186 186
186 186 186
186 186 186
186 186 186
186 186 186
186 186 186
186 186 186
186 186 186
186 186 186
186 186 186
186 186 186
186 186 186
186 186 186
186 186 186
186 186 186
186 186 186
186 186 186
186 186 186
186 186 186
186 186 186
186 186 186
186 186 186
186 186 186
186 186 186
186 186 186
186 186 186
186 186 186
186 186 186
186 186 186
186 186 186
186 186 186
186 186 186
186 186 186
186 186 186
186 186 186
186 186 186
186 186 186
186 186 186
186 186 186
186 186 186
186 186 186
186 186 186
186 186 186
186 186 186
186 186 186
186 186 186
186 186 186
186 186 186
186 186 186
186 186 186
186 186 186
186 186 186
186 186 186
186 186 186
186 186 186
186 186 186
186 186 186
186 186 186
186 186 186
186 186 186
186 186 186
186 186 186
186 186 186
186 186 186
186 186 186
186 186 186
186 186 186
186 186 186
186 186 186
186 186 186
186 186 186
186 186 186
186 186 186
186 186 186
186 186 186
186 186 186
186 186 186
186 186 186
186 186 186
186 186 186
186 186 186
186 186 186
186 186 186
186 186 186
186 186 186
186 186 186
186 186 186
186 186 186
186 186 186
186 186 186
186 186 186
186 186 186
186 186 186
186 186 186
186 186 186
186 186 186
186 186 186
186 186 186
186 186 186
186 186 186
186 186 186
186 186 186
186 186 186
186 186 186
186 186 186
186 186 186
186 186 186
186 186 186
186 186 186
186 186 186
186 186 186
186 186 186
186 186 186
186 186 186
186 186 186
186 186 186
186 186 186
186 186 186
186 186 186
186 186 186
186 186 186
186 186 186
186 186 186
186 186 186
186 186 186
186 186 186
186 186 186
186 186 186
186 186 186
186 186 186
186 186 186
186 186 186
186 186 186
186 186 186
186 186 186
186 186 186
186 186 186
186 186 186
186 186 186
186 186 186
186 186 186
186 186 186
186 186 186
186 186 186
186 186 186
186 186 186
186 186 186
186 186 186
186 186 186
186 186 186
186 186 186
186 186 186
186 186 186
186 186 186
186 186 186
186 186 186
186 186 186
186 186 186
186 186 186
186 186 186
186 186 186
186 186 186
186 186 186
186 186 186
186 186 186
186 186 186
186 186 186
186 186 186
186 186 186
186 186 186
186 186 186
186 186 186
186 186 186
186 186 186
186 186 186
186 186 186
186 186 186
186 186 186
186 186 186
186 186 186
186 186 186
186 186 186
186 186 186
186 186 186
186 186 186
186 186 186
186 186 186
186 186 186
186 186 186
186 186 186
186 186 186
186 186 186
186 186 186
186 186 186
186 186 186
186 186 186
186 186 186
186 186 186
186 186 186
186 186 186
186 186 186
186 186 186
186 186 186
186 186 186
186 186 186
186 186 186
186 186 186
186 186 186
186 186 186
186 186 186
186 186 186
186 186 186
186 186 186
186 186 186
186 186 186
186 186 186
186 186 186
186 186 186
186 186 186
186 186 186
186 186 186
186 186 186
186 186 186
186 186 186
186 186 186
186 186 186
186 186 186
186 186 186
186 186 186
186 186 186
186 186 186
186 186 186
186 186 186
186 186 186
186 186 186
186 186 186
186 186 186
186 186 186
186 186 186
186 186 186
186 186 186
186 186 186
186 186 186
186 186 186
186 186 186
186 186 186
186 186 186
186 186 186
186 186 186
186 186 186
186 186 186
186 186 186
186 186 186
186 186 186
186 186 186
186 186 186
186 186 186
186 186 186
186 186 186
186 186 186
186 186 186
186 186 186
186 186 186
186 186 186
186 186 186
186 186 186
186 186 186
186 186 186
186 186 186
186 186 186
186 186 186
186 186 186
186 186 186
186 186 186
186 186 186
186 186 186
186 186 186
186 186 186
186 186 186
186 186 186
186 186 186
186 186 186
186 186 186
186 186 186
186 186 186
186 186 186
186 186 186
186 186 186
186 186 186
186 186 186
186 186 186
186 186 186
186 186 186
186 186 186
186 186 186
186 186 186
186 186 186
186 186 186
186 186 186
186 186 186
186 186 186
186 186 186
186 186 186
186 186 186
186 186 186
186 186 186
186 186 186
186 186 186
186 186 186
186 186 186
186 186 186
186 186 186
186 186 186
186 186 186
186 186 186
186 186 186
186 186 186
186 186 186
186 186 186
186 186 186
186 186 186
186 186 186
186 186 186
186 186 186
186 186 186
186 186 186
186 186 186
186 186 186
186 186 186
186 186 186
186 186 186
186 186 186
186 186 186
186 186 186
186 186 186
186 186 186
186 186 186
186 186 186
186 186 186
186 186 186
186 186 186
186 186 186
186 186 186
186 186 186
186 186 186
186 186 186
186 186 186
186 186 186
186 186 186
186 186 186
186 186 186
186 186 186
186 186 186
186 186 186
186 186 186
186 186 186
186 186 186
186 186 186
186 186 186
186 186 186
186 186 186
186 186 186
186 186 186
186 186 186
186 186 186
186 186 186
186 186 186
186 186 186
186 186 186
186 186 186
186 186 186
186 186 186
186 186 186
186 186 186
186 186 186
186 186 186
186 186 186
186 186 186
186 186 186
186 186 186
186 186 186
186 186 186
186 186 186
186 186 186
186 186 186
186 186 186
186 186 186
186 186 186
186 186 186
186 186 186
186 186 186
186 186 186
186 186 186
186 186 186
186 186 186
186 186 186
186 186 186
186 186 186
186 186 186
186 186 186
186 186 186
186 186 186
186 186 186
186 186 186
186 186 186
186 186 186
186 186 186
186 186 186
186 186 186
186 186 186
186 186 186
186 186 186
186 186 186
186 186 186
186 186 186
186 186 186
186 186 186
186 186 186
186 186 186
186 186 186
186 186 186
186 186 186
186 186 186
186 186 186
186 186 186
186 186 186
186 186 186
186 186 186
186 186 186
186 186 186
186 186 186
186 186 186
186 186 186
186 186 186
186 186 186
186 186 186
186 186 186
186 186 186
186 186 186
186 186 186
186 186 186
186 186 186
186 186 186
186 186 186
186 186 186
186 186 186
186 186 186
186 186 186
186 186 186
186 186 186
186 186 186
186 186 186
186 186 186
186 186 186
186 186 186
186 186 186
186 186 186
186 186 186
186 186 186
186 186 186
186 186 186
186 186 186
186 186 186
186 186 186
186 186 186
186 186 186
186 186 186
186 186 186
186 186 186
186 186 186
186 186 186
186 186 186
186 186 186
186 186 186
186 186 186
186 186 186
186 186 186
186 186 186
186 186 186
186 186 186
186 186 186
186 186 186
186 186 186
186 186 186
186 186 186
186 186 186
186 186 186
186 186 186
186 186 186
186 186 186
186 186 186
186 186 186
186 186 186
186 186 186
186 186 186
186 186 186
186 186 186
186 186 186
186 186 186
186 186 186
186 186 186
186 186 186
186 186 186
186 186 186
186 186 186
186 186 186
186 186 186
186 186 186
186 186 186
186 186 186
186 186 186
186 186 186
186 186 186
186 186 186
186 186 186
186 186 186
186 186 186
186 186 186
186 186 186
186 186 186
186 186 186
186 186 186
186 186 186
186 186 186
186 186 186
186 186 186
186 186 186
186 186 186
186 186 186
186 186 186
186 186 186
186 186 186
186 186 186
186 186 186
186 186 186
186 186 186
186 186 186
186 186 186
186 186 186
186 186 186
186 186 186
186 186 186
186 186 186
186 186 186
186 186 186
186 186 186
186 186 186
186 186 186
186 186 186
186 186 186
186 186 186
186 186 186
186 186 186
186 186 186
186 186 186
186 186 186
186 186 186
186 186 186
186 186 186
186 186 186
186 186 186
186 186 186
186 186 186
186 186 186
186 186 186
186 186 186
186 186 186
186 186 186
186 186 186
186 186 186
186 186 186
186 186 186
186 186 186
186 186 186
186 186 186
186 186 186
186 186 186
186 186 186
186 186 186
186 186 186
186 186 186
186 186 186
186 186 186
186 186 186
186 186 186
186 186 186
186 186 186
186 186 186
186 186 186
186 186 186
186 186 186
186 186 186
186 186 186
186 186 186
186 186 186
186 186 186
186 186 186
186 186 186
186 186 186
186 186 186
186 186 186
186 186 186
186 186 186
186 186 186
186 186 186
186 186 186
186 186 186
186 186 186
186 186 186
186 186 186
186 186 186
186 186 186
186 186 186
186 186 186
186 186 186
186 186 186
186 186 186
186 186 186
186 186 186
186 186 186
186 186 186
186 186 186
186 186 186
186 186 186
186 186 186
186 186 186
186 186 186
186 186 186
186 186 186
186 186 186
186 186 186
186 186 186
186 186 186
186 186 186
186 186 186
186 186 186
186 186 186
186 186 186
186 186 186
186 186 186
186 186 186
186 186 186
186 186 186
186 186 186
186 186 186
186 186 186
186 186 186
186 186 186
186 186 186
186 186 186
186 186 186
186 186 186
186 186 186
186 186 186
186 186 186
186 186 186
186 186 186
186 186 186
186 186 186
186 186 186
186 186 186
186 186 186
186 186 186
186 186 186
186 186 186
186 186 186
186 186 186
186 186 186
186 186 186
186 186 186
186 186 186
186 186 186
186 186 186
186 186 186
186 186 186
186 186 186
186 186 186
186 186 186
186 186 186
186 186 186
186 186 186
186 186 186
186 186 186
186 186 186
186 186 186
186 186 186
186 186 186
186 186 186
186 186 186
186 186 186
186 186 186
186 186 186
186 186 186
186 186 186
186 186 186
186 186 186
186 186 186
186 186 186
186 186 186
186 186 186
186 186 186
186 186 186
186 186 186
186 186 186
186 186 186
186 186 186
186 186 186
186 186 186
186 186 186
186 186 186
186 186 186
186 186 186
186 186 186
186 186 186
186 186 186
186 186 186
186 186 186
186 186 186
186 186 186
186 186 186
186 186 186
186 186 186
186 186 186
186 186 186
186 186 186
186 186 186
186 186 186
186 186 186
186 186 186
186 186 186
186 186 186
186 186 186
186 186 186
186 186 186
186 186 186
186 186 186
186 186 186
186 186 186
186 186 186
186 186 186
186 186 186
186 186 186
186 186 186
186 186 186
186 186 186
186 186 186
186 186 186
186 186 186
186 186 186
186 186 186
186 186 186
186 186 186
186 186 186
186 186 186
186 186 186
186 186 186
186 186 186
186 186 186
186 186 186
186 186 186
186 186 186
186 186 186
186 186 186
186 186 186
186 186 186
186 186 186
186 186 186
186 186 186
186 186 186
186 186 186
186 186 186
186 186 186
186 186 186
186 186 186
186 186 186
186 186 186
186 186 186
186 186 186
186 186 186
186 186 186
186 186 186
186 186 186
186 186 186
186 186 186
186 186 186
186 186 186
186 186 186
186 186 186
186 186 186
186 186 186
186 186 186
186 186 186
186 186 186
186 186 186
186 186 186
186 186 186
186 186 186
186 186 186
186 186 186
186 186 186
186 186 186
186 186 186
186 186 186
186 186 186
186 186 186
186 186 186
186 186 186
186 186 186
186 186 186
186 186 186
186 186 186
186 186 186
186 186 186
186 186 186
186 186 186
186 186 186
186 186 186
186 186 186
186 186 186
186 186 186
186 186 186
186 186 186
186 186 186
186 186 186
186 186 186
186 186 186
186 186 186
186 186 186
186 186 186
186 186 186
186 186 186
186 186 186
186 186 186
186 186 186
186 186 186
186 186 186
186 186 186
186 186 186
186 186 186
186 186 186
186 186 186
186 186 186
186 186 186
186 186 186
186 186 186
186 186 186
186 186 186
186 186 186
186 186 186
186 186 186
186 186 186
186 186 186
186 186 186
186 186 186
186 186 186
186 186 186
186 186 186
186 186 186
186 186 186
186 186 186
186 186 186
186 186 186
186 186 186
186 186 186
186 186 186
186 186 186
186 186 186
186 186 186
186 186 186
186 186 186
186 186 186
186 186 186
186 186 186
186 186 186
186 186 186
186 186 186
186 186 186
186 186 186
186 186 186
186 186 186
186 186 186
186 186 186
186 186 186
186 186 186
186 186 186
186 186 186
186 186 186
186 186 186
186 186 186
186 186 186
186 186 186
186 186 186
186 186 186
186 186 186
186 186 186
186 186 186
186 186 186
186 186 186
186 186 186
186 186 186
186 186 186
186 186 186
186 186 186
186 186 186
186 186 186
186 186 186
186 186 186
186 186 186
186 186 186
186 186 186
186 186 186
186 186 186
186 186 186
186 186 186
186 186 186
186 186 186
186 186 186
186 186 186
186 186 186
186 186 186
186 186 186
186 186 186
186 186 186
186 186 186
186 186 186
186 186 186
186 186 186
186 186 186
186 186 186
186 186 186
186 186 186
186 186 186
186 186 186
186 186 186
186 186 186
186 186 186
186 186 186
186 186 186
186 186 186
186 186 186
186 186 186
186 186 186
186 186 186
186 186 186
186 186 186
186 186 186
186 186 186
186 186 186
186 186 186
186 186 186
186 186 186
186 186 186
186 186 186
186 186 186
186 186 186
186 186 186
186 186 186
186 186 186
186 186 186
186 186 186
186 186 186
186 186 186
186 186 186
186 186 186
186 186 186
186 186 186
186 186 186
186 186 186
186 186 186
186 186 186
186 186 186
186 186 186
186 186 186
186 186 186
186 186 186
186 186 186
186 186 186
186 186 186
186 186 186
186 186 186
186 186 186
186 186 186
186 186 186
186 186 186
186 186 186
186 186 186
186 186 186
186 186 186
186 186 186
186 186 186
186 186 186
186 186 186
186 186 186
186 186 186
186 186 186
186 186 186
186 186 186
186 186 186
186 186 186
186 186 186
186 186 186
186 186 186
186 186 186
186 186 186
186 186 186
186 186 186
186 186 186
186 186 186
186 186 186
186 186 186
186 186 186
186 186 186
186 186 186
186 186 186
186 186 186
186 186 186
186 186 186
186 186 186
186 186 186
186 186 186
186 186 186
186 186 186
186 186 186
186 186 186
186 186 186
186 186 186
186 186 186
186 186 186
186 186 186
186 186 186
186 186 186
186 186 186
186 186 186
186 186 186
186 186 186
186 186 186
186 186 186
186 186 186
186 186 186
186 186 186
186 186 186
186 186 186
186 186 186
186 186 186
186 186 186
186 186 186
186 186 186
186 186 186
186 186 186
186 186 186
186 186 186
186 186 186
186 186 186
186 186 186
186 186 186
186 186 186
186 186 186
186 186 186
186 186 186
186 186 186
186 186 186
186 186 186
186 186 186
186 186 186
186 186 186
186 186 186
186 186 186
186 186 186
186 186 186
186 186 186
186 186 186
186 186 186
186 186 186
186 186 186
186 186 186
186 186 186
186 186 186
186 186 186
186 186 186
186 186 186
186 186 186
186 186 186
186 186 186
186 186 186
186 186 186
186 186 186
186 186 186
186 186 186
186 186 186
186 186 186
186 186 186
186 186 186
186 186 186
186 186 186
186 186 186
186 186 186
186 186 186
186 186 186
186 186 186
186 186 186
186 186 186
186 186 186
186 186 186
186 186 186
186 186 186
186 186 186
186 186 186
186 186 186
186 186 186
186 186 186
186 186 186
186 186 186
186 186 186
186 186 186
186 186 186
186 186 186
186 186 186
186 186 186
186 186 186
186 186 186
186 186 186
186 186 186
186 186 186
186 186 186
186 186 186
186 186 186
186 186 186
186 186 186
186 186 186
186 186 186
186 186 186
186 186 186
186 186 186
186 186 186
186 186 186
186 186 186
186 186 186
186 186 186
186 186 186
186 186 186
186 186 186
186 186 186
186 186 186
186 186 186
186 186 186
186 186 186
186 186 186
186 186 186
186 186 186
186 186 186
186 186 186
186 186 186
186 186 186
186 186 186
186 186 186
186 186 186
186 186 186
186 186 186
186 186 186
186 186 186
186 186 186
186 186 186
186 186 186
186 186 186
186 186 186
186 186 186
186 186 186
186 186 186
186 186 186
186 186 186
186 186 186
186 186 186
186 186 186
186 186 186
186 186 186
186 186 186
186 186 186
186 186 186
186 186 186
186 186 186
186 186 186
186 186 186
186 186 186
186 186 186
186 186 186
186 186 186
186 186 186
186 186 186
186 186 186
186 186 186
186 186 186
186 186 186
186 186 186
186 186 186
186 186 186
186 186 186
186 186 186
186 186 186
186 186 186
186 186 186
186 186 186
186 186 186
186 186 186
186 186 186
186 186 186
186 186 186
186 186 186
186 186 186
186 186 186
186 186 186
186 186 186
186 186 186
186 186 186
186 186 186
186 186 186
186 186 186
186 186 186
186 186 186
186 186 186
186 186 186
186 186 186
186 186 186
186 186 186
186 186 186
186 186 186
186 186 186
186 186 186
186 186 186
186 186 186
186 186 186
186 186 186
186 186 186
186 186 186
186 186 186
186 186 186
186 186 186
186 186 186
186 186 186
186 186 186
186 186 186
186 186 186
186 186 186
186 186 186
186 186 186
186 186 186
186 186 186
186 186 186
186 186 186
186 186 186
186 186 186
186 186 186
186 186 186
186 186 186
186 186 186
186 186 186
186 186 186
186 186 186
186 186 186
186 186 186
186 186 186
186 186 186
186 186 186
186 186 186
186 186 186
186 186 186
186 186 186
186 186 186
186 186 186
186 186 186
186 186 186
186 186 186
186 186 186
186 186 186
186 186 186
186 186 186
186 186 186
186 186 186
186 186 186
186 186 186
186 186 186
186 186 186
186 186 186
186 186 186
186 186 186
186 186 186
186 186 186
186 186 186
186 186 186
186 186 186
186 186 186
186 186 186
186 186 186
186 186 186
186 186 186
186 186 186
186 186 186
186 186 186
186 186 186
186 186 186
186 186 186
186 186 186
186 186 186
186 186 186
186 186 186
186 186 186
186 186 186
186 186 186
186 186 186
186 186 186
186 186 186
186 186 186
186 186 186
186 186 186
186 186 186
186 186 186
186 186 186
186 186 186
186 186 186
186 186 186
186 186 186
186 186 186
186 186 186
186 186 186
186 186 186
186 186 186
186 186 186
186 186 186
186 186 186
186 186 186
186 186 186
186 186 186
186 186 186
186 186 186
186 186 186
186 186 186
186 186 186
186 186 186
186 186 186
186 186 186
186 186 186
186 186 186
186 186 186
186 186 186
186 186 186
186 186 186
186 186 186
186 186 186
186 186 186
186 186 186
186 186 186
186 186 186
186 186 186
186 186 186
186 186 186
186 186 186
186 186 186
186 186 186
186 186 186
186 186 186
186 186 186
186 186 186
186 186 186
186 186 186
186 186 186
186 186 186
186 186 186
186 186 186
186 186 186
186 186 186
186 186 186
186 186 186
186 186 186
186 186 186
186 186 186
186 186 186
186 186 186
186 186 186
186 186 186
186 186 186
186 186 186
186 186 186
186 186 186
186 186 186
186 186 186
186 186 186
186 186 186
186 186 186
186 186 186
186 186 186
186 186 186
186 186 186
186 186 186
186 186 186
186 186 186
186 186 186
186 186 186
186 186 186
186 186 186
186 186 186
186 186 186
186 186 186
186 186 186
186 186 186
186 186 186
186 186 186
186 186 186
186 186 186
186 186 186
186 186 186
186 186 186
186 186 186
186 186 186
186 186 186
186 186 186
186 186 186
186 186 186
186 186 186
186 186 186
186 186 186
186 186 186
186 186 186
186 186 186
186 186 186
186 186 186
186 186 186
186 186 186
186 186 186
186 186 186
186 186 186
186 186 186
186 186 186
186 186 186
186 186 186
186 186 186
186 186 186
186 186 186
186 186 186
186 186 186
186 186 186
186 186 186
186 186 186
186 186 186
186 186 186
186 186 186
186 186 186
186 186 186
186 186 186
186 186 186
186 186 186
186 186 186
186 186 186
186 186 186
186 186 186
186 186 186
186 186 186
186 186 186
186 186 186
186 186 186
186 186 186
186 186 186
186 186 186
186 186 186
186 186 186
186 186 186
186 186 186
186 186 186
186 186 186
186 186 186
186 186 186
186 186 186
186 186 186
186 186 186
186 186 186
186 186 186
186 186 186
186 186 186
186 186 186
186 186 186
186 186 186
186 186 186
186 186 186
186 186 186
186 186 186
186 186 186
186 186 186
186 186 186
186 186 186
186 186 186
186 186 186
186 186 186
186 186 186
186 186 186
186 186 186
186 186 186
186 186 186
186 186 186
186 186 186
186 186 186
186 186 186
186 186 186
186 186 186
186 186 186
186 186 186
186 186 186
186 186 186
186 186 186
186 186 186
186 186 186
186 186 186
186 186 186
186 186 186
186 186 186
186 186 186
186 186 186
186 186 186
186 186 186
186 186 186
186 186 186
186 186 186
186 186 186
186 186 186
186 186 186
186 186 186
186 186 186
186 186 186
186 186 186
186 186 186
186 186 186
186 186 186
186 186 186
186 186 186
186 186 186
186 186 186
186 186 186
186 186 186
186 186 186
186 186 186
186 186 186
186 186 186
186 186 186
186 186 186
186 186 186
186 186 186
186 186 186
186 186 186
186 186 186
186 186 186
186 186 186
186 186 186
186 186 186
186 186 186
186 186 186
186 186 186
186 186 186
186 186 186
186 186 186
186 186 186
186 186 186
186 186 186
186 186 186
186 186 186
186 186 186
186 186 186
186 186 186
186 186 186
186 186 186
186 186 186
186 186 186
186 186 186
186 186 186
186 186 186
186 186 186
186 186 186
186 186 186
186 186 186
186 186 186
186 186 186
186 186 186
186 186 186
186 186 186
186 186 186
186 186 186
186 186 186
186 186 186
186 186 186
186 186 186
186 186 186
186 186 186
186 186 186
186 186 186
186 186 186
186 186 186
186 186 186
186 186 186
186 186 186
186 186 186
186 186 186
186 186 186
186 186 186
186 186 186
186 186 186
186 186 186
186 186 186
186 186 186
186 186 186
186 186 186
186 186 186
186 186 186
186 186 186
186 186 186
186 186 186
186 186 186
186 186 186
186 186 186
186 186 186
186 186 186
186 186 186
186 186 186
186 186 186
186 186 186
186 186 186
186 186 186
186 186 186
186 186 186
186 186 186
186 186 186
186 186 186
186 186 186
186 186 186
186 186 186
186 186 186
186 186 186
186 186 186
186 186 186
186 186 186
186 186 186
186 186 186
186 186 186
186 186 186
186 186 186
186 186 186
186 186 186
186 186 186
186 186 186
186 186 186
186 186 186
186 186 186
186 186 186
186 186 186
186 186 186
186 186 186
186 186 186
186 186 186
186 186 186
186 186 186
186 186 186
186 186 186
186 186 186
186 186 186
186 186 186
186 186 186
186 186 186
186 186 186
186 186 186
186 186 186
186 186 186
186 186 186
186 186 186
186 186 186
186 186 186
186 186 186
186 186 186
186 186 186
186 186 186
186 186 186
186 186 186
186 186 186
186 186 186
186 186 186
186 186 186
186 186 186
186 186 186
186 186 186
186 186 186
186 186 186
186 186 186
186 186 186
186 186 186
186 186 186
186 186 186
186 186 186
186 186 186
186 186 186
186 186 186
186 186 186
186 186 186
186 186 186
186 186 186
186 186 186
186 186 186
186 186 186
186 186 186
186 186 186
186 186 186
186 186 186
186 186 186
186 186 186
186 186 186
186 186 186
186 186 186
186 186 186
186 186 186
186 186 186
186 186 186
186 186 186
186 186 186
186 186 186
186 186 186
186 186 186
186 186 186
186 186 186
186 186 186
186 186 186
186 186 186
186 186 186
186 186 186
186 186 186
186 186 186
186 186 186
186 186 186
186 186 186
186 186 186
186 186 186
186 186 186
186 186 186
186 186 186
186 186 186
186 186 186
186 186 186
186 186 186
186 186 186
186 186 186
186 186 186
186 186 186
186 186 186
186 186 186
186 186 186
186 186 186
186 186 186
186 186 186
186 186 186
186 186 186
186 186 186
186 186 186
186 186 186
186 186 186
186 186 186
186 186 186
186 186 186
186 186 186
186 186 186
186 186 186
186 186 186
186 186 186
186 186 186
186 186 186
186 186 186
186 186 186
186 186 186
186 186 186
186 186 186
186 186 186
186 186 186
186 186 186
186 186 186
186 186 186
186 186 186
186 186 186
186 186 186
186 186 186
186 186 186
186 186 186
186 186 186
186 186 186
186 186 186
186 186 186
186 186 186
186 186 186
186 186 186
186 186 186
186 186 186
186 186 186
186 186 186
186 186 186
186 186 186
186 186 186
186 186 186
186 186 186
186 186 186
186 186 186
186 186 186
186 186 186
186 186 186
186 186 186
186 186 186
186 186 186
186 186 186
186 186 186
186 186 186
186 186 186
186 186 186
186 186 186
186 186 186
186 186 186
186 186 186
186 186 186
186 186 186
186 186 186
186 186 186
186 186 186
186 186 186
186 186 186
186 186 186
186 186 186
186 186 186
186 186 186
186 186 186
186 186 186
186 186 186
186 186 186
186 186 186
186 186 186
186 186 186
186 186 186
186 186 186
186 186 186
186 186 186
186 186 186
186 186 186
186 186 186
186 186 186
186 186 186
186 186 186
186 186 186
186 186 186
186 186 186
186 186 186
186 186 186
186 186 186
186 186 186
186 186 186
186 186 186
186 186 186
186 186 186
186 186 186
186 186 186
186 186 186
186 186 186
186 186 186
186 186 186
186 186 186
186 186 186
186 186 186
186 186 186
186 186 186
186 186 186
186 186 186
186 186 186
186 186 186
186 186 186
186 186 186
186 186 186
186 186 186
186 186 186
186 186 186
186 186 186
186 186 186
186 186 186
186 186 186
186 186 186
186 186 186
186 186 186
186 186 186
186 186 186
186 186 186
186 186 186
186 186 186
186 186 186
186 186 186
186 186 186
186 186 186
186 186 186
186 186 186
186 186 186
186 186 186
186 186 186
186 186 186
186 186 186
186 186 186
186 186 186
186 186 186
186 186 186
186 186 186
186 186 186
186 186 186
186 186 186
186 186 186
186 186 186
186 186 186
186 186 186
186 186 186
186 186 186
186 186 186
186 186 186
186 186 186
186 186 186
186 186 186
186 186 186
186 186 186
186 186 186
186 186 186
186 186 186
186 186 186
186 186 186
186 186 186
186 186 186
186 186 186
186 186 186
186 186 186
186 186 186
186 186 186
186 186 186
186 186 186
186 186 186
186 186 186
186 186 186
186 186 186
186 186 186
186 186 186
186 186 186
186 186 186
186 186 186
186 186 186
186 186 186
186 186 186
186 186 186
186 186 186
186 186 186
186 186 186
186 186 186
186 186 186
186 186 186
186 186 186
186 186 186
186 186 186
186 186 186
186 186 186
186 186 186
186 186 186
186 186 186
186 186 186
186 186 186
186 186 186
186 186 186
186 186 186
186 186 186
186 186 186
186 186 186
186 186 186
186 186 186
186 186 186
186 186 186
186 186 186
186 186 186
186 186 186
186 186 186
186 186 186
186 186 186
186 186 186
186 186 186
186 186 186
186 186 186
186 186 186
186 186 186
186 186 186
186 186 186
186 186 186
186 186 186
186 186 186
186 186 186
186 186 186
186 186 186
186 186 186
186 186 186
186 186 186
186 186 186
186 186 186
186 186 186
186 186 186
186 186 186
186 186 186
186 186 186
186 186 186
186 186 186
186 186 186
186 186 186
186 186 186
186 186 186
186 186 186
186 186 186
186 186 186
186 186 186
186 186 186
186 186 186
186 186 186
186 186 186
186 186 186
186 186 186
186 186 186
186 186 186
186 186 186
186 186 186
186 186 186
186 186 186
186 186 186
186 186 186
186 186 186
186 186 186
186 186 186
186 186 186
186 186 186
186 186 186
186 186 186
186 186 186
186 186 186
186 186 186
186 186 186
186 186 186
186 186 186
186 186 186
186 186 186
186 186 186
186 186 186
186 186 186
186 186 186
186 186 186
186 186 186
186 186 186
186 186 186
186 186 186
186 186 186
186 186 186
186 186 186
186 186 186
186 186 186
186 186 186
186 186 186
186 186 186
186 186 186
186 186 186
186 186 186
186 186 186
186 186 186
186 186 186
186 186 186
186 186 186
186 186 186
186 186 186
186 186 186
186 186 186
186 186 186
186 186 186
186 186 186
186 186 186
186 186 186
186 186 186
186 186 186
186 186 186
186 186 186
186 186 186
186 186 186
186 186 186
186 186 186
186 186 186
186 186 186
186 186 186
186 186 186
186 186 186
186 186 186
186 186 186
186 186 186
186 186 186
186 186 186
186 186 186
186 186 186
186 186 186
186 186 186
186 186 186
186 186 186
186 186 186
186 186 186
186 186 186
186 186 186
186 186 186
186 186 186
186 186 186
186 186 186
186 186 186
186 186 186
186 186 186
186 186 186
186 186 186
186 186 186
186 186 186
186 186 186
186 186 186
186 186 186
186 186 186
186 186 186
186 186 186
186 186 186
186 186 186
186 186 186
186 186 186
186 186 186
186 186 186
186 186 186
186 186 186
186 186 186
186 186 186
186 186 186
186 186 186
186 186 186
186 186 186
186 186 186
186 186 186
186 186 186
186 186 186
186 186 186
186 186 186
186 186 186
186 186 186
186 186 186
186 186 186
186 186 186
186 186 186
186 186 186
186 186 186
186 186 186
186 186 186
186 186 186
186 186 186
186 186 186
186 186 186
186 186 186
186 186 186
186 186 186
186 186 186
186 186 186
186 186 186
186 186 186
186 186 186
186 186 186
186 186 186
186 186 186
186 186 186
186 186 186
186 186 186
186 186 186
186 186 186
186 186 186
186 186 186
186 186 186
186 186 186
186 186 186
186 186 186
186 186 186
186 186 186
186 186 186
186 186 186
186 186 186
186 186 186
186 186 186
186 186 186
186 186 186
186 186 186
186 186 186
186 186 186
186 186 186
186 186 186
186 186 186
186 186 186
186 186 186
186 186 186
186 186 186
186 186 186
186 186 186
186 186 186
186 186 186
186 186 186
186 186 186
186 186 186
186 186 186
186 186 186
186 186 186
186 186 186
186 186 186
186 186 186
186 186 186
186 186 186
186 186 186
186 186 186
186 186 186
186 186 186
186 186 186
186 186 186
186 186 186
186 186 186
186 186 186
186 186 186
186 186 186
186 186 186
186 186 186
186 186 186
186 186 186
186 186 186
186 186 186
186 186 186
186 186 186
186 186 186
186 186 186
186 186 186
186 186 186
186 186 186
186 186 186
186 186 186
186 186 186
186 186 186
186 186 186
186 186 186
186 186 186
186 186 186
186 186 186
186 186 186
186 186 186
186 186 186
186 186 186
186 186 186
186 186 186
186 186 186
186 186 186
186 186 186
186 186 186
186 186 186
186 186 186
186 186 186
186 186 186
186 186 186
186 186 186
186 186 186
186 186 186
186 186 186
186 186 186
186 186 186
186 186 186
186 186 186
186 186 186
186 186 186
186 186 186
186 186 186
186 186 186
186 186 186
186 186 186
186 186 186
186 186 186
186 186 186
186 186 186
186 186 186
186 186 186
186 186 186
186 186 186
186 186 186
186 186 186
186 186 186
186 186 186
186 186 186
186 186 186
186 186 186
186 186 186
186 186 186
186 186 186
186 186 186
186 186 186
186 186 186
186 186 186
186 186 186
186 186 186
186 186 186
186 186 186
186 186 186
186 186 186
186 186 186
186 186 186
186 186 186
186 186 186
186 186 186
186 186 186
186 186 186
186 186 186
186 186 186
186 186 186
186 186 186
186 186 186
186 186 186
186 186 186
186 186 186
186 186 186
186 186 186
186 186 186
186 186 186
186 186 186
186 186 186
186 186 186
186 186 186
186 186 186
186 186 186
186 186 186
186 186 186
186 186 186
186 186 186
186 186 186
186 186 186
186 186 186
186 186 186
186 186 186
186 186 186
186 186 186
186 186 186
186 186 186
186 186 186
186 186 186
186 186 186
186 186 186
186 186 186
186 186 186
186 186 186
186 186 186
186 186 186
186 186 186
186 186 186
186 186 186
186 186 186
186 186 186
186 186 186
186 186 186
186 186 186
186 186 186
186 186 186
186 186 186
186 186 186
186 186 186
186 186 186
186 186 186
186 186 186
186 186 186
186 186 186
186 186 186
186 186 186
186 186 186
186 186 186
186 186 186
186 186 186
186 186 186
186 186 186
186 186 186
186 186 186
186 186 186
186 186 186
186 186 186
186 186 186
186 186 186
186 186 186
186 186 186
186 186 186
186 186 186
186 186 186
186 186 186
186 186 186
186 186 186
186 186 186
186 186 186
186 186 186
186 186 186
186 186 186
186 186 186
186 186 186
186 186 186
186 186 186
186 186 186
186 186 186
186 186 186
186 186 186
186 186 186
186 186 186
186 186 186
186 186 186
186 186 186
186 186 186
186 186 186
186 186 186
186 186 186
186 186 186
186 186 186
186 186 186
186 186 186
186 186 186
186 186 186
186 186 186
186 186 186
186 186 186
186 186 186
186 186 186
186 186 186
186 186 186
186 186 186
186 186 186
186 186 186
186 186 186
186 186 186
186 186 186
186 186 186
186 186 186
186 186 186
186 186 186
186 186 186
186 186 186
186 186 186
186 186 186
186 186 186
186 186 186
186 186 186
186 186 186
186 186 186
186 186 186
186 186 186
186 186 186
186 186 186
186 186 186
186 186 186
186 186 186
186 186 186
186 186 186
186 186 186
186 186 186
186 186 186
186 186 186
186 186 186
186 186 186
186 186 186
186 186 186
186 186 186
186 186 186
186 186 186
186 186 186
186 186 186
186 186 186
186 186 186
186 186 186
186 186 186
186 186 186
186 186 186
186 186 186
186 186 186
186 186 186
186 186 186
186 186 186
186 186 186
186 186 186
186 186 186
186 186 186
186 186 186
186 186 186
186 186 186
186 186 186
186 186 186
186 186 186
186 186 186
186 186 186
186 186 186
186 186 186
186 186 186
186 186 186
186 186 186
186 186 186
186 186 186
186 186 186
186 186 186
186 186 186
186 186 186
186 186 186
186 186 186
186 186 186
186 186 186
186 186 186
186 186 186
186 186 186
186 186 186
186 186 186
186 186 186
186 186 186
186 186 186
186 186 186
186 186 186
186 186 186
186 186 186
186 186 186
186 186 186
186 186 186
186 186 186
186 186 186
186 186 186
186 186 186
186 186 186
186 186 186
186 186 186
186 186 186
186 186 186
186 186 186
186 186 186
186 186 186
186 186 186
186 186 186
186 186 186
186 186 186
186 186 186
186 186 186
186 186 186
186 186 186
186 186 186
186 186 186
186 186 186
186 186 186
186 186 186
186 186 186
186 186 186
186 186 186
186 186 186
186 186 186
186 186 186
186 186 186
186 186 186
186 186 186
186 186 186
186 186 186
186 186 186
186 186 186
186 186 186
186 186 186
186 186 186
186 186 186
186 186 186
186 186 186
186 186 186
186 186 186
186 186 186
186 186 186
186 186 186
186 186 186
186 186 186
186 186 186
186 186 186
186 186 186
186 186 186
186 186 186
186 186 186
186 186 186
186 186 186
186 186 186
186 186 186
186 186 186
186 186 186
186 186 186
186 186 186
186 186 186
186 186 186
186 186 186
186 186 186
186 186 186
186 186 186
186 186 186
186 186 186
186 186 186
186 186 186
186 186 186
186 186 186
186 186 186
186 186 186
186 186 186
186 186 186
186 186 186
186 186 186
186 186 186
186 186 186
186 186 186
186 186 186
186 186 186
186 186 186
186 186 186
186 186 186
186 186 186
186 186 186
186 186 186
186 186 186
186 186 186
186 186 186
186 186 186
186 186 186
186 186 186
186 186 186
186 186 186
186 186 186
186 186 186
186 186 186
186 186 186
186 186 186
186 186 186
186 186 186
186 186 186
186 186 186
186 186 186
186 186 186
186 186 186
186 186 186
186 186 186
186 186 186
186 186 186
186 186 186
186 186 186
186 186 186
186 186 186
186 186 186
186 186 186
186 186 186
186 186 186
186 186 186
186 186 186
186 186 186
186 186 186
186 186 186
186 186 186
186 186 186
186 186 186
186 186 186
186 186 186
186 186 186
186 186 186
186 186 186
186 186 186
186 186 186
186 186 186
186 186 186
186 186 186
186 186 186
186 186 186
186 186 186
186 186 186
186 186 186
186 186 186
186 186 186
186 186 186
186 186 186
186 186 186
186 186 186
186 186 186
186 186 186
186 186 186
186 186 186
186 186 186
186 186 186
186 186 186
186 186 186
186 186 186
186 186 186
186 186 186
186 186 186
186 186 186
186 186 186
186 186 186
186 186 186
186 186 186
186 186 186
186 186 186
186 186 186
186 186 186
186 186 186
186 186 186
186 186 186
186 186 186
186 186 186
186 186 186
186 186 186
186 186 186
186 186 186
186 186 186
186 186 186
186 186 186
186 186 186
186 186 186
186 186 186
186 186 186
186 186 186
186 186 186
186 186 186
186 186 186
186 186 186
186 186 186
186 186 186
186 186 186
186 186 186
186 186 186
186 186 186
186 186 186
186 186 186
186 186 186
186 186 186
186 186 186
186 186 186
186 186 186
186 186 186
186 186 186
186 186 186
186 186 186
186 186 186
186 186 186
186 186 186
186 186 186
186 186 186
186 186 186
186 186 186
186 186 186
186 186 186
186 186 186
186 186 186
186 186 186
186 186 186
186 186 186
186 186 186
186 186 186
186 186 186
186 186 186
186 186 186
186 186 186
186 186 186
186 186 186
186 186 186
186 186 186
186 186 186
186 186 186
186 186 186
186 186 186
186 186 186
186 186 186
186 186 186
186 186 186
186 186 186
186 186 186
186 186 186
186 186 186
186 186 186
186 186 186
186 186 186
186 186 186
186 186 186
186 186 186
186 186 186
186 186 186
186 186 186
186 186 186
186 186 186
186 186 186
186 186 186
186 186 186
186 186 186
186 186 186
186 186 186
186 186 186
186 186 186
186 186 186
186 186 186
186 186 186
186 186 186
186 186 186
186 186 186
186 186 186
186 186 186
186 186 186
186 186 186
186 186 186
186 186 186
186 186 186
186 186 186
186 186 186
186 186 186
186 186 186
186 186 186
186 186 186
186 186 186
186 186 186
186 186 186
186 186 186
186 186 186
186 186 186
186 186 186
186 186 186
186 186 186
186 186 186
186 186 186
186 186 186
186 186 186
186 186 186
186 186 186
186 186 186
186 186 186
186 186 186
186 186 186
186 186 186
186 186 186
186 186 186
186 186 186
186 186 186
186 186 186
186 186 186
186 186 186
186 186 186
186 186 186
186 186 186
186 186 186
186 186 186
186 186 186
186 186 186
186 186 186
186 186 186
186 186 186
186 186 186
186 186 186
186 186 186
186 186 186
186 186 186
186 186 186
186 186 186
186 186 186
186 186 186
186 186 186
186 186 186
186 186 186
186 186 186
186 186 186
186 186 186
186 186 186
186 186 186
186 186 186
186 186 186
186 186 186
186 186 186
186 186 186
186 186 186
186 186 186
186 186 186
186 186 186
186 186 186
186 186 186
186 186 186
186 186 186
186 186 186
186 186 186
186 186 186
186 186 186
186 186 186
186 186 186
186 186 186
186 186 186
186 186 186
186 186 186
186 186 186
186 186 186
186 186 186
186 186 186
186 186 186
186 186 186
186 186 186
186 186 186
186 186 186
186 186 186
186 186 186
186 186 186
186 186 186
186 186 186
186 186 186
186 186 186
186 186 186
186 186 186
186 186 186
186 186 186
186 186 186
186 186 186
186 186 186
186 186 186
186 186 186
186 186 186
186 186 186
186 186 186
186 186 186
186 186 186
186 186 186
186 186 186
186 186 186
186 186 186
186 186 186
186 186 186
186 186 186
186 186 186
186 186 186
186 186 186
186 186 186
186 186 186
186 186 186
186 186 186
186 186 186
186 186 186
186 186 186
186 186 186
186 186 186
186 186 186
186 186 186
186 186 186
186 186 186
186 186 186
186 186 186
186 186 186
186 186 186
186 186 186
186 186 186
186 186 186
186 186 186
186 186 186
186 186 186
186 186 186
186 186 186
186 186 186
186 186 186
186 186 186
186 186 186
186 186 186
186 186 186
186 186 186
186 186 186
186 186 186
186 186 186
186 186 186
186 186 186
186 186 186
186 186 186
186 186 186
186 186 186
186 186 186
186 186 186
186 186 186
186 186 186
186 186 186
186 186 186
186 186 186
186 186 186
186 186 186
186 186 186
186 186 186
186 186 186
186 186 186
186 186 186
186 186 186
186 186 186
186 186 186
186 186 186
186 186 186
186 186 186
186 186 186
186 186 186
186 186 186
186 186 186
186 186 186
186 186 186
186 186 186
186 186 186
186 186 186
186 186 186
186 186 186
186 186 186
186 186 186
186 186 186
186 186 186
186 186 186
186 186 186
186 186 186
186 186 186
186 186 186
186 186 186
186 186 186
186 186 186
186 186 186
186 186 186
186 186 186
186 186 186
186 186 186
186 186 186
186 186 186
186 186 186
186 186 186
186 186 186
186 186 186
186 186 186
186 186 186
186 186 186
186 186 186
186 186 186
186 186 186
186 186 186
186 186 186
186 186 186
186 186 186
186 186 186
186 186 186
186 186 186
186 186 186
186 186 186
186 186 186
186 186 186
186 186 186
186 186 186
186 186 186
186 186 186
186 186 186
186 186 186
186 186 186
186 186 186
186 186 186
186 186 186
186 186 186
186 186 186
186 186 186
186 186 186
186 186 186
186 186 186
186 186 186
186 186 186
186 186 186
186 186 186
186 186 186
186 186 186
186 186 186
186 186 186
186 186 186
186 186 186
186 186 186
186 186 186
186 186 186
186 186 186
186 186 186
186 186 186
186 186 186
186 186 186
186 186 186
186 186 186
186 186 186
186 186 186
186 186 186
186 186 186
186 186 186
186 186 186
186 186 186
186 186 186
186 186 186
186 186 186
186 186 186
186 186 186
186 186 186
186 186 186
186 186 186
186 186 186
186 186 186
186 186 186
186 186 186
186 186 186
186 186 186
186 186 186
186 186 186
186 186 186
186 186 186
186 186 186
186 186 186
186 186 186
186 186 186
186 186 186
186 186 186
186 186 186
186 186 186
186 186 186
186 186 186
186 186 186
186 186 186
186 186 186
186 186 186
186 186 186
186 186 186
186 186 186
186 186 186
186 186 186
186 186 186
186 186 186
186 186 186
186 186 186
186 186 186
186 186 186
186 186 186
186 186 186
186 186 186
186 186 186
186 186 186
186 186 186
186 186 186
186 186 186
186 186 186
186 186 186
186 186 186
186 186 186
186 186 186
186 186 186
186 186 186
186 186 186
186 186 186
186 186 186
186 186 186
186 186 186
186 186 186
186 186 186
186 186 186
186 186 186
186 186 186
186 186 186
186 186 186
186 186 186
186 186 186
186 186 186
186 186 186
186 186 186
186 186 186
186 186 186
186 186 186
186 186 186
186 186 186
186 186 186
186 186 186
186 186 186
186 186 186
186 186 186
186 186 186
186 186 186
186 186 186
186 186 186
186 186 186
186 186 186
186 186 186
186 186 186
186 186 186
186 186 186
186 186 186
186 186 186
186 186 186
186 186 186
186 186 186
186 186 186
186 186 186
186 186 186
186 186 186
186 186 186
186 186 186
186 186 186
186 186 186
186 186 186
186 186 186
186 186 186
186 186 186
186 186 186
186 186 186
186 186 186
186 186 186
186 186 186
186 186 186
186 186 186
186 186 186
186 186 186
186 186 186
186 186 186
186 186 186
186 186 186
186 186 186
186 186 186
186 186 186
186 186 186
186 186 186
186 186 186
186 186 186
186 186 186
186 186 186
186 186 186
186 186 186
186 186 186
186 186 186
186 186 186
186 186 186
186 186 186
186 186 186
186 186 186
186 186 186
186 186 186
186 186 186
186 186 186
186 186 186
186 186 186
186 186 186
186 186 186
186 186 186
186 186 186
186 186 186
186 186 186
186 186 186
186 186 186
186 186 186
186 186 186
186 186 186
186 186 186
186 186 186
186 186 186
186 186 186
186 186 186
186 186 186
186 186 186
186 186 186
186 186 186
186 186 186
186 186 186
186 186 186
186 186 186
186 186 186
186 186 186
186 186 186
186 186 186
186 186 186
186 186 186
186 186 186
186 186 186
186 186 186
186 186 186
186 186 186
186 186 186
186 186 186
186 186 186
186 186 186
186 186 186
186 186 186
186 186 186
186 186 186
186 186 186
186 186 186
186 186 186
186 186 186
186 186 186
186 186 186
186 186 186
186 186 186
186 186 186
186 186 186
186 186 186
186 186 186
186 186 186
186 186 186
186 186 186
186 186 186
186 186 186
186 186 186
186 186 186
186 186 186
186 186 186
186 186 186
186 186 186
186 186 186
186 186 186
186 186 186
186 186 186
186 186 186
186 186 186
186 186 186
186 186 186
186 186 186
186 186 186
186 186 186
186 186 186
186 186 186
186 186 186
186 186 186
186 186 186
186 186 186
186 186 186
186 186 186
186 186 186
186 186 186
186 186 186
186 186 186
186 186 186
186 186 186
186 186 186
186 186 186
186 186 186
186 186 186
186 186 186
186 186 186
186 186 186
186 186 186
186 186 186
186 186 186
186 186 186
186 186 186
186 186 186
186 186 186
186 186 186
186 186 186
186 186 186
186 186 186
186 186 186
186 186 186
186 186 186
186 186 186
186 186 186
186 186 186
186 186 186
186 186 186
186 186 186
186 186 186
186 186 186
186 186 186
186 186 186
186 186 186
186 186 186
186 186 186
186 186 186
186 186 186
186 186 186
186 186 186
186 186 186
186 186 186
186 186 186
186 186 186
186 186 186
186 186 186
186 186 186
186 186 186
186 186 186
186 186 186
186 186 186
186 186 186
186 186 186
186 186 186
186 186 186
186 186 186
186 186 186
186 186 186
186 186 186
186 186 186
186 186 186
186 186 186
186 186 186
186 186 186
186 186 186
186 186 186
186 186 186
186 186 186
186 186 186
186 186 186
186 186 186
186 186 186
186 186 186
186 186 186
186 186 186
186 186 186
186 186 186
186 186 186
186 186 186
186 186 186
186 186 186
186 186 186
186 186 186
186 186 186
186 186 186
186 186 186
186 186 186
186 186 186
186 186 186
186 186 186
186 186 186
186 186 186
186 186 186
186 186 186
186 186 186
186 186 186
186 186 186
186 186 186
186 186 186
186 186 186
186 186 186
186 186 186
186 186 186
186 186 186
186 186 186
186 186 186
186 186 186
186 186 186
186 186 186
186 186 186
186 186 186
186 186 186
186 186 186
186 186 186
186 186 186
186 186 186
186 186 186
186 186 186
186 186 186
186 186 186
186 186 186
186 186 186
186 186 186
186 186 186
186 186 186
186 186 186
186 186 186
186 186 186
186 186 186
186 186 186
186 186 186
186 186 186
186 186 186
186 186 186
186 186 186
186 186 186
186 186 186
186 186 186
186 186 186
186 186 186
186 186 186
186 186 186
186 186 186
186 186 186
186 186 186
186 186 186
186 186 186
186 186 186
186 186 186
186 186 186
186 186 186
186 186 186
186 186 186
186 186 186
186 186 186
186 186 186
186 186 186
186 186 186
186 186 186
186 186 186
186 186 186
186 186 186
186 186 186
186 186 186
186 186 186
186 186 186
186 186 186
186 186 186
186 186 186
186 186 186
186 186 186
186 186 186
186 186 186
186 186 186
186 186 186
186 186 186
186 186 186
186 186 186
186 186 186
186 186 186
186 186 186
186 186 186
186 186 186
186 186 186
186 186 186
186 186 186
186 186 186
186 186 186
186 186 186
186 186 186
186 186 186
186 186 186
186 186 186
186 186 186
186 186 186
186 186 186
186 186 186
186 186 186
186 186 186
186 186 186
186 186 186
186 186 186
186 186 186
186 186 186
186 186 186
186 186 186
186 186 186
186 186 186
186 186 186
186 186 186
186 186 186
186 186 186
186 186 186
186 186 186
186 186 186
186 186 186
186 186 186
186 186 186
186 186 186
186 186 186
186 186 186
186 186 186
186 186 186
186 186 186
186 186 186
186 186 186
186 186 186
186 186 186
186 186 186
186 186 186
186 186 186
186 186 186
186 186 186
186 186 186
186 186 186
186 186 186
186 186 186
186 186 186
186 186 186
186 186 186
186 186 186
186 186 186
186 186 186
186 186 186
186 186 186
186 186 186
186 186 186
186 186 186
186 186 186
186 186 186
186 186 186
186 186 186
186 186 186
186 186 186
186 186 186
186 186 186
186 186 186
186 186 186
186 186 186
186 186 186
186 186 186
186 186 186
186 186 186
186 186 186
186 186 186
186 186 186
186 186 186
186 186 186
186 186 186
186 186 186
186 186 186
186 186 186
186 186 186
186 186 186
186 186 186
186 186 186
186 186 186
186 186 186
186 186 186
186 186 186
186 186 186
186 186 186
186 186 186
186 186 186
186 186 186
186 186 186
186 186 186
186 186 186
186 186 186
186 186 186
186 186 186
186 186 186
186 186 186
186 186 186
186 186 186
186 186 186
186 186 186
186 186 186
186 186 186
186 186 186
186 186 186
186 186 186
186 186 186
186 186 186
186 186 186
186 186 186
186 186 186
186 186 186
186 186 186
186 186 186
186 186 186
186 186 186
186 186 186
186 186 186
186 186 186
186 186 186
186 186 186
186 186 186
186 186 186
186 186 186
186 186 186
186 186 186
186 186 186
186 186 186
186 186 186
186 186 186
186 186 186
186 186 186
186 186 186
186 186 186
186 186 186
186 186 186
186 186 186
186 186 186
186 186 186
186 186 186
186 186 186
186 186 186
186 186 186
186 186 186
186 186 186
186 186 186
186 186 186
186 186 186
186 186 186
186 186 186
186 186 186
186 186 186
186 186 186
186 186 186
186 186 186
186 186 186
186 186 186
186 186 186
186 186 186
186 186 186
186 186 186
186 186 186
186 186 186
186 186 186
186 186 186
186 186 186
186 186 186
186 186 186
186 186 186
186 186 186
186 186 186
186 186 186
186 186 186
186 186 186
186 186 186
186 186 186
186 186 186
186 186 186
186 186 186
186 186 186
186 186 186
186 186 186
186 186 186
186 186 186
186 186 186
186 186 186
186 186 186
186 186 186
186 186 186
186 186 186
186 186 186
186 186 186
186 186 186
186 186 186
186 186 186
186 186 186
186 186 186
186 186 186
186 186 186
186 186 186
186 186 186
186 186 186
186 186 186
186 186 186
186 186 186
186 186 186
186 186 186
186 186 186
186 186 186
186 186 186
186 186 186
186 186 186
186 186 186
186 186 186
186 186 186
186 186 186
186 186 186
186 186 186
186 186 186
186 186 186
186 186 186
186 186 186
186 186 186
186 186 186
186 186 186
186 186 186
186 186 186
186 186 186
186 186 186
186 186 186
186 186 186
186 186 186
186 186 186
186 186 186
186 186 186
186 186 186
186 186 186
186 186 186
186 186 186
186 186 186
186 186 186
186 186 186
186 186 186
186 186 186
186 186 186
186 186 186
186 186 186
186 186 186
186 186 186
186 186 186
186 186 186
186 186 186
186 186 186
186 186 186
186 186 186
186 186 186
186 186 186
186 186 186
186 186 186
186 186 186
186 186 186
186 186 186
186 186 186
186 186 186
186 186 186
186 186 186
186 186 186
186 186 186
186 186 186
186 186 186
186 186 186
186 186 186
186 186 186
186 186 186
186 186 186
186 186 186
186 186 186
186 186 186
186 186 186
186 186 186
186 186 186
186 186 186
186 186 186
186 186 186
186 186 186
186 186 186
186 186 186
186 186 186
186 186 186
186 186 186
186 186 186
186 186 186
186 186 186
186 186 186
186 186 186
186 186 186
186 186 186
186 186 186
186 186 186
186 186 186
186 186 186
186 186 186
186 186 186
186 186 186
186 186 186
186 186 186
186 186 186
186 186 186
186 186 186
186 186 186
186 186 186
186 186 186
186 186 186
186 186 186
186 186 186
186 186 186
186 186 186
186 186 186
186 186 186
186 186 186
186 186 186
186 186 186
186 186 186
186 186 186
186 186 186
186 186 186
186 186 186
186 186 186
186 186 186
186 186 186
186 186 186
186 186 186
186 186 186
186 186 186
186 186 186
186 186 186
186 186 186
186 186 186
186 186 186
186 186 186
186 186 186
186 186 186
186 186 186
186 186 186
186 186 186
186 186 186
186 186 186
186 186 186
186 186 186
186 186 186
186 186 186
186 186 186
186 186 186
186 186 186
186 186 186
186 186 186
186 186 186
186 186 186
186 186 186
186 186 186
186 186 186
186 186 186
186 186 186
186 186 186
186 186 186
186 186 186
186 186 186
186 186 186
186 186 186
186 186 186
186 186 186
186 186 186
186 186 186
186 186 186
186 186 186
186 186 186
186 186 186
186 186 186
186 186 186
186 186 186
186 186 186
186 186 186
186 186 186
186 186 186
186 186 186
186 186 186
186 186 186
186 186 186
186 186 186
186 186 186
186 186 186
186 186 186
186 186 186
186 186 186
186 186 186
186 186 186
186 186 186
186 186 186
186 186 186
186 186 186
186 186 186
186 186 186
186 186 186
186 186 186
186 186 186
186 186 186
186 186 186
186 186 186
186 186 186
186 186 186
186 186 186
186 186 186
186 186 186
186 186 186
186 186 186
186 186 186
186 186 186
186 186 186
186 186 186
186 186 186
186 186 186
186 186 186
186 186 186
186 186 186
186 186 186
186 186 186
186 186 186
186 186 186
186 186 186
186 186 186
186 186 186
186 186 186
186 186 186
186 186 186
186 186 186
186 186 186
186 186 186
186 186 186
186 186 186
186 186 186
186 186 186
186 186 186
186 186 186
186 186 186
186 186 186
186 186 186
186 186 186
186 186 186
186 186 186
186 186 186
186 186 186
186 186 186
186 186 186
186 186 186
186 186 186
186 186 186
186 186 186
186 186 186
186 186 186
186 186 186
186 186 186
186 186 186
186 186 186
186 186 186
186 186 186
186 186 186
186 186 186
186 186 186
186 186 186
186 186 186
186 186 186
186 186 186
186 186 186
186 186 186
186 186 186
186 186 186
186 186 186
186 186 186
186 186 186
186 186 186
186 186 186
186 186 186
186 186 186
186 186 186
186 186 186
186 186 186
186 186 186
186 186 186
186 186 186
186 186 186
186 186 186
186 186 186
186 186 186
186 186 186
186 186 186
186 186 186
186 186 186
186 186 186
186 186 186
186 186 186
186 186 186
186 186 186
186 186 186
186 186 186
186 186 186
186 186 186
186 186 186
186 186 186
186 186 186
186 186 186
186 186 186
186 186 186
186 186 186
186 186 186
186 186 186
186 186 186
186 186 186
186 186 186
186 186 186
186 186 186
186 186 186
186 186 186
186 186 186
186 186 186
186 186 186
186 186 186
186 186 186
186 186 186
186 186 186
186 186 186
186 186 186
186 186 186
186 186 186
186 186 186
186 186 186
186 186 186
186 186 186
186 186 186
186 186 186
186 186 186
186 186 186
186 186 186
186 186 186
186 186 186
186 186 186
186 186 186
186 186 186
186 186 186
186 186 186
186 186 186
186 186 186
186 186 186
186 186 186
186 186 186
186 186 186
186 186 186
186 186 186
186 186 186
186 186 186
186 186 186
186 186 186
186 186 186
186 186 186
186 186 186
186 186 186
186 186 186
186 186 186
186 186 186
186 186 186
186 186 186
186 186 186
186 186 186
186 186 186
186 186 186
186 186 186
186 186 186
186 186 186
186 186 186
186 186 186
186 186 186
186 186 186
186 186 186
186 186 186
186 186 186
186 186 186
186 186 186
186 186 186
186 186 186
186 186 186
186 186 186
186 186 186
186 186 186
186 186 186
186 186 186
186 186 186
186 186 186
186 186 186
186 186 186
186 186 186
186 186 186
186 186 186
186 186 186
186 186 186
186 186 186
186 186 186
186 186 186
186 186 186
186 186 186
186 186 186
186 186 186
186 186 186
186 186 186
186 186 186
186 186 186
186 186 186
186 186 186
186 186 186
186 186 186
186 186 186
186 186 186
186 186 186
186 186 186
186 186 186
186 186 186
186 186 186
186 186 186
186 186 186
186 186 186
186 186 186
186 186 186
186 186 186
186 186 186
186 186 186
186 186 186
186 186 186
186 186 186
186 186 186
186 186 186
186 186 186
186 186 186
186 186 186
186 186 186
186 186 186
186 186 186
186 186 186
186 186 186
186 186 186
186 186 186
186 186 186
186 186 186
186 186 186
186 186 186
186 186 186
186 186 186
186 186 186
186 186 186
186 186 186
186 186 186
186 186 186
186 186 186
186 186 186
186 186 186
186 186 186
186 186 186
186 186 186
186 186 186
186 186 186
186 186 186
186 186 186
186 186 186
186 186 186
186 186 186
186 186 186
186 186 186
186 186 186
186 186 186
186 186 186
186 186 186
186 186 186
186 186 186
186 186 186
186 186 186
186 186 186
186 186 186
186 186 186
186 186 186
186 186 186
186 186 186
186 186 186
186 186 186
186 186 186
186 186 186
186 186 186
186 186 186
186 186 186
186 186 186
186 186 186
186 186 186
186 186 186
186 186 186
186 186 186
186 186 186
186 186 186
186 186 186
186 186 186
186 186 186
186 186 186
186 186 186
186 186 186
186 186 186
186 186 186
186 186 186
186 186 186
186 186 186
186 186 186
186 186 186
186 186 186
186 186 186
186 186 186
186 186 186
186 186 186
186 186 186
186 186 186
186 186 186
186 186 186
186 186 186
186 186 186
186 186 186
186 186 186
186 186 186
186 186 186
186 186 186
186 186 186
186 186 186
186 186 186
186 186 186
186 186 186
186 186 186
186 186 186
186 186 186
186 186 186
186 186 186
186 186 186
186 186 186
186 186 186
186 186 186
186 186 186
186 186 186
186 186 186
186 186 186
186 186 186
186 186 186
186 186 186
186 186 186
186 186 186
186 186 186
186 186 186
186 186 186
186 186 186
186 186 186
186 186 186
186 186 186
186 186 186
186 186 186
186 186 186
186 186 186
186 186 186
186 186 186
186 186 186
186 186 186
186 186 186
186 186 186
186 186 186
186 186 186
186 186 186
186 186 186
186 186 186
186 186 186
186 186 186
186 186 186
186 186 186
186 186 186
186 186 186
186 186 186
186 186 186
186 186 186
186 186 186
186 186 186
186 186 186
186 186 186
186 186 186
186 186 186
186 186 186
186 186 186
186 186 186
186 186 186
186 186 186
186 186 186
186 186 186
186 186 186
186 186 186
186 186 186
186 186 186
186 186 186
186 186 186
186 186 186
186 186 186
186 186 186
186 186 186
186 186 186
186 186 186
186 186 186
186 186 186
186 186 186
186 186 186
186 186 186
186 186 186
186 186 186
186 186 186
186 186 186
186 186 186
186 186 186
186 186 186
186 186 186
186 186 186
186 186 186
186 186 186
186 186 186
186 186 186
186 186 186
186 186 186
186 186 186
186 186 186
186 186 186
186 186 186
186 186 186
186 186 186
186 186 186
186 186 186
186 186 186
186 186 186
186 186 186
186 186 186
186 186 186
186 186 186
186 186 186
186 186 186
186 186 186
186 186 186
186 186 186
186 186 186
186 186 186
186 186 186
186 186 186
186 186 186
186 186 186
186 186 186
186 186 186
186 186 186
186 186 186
186 186 186
186 186 186
186 186 186
186 186 186
186 186 186
186 186 186
186 186 186
186 186 186
186 186 186
186 186 186
186 186 186
186 186 186
186 186 186
186 186 186
186 186 186
186 186 186
186 186 186
186 186 186
186 186 186
186 186 186
186 186 186
186 186 186
186 186 186
186 186 186
186 186 186
186 186 186
186 186 186
186 186 186
186 186 186
186 186 186
186 186 186
186 186 186
186 186 186
186 186 186
186 186 186
186 186 186
186 186 186
186 186 186
186 186 186
186 186 186
186 186 186
186 186 186
186 186 186
186 186 186
186 186 186
186 186 186
186 186 186
186 186 186
186 186 186
186 186 186
186 186 186
186 186 186
186 186 186
186 186 186
186 186 186
186 186 186
186 186 186
186 186 186
186 186 186
186 186 186
186 186 186
186 186 186
186 186 186
186 186 186
186 186 186
186 186 186
186 186 186
186 186 186
186 186 186
186 186 186
186 186 186
186 186 186
186 186 186
186 186 186
186 186 186
186 186 186
186 186 186
186 186 186
186 186 186
186 186 186
186 186 186
186 186 186
186 186 186
186 186 186
186 186 186
186 186 186
186 186 186
186 186 186
186 186 186
186 186 186
186 186 186
186 186 186
186 186 186
186 186 186
186 186 186
186 186 186
186 186 186
186 186 186
186 186 186
186 186 186
186 186 186
186 186 186
186 186 186
186 186 186
186 186 186
186 186 186
186 186 186
186 186 186
186 186 186
186 186 186
186 186 186
186 186 186
186 186 186
186 186 186
186 186 186
186 186 186
186 186 186
186 186 186
186 186 186
186 186 186
186 186 186
186 186 186
186 186 186
186 186 186
186 186 186
186 186 186
186 186 186
186 186 186
186 186 186
186 186 186
186 186 186
186 186 186
186 186 186
186 186 186
186 186 186
186 186 186
186 186 186
186 186 186
186 186 186
186 186 186
186 186 186
186 186 186
186 186 186
186 186 186
186 186 186
186 186 186
186 186 186
186 186 186
186 186 186
186 186 186
186 186 186
186 186 186
186 186 186
186 186 186
186 186 186
186 186 186
186 186 186
186 186 186
186 186 186
186 186 186
186 186 186
186 186 186
186 186 186
186 186 186
186 186 186
186 186 186
186 186 186
186 186 186
186 186 186
186 186 186
186 186 186
186 186 186
186 186 186
186 186 186
186 186 186
186 186 186
186 186 186
186 186 186
186 186 186
186 186 186
186 186 186
186 186 186
186 186 186
186 186 186
186 186 186
186 186 186
186 186 186
186 186 186
186 186 186
186 186 186
186 186 186
186 186 186
186 186 186
186 186 186
186 186 186
186 186 186
186 186 186
186 186 186
186 186 186
186 186 186
186 186 186
186 186 186
186 186 186
186 186 186
186 186 186
186 186 186
186 186 186
186 186 186
186 186 186
186 186 186
186 186 186
186 186 186
186 186 186
186 186 186
186 186 186
186 186 186
186 186 186
186 186 186
186 186 186
186 186 186
186 186 186
186 186 186
186 186 186
186 186 186
186 186 186
186 186 186
186 186 186
186 186 186
186 186 186
186 186 186
186 186 186
186 186 186
186 186 186
186 186 186
186 186 186
186 186 186
186 186 186
186 186 186
186 186 186
186 186 186
186 186 186
186 186 186
186 186 186
186 186 186
186 186 186
186 186 186
186 186 186
186 186 186
186 186 186
186 186 186
186 186 186
186 186 186
186 186 186
186 186 186
186 186 186
186 186 186
186 186 186
186 186 186
186 186 186
186 186 186
186 186 186
186 186 186
186 186 186
186 186 186
186 186 186
186 186 186
186 186 186
186 186 186
186 186 186
186 186 186
186 186 186
186 186 186
186 186 186
186 186 186
186 186 186
186 186 186
186 186 186
186 186 186
186 186 186
186 186 186
186 186 186
186 186 186
186 186 186
186 186 186
186 186 186
186 186 186
186 186 186
186 186 186
186 186 186
186 186 186
186 186 186
186 186 186
186 186 186
186 186 186
186 186 186
186 186 186
186 186 186
186 186 186
186 186 186
186 186 186
186 186 186
186 186 186
186 186 186
186 186 186
186 186 186
186 186 186
186 186 186
186 186 186
186 186 186
186 186 186
186 186 186
186 186 186
186 186 186
186 186 186
186 186 186
186 186 186
186 186 186
186 186 186
186 186 186
186 186 186
186 186 186
186 186 186
186 186 186
186 186 186
186 186 186
186 186 186
186 186 186
186 186 186
186 186 186
186 186 186
186 186 186
186 186 186
186 186 186
186 186 186
186 186 186
186 186 186
186 186 186
186 186 186
186 186 186
186 186 186
186 186 186
186 186 186
186 186 186
186 186 186
186 186 186
186 186 186
186 186 186
186 186 186
186 186 186
186 186 186
186 186 186
186 186 186
186 186 186
186 186 186
186 186 186
186 186 186
186 186 186
186 186 186
186 186 186
186 186 186
186 186 186
186 186 186
186 186 186
186 186 186
186 186 186
186 186 186
186 186 186
186 186 186
186 186 186
186 186 186
186 186 186
186 186 186
186 186 186
186 186 186
186 186 186
186 186 186
186 186 186
186 186 186
186 186 186
186 186 186
186 186 186
186 186 186
186 186 186
186 186 186
186 186 186
186 186 186
186 186 186
186 186 186
186 186 186
186 186 186
186 186 186
186 186 186
186 186 186
186 186 186
186 186 186
186 186 186
186 186 186
186 186 186
186 186 186
186 186 186
186 186 186
186 186 186
186 186 186
186 186 186
186 186 186
186 186 186
186 186 186
186 186 186
186 186 186
186 186 186
186 186 186
186 186 186
186 186 186
186 186 186
186 186 186
186 186 186
186 186 186
186 186 186
186 186 186
186 186 186
186 186 186
186 186 186
186 186 186
186 186 186
186 186 186
186 186 186
186 186 186
186 186 186
186 186 186
186 186 186
186 186 186
186 186 186
186 186 186
186 186 186
186 186 186
186 186 186
186 186 186
186 186 186
186 186 186
186 186 186
186 186 186
186 186 186
186 186 186
186 186 186
186 186 186
186 186 186
186 186 186
186 186 186
186 186 186
186 186 186
186 186 186
186 186 186
186 186 186
186 186 186
186 186 186
186 186 186
186 186 186
186 186 186
186 186 186
186 186 186
186 186 186
186 186 186
186 186 186
186 186 186
186 186 186
186 186 186
186 186 186
186 186 186
186 186 186
186 186 186
186 186 186
186 186 186
186 186 186
186 186 186
186 186 186
186 186 186
186 186 186
186 186 186
186 186 186
186 186 186
186 186 186
186 186 186
186 186 186
186 186 186
186 186 186
186 186 186
186 186 186
186 186 186
186 186 186
186 186 186
186 186 186
186 186 186
186 186 186
186 186 186
186 186 186
186 186 186
186 186 186
186 186 186
186 186 186
186 186 186
186 186 186
186 186 186
186 186 186
186 186 186
186 186 186
186 186 186
186 186 186
186 186 186
186 186 186
186 186 186
186 186 186
186 186 186
186 186 186
186 186 186
186 186 186
186 186 186
186 186 186
186 186 186
186 186 186
186 186 186
186 186 186
186 186 186
186 186 186
186 186 186
186 186 186
186 186 186
186 186 186
186 186 186
186 186 186
186 186 186
186 186 186
186 186 186
186 186 186
186 186 186
186 186 186
186 186 186
186 186 186
186 186 186
186 186 186
186 186 186
186 186 186
186 186 186
186 186 186
186 186 186
186 186 186
186 186 186
186 186 186
186 186 186
186 186 186
186 186 186
186 186 186
186 186 186
186 186 186
186 186 186
186 186 186
186 186 186
186 186 186
186 186 186
186 186 186
186 186 186
186 186 186
186 186 186
186 186 186
186 186 186
186 186 186
186 186 186
186 186 186
186 186 186
186 186 186
186 186 186
186 186 186
186 186 186
186 186 186
186 186 186
186 186 186
186 186 186
186 186 186
186 186 186
186 186 186
186 186 186
186 186 186
186 186 186
186 186 186
186 186 186
186 186 186
186 186 186
186 186 186
186 186 186
186 186 186
186 186 186
186 186 186
186 186 186
186 186 186
186 186 186
186 186 186
186 186 186
186 186 186
186 186 186
186 186 186
186 186 186
186 186 186
186 186 186
186 186 186
186 186 186
186 186 186
186 186 186
186 186 186
186 186 186
186 186 186
186 186 186
186 186 186
186 186 186
186 186 186
186 186 186
186 186 186
186 186 186
186 186 186
186 186 186
186 186 186
186 186 186
186 186 186
186 186 186
186 186 186
186 186 186
186 186 186
186 186 186
186 186 186
186 186 186
186 186 186
186 186 186
186 186 186
186 186 186
186 186 186
186 186 186
186 186 186
186 186 186
186 186 186
186 186 186
186 186 186
186 186 186
186 186 186
186 186 186
186 186 186
186 186 186
186 186 186
186 186 186
186 186 186
186 186 186
186 186 186
186 186 186
186 186 186
186 186 186
186 186 186
186 186 186
186 186 186
186 186 186
186 186 186
186 186 186
186 186 186
186 186 186
186 186 186
186 186 186
186 186 186
186 186 186
186 186 186
186 186 186
186 186 186
186 186 186
186 186 186
186 186 186
186 186 186
186 186 186
186 186 186
186 186 186
186 186 186
186 186 186
186 186 186
186 186 186
186 186 186
186 186 186
186 186 186
186 186 186
186 186 186
186 186 186
186 186 186
186 186 186
186 186 186
186 186 186
186 186 186
186 186 186
186 186 186
186 186 186
186 186 186
186 186 186
186 186 186
186 186 186
186 186 186
186 186 186
186 186 186
186 186 186
186 186 186
186 186 186
186 186 186
186 186 186
186 186 186
186 186 186
186 186 186
186 186 186
186 186 186
186 186 186
186 186 186
186 186 186
186 186 186
186 186 186
186 186 186
186 186 186
186 186 186
186 186 186
186 186 186
186 186 186
186 186 186
186 186 186
186 186 186
186 186 186
186 186 186
186 186 186
186 186 186
186 186 186
186 186 186
186 186 186
186 186 186
186 186 186
186 186 186
186 186 186
186 186 186
186 186 186
186 186 186
186 186 186
186 186 186
186 186 186
186 186 186
186 186 186
186 186 186
186 186 186
186 186 186
186 186 186
186 186 186
186 186 186
186 186 186
186 186 186
186 186 186
186 186 186
186 186 186
186 186 186
186 186 186
186 186 186
186 186 186
186 186 186
186 186 186
186 186 186
186 186 186
186 186 186
186 186 186
186 186 186
186 186 186
186 186 186
186 186 186
186 186 186
186 186 186
186 186 186
186 186 186
186 186 186
186 186 186
186 186 186
186 186 186
186 186 186
186 186 186
186 186 186
186 186 186
186 186 186
186 186 186
186 186 186
186 186 186
186 186 186
186 186 186
186 186 186
186 186 186
186 186 186
186 186 186
186 186 186
186 186 186
186 186 186
186 186 186
186 186 186
186 186 186
186 186 186
186 186 186
186 186 186
186 186 186
186 186 186
186 186 186
186 186 186
186 186 186
186 186 186
186 186 186
186 186 186
186 186 186
186 186 186
186 186 186
186 186 186
186 186 186
186 186 186
186 186 186
186 186 186
186 186 186
186 186 186
186 186 186
186 186 186
186 186 186
186 186 186
186 186 186
186 186 186
186 186 186
186 186 186
186 186 186
186 186 186
186 186 186
186 186 186
186 186 186
186 186 186
186 186 186
186 186 186
186 186 186
186 186 186
186 186 186
186 186 186
186 186 186
186 186 186
186 186 186
186 186 186
186 186 186
186 186 186
186 186 186
186 186 186
186 186 186
186 186 186
186 186 186
186 186 186
186 186 186
186 186 186
186 186 186
186 186 186
186 186 186
186 186 186
186 186 186
186 186 186
186 186 186
186 186 186
186 186 186
186 186 186
186 186 186
186 186 186
186 186 186
186 186 186
186 186 186
186 186 186
186 186 186
186 186 186
186 186 186
186 186 186
186 186 186
186 186 186
186 186 186
186 186 186
186 186 186
186 186 186
186 186 186
186 186 186
186 186 186
186 186 186
186 186 186
186 186 186
186 186 186
186 186 186
186 186 186
186 186 186
186 186 186
186 186 186
186 186 186
186 186 186
186 186 186
186 186 186
186 186 186
186 186 186
186 186 186
186 186 186
186 186 186
186 186 186
186 186 186
186 186 186
186 186 186
186 186 186
186 186 186
186 186 186
186 186 186
186 186 186
186 186 186
186 186 186
186 186 186
186 186 186
186 186 186
186 186 186
186 186 186
186 186 186
186 186 186
186 186 186
186 186 186
186 186 186
186 186 186
186 186 186
186 186 186
186 186 186
186 186 186
186 186 186
186 186 186
186 186 186
186 186 186
186 186 186
186 186 186
186 186 186
186 186 186
186 186 186
186 186 186
186 186 186
186 186 186
186 186 186
186 186 186
186 186 186
186 186 186
186 186 186
186 186 186
186 186 186
186 186 186
186 186 186
186 186 186
186 186 186
186 186 186
186 186 186
186 186 186
186 186 186
186 186 186
186 186 186
186 186 186
186 186 186
186 186 186
186 186 186
186 186 186
186 186 186
186 186 186
186 186 186
186 186 186
186 186 186
186 186 186
186 186 186
186 186 186
186 186 186
186 186 186
186 186 186
186 186 186
186 186 186
186 186 186
186 186 186
186 186 186
186 186 186
186 186 186
186 186 186
186 186 186
186 186 186
186 186 186
186 186 186
186 186 186
186 186 186
186 186 186
186 186 186
186 186 186
186 186 186
186 186 186
186 186 186
186 186 186
186 186 186
186 186 186
186 186 186
186 186 186
186 186 186
186 186 186
186 186 186
186 186 186
186 186 186
186 186 186
186 186 186
186 186 186
186 186 186
186 186 186
186 186 186
186 186 186
186 186 186
186 186 186
186 186 186
186 186 186
186 186 186
186 186 186
186 186 186
186 186 186
186 186 186
186 186 186
186 186 186
186 186 186
186 186 186
186 186 186
186 186 186
186 186 186
186 186 186
186 186 186
186 186 186
186 186 186
186 186 186
186 186 186
186 186 186
186 186 186
186 186 186
186 186 186
186 186 186
186 186 186
186 186 186
186 186 186
186 186 186
186 186 186
186 186 186
186 186 186
186 186 186
186 186 186
186 186 186
186 186 186
186 186 186
186 186 186
186 186 186
186 186 186
186 186 186
186 186 186
186 186 186
186 186 186
186 186 186
186 186 186
186 186 186
186 186 186
186 186 186
186 186 186
186 186 186
186 186 186
186 186 186
186 186 186
186 186 186
186 186 186
186 186 186
186 186 186
186 186 186
186 186 186
186 186 186
186 186 186
186 186 186
186 186 186
186 186 186
186 186 186
186 186 186
186 186 186
186 186 186
186 186 186
186 186 186
186 186 186
186 186 186
186 186 186
186 186 186
186 186 186
186 186 186
186 186 186
186 186 186
186 186 186
186 186 186
186 186 186
186 186 186
186 186 186
186 186 186
186 186 186
186 186 186
186 186 186
186 186 186
186 186 186
186 186 186
186 186 186
186 186 186
186 186 186
186 186 186
186 186 186
186 186 186
186 186 186
186 186 186
186 186 186
186 186 186
186 186 186
186 186 186
186 186 186
186 186 186
186 186 186
186 186 186
186 186 186
186 186 186
186 186 186
186 186 186
186 186 186
186 186 186
186 186 186
186 186 186
186 186 186
186 186 186
186 186 186
186 186 186
186 186 186
186 186 186
186 186 186
186 186 186
186 186 186
186 186 186
186 186 186
186 186 186
186 186 186
186 186 186
186 186 186
186 186 186
186 186 186
186 186 186
186 186 186
186 186 186
186 186 186
186 186 186
186 186 186
186 186 186
186 186 186
186 186 186
186 186 186
186 186 186
186 186 186
186 186 186
186 186 186
186 186 186
186 186 186
186 186 186
186 186 186
186 186 186
186 186 186
186 186 186
186 186 186
186 186 186
186 186 186
186 186 186
186 186 186
186 186 186
186 186 186
186 186 186
186 186 186
186 186 186
186 186 186
186 186 186
186 186 186
186 186 186
186 186 186
186 186 186
186 186 186
186 186 186
186 186 186
186 186 186
186 186 186
186 186 186
186 186 186
186 186 186
186 186 186
186 186 186
186 186 186
186 186 186
186 186 186
186 186 186
186 186 186
186 186 186
186 186 186
186 186 186
186 186 186
186 186 186
186 186 186
186 186 186
186 186 186
186 186 186
186 186 186
186 186 186
186 186 186
186 186 186
186 186 186
186 186 186
186 186 186
186 186 186
186 186 186
186 186 186
186 186 186
186 186 186
186 186 186
186 186 186
186 186 186
186 186 186
186 186 186
186 186 186
186 186 186
186 186 186
186 186 186
186 186 186
186 186 186
186 186 186
186 186 186
186 186 186
186 186 186
186 186 186
186 186 186
186 186 186
186 186 186
186 186 186
186 186 186
186 186 186
186 186 186
186 186 186
186 186 186
186 186 186
186 186 186
186 186 186
186 186 186
186 186 186
186 186 186
186 186 186
186 186 186
186 186 186
186 186 186
186 186 186
186 186 186
186 186 186
186 186 186
186 186 186
186 186 186
186 186 186
186 186 186
186 186 186
186 186 186
186 186 186
186 186 186
186 186 186
186 186 186
186 186 186
186 186 186
186 186 186
186 186 186
186 186 186
186 186 186
186 186 186
186 186 186
186 186 186
186 186 186
186 186 186
186 186 186
186 186 186
186 186 186
186 186 186
186 186 186
186 186 186
186 186 186
186 186 186
186 186 186
186 186 186
186 186 186
186 186 186
186 186 186
186 186 186
186 186 186
186 186 186
186 186 186
186 186 186
186 186 186
186 186 186
186 186 186
186 186 186
186 186 186
186 186 186
186 186 186
186 186 186
186 186 186
186 186 186
186 186 186
186 186 186
186 186 186
186 186 186
186 186 186
186 186 186
186 186 186
186 186 186
186 186 186
186 186 186
186 186 186
186 186 186
186 186 186
186 186 186
186 186 186
186 186 186
186 186 186
186 186 186
186 186 186
186 186 186
186 186 186
186 186 186
186 186 186
186 186 186
186 186 186
186 186 186
186 186 186
186 186 186
186 186 186
186 186 186
186 186 186
186 186 186
186 186 186
186 186 186
186 186 186
186 186 186
186 186 186
186 186 186
186 186 186
186 186 186
186 186 186
186 186 186
186 186 186
186 186 186
186 186 186
186 186 186
186 186 186
186 186 186
186 186 186
186 186 186
186 186 186
186 186 186
186 186 186
186 186 186
186 186 186
186 186 186
186 186 186
186 186 186
186 186 186
186 186 186
186 186 186
186 186 186
186 186 186
186 186 186
186 186 186
186 186 186
186 186 186
186 186 186
186 186 186
186 186 186
186 186 186
186 186 186
186 186 186
186 186 186
186 186 186
186 186 186
186 186 186
186 186 186
186 186 186
186 186 186
186 186 186
186 186 186
186 186 186
186 186 186
186 186 186
186 186 186
186 186 186
186 186 186
186 186 186
186 186 186
186 186 186
186 186 186
186 186 186
186 186 186
186 186 186
186 186 186
186 186 186
186 186 186
186 186 186
186 186 186
186 186 186
186 186 186
186 186 186
186 186 186
186 186 186
186 186 186
186 186 186
186 186 186
186 186 186
186 186 186
186 186 186
186 186 186
186 186 186
186 186 186
186 186 186
186 186 186
186 186 186
186 186 186
186 186 186
186 186 186
186 186 186
186 186 186
186 186 186
186 186 186
186 186 186
186 186 186
186 186 186
186 186 186
186 186 186
186 186 186
186 186 186
186 186 186
186 186 186
186 186 186
186 186 186
186 186 186
186 186 186
186 186 186
186 186 186
186 186 186
186 186 186
186 186 186
186 186 186
186 186 186
186 186 186
186 186 186
186 186 186
186 186 186
186 186 186
186 186 186
186 186 186
186 186 186
186 186 186
186 186 186
186 186 186
186 186 186
186 186 186
186 186 186
186 186 186
186 186 186
186 186 186
186 186 186
186 186 186
186 186 186
186 186 186
186 186 186
186 186 186
186 186 186
186 186 186
186 186 186
186 186 186
186 186 186
186 186 186
186 186 186
186 186 186
186 186 186
186 186 186
186 186 186
186 186 186
186 186 186
186 186 186
186 186 186
186 186 186
186 186 186
186 186 186
186 186 186
186 186 186
186 186 186
186 186 186
186 186 186
186 186 186
186 186 186
186 186 186
186 186 186
186 186 186
186 186 186
186 186 186
186 186 186
186 186 186
186 186 186
186 186 186
186 186 186
186 186 186
186 186 186
186 186 186
186 186 186
186 186 186
186 186 186
186 186 186
186 186 186
186 186 186
186 186 186
186 186 186
186 186 186
186 186 186
186 186 186
186 186 186
186 186 186
186 186 186
186 186 186
186 186 186
186 186 186
186 186 186
186 186 186
186 186 186
186 186 186
186 186 186
186 186 186
186 186 186
186 186 186
186 186 186
186 186 186
186 186 186
186 186 186
186 186 186
186 186 186
186 186 186
186 186 186
186 186 186
186 186 186
186 186 186
186 186 186
186 186 186
186 186 186
186 186 186
186 186 186
186 186 186
186 186 186
186 186 186
186 186 186
186 186 186
186 186 186
186 186 186
186 186 186
186 186 186
186 186 186
186 186 186
186 186 186
186 186 186
186 186 186
186 186 186
186 186 186
186 186 186
186 186 186
186 186 186
186 186 186
186 186 186
186 186 186
186 186 186
186 186 186
186 186 186
186 186 186
186 186 186
186 186 186
186 186 186
186 186 186
186 186 186
186 186 186
186 186 186
186 186 186
186 186 186
186 186 186
186 186 186
186 186 186
186 186 186
186 186 186
186 186 186
186 186 186
186 186 186
186 186 186
186 186 186
186 186 186
186 186 186
186 186 186
186 186 186
186 186 186
186 186 186
186 186 186
186 186 186
186 186 186
186 186 186
186 186 186
186 186 186
186 186 186
186 186 186
186 186 186
186 186 186
186 186 186
186 186 186
186 186 186
186 186 186
186 186 186
186 186 186
186 186 186
186 186 186
186 186 186
186 186 186
186 186 186
186 186 186
186 186 186
186 186 186
186 186 186
186 186 186
186 186 186
186 186 186
186 186 186
186 186 186
186 186 186
186 186 186
186 186 186
186 186 186
186 186 186
186 186 186
186 186 186
186 186 186
186 186 186
186 186 186
186 186 186
186 186 186
186 186 186
186 186 186
186 186 186
186 186 186
186 186 186
186 186 186
186 186 186
186 186 186
186 186 186
186 186 186
186 186 186
186 186 186
186 186 186
186 186 186
186 186 186
186 186 186
186 186 186
186 186 186
186 186 186
186 186 186
186 186 186
186 186 186
186 186 186
186 186 186
186 186 186
186 186 186
186 186 186
186 186 186
186 186 186
186 186 186
186 186 186
186 186 186
186 186 186
186 186 186
186 186 186
186 186 186
186 186 186
186 186 186
186 186 186
186 186 186
186 186 186
186 186 186
186 186 186
186 186 186
186 186 186
186 186 186
186 186 186
186 186 186
186 186 186
186 186 186
186 186 186
186 186 186
186 186 186
186 186 186
186 186 186
186 186 186
186 186 186
186 186 186
186 186 186
186 186 186
186 186 186
186 186 186
186 186 186
186 186 186
186 186 186
186 186 186
186 186 186
186 186 186
186 186 186
186 186 186
186 186 186
186 186 186
186 186 186
186 186 186
186 186 186
186 186 186
186 186 186
186 186 186
186 186 186
186 186 186
186 186 186
186 186 186
186 186 186
186 186 186
186 186 186
186 186 186
186 186 186
186 186 186
186 186 186
186 186 186
186 186 186
186 186 186
186 186 186
186 186 186
186 186 186
186 186 186
186 186 186
186 186 186
186 186 186
186 186 186
186 186 186
186 186 186
186 186 186
186 186 186
186 186 186
186 186 186
186 186 186
186 186 186
186 186 186
186 186 186
186 186 186
186 186 186
186 186 186
186 186 186
186 186 186
186 186 186
186 186 186
186 186 186
186 186 186
186 186 186
186 186 186
186 186 186
186 186 186
186 186 186
186 186 186
186 186 186
186 186 186
186 186 186
186 186 186
186 186 186
186 186 186
186 186 186
186 186 186
186 186 186
186 186 186
186 186 186
186 186 186
186 186 186
186 186 186
186 186 186
186 186 186
186 186 186
186 186 186
186 186 186
186 186 186
186 186 186
186 186 186
186 186 186
186 186 186
186 186 186
186 186 186
186 186 186
186 186 186
186 186 186
186 186 186
186 186 186
186 186 186
186 186 186
186 186 186
186 186 186
186 186 186
186 186 186
186 186 186
186 186 186
186 186 186
186 186 186
186 186 186
186 186 186
186 186 186
186 186 186
186 186 186
186 186 186
186 186 186
186 186 186
186 186 186
186 186 186
186 186 186
186 186 186
186 186 186
186 186 186
186 186 186
186 186 186
186 186 186
186 186 186
186 186 186
186 186 186
186 186 186
186 186 186
186 186 186
186 186 186
186 186 186
186 186 186
186 186 186
186 186 186
186 186 186
186 186 186
186 186 186
186 186 186
186 186 186
186 186 186
186 186 186
186 186 186
186 186 186
186 186 186
186 186 186
186 186 186
186 186 186
186 186 186
186 186 186
186 186 186
186 186 186
186 186 186
186 186 186
186 186 186
186 186 186
186 186 186
186 186 186
186 186 186
186 186 186
186 186 186
186 186 186
186 186 186
186 186 186
186 186 186
186 186 186
186 186 186
186 186 186
186 186 186
186 186 186
186 186 186
186 186 186
186 186 186
186 186 186
186 186 186
186 186 186
186 186 186
186 186 186
186 186 186
186 186 186
186 186 186
186 186 186
186 186 186
186 186 186
186 186 186
186 186 186
186 186 186
186 186 186
186 186 186
186 186 186
186 186 186
186 186 186
186 186 186
186 186 186
186 186 186
186 186 186
186 186 186
186 186 186
186 186 186
186 186 186
186 186 186
186 186 186
186 186 186
186 186 186
186 186 186
186 186 186
186 186 186
186 186 186
186 186 186
186 186 186
186 186 186
186 186 186
186 186 186
186 186 186
186 186 186
186 186 186
186 186 186
186 186 186
186 186 186
186 186 186
186 186 186
186 186 186
186 186 186
186 186 186
186 186 186
186 186 186
186 186 186
186 186 186
186 186 186
186 186 186
186 186 186
186 186 186
186 186 186
186 186 186
186 186 186
186 186 186
186 186 186
186 186 186
186 186 186
186 186 186
186 186 186
186 186 186
186 186 186
186 186 186
186 186 186
186 186 186
186 186 186
186 186 186
186 186 186
186 186 186
186 186 186
186 186 186
186 186 186
186 186 186
186 186 186
186 186 186
186 186 186
186 186 186
186 186 186
186 186 186
186 186 186
186 186 186
186 186 186
186 186 186
186 186 186
186 186 186
186 186 186
186 186 186
186 186 186
186 186 186
186 186 186
186 186 186
186 186 186
186 186 186
186 186 186
186 186 186
186 186 186
186 186 186
186 186 186
186 186 186
186 186 186
186 186 186
186 186 186
186 186 186
186 186 186
186 186 186
186 186 186
186 186 186
186 186 186
186 186 186
186 186 186
186 186 186
186 186 186
186 186 186
186 186 186
186 186 186
186 186 186
186 186 186
186 186 186
186 186 186
186 186 186
186 186 186
186 186 186
186 186 186
186 186 186
186 186 186
186 186 186
186 186 186
186 186 186
186 186 186
186 186 186
186 186 186
186 186 186
186 186 186
186 186 186
186 186 186
186 186 186
186 186 186
186 186 186
186 186 186
186 186 186
186 186 186
186 186 186
186 186 186
186 186 186
186 186 186
186 186 186
186 186 186
186 186 186
186 186 186
186 186 186
186 186 186
186 186 186
186 186 186
186 186 186
186 186 186
186 186 186
186 186 186
186 186 186
186 186 186
186 186 186
186 186 186
186 186 186
186 186 186
186 186 186
186 186 186
186 186 186
186 186 186
186 186 186
186 186 186
186 186 186
186 186 186
186 186 186
186 186 186
186 186 186
186 186 186
186 186 186
186 186 186
186 186 186
186 186 186
186 186 186
186 186 186
186 186 186
186 186 186
186 186 186
186 186 186
186 186 186
186 186 186
186 186 186
186 186 186
186 186 186
186 186 186
186 186 186
186 186 186
186 186 186
186 186 186
186 186 186
186 186 186
186 186 186
186 186 186
186 186 186
186 186 186
186 186 186
186 186 186
186 186 186
186 186 186
186 186 186
186 186 186
186 186 186
186 186 186
186 186 186
186 186 186
186 186 186
186 186 186
186 186 186
186 186 186
186 186 186
186 186 186
186 186 186
186 186 186
186 186 186
186 186 186
186 186 186
186 186 186
186 186 186
186 186 186
186 186 186
186 186 186
186 186 186
186 186 186
186 186 186
186 186 186
186 186 186
186 186 186
186 186 186
186 186 186
186 186 186
186 186 186
186 186 186
186 186 186
186 186 186
186 186 186
186 186 186
186 186 186
186 186 186
186 186 186
186 186 186
186 186 186
186 186 186
186 186 186
186 186 186
186 186 186
186 186 186
186 186 186
186 186 186
186 186 186
186 186 186
186 186 186
186 186 186
186 186 186
186 186 186
186 186 186
186 186 186
186 186 186
186 186 186
186 186 186
186 186 186
186 186 186
186 186 186
186 186 186
186 186 186
186 186 186
186 186 186
186 186 186
186 186 186
186 186 186
186 186 186
186 186 186
186 186 186
186 186 186
186 186 186
186 186 186
186 186 186
186 186 186
186 186 186
186 186 186
186 186 186
186 186 186
186 186 186
186 186 186
186 186 186
186 186 186
186 186 186
186 186 186
186 186 186
186 186 186
186 186 186
186 186 186
186 186 186
186 186 186
186 186 186
186 186 186
186 186 186
186 186 186
186 186 186
186 186 186
186 186 186
186 186 186
186 186 186
186 186 186
186 186 186
186 186 186
186 186 186
186 186 186
186 186 186
186 186 186
186 186 186
186 186 186
186 186 186
186 186 186
186 186 186
186 186 186
186 186 186
186 186 186
186 186 186
186 186 186
186 186 186
186 186 186
186 186 186
186 186 186
186 186 186
186 186 186
186 186 186
186 186 186
186 186 186
186 186 186
186 186 186
186 186 186
186 186 186
186 186 186
186 186 186
186 186 186
186 186 186
186 186 186
186 186 186
186 186 186
186 186 186
186 186 186
186 186 186
186 186 186
186 186 186
186 186 186
186 186 186
186 186 186
186 186 186
186 186 186
186 186 186
186 186 186
186 186 186
186 186 186
186 186 186
186 186 186
186 186 186
186 186 186
186 186 186
186 186 186
186 186 186
186 186 186
186 186 186
186 186 186
186 186 186
186 186 186
186 186 186
186 186 186
186 186 186
186 186 186
186 186 186
186 186 186
186 186 186
186 186 186
186 186 186
186 186 186
186 186 186
186 186 186
186 186 186
186 186 186
186 186 186
186 186 186
186 186 186
186 186 186
186 186 186
186 186 186
186 186 186
186 186 186
186 186 186
186 186 186
186 186 186
186 186 186
186 186 186
186 186 186
186 186 186
186 186 186
186 186 186
186 186 186
186 186 186
186 186 186
186 186 186
186 186 186
186 186 186
186 186 186
186 186 186
186 186 186
186 186 186
186 186 186
186 186 186
186 186 186
186 186 186
186 186 186
186 186 186
186 186 186
186 186 186
186 186 186
186 186 186
186 186 186
186 186 186
186 186 186
186 186 186
186 186 186
186 186 186
186 186 186
186 186 186
186 186 186
186 186 186
186 186 186
186 186 186
186 186 186
186 186 186
186 186 186
186 186 186
186 186 186
186 186 186
186 186 186
186 186 186
186 186 186
186 186 186
186 186 186
186 186 186
186 186 186
186 186 186
186 186 186
186 186 186
186 186 186
186 186 186
186 186 186
186 186 186
186 186 186
186 186 186
186 186 186
186 186 186
186 186 186
186 186 186
186 186 186
186 186 186
186 186 186
186 186 186
186 186 186
186 186 186
186 186 186
186 186 186
186 186 186
186 186 186
186 186 186
186 186 186
186 186 186
186 186 186
186 186 186
186 186 186
186 186 186
186 186 186
186 186 186
186 186 186
186 186 186
186 186 186
186 186 186
186 186 186
186 186 186
186 186 186
186 186 186
186 186 186
186 186 186
186 186 186
186 186 186
186 186 186
186 186 186
186 186 186
186 186 186
186 186 186
186 186 186
186 186 186
186 186 186
186 186 186
186 186 186
186 186 186
186 186 186
186 186 186
186 186 186
186 186 186
186 186 186
186 186 186
186 186 186
186 186 186
186 186 186
186 186 186
186 186 186
186 186 186
186 186 186
186 186 186
186 186 186
186 186 186
186 186 186
186 186 186
186 186 186
186 186 186
186 186 186
186 186 186
186 186 186
186 186 186
186 186 186
186 186 186
186 186 186
186 186 186
186 186 186
186 186 186
186 186 186
186 186 186
186 186 186
186 186 186
186 186 186
186 186 186
186 186 186
186 186 186
186 186 186
186 186 186
186 186 186
186 186 186
186 186 186
186 186 186
186 186 186
186 186 186
186 186 186
186 186 186
186 186 186
186 186 186
186 186 186
186 186 186
186 186 186
186 186 186
186 186 186
186 186 186
186 186 186
186 186 186
186 186 186
186 186 186
186 186 186
186 186 186
186 186 186
186 186 186
186 186 186
186 186 186
186 186 186
186 186 186
186 186 186
186 186 186
186 186 186
186 186 186
186 186 186
186 186 186
186 186 186
186 186 186
186 186 186
186 186 186
186 186 186
186 186 186
186 186 186
186 186 186
186 186 186
186 186 186
186 186 186
186 186 186
186 186 186
186 186 186
186 186 186
186 186 186
186 186 186
186 186 186
186 186 186
186 186 186
186 186 186
186 186 186
186 186 186
186 186 186
186 186 186
186 186 186
186 186 186
186 186 186
186 186 186
186 186 186
186 186 186
186 186 186
186 186 186
186 186 186
186 186 186
186 186 186
186 186 186
186 186 186
186 186 186
186 186 186
186 186 186
186 186 186
186 186 186
186 186 186
186 186 186
186 186 186
186 186 186
186 186 186
186 186 186
186 186 186
186 186 186
186 186 186
186 186 186
186 186 186
186 186 186
186 186 186
186 186 186
186 186 186
186 186 186
186 186 186
186 186 186
186 186 186
186 186 186
186 186 186
186 186 186
186 186 186
186 186 186
186 186 186
186 186 186
186 186 186
186 186 186
186 186 186
186 186 186
186 186 186
186 186 186
186 186 186
186 186 186
186 186 186
186 186 186
186 186 186
186 186 186
186 186 186
186 186 186
186 186 186
186 186 186
186 186 186
186 186 186
186 186 186
186 186 186
186 186 186
186 186 186
186 186 186
186 186 186
186 186 186
186 186 186
186 186 186
186 186 186
186 186 186
186 186 186
186 186 186
186 186 186
186 186 186
186 186 186
186 186 186
186 186 186
186 186 186
186 186 186
186 186 186
186 186 186
186 186 186
186 186 186
186 186 186
186 186 186
186 186 186
186 186 186
186 186 186
186 186 186
186 186 186
186 186 186
186 186 186
186 186 186
186 186 186
186 186 186
186 186 186
186 186 186
186 186 186
186 186 186
186 186 186
186 186 186
186 186 186
186 186 186
186 186 186
186 186 186
186 186 186
186 186 186
186 186 186
186 186 186
186 186 186
186 186 186
186 186 186
186 186 186
186 186 186
186 186 186
186 186 186
186 186 186
186 186 186
186 186 186
186 186 186
186 186 186
186 186 186
186 186 186
186 186 186
186 186 186
186 186 186
186 186 186
186 186 186
186 186 186
186 186 186
186 186 186
186 186 186
186 186 186
186 186 186
186 186 186
186 186 186
186 186 186
186 186 186
186 186 186
186 186 186
186 186 186
186 186 186
186 186 186
186 186 186
186 186 186
186 186 186
186 186 186
186 186 186
186 186 186
186 186 186
186 186 186
186 186 186
186 186 186
186 186 186
186 186 186
186 186 186
186 186 186
186 186 186
186 186 186
186 186 186
186 186 186
186 186 186
186 186 186
186 186 186
186 186 186
186 186 186
186 186 186
186 186 186
186 186 186
186 186 186
186 186 186
186 186 186
186 186 186
186 186 186
186 186 186
186 186 186
186 186 186
186 186 186
186 186 186
186 186 186
186 186 186
186 186 186
186 186 186
186 186 186
186 186 186
186 186 186
186 186 186
186 186 186
186 186 186
186 186 186
186 186 186
186 186 186
186 186 186
186 186 186
186 186 186
186 186 186
186 186 186
186 186 186
186 186 186
186 186 186
186 186 186
186 186 186
186 186 186
186 186 186
186 186 186
186 186 186
186 186 186
186 186 186
186 186 186
186 186 186
186 186 186
186 186 186
186 186 186
186 186 186
186 186 186
186 186 186
186 186 186
186 186 186
186 186 186
186 186 186
186 186 186
186 186 186
186 186 186
186 186 186
186 186 186
186 186 186
186 186 186
186 186 186
186 186 186
186 186 186
186 186 186
186 186 186
186 186 186
186 186 186
186 186 186
186 186 186
186 186 186
186 186 186
186 186 186
186 186 186
186 186 186
186 186 186
186 186 186
186 186 186
186 186 186
186 186 186
186 186 186
186 186 186
186 186 186
186 186 186
186 186 186
186 186 186
186 186 186
186 186 186
186 186 186
186 186 186
186 186 186
186 186 186
186 186 186
186 186 186
186 186 186
186 186 186
186 186 186
186 186 186
186 186 186
186 186 186
186 186 186
186 186 186
186 186 186
186 186 186
186 186 186
186 186 186
186 186 186
186 186 186
186 186 186
186 186 186
186 186 186
186 186 186
186 186 186
186 186 186
186 186 186
186 186 186
186 186 186
186 186 186
186 186 186
186 186 186
186 186 186
186 186 186
186 186 186
186 186 186
186 186 186
186 186 186
186 186 186
186 186 186
186 186 186
186 186 186
186 186 186
186 186 186
186 186 186
186 186 186
186 186 186
186 186 186
186 186 186
186 186 186
186 186 186
186 186 186
186 186 186
186 186 186
186 186 186
186 186 186
186 186 186
186 186 186
186 186 186
186 186 186
186 186 186
186 186 186
186 186 186
186 186 186
186 186 186
186 186 186
186 186 186
186 186 186
186 186 186
186 186 186
186 186 186
186 186 186
186 186 186
186 186 186
186 186 186
186 186 186
186 186 186
186 186 186
186 186 186
186 186 186
186 186 186
186 186 186
186 186 186
186 186 186
186 186 186
186 186 186
186 186 186
186 186 186
186 186 186
186 186 186
186 186 186
186 186 186
186 186 186
186 186 186
186 186 186
186 186 186
186 186 186
186 186 186
186 186 186
186 186 186
186 186 186
186 186 186
186 186 186
186 186 186
186 186 186
186 186 186
186 186 186
186 186 186
186 186 186
186 186 186
186 186 186
186 186 186
186 186 186
186 186 186
186 186 186
186 186 186
186 186 186
186 186 186
186 186 186
186 186 186
186 186 186
186 186 186
186 186 186
186 186 186
186 186 186
186 186 186
186 186 186
186 186 186
186 186 186
186 186 186
186 186 186
186 186 186
186 186 186
186 186 186
186 186 186
186 186 186
186 186 186
186 186 186
186 186 186
186 186 186
186 186 186
186 186 186
186 186 186
186 186 186
186 186 186
186 186 186
186 186 186
186 186 186
186 186 186
186 186 186
186 186 186
186 186 186
186 186 186
186 186 186
186 186 186
186 186 186
186 186 186
186 186 186
186 186 186
186 186 186
186 186 186
186 186 186
186 186 186
186 186 186
186 186 186
186 186 186
186 186 186
186 186 186
186 186 186
186 186 186
186 186 186
186 186 186
186 186 186
186 186 186
186 186 186
186 186 186
186 186 186
186 186 186
186 186 186
186 186 186
186 186 186
186 186 186
186 186 186
186 186 186
186 186 186
186 186 186
186 186 186
186 186 186
186 186 186
186 186 186
186 186 186
186 186 186
186 186 186
186 186 186
186 186 186
186 186 186
186 186 186
186 186 186
186 186 186
186 186 186
186 186 186
186 186 186
186 186 186
186 186 186
186 186 186
186 186 186
186 186 186
186 186 186
186 186 186
186 186 186
186 186 186
186 186 186
186 186 186
186 186 186
186 186 186
186 186 186
186 186 186
186 186 186
186 186 186
186 186 186
186 186 186
186 186 186
186 186 186
186 186 186
186 186 186
186 186 186
186 186 186
186 186 186
186 186 186
186 186 186
186 186 186
186 186 186
186 186 186
186 186 186
186 186 186
186 186 186
186 186 186
186 186 186
186 186 186
186 186 186
186 186 186
186 186 186
186 186 186
186 186 186
186 186 186
186 186 186
186 186 186
186 186 186
186 186 186
186 186 186
186 186 186
186 186 186
186 186 186
186 186 186
186 186 186
186 186 186
186 186 186
186 186 186
186 186 186
186 186 186
186 186 186
186 186 186
186 186 186
186 186 186
186 186 186
186 186 186
186 186 186
186 186 186
186 186 186
186 186 186
186 186 186
186 186 186
186 186 186
186 186 186
186 186 186
186 186 186
186 186 186
186 186 186
186 186 186
186 186 186
186 186 186
186 186 186
186 186 186
186 186 186
186 186 186
186 186 186
186 186 186
186 186 186
186 186 186
186 186 186
186 186 186
186 186 186
186 186 186
186 186 186
186 186 186
186 186 186
186 186 186
186 186 186
186 186 186
186 186 186
186 186 186
186 186 186
186 186 186
186 186 186
186 186 186
186 186 186
186 186 186
186 186 186
186 186 186
186 186 186
186 186 186
186 186 186
186 186 186
186 186 186
186 186 186
186 186 186
186 186 186
186 186 186
186 186 186
186 186 186
186 186 186
186 186 186
186 186 186
186 186 186
186 186 186
186 186 186
186 186 186
186 186 186
186 186 186
186 186 186
186 186 186
186 186 186
186 186 186
186 186 186
186 186 186
186 186 186
186 186 186
186 186 186
186 186 186
186 186 186
186 186 186
186 186 186
186 186 186
186 186 186
186 186 186
186 186 186
186 186 186
186 186 186
186 186 186
186 186 186
186 186 186
186 186 186
186 186 186
186 186 186
186 186 186
186 186 186
186 186 186
186 186 186
186 186 186
186 186 186
186 186 186
186 186 186
186 186 186
186 186 186
186 186 186
186 186 186
186 186 186
186 186 186
186 186 186
186 186 186
186 186 186
186 186 186
186 186 186
186 186 186
186 186 186
186 186 186
186 186 186
186 186 186
186 186 186
186 186 186
186 186 186
186 186 186
186 186 186
186 186 186
186 186 186
186 186 186
186 186 186
186 186 186
186 186 186
186 186 186
186 186 186
186 186 186
186 186 186
186 186 186
186 186 186
186 186 186
186 186 186
186 186 186
186 186 186
186 186 186
186 186 186
186 186 186
186 186 186
186 186 186
186 186 186
186 186 186
186 186 186
186 186 186
186 186 186
186 186 186
186 186 186
186 186 186
186 186 186
186 186 186
186 186 186
186 186 186
186 186 186
186 186 186
186 186 186
186 186 186
186 186 186
186 186 186
186 186 186
186 186 186
186 186 186
186 186 186
186 186 186
186 186 186
186 186 186
186 186 186
186 186 186
186 186 186
186 186 186
186 186 186
186 186 186
186 186 186
186 186 186
186 186 186
186 186 186
186 186 186
186 186 186
186 186 186
186 186 186
186 186 186
186 186 186
186 186 186
186 186 186
186 186 186
186 186 186
186 186 186
186 186 186
186 186 186
186 186 186
186 186 186
186 186 186
186 186 186
186 186 186
186 186 186
186 186 186
186 186 186
186 186 186
186 186 186
186 186 186
186 186 186
186 186 186
186 186 186
186 186 186
186 186 186
186 186 186
186 186 186
186 186 186
186 186 186
186 186 186
186 186 186
186 186 186
186 186 186
186 186 186
186 186 186
186 186 186
186 186 186
186 186 186
186 186 186
186 186 186
186 186 186
186 186 186
186 186 186
186 186 186
186 186 186
186 186 186
186 186 186
186 186 186
186 186 186
186 186 186
186 186 186
186 186 186
186 186 186
186 186 186
186 186 186
186 186 186
186 186 186
186 186 186
186 186 186
186 186 186
186 186 186
186 186 186
186 186 186
186 186 186
186 186 186
186 186 186
186 186 186
186 186 186
186 186 186
186 186 186
186 186 186
186 186 186
186 186 186
186 186 186
186 186 186
186 186 186
186 186 186
186 186 186
186 186 186
186 186 186
186 186 186
186 186 186
186 186 186
186 186 186
186 186 186
186 186 186
186 186 186
186 186 186
186 186 186
186 186 186
186 186 186
186 186 186
186 186 186
186 186 186
186 186 186
186 186 186
186 186 186
186 186 186
186 186 186
186 186 186
186 186 186
186 186 186
186 186 186
186 186 186
186 186 186
186 186 186
186 186 186
186 186 186
186 186 186
186 186 186
186 186 186
186 186 186
186 186 186
186 186 186
186 186 186
186 186 186
186 186 186
186 186 186
186 186 186
186 186 186
186 186 186
186 186 186
186 186 186
186 186 186
186 186 186
186 186 186
186 186 186
186 186 186
186 186 186
186 186 186
186 186 186
186 186 186
186 186 186
186 186 186
186 186 186
186 186 186
186 186 186
186 186 186
186 186 186
186 186 186
186 186 186
186 186 186
186 186 186
186 186 186
186 186 186
186 186 186
186 186 186
186 186 186
186 186 186
186 186 186
186 186 186
186 186 186
186 186 186
186 186 186
186 186 186
186 186 186
186 186 186
186 186 186
186 186 186
186 186 186
186 186 186
186 186 186
186 186 186
186 186 186
186 186 186
186 186 186
186 186 186
186 186 186
186 186 186
186 186 186
186 186 186
186 186 186
186 186 186
186 186 186
186 186 186
186 186 186
186 186 186
186 186 186
186 186 186
186 186 186
186 186 186
186 186 186
186 186 186
186 186 186
186 186 186
186 186 186
186 186 186
186 186 186
186 186 186
186 186 186
186 186 186
186 186 186
186 186 186
186 186 186
186 186 186
186 186 186
186 186 186
186 186 186
186 186 186
186 186 186
186 186 186
186 186 186
186 186 186
186 186 186
186 186 186
186 186 186
186 186 186
186 186 186
186 186 186
186 186 186
186 186 186
186 186 186
186 186 186
186 186 186
186 186 186
186 186 186
186 186 186
186 186 186
186 186 186
186 186 186
186 186 186
186 186 186
186 186 186
186 186 186
186 186 186
186 186 186
186 186 186
186 186 186
186 186 186
186 186 186
186 186 186
186 186 186
186 186 186
186 186 186
186 186 186
186 186 186
186 186 186
186 186 186
186 186 186
186 186 186
186 186 186
186 186 186
186 186 186
186 186 186
186 186 186
186 186 186
186 186 186
186 186 186
186 186 186
186 186 186
186 186 186
186 186 186
186 186 186
186 186 186
186 186 186
186 186 186
186 186 186
186 186 186
186 186 186
186 186 186
186 186 186
186 186 186
186 186 186
186 186 186
186 186 186
186 186 186
186 186 186
186 186 186
186 186 186
186 186 186
186 186 186
186 186 186
186 186 186
186 186 186
186 186 186
186 186 186
186 186 186
186 186 186
186 186 186
186 186 186
186 186 186
186 186 186
186 186 186
186 186 186
186 186 186
186 186 186
186 186 186
186 186 186
186 186 186
186 186 186
186 186 186
186 186 186
186 186 186
186 186 186
186 186 186
186 186 186
186 186 186
186 186 186
186 186 186
186 186 186
186 186 186
186 186 186
186 186 186
186 186 186
186 186 186
186 186 186
186 186 186
186 186 186
186 186 186
186 186 186
186 186 186
186 186 186
186 186 186
186 186 186
186 186 186
186 186 186
186 186 186
186 186 186
186 186 186
186 186 186
186 186 186
186 186 186
186 186 186
186 186 186
186 186 186
186 186 186
186 186 186
186 186 186
186 186 186
186 186 186
186 186 186
186 186 186
186 186 186
186 186 186
186 186 186
186 186 186
186 186 186
186 186 186
186 186 186
186 186 186
186 186 186
186 186 186
186 186 186
186 186 186
186 186 186
186 186 186
186 186 186
186 186 186
186 186 186
186 186 186
186 186 186
186 186 186
186 186 186
186 186 186
186 186 186
186 186 186
186 186 186
186 186 186
186 186 186
186 186 186
186 186 186
186 186 186
186 186 186
186 186 186
186 186 186
186 186 186
186 186 186
186 186 186
186 186 186
186 186 186
186 186 186
186 186 186
186 186 186
186 186 186
186 186 186
186 186 186
186 186 186
186 186 186
186 186 186
186 186 186
186 186 186
186 186 186
186 186 186
186 186 186
186 186 186
186 186 186
186 186 186
186 186 186
186 186 186
186 186 186
186 186 186
186 186 186
186 186 186
186 186 186
186 186 186
186 186 186
186 186 186
186 186 186
186 186 186
186 186 186
186 186 186
186 186 186
186 186 186
186 186 186
186 186 186
186 186 186
186 186 186
186 186 186
186 186 186
186 186 186
186 186 186
186 186 186
186 186 186
186 186 186
186 186 186
186 186 186
186 186 186
186 186 186
186 186 186
186 186 186
186 186 186
186 186 186
186 186 186
186 186 186
186 186 186
186 186 186
186 186 186
186 186 186
186 186 186
186 186 186
186 186 186
186 186 186
186 186 186
186 186 186
186 186 186
186 186 186
186 186 186
186 186 186
186 186 186
186 186 186
186 186 186
186 186 186
186 186 186
186 186 186
186 186 186
186 186 186
186 186 186
186 186 186
186 186 186
186 186 186
186 186 186
186 186 186
186 186 186
186 186 186
186 186 186
186 186 186
186 186 186
186 186 186
186 186 186
186 186 186
186 186 186
186 186 186
186 186 186
186 186 186
186 186 186
186 186 186
186 186 186
186 186 186
186 186 186
186 186 186
186 186 186
186 186 186
186 186 186
186 186 186
186 186 186
186 186 186
186 186 186
186 186 186
186 186 186
186 186 186
186 186 186
186 186 186
186 186 186
186 186 186
186 186 186
186 186 186
186 186 186
186 186 186
186 186 186
186 186 186
186 186 186
186 186 186
186 186 186
186 186 186
186 186 186
186 186 186
186 186 186
186 186 186
186 186 186
186 186 186
186 186 186
186 186 186
186 186 186
186 186 186
186 186 186
186 186 186
186 186 186
186 186 186
186 186 186
186 186 186
186 186 186
186 186 186
186 186 186
186 186 186
186 186 186
186 186 186
186 186 186
186 186 186
186 186 186
186 186 186
186 186 186
186 186 186
186 186 186
186 186 186
186 186 186
186 186 186
186 186 186
186 186 186
186 186 186
186 186 186
186 186 186
186 186 186
186 186 186
186 186 186
186 186 186
186 186 186
186 186 186
186 186 186
186 186 186
186 186 186
186 186 186
186 186 186
186 186 186
186 186 186
186 186 186
186 186 186
186 186 186
186 186 186
186 186 186
186 186 186
186 186 186
186 186 186
186 186 186
186 186 186
186 186 186
186 186 186
186 186 186
186 186 186
186 186 186
186 186 186
186 186 186
186 186 186
186 186 186
186 186 186
186 186 186
186 186 186
186 186 186
186 186 186
186 186 186
186 186 186
186 186 186
186 186 186
186 186 186
186 186 186
186 186 186
186 186 186
186 186 186
186 186 186
186 186 186
186 186 186
186 186 186
186 186 186
186 186 186
186 186 186
186 186 186
186 186 186
186 186 186
186 186 186
186 186 186
186 186 186
186 186 186
186 186 186
186 186 186
186 186 186
186 186 186
186 186 186
186 186 186
186 186 186
186 186 186
186 186 186
186 186 186
186 186 186
186 186 186
186 186 186
186 186 186
186 186 186
186 186 186
186 186 186
186 186 186
186 186 186
186 186 186
186 186 186
186 186 186
186 186 186
186 186 186
186 186 186
186 186 186
186 186 186
186 186 186
186 186 186
186 186 186
186 186 186
186 186 186
186 186 186
186 186 186
186 186 186
186 186 186
186 186 186
186 186 186
186 186 186
186 186 186
186 186 186
186 186 186
186 186 186
186 186 186
186 186 186
186 186 186
186 186 186
186 186 186
186 186 186
186 186 186
186 186 186
186 186 186
186 186 186
186 186 186
186 186 186
186 186 186
186 186 186
186 186 186
186 186 186
186 186 186
186 186 186
186 186 186
186 186 186
186 186 186
186 186 186
186 186 186
186 186 186
186 186 186
186 186 186
186 186 186
186 186 186
186 186 186
186 186 186
186 186 186
186 186 186
186 186 186
186 186 186
186 186 186
186 186 186
186 186 186
186 186 186
186 186 186
186 186 186
186 186 186
186 186 186
186 186 186
186 186 186
186 186 186
186 186 186
186 186 186
186 186 186
186 186 186
186 186 186
186 186 186
186 186 186
186 186 186
186 186 186
186 186 186
186 186 186
186 186 186
186 186 186
186 186 186
186 186 186
186 186 186
186 186 186
186 186 186
186 186 186
186 186 186
186 186 186
186 186 186
186 186 186
186 186 186
186 186 186
186 186 186
186 186 186
186 186 186
186 186 186
186 186 186
186 186 186
186 186 186
186 186 186
186 186 186
186 186 186
186 186 186
186 186 186
186 186 186
186 186 186
186 186 186
186 186 186
186 186 186
186 186 186
186 186 186
186 186 186
186 186 186
186 186 186
186 186 186
186 186 186
186 186 186
186 186 186
186 186 186
186 186 186
186 186 186
186 186 186
186 186 186
186 186 186
186 186 186
186 186 186
186 186 186
186 186 186
186 186 186
186 186 186
186 186 186
186 186 186
186 186 186
186 186 186
186 186 186
186 186 186
186 186 186
186 186 186
186 186 186
186 186 186
186 186 186
186 186 186
186 186 186
186 186 186
186 186 186
186 186 186
186 186 186
186 186 186
186 186 186
186 186 186
186 186 186
186 186 186
186 186 186
186 186 186
186 186 186
186 186 186
186 186 186
186 186 186
186 186 186
186 186 186
186 186 186
186 186 186
186 186 186
186 186 186
186 186 186
186 186 186
186 186 186
186 186 186
186 186 186
186 186 186
186 186 186
186 186 186
186 186 186
186 186 186
186 186 186
186 186 186
186 186 186
186 186 186
186 186 186
186 186 186
186 186 186
186 186 186
186 186 186
186 186 186
186 186 186
186 186 186
186 186 186
186 186 186
186 186 186
186 186 186
186 186 186
186 186 186
186 186 186
186 186 186
186 186 186
186 186 186
186 186 186
186 186 186
186 186 186
186 186 186
186 186 186
186 186 186
186 186 186
186 186 186
186 186 186
186 186 186
186 186 186
186 186 186
186 186 186
186 186 186
186 186 186
186 186 186
186 186 186
186 186 186
186 186 186
186 186 186
186 186 186
186 186 186
186 186 186
186 186 186
186 186 186
186 186 186
186 186 186
186 186 186
186 186 186
186 186 186
186 186 186
186 186 186
186 186 186
186 186 186
186 186 186
186 186 186
186 186 186
186 186 186
186 186 186
186 186 186
186 186 186
186 186 186
186 186 186
186 186 186
186 186 186
186 186 186
186 186 186
186 186 186
186 186 186
186 186 186
186 186 186
186 186 186
186 186 186
186 186 186
186 186 186
186 186 186
186 186 186
186 186 186
186 186 186
186 186 186
186 186 186
186 186 186
186 186 186
186 186 186
186 186 186
186 186 186
186 186 186
186 186 186
186 186 186
186 186 186
186 186 186
186 186 186
186 186 186
186 186 186
186 186 186
186 186 186
186 186 186
186 186 186
186 186 186
186 186 186
186 186 186
186 186 186
186 186 186
186 186 186
186 186 186
186 186 186
186 186 186
186 186 186
186 186 186
186 186 186
186 186 186
186 186 186
186 186 186
186 186 186
186 186 186
186 186 186
186 186 186
186 186 186
186 186 186
186 186 186
186 186 186
186 186 186
186 186 186
186 186 186
186 186 186
186 186 186
186 186 186
186 186 186
186 186 186
186 186 186
186 186 186
186 186 186
186 186 186
186 186 186
186 186 186
186 186 186
186 186 186
186 186 186
186 186 186
186 186 186
186 186 186
186 186 186
186 186 186
186 186 186
186 186 186
186 186 186
186 186 186
186 186 186
186 186 186
186 186 186
186 186 186
186 186 186
186 186 186
186 186 186
186 186 186
186 186 186
186 186 186
186 186 186
186 186 186
186 186 186
186 186 186
186 186 186
186 186 186
186 186 186
186 186 186
186 186 186
186 186 186
186 186 186
186 186 186
186 186 186
186 186 186
186 186 186
186 186 186
186 186 186
186 186 186
186 186 186
186 186 186
186 186 186
186 186 186
186 186 186
186 186 186
186 186 186
186 186 186
186 186 186
186 186 186
186 186 186
186 186 186
186 186 186
186 186 186
186 186 186
186 186 186
186 186 186
186 186 186
186 186 186
186 186 186
186 186 186
186 186 186
186 186 186
186 186 186
186 186 186
186 186 186
186 186 186
186 186 186
186 186 186
186 186 186
186 186 186
186 186 186
186 186 186
186 186 186
186 186 186
186 186 186
186 186 186
186 186 186
186 186 186
186 186 186
186 186 186
186 186 186
186 186 186
186 186 186
186 186 186
186 186 186
186 186 186
186 186 186
186 186 186
186 186 186
186 186 186
186 186 186
186 186 186
186 186 186
186 186 186
186 186 186
186 186 186
186 186 186
186 186 186
186 186 186
186 186 186
186 186 186
186 186 186
186 186 186
186 186 186
186 186 186
186 186 186
186 186 186
186 186 186
186 186 186
186 186 186
186 186 186
186 186 186
186 186 186
186 186 186
186 186 186
186 186 186
186 186 186
186 186 186
186 186 186
186 186 186
186 186 186
186 186 186
186 186 186
186 186 186
186 186 186
186 186 186
186 186 186
186 186 186
186 186 186
186 186 186
186 186 186
186 186 186
186 186 186
186 186 186
186 186 186
186 186 186
186 186 186
186 186 186
186 186 186
186 186 186
186 186 186
186 186 186
186 186 186
186 186 186
186 186 186
186 186 186
186 186 186
186 186 186
186 186 186
186 186 186
186 186 186
186 186 186
186 186 186
186 186 186
186 186 186
186 186 186
186 186 186
186 186 186
186 186 186
186 186 186
186 186 186
186 186 186
186 186 186
186 186 186
186 186 186
186 186 186
186 186 186
186 186 186
186 186 186
186 186 186
186 186 186
186 186 186
186 186 186
186 186 186
186 186 186
186 186 186
186 186 186
186 186 186
186 186 186
186 186 186
186 186 186
186 186 186
186 186 186
186 186 186
186 186 186
186 186 186
186 186 186
186 186 186
186 186 186
186 186 186
186 186 186
186 186 186
186 186 186
186 186 186
186 186 186
186 186 186
186 186 186
186 186 186
186 186 186
186 186 186
186 186 186
186 186 186
186 186 186
186 186 186
186 186 186
186 186 186
186 186 186
186 186 186
186 186 186
186 186 186
186 186 186
186 186 186
186 186 186
186 186 186
186 186 186
186 186 186
186 186 186
186 186 186
186 186 186
186 186 186
186 186 186
186 186 186
186 186 186
186 186 186
186 186 186
186 186 186
186 186 186
186 186 186
186 186 186
186 186 186
186 186 186
186 186 186
186 186 186
186 186 186
186 186 186
186 186 186
186 186 186
186 186 186
186 186 186
186 186 186
186 186 186
186 186 186
186 186 186
186 186 186
186 186 186
186 186 186
186 186 186
186 186 186
186 186 186
186 186 186
186 186 186
186 186 186
186 186 186
186 186 186
186 186 186
186 186 186
186 186 186
186 186 186
186 186 186
186 186 186
186 186 186
186 186 186
186 186 186
186 186 186
186 186 186
186 186 186
186 186 186
186 186 186
186 186 186
186 186 186
186 186 186
186 186 186
186 186 186
186 186 186
186 186 186
186 186 186
186 186 186
186 186 186
186 186 186
186 186 186
186 186 186
186 186 186
186 186 186
186 186 186
186 186 186
186 186 186
186 186 186
186 186 186
186 186 186
186 186 186
186 186 186
186 186 186
186 186 186
186 186 186
186 186 186
186 186 186
186 186 186
186 186 186
186 186 186
186 186 186
186 186 186
186 186 186
186 186 186
186 186 186
186 186 186
186 186 186
186 186 186
186 186 186
186 186 186
186 186 186
186 186 186
186 186 186
186 186 186
186 186 186
186 186 186
186 186 186
186 186 186
186 186 186
186 186 186
186 186 186
186 186 186
186 186 186
186 186 186
186 186 186
186 186 186
186 186 186
186 186 186
186 186 186
186 186 186
186 186 186
186 186 186
186 186 186
186 186 186
186 186 186
186 186 186
186 186 186
186 186 186
186 186 186
186 186 186
186 186 186
186 186 186
186 186 186
186 186 186
186 186 186
186 186 186
186 186 186
186 186 186
186 186 186
186 186 186
186 186 186
186 186 186
186 186 186
186 186 186
186 186 186
186 186 186
186 186 186
186 186 186
186 186 186
186 186 186
186 186 186
186 186 186
186 186 186
186 186 186
186 186 186
186 186 186
186 186 186
186 186 186
186 186 186
186 186 186
186 186 186
186 186 186
186 186 186
186 186 186
186 186 186
186 186 186
186 186 186
186 186 186
186 186 186
186 186 186
186 186 186
186 186 186
186 186 186
186 186 186
186 186 186
186 186 186
186 186 186
186 186 186
186 186 186
186 186 186
186 186 186
186 186 186
186 186 186
186 186 186
186 186 186
186 186 186
186 186 186
186 186 186
186 186 186
186 186 186
186 186 186
186 186 186
186 186 186
186 186 186
186 186 186
186 186 186
186 186 186
186 186 186
186 186 186
186 186 186
186 186 186
186 186 186
186 186 186
186 186 186
186 186 186
186 186 186
186 186 186
186 186 186
186 186 186
186 186 186
186 186 186
186 186 186
186 186 186
186 186 186
186 186 186
186 186 186
186 186 186
186 186 186
186 186 186
186 186 186
186 186 186
186 186 186
186 186 186
186 186 186
186 186 186
186 186 186
186 186 186
186 186 186
186 186 186
186 186 186
186 186 186
186 186 186
186 186 186
186 186 186
186 186 186
186 186 186
186 186 186
186 186 186
186 186 186
186 186 186
186 186 186
186 186 186
186 186 186
186 186 186
186 186 186
186 186 186
186 186 186
186 186 186
186 186 186
186 186 186
186 186 186
186 186 186
186 186 186
186 186 186
186 186 186
186 186 186
186 186 186
186 186 186
186 186 186
186 186 186
186 186 186
186 186 186
186 186 186
186 186 186
186 186 186
186 186 186
186 186 186
186 186 186
186 186 186
186 186 186
186 186 186
186 186 186
186 186 186
186 186 186
186 186 186
186 186 186
186 186 186
186 186 186
186 186 186
186 186 186
186 186 186
186 186 186
186 186 186
186 186 186
186 186 186
186 186 186
186 186 186
186 186 186
186 186 186
186 186 186
186 186 186
186 186 186
186 186 186
186 186 186
186 186 186
186 186 186
186 186 186
186 186 186
186 186 186
186 186 186
186 186 186
186 186 186
186 186 186
186 186 186
186 186 186
186 186 186
186 186 186
186 186 186
186 186 186
186 186 186
186 186 186
186 186 186
186 186 186
186 186 186
186 186 186
186 186 186
186 186 186
186 186 186
186 186 186
186 186 186
186 186 186
186 186 186
186 186 186
186 186 186
186 186 186
186 186 186
186 186 186
186 186 186
186 186 186
186 186 186
186 186 186
186 186 186
186 186 186
186 186 186
186 186 186
186 186 186
186 186 186
186 186 186
186 186 186
186 186 186
186 186 186
186 186 186
186 186 186
186 186 186
186 186 186
186 186 186
186 186 186
186 186 186
186 186 186
186 186 186
186 186 186
186 186 186
186 186 186
186 186 186
186 186 186
186 186 186
186 186 186
186 186 186
186 186 186
186 186 186
186 186 186
186 186 186
186 186 186
186 186 186
186 186 186
186 186 186
186 186 186
186 186 186
186 186 186
186 186 186
186 186 186
186 186 186
186 186 186
186 186 186
186 186 186
186 186 186
186 186 186
186 186 186
186 186 186
186 186 186
186 186 186
186 186 186
186 186 186
186 186 186
186 186 186
186 186 186
186 186 186
186 186 186
186 186 186
186 186 186
186 186 186
186 186 186
186 186 186
186 186 186
186 186 186
186 186 186
186 186 186
186 186 186
186 186 186
186 186 186
186 186 186
186 186 186
186 186 186
186 186 186
186 186 186
186 186 186
186 186 186
186 186 186
186 186 186
186 186 186
186 186 186
186 186 186
186 186 186
186 186 186
186 186 186
186 186 186
186 186 186
186 186 186
186 186 186
186 186 186
186 186 186
186 186 186
186 186 186
186 186 186
186 186 186
186 186 186
186 186 186
186 186 186
186 186 186
186 186 186
186 186 186
186 186 186
186 186 186
186 186 186
186 186 186
186 186 186
186 186 186
186 186 186
186 186 186
186 186 186
186 186 186
186 186 186
186 186 186
186 186 186
186 186 186
186 186 186
186 186 186
186 186 186
186 186 186
186 186 186
186 186 186
186 186 186
186 186 186
186 186 186
186 186 186
186 186 186
186 186 186
186 186 186
186 186 186
186 186 186
186 186 186
186 186 186
186 186 186
186 186 186
186 186 186
186 186 186
186 186 186
186 186 186
186 186 186
186 186 186
186 186 186
186 186 186
186 186 186
186 186 186
186 186 186
186 186 186
186 186 186
186 186 186
186 186 186
186 186 186
186 186 186
186 186 186
186 186 186
186 186 186
186 186 186
186 186 186
186 186 186
186 186 186
186 186 186
186 186 186
186 186 186
186 186 186
186 186 186
186 186 186
186 186 186
186 186 186
186 186 186
186 186 186
186 186 186
186 186 186
186 186 186
186 186 186
186 186 186
186 186 186
186 186 186
186 186 186
186 186 186
186 186 186
186 186 186
186 186 186
186 186 186
186 186 186
186 186 186
186 186 186
186 186 186
186 186 186
186 186 186
186 186 186
186 186 186
186 186 186
186 186 186
186 186 186
186 186 186
186 186 186
186 186 186
186 186 186
186 186 186
186 186 186
186 186 186
186 186 186
186 186 186
186 186 186
186 186 186
186 186 186
186 186 186
186 186 186
186 186 186
186 186 186
186 186 186
186 186 186
186 186 186
186 186 186
186 186 186
186 186 186
186 186 186
186 186 186
186 186 186
186 186 186
186 186 186
186 186 186
186 186 186
186 186 186
186 186 186
186 186 186
186 186 186
186 186 186
186 186 186
186 186 186
186 186 186
186 186 186
186 186 186
186 186 186
186 186 186
186 186 186
186 186 186
186 186 186
186 186 186
186 186 186
186 186 186
186 186 186
186 186 186
186 186 186
186 186 186
186 186 186
186 186 186
186 186 186
186 186 186
186 186 186
186 186 186
186 186 186
186 186 186
186 186 186
186 186 186
186 186 186
186 186 186
186 186 186
186 186 186
186 186 186
186 186 186
186 186 186
186 186 186
186 186 186
186 186 186
186 186 186
186 186 186
186 186 186
186 186 186
186 186 186
186 186 186
186 186 186
186 186 186
186 186 186
186 186 186
186 186 186
186 186 186
186 186 186
186 186 186
186 186 186
186 186 186
186 186 186
186 186 186
186 186 186
186 186 186
186 186 186
186 186 186
186 186 186
186 186 186
186 186 186
186 186 186
186 186 186
186 186 186
186 186 186
186 186 186
186 186 186
186 186 186
186 186 186
186 186 186
186 186 186
186 186 186
186 186 186
186 186 186
186 186 186
186 186 186
186 186 186
186 186 186
186 186 186
186 186 186
186 186 186
186 186 186
186 186 186
186 186 186
186 186 186
186 186 186
186 186 186
186 186 186
186 186 186
186 186 186
186 186 186
186 186 186
186 186 186
186 186 186
186 186 186
186 186 186
186 186 186
186 186 186
186 186 186
186 186 186
186 186 186
186 186 186
186 186 186
186 186 186
186 186 186
186 186 186
186 186 186
186 186 186
186 186 186
186 186 186
186 186 186
186 186 186
186 186 186
186 186 186
186 186 186
186 186 186
186 186 186
186 186 186
186 186 186
186 186 186
186 186 186
186 186 186
186 186 186
186 186 186
186 186 186
186 186 186
186 186 186
186 186 186
186 186 186
186 186 186
186 186 186
186 186 186
186 186 186
186 186 186
186 186 186
186 186 186
186 186 186
186 186 186
186 186 186
186 186 186
186 186 186
186 186 186
186 186 186
186 186 186
186 186 186
186 186 186
186 186 186
186 186 186
186 186 186
186 186 186
186 186 186
186 186 186
186 186 186
186 186 186
186 186 186
186 186 186
186 186 186
186 186 186
186 186 186
186 186 186
186 186 186
186 186 186
186 186 186
186 186 186
186 186 186
186 186 186
186 186 186
186 186 186
186 186 186
186 186 186
186 186 186
186 186 186
186 186 186
186 186 186
186 186 186
186 186 186
186 186 186
186 186 186
186 186 186
186 186 186
186 186 186
186 186 186
186 186 186
186 186 186
186 186 186
186 186 186
186 186 186
186 186 186
186 186 186
186 186 186
186 186 186
186 186 186
186 186 186
186 186 186
186 186 186
186 186 186
186 186 186
186 186 186
186 186 186
186 186 186
186 186 186
186 186 186
186 186 186
186 186 186
186 186 186
186 186 186
186 186 186
186 186 186
186 186 186
186 186 186
186 186 186
186 186 186
186 186 186
186 186 186
186 186 186
186 186 186
186 186 186
186 186 186
186 186 186
186 186 186
186 186 186
186 186 186
186 186 186
186 186 186
186 186 186
186 186 186
186 186 186
186 186 186
186 186 186
186 186 186
186 186 186
186 186 186
186 186 186
186 186 186
186 186 186
186 186 186
186 186 186
186 186 186
186 186 186
186 186 186
186 186 186
186 186 186
186 186 186
186 186 186
186 186 186
186 186 186
186 186 186
186 186 186
186 186 186
186 186 186
186 186 186
186 186 186
186 186 186
186 186 186
186 186 186
186 186 186
186 186 186
186 186 186
186 186 186
186 186 186
186 186 186
186 186 186
186 186 186
186 186 186
186 186 186
186 186 186
186 186 186
186 186 186
186 186 186
186 186 186
186 186 186
186 186 186
186 186 186
186 186 186
186 186 186
186 186 186
186 186 186
186 186 186
186 186 186
186 186 186
186 186 186
186 186 186
186 186 186
186 186 186
186 186 186
186 186 186
186 186 186
186 186 186
186 186 186
186 186 186
186 186 186
186 186 186
186 186 186
186 186 186
186 186 186
186 186 186
186 186 186
186 186 186
186 186 186
186 186 186
186 186 186
186 186 186
186 186 186
186 186 186
186 186 186
186 186 186
186 186 186
186 186 186
186 186 186
186 186 186
186 186 186
186 186 186
186 186 186
186 186 186
186 186 186
186 186 186
186 186 186
186 186 186
186 186 186
186 186 186
186 186 186
186 186 186
186 186 186
186 186 186
186 186 186
186 186 186
186 186 186
186 186 186
186 186 186
186 186 186
186 186 186
186 186 186
186 186 186
186 186 186
186 186 186
186 186 186
186 186 186
186 186 186
186 186 186
186 186 186
186 186 186
186 186 186
186 186 186
186 186 186
186 186 186
186 186 186
186 186 186
186 186 186
186 186 186
186 186 186
186 186 186
186 186 186
186 186 186
186 186 186
186 186 186
186 186 186
186 186 186
186 186 186
186 186 186
186 186 186
186 186 186
186 186 186
186 186 186
186 186 186
186 186 186
186 186 186
186 186 186
186 186 186
186 186 186
186 186 186
186 186 186
186 186 186
186 186 186
186 186 186
186 186 186
186 186 186
186 186 186
186 186 186
186 186 186
186 186 186
186 186 186
186 186 186
186 186 186
186 186 186
186 186 186
186 186 186
186 186 186
186 186 186
186 186 186
186 186 186
186 186 186
186 186 186
186 186 186
186 186 186
186 186 186
186 186 186
186 186 186
186 186 186
186 186 186
186 186 186
186 186 186
186 186 186
186 186 186
186 186 186
186 186 186
186 186 186
186 186 186
186 186 186
186 186 186
186 186 186
186 186 186
186 186 186
186 186 186
186 186 186
186 186 186
186 186 186
186 186 186
186 186 186
186 186 186
186 186 186
186 186 186
186 186 186
186 186 186
186 186 186
186 186 186
186 186 186
186 186 186
186 186 186
186 186 186
186 186 186
186 186 186
186 186 186
186 186 186
186 186 186
186 186 186
186 186 186
186 186 186
186 186 186
186 186 186
101 145 179
101 145 179
101 145 179
101 145 179
101 145 179
101 145 179
101 145 179
101 145 179
186 186 186
186 186 186
186 186 186
186 186 186
186 186 186
186 186 186
186 186 186
186 186 186
186 186 186
186 186 186
186 186 186
186 186 186
186 186 186
186 186 186
186 186 186
186 186 186
186 186 186
186 186 186
186 186 186
186 186 186
186 186 186
186 186 186
186 186 186
186 186 186
186 186 186
186 186 186
186 186 186
186 186 186
186 186 186
186 186 186
186 186 186
186 186 186
186 186 186
186 186 186
186 186 186
186 186 186
186 186 186
186 186 186
186 186 186
186 186 186
186 186 186
186 186 186
186 186 186
186 186 186
186 186 186
186 186 186
186 186 186
186 186 186
186 186 186
186 186 186
186 186 186
186 186 186
186 186 186
186 186 186
186 186 186
186 186 186
186 186 186
186 186 186
186 186 186
186 186 186
186 186 186
186 186 186
186 186 186
186 186 186
186 186 186
186 186 186
186 186 186
186 186 186
186 186 186
186 186 186
186 186 186
186 186 186
186 186 186
186 186 186
186 186 186
186 186 186
186 186 186
186 186 186
186 186 186
186 186 186
186 186 186
186 186 186
186 186 186
186 186 186
186 186 186
186 186 186
186 186 186
186 186 186
186 186 186
186 186 186
186 186 186
186 186 186
186 186 186
186 186 186
186 186 186
186 186 186
186 186 186
186 186 186
186 186 186
186 186 186
186 186 186
186 186 186
186 186 186
186 186 186
186 186 186
186 186 186
186 186 186
186 186 186
186 186 186
186 186 186
186 186 186
186 186 186
186 186 186
186 186 186
186 186 186
186 186 186
186 186 186
186 186 186
186 186 186
186 186 186
186 186 186
186 186 186
186 186 186
186 186 186
186 186 186
186 186 186
186 186 186
186 186 186
186 186 186
186 186 186
186 186 186
186 186 186
186 186 186
186 186 186
186 186 186
186 186 186
186 186 186
186 186 186
186 186 186
186 186 186
186 186 186
186 186 186
186 186 186
186 186 186
186 186 186
186 186 186
186 186 186
186 186 186
186 186 186
186 186 186
186 186 186
186 186 186
186 186 186
186 186 186
186 186 186
186 186 186
186 186 186
186 186 186
186 186 186
186 186 186
186 186 186
186 186 186
186 186 186
186 186 186
186 186 186
186 186 186
186 186 186
186 186 186
186 186 186
186 186 186
186 186 186
186 186 186
186 186 186
186 186 186
186 186 186
186 186 186
186 186 186
186 186 186
186 186 186
186 186 186
186 186 186
186 186 186
186 186 186
186 186 186
186 186 186
186 186 186
186 186 186
186 186 186
186 186 186
186 186 186
186 186 186
186 186 186
186 186 186
186 186 186
186 186 186
186 186 186
186 186 186
186 186 186
186 186 186
186 186 186
186 186 186
186 186 186
186 186 186
186 186 186
186 186 186
186 186 186
186 186 186
186 186 186
186 186 186
186 186 186
186 186 186
186 186 186
186 186 186
186 186 186
186 186 186
186 186 186
186 186 186
186 186 186
186 186 186
186 186 186
186 186 186
186 186 186
186 186 186
186 186 186
186 186 186
186 186 186
186 186 186
186 186 186
186 186 186
186 186 186
186 186 186
186 186 186
186 186 186
186 186 186
186 186 186
186 186 186
186 186 186
186 186 186
186 186 186
101 145 179
101 145 179
101 145 179
101 145 179
101 145 179
101 145 179
101 145 179
101 145 179
101 145 179
101 145 179
101 145 179
101 145 179
101 145 179
101 145 179
101 145 179
101 145 179
101 145 179
101 145 179
101 145 179
101 145 179
101 145 179
101 145 179
101 145 179
101 145 179
101 145 179
101 145 179
101 145 179
101 145 179
101 145 179
101 145 179
101 145 179
101 145 179
101 145 179
101 145 179
101 145 179
101 145 179
101 145 179
101 145 179
101 145 179
101 145 179
101 145 179
101 145 179
101 145 179
186 186 186
186 186 186
186 186 186
186 186 186
186 186 186
186 186 186
186 186 186
186 186 186
186 186 186
186 186 186
186 186 186
186 186 186
186 186 186
186 186 186
186 186 186
186 186 186
186 186 186
186 186 186
186 186 186
186 186 186
186 186 186
186 186 186
186 186 186
186 186 186
186 186 186
186 186 186
186 186 186
186 186 186
186 186 186
186 186 186
186 186 186
186 186 186
186 186 186
186 186 186
186 186 186
186 186 186
186 186 186
186 186 186
186 186 186
186 186 186
186 186 186
186 186 186
186 186 186
186 186 186
186 186 186
186 186 186
186 186 186
186 186 186
186 186 186
186 186 186
186 186 186
186 186 186
186 186 186
186 186 186
186 186 186
186 186 186
186 186 186
186 186 186
186 186 186
186 186 186
186 186 186
186 186 186
186 186 186
186 186 186
186 186 186
186 186 186
186 186 186
186 186 186
186 186 186
186 186 186
186 186 186
186 186 186
186 186 186
186 186 186
186 186 186
186 186 186
186 186 186
186 186 186
186 186 186
186 186 186
186 186 186
186 186 186
186 186 186
186 186 186
186 186 186
186 186 186
186 186 186
186 186 186
186 186 186
186 186 186
186 186 186
186 186 186
186 186 186
186 186 186
186 186 186
186 186 186
186 186 186
186 186 186
186 186 186
186 186 186
186 186 186
186 186 186
186 186 186
186 186 186
186 186 186
186 186 186
186 186 186
186 186 186
186 186 186
186 186 186
186 186 186
186 186 186
186 186 186
186 186 186
186 186 186
186 186 186
186 186 186
186 186 186
186 186 186
186 186 186
186 186 186
186 186 186
186 186 186
186 186 186
186 186 186
186 186 186
186 186 186
186 186 186
186 186 186
186 186 186
186 186 186
186 186 186
186 186 186
186 186 186
186 186 186
186 186 186
186 186 186
186 186 186
186 186 186
186 186 186
186 186 186
186 186 186
186 186 186
186 186 186
186 186 186
186 186 186
186 186 186
186 186 186
186 186 186
186 186 186
186 186 186
186 186 186
186 186 186
186 186 186
186 186 186
186 186 186
186 186 186
186 186 186
186 186 186
186 186 186
186 186 186
186 186 186
186 186 186
186 186 186
186 186 186
186 186 186
186 186 186
186 186 186
186 186 186
186 186 186
186 186 186
186 186 186
186 186 186
186 186 186
186 186 186
186 186 186
186 186 186
186 186 186
186 186 186
186 186 186
186 186 186
186 186 186
186 186 186
186 186 186
186 186 186
186 186 186
186 186 186
186 186 186
186 186 186
186 186 186
186 186 186
186 186 186
186 186 186
186 186 186
186 186 186
186 186 186
186 186 186
186 186 186
186 186 186
186 186 186
186 186 186
186 186 186
186 186 186
101 145 179
101 145 179
101 145 179
101 145 179
101 145 179
101 145 179
101 145 179
101 145 179
101 145 179
101 145 179
101 145 179
101 145 179
101 145 179
101 145 179
101 145 179
101 145 179
101 145 179
101 145 179
101 145 179
101 145 179
101 145 179
101 145 179
101 145 179
101 145 179
101 145 179
101 145 179
101 145 179
101 145 179
101 145 179
101 145 179
101 145 179
101 145 179
101 145 179
101 145 179
101 145 179
101 145 179
101 145 179
101 145 179
101 145 179
101 145 179
101 145 179
101 145 179
101 145 179
101 145 179
101 145 179
101 145 179
101 145 179
101 145 179
101 145 179
101 145 179
101 145 179
101 145 179
101 145 179
101 145 179
101 145 179
101 145 179
101 145 179
101 145 179
101 145 179
101 145 179
101 145 179
96 139 174
96 139 174
96 139 174
96 139 174
186 186 186
186 186 186
186 186 186
186 186 186
186 186 186
186 186 186
186 186 186
186 186 186
186 186 186
186 186 186
186 186 186
186 186 186
186 186 186
186 186 186
186 186 186
186 186 186
186 186 186
186 186 186
186 186 186
186 186 186
186 186 186
186 186 186
186 186 186
186 186 186
186 186 186
186 186 186
186 186 186
186 186 186
186 186 186
186 186 186
186 186 186
186 186 186
186 186 186
186 186 186
186 186 186
186 186 186
186 186 186
186 186 186
186 186 186
186 186 186
186 186 186
186 186 186
186 186 186
186 186 186
186 186 186
186 186 186
186 186 186
186 186 186
186 186 186
186 186 186
186 186 186
186 186 186
186 186 186
186 186 186
186 186 186
186 186 186
186 186 186
186 186 186
186 186 186
186 186 186
186 186 186
186 186 186
186 186 186
186 186 186
186 186 186
186 186 186
186 186 186
186 186 186
186 186 186
186 186 186
186 186 186
186 186 186
186 186 186
186 186 186
186 186 186
186 186 186
186 186 186
186 186 186
186 186 186
186 186 186
186 186 186
186 186 186
186 186 186
186 186 186
186 186 186
186 186 186
186 186 186
186 186 186
186 186 186
186 186 186
186 186 186
186 186 186
186 186 186
186 186 186
186 186 186
186 186 186
186 186 186
186 186 186
186 186 186
186 186 186
186 186 186
186 186 186
186 186 186
186 186 186
186 186 186
186 186 186
186 186 186
186 186 186
186 186 186
186 186 186
186 186 186
186 186 186
186 186 186
186 186 186
186 186 186
186 186 186
186 186 186
186 186 186
186 186 186
186 186 186
186 186 186
186 186 186
186 186 186
186 186 186
186 186 186
186 186 186
186 186 186
186 186 186
186 186 186
186 186 186
186 186 186
186 186 186
186 186 186
186 186 186
186 186 186
186 186 186
186 186 186
186 186 186
186 186 186
186 186 186
186 186 186
186 186 186
186 186 186
186 186 186
186 186 186
186 186 186
186 186 186
186 186 186
186 186 186
186 186 186
186 186 186
186 186 186
186 186 186
186 186 186
186 186 186
186 186 186
186 186 186
186 186 186
186 186 186
186 186 186
186 186 186
186 186 186
186 186 186
186 186 186
186 186 186
186 186 186
186 186 186
186 186 186
186 186 186
186 186 186
186 186 186
186 186 186
186 186 186
186 186 186
186 186 186
186 186 186
186 186 186
186 186 186
186 186 186
186 186 186
186 186 186
186 186 186
186 186 186
186 186 186
96 139 174
96 139 174
96 139 174
96 139 174
96 139 174
101 145 179
101 145 179
101 145 179
101 145 179
101 145 179
101 145 179
101 145 179
101 145 179
101 145 179
101 145 179
101 145 179
101 145 179
101 145 179
101 145 179
101 145 179
101 145 179
101 145 179
101 145 179
101 145 179
101 145 179
101 145 179
101 145 179
101 145 179
101 145 179
101 145 179
101 145 179
101 145 179
101 145 179
101 145 179
101 145 179
101 145 179
101 145 179
101 145 179
101 145 179
101 145 179
101 145 179
101 145 179
101 145 179
101 145 179
101 145 179
101 145 179
101 145 179
101 145 179
101 145 179
101 145 179
101 145 179
101 145 179
101 145 179
101 145 179
101 145 179
101 145 179
101 145 179
101 145 179
101 145 179
101 145 179
101 145 179
96 139 174
96 139 174
96 139 174
96 139 174
96 139 174
96 139 174
96 139 174
96 139 174
96 139 174
96 139 174
96 139 174
186 186 186
186 186 186
186 186 186
186 186 186
186 186 186
186 186 186
186 186 186
186 186 186
186 186 186
186 186 186
186 186 186
186 186 186
186 186 186
186 186 186
186 186 186
186 186 186
186 186 186
186 186 186
186 186 186
186 186 186
186 186 186
186 186 186
186 186 186
186 186 186
186 186 186
186 186 186
186 186 186
186 186 186
186 186 186
186 186 186
186 186 186
186 186 186
186 186 186
186 186 186
186 186 186
186 186 186
186 186 186
186 186 186
186 186 186
186 186 186
186 186 186
186 186 186
186 186 186
186 186 186
186 186 186
186 186 186
186 186 186
186 186 186
186 186 186
186 186 186
186 186 186
186 186 186
186 186 186
186 186 186
186 186 186
186 186 186
186 186 186
186 186 186
186 186 186
186 186 186
186 186 186
186 186 186
186 186 186
186 186 186
186 186 186
186 186 186
186 186 186
186 186 186
186 186 186
186 186 186
186 186 186
186 186 186
186 186 186
186 186 186
186 186 186
186 186 186
186 186 186
186 186 186
186 186 186
186 186 186
186 186 186
186 186 186
186 186 186
186 186 186
186 186 186
186 186 186
186 186 186
186 186 186
186 186 186
186 186 186
186 186 186
186 186 186
186 186 186
186 186 186
186 186 186
186 186 186
186 186 186
186 186 186
186 186 186
186 186 186
186 186 186
186 186 186
186 186 186
186 186 186
186 186 186
186 186 186
186 186 186
186 186 186
186 186 186
186 186 186
186 186 186
186 186 186
186 186 186
186 186 186
186 186 186
186 186 186
186 186 186
186 186 186
186 186 186
186 186 186
186 186 186
186 186 186
186 186 186
186 186 186
186 186 186
186 186 186
186 186 186
186 186 186
186 186 186
186 186 186
186 186 186
186 186 186
186 186 186
186 186 186
186 186 186
186 186 186
186 186 186
186 186 186
186 186 186
186 186 186
186 186 186
186 186 186
186 186 186
186 186 186
186 186 186
186 186 186
186 186 186
186 186 186
186 186 186
186 186 186
186 186 186
186 186 186
186 186 186
186 186 186
186 186 186
186 186 186
186 186 186
186 186 186
186 186 186
186 186 186
186 186 186
186 186 186
186 186 186
186 186 186
186 186 186
186 186 186
186 186 186
186 186 186
186 186 186
186 186 186
186 186 186
186 186 186
186 186 186
186 186 186
186 186 186
186 186 186
186 186 186
186 186 186
186 186 186
186 186 186
186 186 186
186 186 186
186 186 186
186 186 186
96 139 174
96 139 174
96 139 174
96 139 174
96 139 174
96 139 174
96 139 174
96 139 174
96 139 174
96 139 174
96 139 174
96 139 174
96 139 174
96 139 174
96 139 175
96 139 174
96 139 175
96 139 175
96 139 175
96 139 175
96 139 175
96 139 175
96 139 175
96 139 175
96 139 175
96 139 175
96 139 175
101 145 179
101 145 179
101 145 179
101 145 179
101 145 179
101 145 179
101 145 179
101 145 179
101 145 179
101 145 179
101 145 179
101 145 179
101 145 179
101 145 179
101 145 179
101 145 179
101 145 179
101 145 179
101 145 179
101 145 179
101 145 179
101 145 179
101 145 179
101 145 179
101 145 179
101 145 179
101 145 179
96 139 174
96 139 174
96 139 174
96 139 174
96 139 174
96 139 174
96 139 174
96 139 174
96 139 174
96 139 174
96 139 174
96 139 174
96 139 174
96 139 174
96 139 174
96 139 174
96 139 174
96 139 174
186 186 186
186 186 186
186 186 186
186 186 186
186 186 186
186 186 186
186 186 186
186 186 186
186 186 186
186 186 186
186 186 186
186 186 186
186 186 186
186 186 186
186 186 186
186 186 186
186 186 186
186 186 186
186 186 186
186 186 186
186 186 186
186 186 186
186 186 186
186 186 186
186 186 186
186 186 186
186 186 186
186 186 186
186 186 186
186 186 186
186 186 186
186 186 186
186 186 186
186 186 186
186 186 186
186 186 186
186 186 186
186 186 186
186 186 186
186 186 186
186 186 186
186 186 186
186 186 186
186 186 186
186 186 186
186 186 186
186 186 186
186 186 186
186 186 186
186 186 186
186 186 186
186 186 186
186 186 186
186 186 186
186 186 186
186 186 186
186 186 186
186 186 186
186 186 186
186 186 186
186 186 186
186 186 186
186 186 186
186 186 186
186 186 186
186 186 186
186 186 186
186 186 186
186 186 186
186 186 186
186 186 186
186 186 186
186 186 186
186 186 186
186 186 186
186 186 186
186 186 186
186 186 186
186 186 186
186 186 186
186 186 186
186 186 186
186 186 186
186 186 186
186 186 186
186 186 186
186 186 186
186 186 186
186 186 186
186 186 186
186 186 186
186 186 186
186 186 186
186 186 186
186 186 186
186 186 186
186 186 186
186 186 186
186 186 186
186 186 186
186 186 186
186 186 186
186 186 186
186 186 186
186 186 186
186 186 186
186 186 186
186 186 186
186 186 186
186 186 186
186 186 186
186 186 186
186 186 186
186 186 186
186 186 186
186 186 186
186 186 186
186 186 186
186 186 186
186 186 186
186 186 186
186 186 186
186 186 186
186 186 186
186 186 186
186 186 186
186 186 186
186 186 186
186 186 186
186 186 186
186 186 186
186 186 186
186 186 186
186 186 186
186 186 186
186 186 186
186 186 186
186 186 186
186 186 186
186 186 186
186 186 186
186 186 186
186 186 186
186 186 186
186 186 186
186 186 186
186 186 186
186 186 186
186 186 186
186 186 186
186 186 186
186 186 186
186 186 186
186 186 186
186 186 186
186 186 186
186 186 186
186 186 186
186 186 186
186 186 186
186 186 186
186 186 186
186 186 186
186 186 186
186 186 186
186 186 186
186 186 186
186 186 186
186 186 186
186 186 186
186 186 186
186 186 186
186 186 186
186 186 186
186 186 186
186 186 186
186 186 186
186 186 186
186 186 186
186 186 186
186 186 186
186 186 186
186 186 186
186 186 186
96 139 174
96 139 174
96 139 174
96 139 174
96 139 174
96 139 174
96 139 174
96 139 174
96 139 174
96 139 174
96 139 174
96 139 174
96 139 174
96 139 174
96 139 174
96 139 174
96 139 174
96 139 174
96 139 174
96 139 174
96 139 174
96 139 175
96 139 175
96 139 175
96 139 175
96 139 175
96 139 175
96 139 175
96 139 175
96 139 175
96 139 175
96 139 175
96 139 175
96 139 175
96 139 175
96 139 175
96 139 175
96 139 175
96 139 175
96 139 175
96 140 175
96 140 175
96 140 175
96 140 175
96 140 175
96 140 175
96 140 175
96 140 175
96 139 174
96 139 174
96 139 174
96 139 174
96 139 174
96 139 174
96 139 174
96 139 174
96 139 174
96 139 174
96 139 174
96 139 174
96 139 174
96 139 174
96 139 174
96 139 174
96 139 174
96 139 174
96 139 174
95 139 174
95 139 174
95 139 174
95 139 174
95 139 174
186 186 186
186 186 186
186 186 186
186 186 186
186 186 186
186 186 186
186 186 186
186 186 186
186 186 186
186 186 186
186 186 186
186 186 186
186 186 186
186 186 186
186 186 186
186 186 186
186 186 186
186 186 186
186 186 186
186 186 186
186 186 186
186 186 186
186 186 186
186 186 186
186 186 186
186 186 186
186 186 186
186 186 186
186 186 186
186 186 186
186 186 186
186 186 186
186 186 186
186 186 186
186 186 186
186 186 186
186 186 186
186 186 186
186 186 186
186 186 186
186 186 186
186 186 186
186 186 186
186 186 186
186 186 186
186 186 186
186 186 186
186 186 186
186 186 186
186 186 186
186 186 186
186 186 186
186 186 186
186 186 186
186 186 186
186 186 186
186 186 186
186 186 186
186 186 186
186 186 186
186 186 186
186 186 186
186 186 186
186 186 186
186 186 186
186 186 186
186 186 186
186 186 186
186 186 186
186 186 186
186 186 186
186 186 186
186 186 186
186 186 186
186 186 186
186 186 186
186 186 186
186 186 186
186 186 186
186 186 186
186 186 186
186 186 186
186 186 186
186 186 186
186 186 186
186 186 186
186 186 186
186 186 186
186 186 186
186 186 186
186 186 186
186 186 186
186 186 186
186 186 186
186 186 186
186 186 186
186 186 186
186 186 186
186 186 186
186 186 186
186 186 186
186 186 186
186 186 186
186 186 186
186 186 186
186 186 186
186 186 186
186 186 186
186 186 186
186 186 186
186 186 186
186 186 186
186 186 186
186 186 186
186 186 186
186 186 186
186 186 186
186 186 186
186 186 186
186 186 186
186 186 186
186 186 186
186 186 186
186 186 186
186 186 186
186 186 186
186 186 186
186 186 186
186 186 186
186 186 186
186 186 186
186 186 186
186 186 186
186 186 186
186 186 186
186 186 186
186 186 186
186 186 186
186 186 186
186 186 186
186 186 186
186 186 186
186 186 186
186 186 186
186 186 186
186 186 186
186 186 186
186 186 186
186 186 186
186 186 186
186 186 186
186 186 186
186 186 186
186 186 186
186 186 186
186 186 186
186 186 186
186 186 186
186 186 186
186 186 186
186 186 186
186 186 186
186 186 186
186 186 186
186 186 186
186 186 186
186 186 186
186 186 186
186 186 186
186 186 186
186 186 186
186 186 186
186 186 186
186 186 186
186 186 186
186 186 186
186 186 186
186 186 186
186 186 186
186 186 186
186 186 186
186 186 186
186 186 186
186 186 186
96 139 174
96 139 174
96 139 174
96 139 174
96 139 174
96 139 174
96 139 174
96 139 174
96 139 174
96 139 174
96 139 174
96 139 174
96 139 174
96 139 174
96 139 174
96 139 174
96 139 174
96 139 174
96 139 174
96 139 174
96 139 174
96 139 174
96 139 174
96 139 174
96 139 174
96 139 174
96 139 174
96 139 175
96 139 175
96 139 175
96 139 175
96 139 175
96 139 175
96 139 175
96 139 175
96 139 175
96 139 175
96 139 175
96 139 175
96 139 175
96 139 175
96 139 175
96 139 175
96 139 175
96 139 175
96 140 175
96 140 175
96 140 175
96 139 174
96 139 174
96 139 174
96 139 174
96 139 174
96 139 174
96 139 174
96 139 174
96 139 174
96 139 174
96 139 174
96 139 174
96 139 174
96 139 174
96 139 174
95 139 174
95 139 174
95 139 174
95 139 174
95 139 174
95 138 174
95 138 174
95 138 174
95 138 174
186 186 186
186 186 186
186 186 186
186 186 186
186 186 186
186 186 186
186 186 186
186 186 186
186 186 186
186 186 186
186 186 186
186 186 186
186 186 186
186 186 186
186 186 186
186 186 186
186 186 186
186 186 186
186 186 186
186 186 186
186 186 186
186 186 186
186 186 186
186 186 186
186 186 186
186 186 186
186 186 186
186 186 186
186 186 186
186 186 186
186 186 186
186 186 186
186 186 186
186 186 186
186 186 186
186 186 186
186 186 186
186 186 186
186 186 186
186 186 186
186 186 186
186 186 186
186 186 186
186 186 186
186 186 186
186 186 186
186 186 186
186 186 186
186 186 186
186 186 186
186 186 186
186 186 186
186 186 186
186 186 186
186 186 186
186 186 186
186 186 186
186 186 186
186 186 186
186 186 186
186 186 186
186 186 186
186 186 186
186 186 186
186 186 186
186 186 186
186 186 186
186 186 186
186 186 186
186 186 186
186 186 186
186 186 186
186 186 186
186 186 186
186 186 186
186 186 186
186 186 186
186 186 186
186 186 186
186 186 186
186 186 186
186 186 186
186 186 186
186 186 186
186 186 186
186 186 186
186 186 186
186 186 186
186 186 186
186 186 186
186 186 186
186 186 186
186 186 186
186 186 186
186 186 186
186 186 186
186 186 186
186 186 186
186 186 186
186 186 186
186 186 186
186 186 186
186 186 186
186 186 186
186 186 186
186 186 186
186 186 186
186 186 186
186 186 186
186 186 186
186 186 186
186 186 186
186 186 186
186 186 186
186 186 186
186 186 186
186 186 186
186 186 186
186 186 186
186 186 186
186 186 186
186 186 186
186 186 186
186 186 186
186 186 186
186 186 186
186 186 186
186 186 186
186 186 186
186 186 186
186 186 186
186 186 186
186 186 186
186 186 186
186 186 186
186 186 186
186 186 186
186 186 186
186 186 186
186 186 186
186 186 186
186 186 186
186 186 186
186 186 186
186 186 186
186 186 186
186 186 186
186 186 186
186 186 186
186 186 186
186 186 186
186 186 186
186 186 186
186 186 186
186 186 186
186 186 186
186 186 186
186 186 186
186 186 186
186 186 186
186 186 186
186 186 186
186 186 186
186 186 186
186 186 186
186 186 186
186 186 186
186 186 186
186 186 186
186 186 186
186 186 186
186 186 186
186 186 186
186 186 186
186 186 186
186 186 186
186 186 186
186 186 186
186 186 186
186 186 186
186 186 186
186 186 186
186 186 186
186 186 186
96 139 174
96 139 174
96 139 174
96 139 174
96 139 174
96 139 174
96 139 174
96 139 174
96 139 174
96 139 174
96 139 174
96 139 174
96 139 174
96 139 174
96 139 174
96 139 174
96 139 174
96 139 174
96 139 174
96 139 174
96 139 174
96 139 174
96 139 174
96 139 174
96 139 174
96 139 174
96 139 174
96 139 174
96 139 174
96 139 174
96 139 174
96 139 174
96 139 175
96 139 175
96 139 175
96 139 175
96 139 175
96 139 175
96 139 175
96 139 175
96 139 175
96 139 175
96 139 175
96 139 175
96 139 175
96 139 175
96 139 175
96 139 175
96 139 174
96 139 174
96 139 174
96 139 174
96 139 174
96 139 174
96 139 174
96 139 174
96 139 174
96 139 174
96 139 174
96 139 174
95 139 174
95 139 174
95 139 174
95 139 174
95 138 174
95 138 174
95 138 174
95 138 174
95 138 174
95 138 174
95 138 174
95 138 174
186 186 186
186 186 186
186 186 186
186 186 186
186 186 186
186 186 186
186 186 186
186 186 186
186 186 186
186 186 186
186 186 186
186 186 186
186 186 186
186 186 186
186 186 186
186 186 186
186 186 186
186 186 186
186 186 186
186 186 186
186 186 186
186 186 186
186 186 186
186 186 186
186 186 186
186 186 186
186 186 186
186 186 186
186 186 186
186 186 186
186 186 186
186 186 186
186 186 186
186 186 186
186 186 186
186 186 186
186 186 186
186 186 186
186 186 186
186 186 186
186 186 186
186 186 186
186 186 186
186 186 186
186 186 186
186 186 186
186 186 186
186 186 186
186 186 186
186 186 186
186 186 186
186 186 186
186 186 186
186 186 186
186 186 186
186 186 186
186 186 186
186 186 186
186 186 186
186 186 186
186 186 186
186 186 186
186 186 186
186 186 186
186 186 186
186 186 186
186 186 186
186 186 186
186 186 186
186 186 186
186 186 186
186 186 186
186 186 186
186 186 186
186 186 186
186 186 186
186 186 186
186 186 186
186 186 186
186 186 186
186 186 186
186 186 186
186 186 186
186 186 186
186 186 186
186 186 186
186 186 186
186 186 186
186 186 186
186 186 186
186 186 186
186 186 186
186 186 186
186 186 186
186 186 186
186 186 186
186 186 186
186 186 186
186 186 186
186 186 186
186 186 186
186 186 186
186 186 186
186 186 186
186 186 186
186 186 186
186 186 186
186 186 186
186 186 186
186 186 186
186 186 186
186 186 186
186 186 186
186 186 186
186 186 186
186 186 186
186 186 186
186 186 186
186 186 186
186 186 186
186 186 186
186 186 186
186 186 186
186 186 186
186 186 186
186 186 186
186 186 186
186 186 186
186 186 186
186 186 186
186 186 186
186 186 186
186 186 186
186 186 186
186 186 186
186 186 186
186 186 186
186 186 186
186 186 186
186 186 186
186 186 186
186 186 186
186 186 186
186 186 186
186 186 186
186 186 186
186 186 186
186 186 186
186 186 186
186 186 186
186 186 186
186 186 186
186 186 186
186 186 186
186 186 186
186 186 186
186 186 186
186 186 186
186 186 186
186 186 186
186 186 186
186 186 186
186 186 186
186 186 186
186 186 186
186 186 186
186 186 186
186 186 186
186 186 186
186 186 186
186 186 186
186 186 186
186 186 186
186 186 186
186 186 186
186 186 186
186 186 186
186 186 186
186 186 186
186 186 186
186 186 186
186 186 186
186 186 186
186 186 186
96 139 174
96 139 174
96 139 174
96 139 174
96 139 174
96 139 174
96 139 174
96 139 174
96 139 174
96 139 174
96 139 174
96 139 174
96 139 174
96 139 174
96 139 174
96 139 174
96 139 174
96 139 174
96 139 174
96 139 174
96 139 174
96 139 174
96 139 174
96 139 174
96 139 174
96 139 174
96 139 174
96 139 174
96 139 174
96 139 174
96 139 174
96 139 174
96 139 174
96 139 174
96 139 174
96 139 174
96 139 174
96 139 175
96 139 175
96 139 175
96 139 175
96 139 175
96 139 175
96 139 175
96 139 175
96 139 175
96 139 175
96 139 175
96 139 174
96 139 174
96 139 174
96 139 174
96 139 174
96 139 174
96 139 174
96 139 174
96 139 174
96 139 174
95 139 174
95 139 174
95 139 174
95 138 174
95 138 174
95 138 174
95 138 174
95 138 174
95 138 174
95 138 174
95 138 174
95 138 174
95 138 174
95 138 174
186 186 186
186 186 186
186 186 186
186 186 186
186 186 186
186 186 186
186 186 186
186 186 186
186 186 186
186 186 186
186 186 186
186 186 186
186 186 186
186 186 186
186 186 186
186 186 186
186 186 186
186 186 186
186 186 186
186 186 186
186 186 186
186 186 186
186 186 186
186 186 186
186 186 186
186 186 186
186 186 186
186 186 186
186 186 186
186 186 186
186 186 186
186 186 186
186 186 186
186 186 186
186 186 186
186 186 186
186 186 186
186 186 186
186 186 186
186 186 186
186 186 186
186 186 186
186 186 186
186 186 186
186 186 186
186 186 186
186 186 186
186 186 186
186 186 186
186 186 186
186 186 186
186 186 186
186 186 186
186 186 186
186 186 186
186 186 186
186 186 186
186 186 186
186 186 186
186 186 186
186 186 186
186 186 186
186 186 186
186 186 186
186 186 186
186 186 186
186 186 186
186 186 186
186 186 186
186 186 186
186 186 186
186 186 186
186 186 186
186 186 186
186 186 186
186 186 186
186 186 186
186 186 186
186 186 186
186 186 186
186 186 186
186 186 186
186 186 186
186 186 186
186 186 186
186 186 186
186 186 186
186 186 186
186 186 186
186 186 186
186 186 186
186 186 186
186 186 186
186 186 186
186 186 186
186 186 186
186 186 186
186 186 186
186 186 186
186 186 186
186 186 186
186 186 186
186 186 186
186 186 186
186 186 186
186 186 186
186 186 186
186 186 186
186 186 186
186 186 186
186 186 186
186 186 186
186 186 186
186 186 186
186 186 186
186 186 186
186 186 186
186 186 186
186 186 186
186 186 186
186 186 186
186 186 186
186 186 186
186 186 186
186 186 186
186 186 186
186 186 186
186 186 186
186 186 186
186 186 186
186 186 186
186 186 186
186 186 186
186 186 186
186 186 186
186 186 186
186 186 186
186 186 186
186 186 186
186 186 186
186 186 186
186 186 186
186 186 186
186 186 186
186 186 186
186 186 186
186 186 186
186 186 186
186 186 186
186 186 186
186 186 186
186 186 186
186 186 186
186 186 186
186 186 186
186 186 186
186 186 186
186 186 186
186 186 186
186 186 186
186 186 186
186 186 186
186 186 186
186 186 186
186 186 186
186 186 186
186 186 186
186 186 186
186 186 186
186 186 186
186 186 186
186 186 186
186 186 186
186 186 186
186 186 186
186 186 186
186 186 186
186 186 186
186 186 186
186 186 186
186 186 186
186 186 186
186 186 186
186 186 186
96 139 174
96 139 174
96 139 174
96 139 174
96 139 174
96 139 174
96 139 174
96 139 174
96 139 174
96 139 174
96 139 174
96 139 174
96 139 174
96 139 174
96 139 174
96 139 174
96 139 174
96 139 174
96 139 174
96 139 174
96 139 174
96 139 174
96 139 174
96 139 174
96 139 174
96 139 174
96 139 174
96 139 174
96 139 174
96 139 174
96 139 174
96 139 174
96 139 174
96 139 174
96 139 174
96 139 174
96 139 174
96 139 174
96 139 174
96 139 174
96 139 175
96 139 175
96 139 175
96 139 175
96 139 175
96 139 175
96 139 175
96 139 175
96 139 174
96 139 174
96 139 174
96 139 174
96 139 174
96 139 174
96 139 174
96 139 174
95 139 174
95 139 174
95 138 174
95 138 174
95 138 174
95 138 174
95 138 174
95 138 174
95 138 174
95 138 174
95 138 174
95 138 174
95 138 174
95 138 174
95 138 174
95 138 174
186 186 186
186 186 186
186 186 186
186 186 186
186 186 186
186 186 186
186 186 186
186 186 186
186 186 186
186 186 186
186 186 186
186 186 186
186 186 186
186 186 186
186 186 186
186 186 186
186 186 186
186 186 186
186 186 186
186 186 186
186 186 186
186 186 186
186 186 186
186 186 186
186 186 186
186 186 186
186 186 186
186 186 186
186 186 186
186 186 186
186 186 186
186 186 186
186 186 186
186 186 186
186 186 186
186 186 186
186 186 186
186 186 186
186 186 186
186 186 186
186 186 186
186 186 186
186 186 186
186 186 186
186 186 186
186 186 186
186 186 186
186 186 186
186 186 186
186 186 186
186 186 186
186 186 186
186 186 186
186 186 186
186 186 186
186 186 186
186 186 186
186 186 186
186 186 186
186 186 186
186 186 186
186 186 186
186 186 186
186 186 186
186 186 186
186 186 186
186 186 186
186 186 186
186 186 186
186 186 186
186 186 186
186 186 186
186 186 186
186 186 186
186 186 186
186 186 186
186 186 186
186 186 186
186 186 186
186 186 186
186 186 186
186 186 186
186 186 186
186 186 186
186 186 186
186 186 186
186 186 186
186 186 186
186 186 186
186 186 186
186 186 186
186 186 186
186 186 186
186 186 186
186 186 186
186 186 186
186 186 186
186 186 186
186 186 186
186 186 186
186 186 186
186 186 186
186 186 186
186 186 186
186 186 186
186 186 186
186 186 186
186 186 186
186 186 186
186 186 186
186 186 186
186 186 186
186 186 186
186 186 186
186 186 186
186 186 186
186 186 186
186 186 186
186 186 186
186 186 186
186 186 186
186 186 186
186 186 186
186 186 186
186 186 186
186 186 186
186 186 186
186 186 186
186 186 186
186 186 186
186 186 186
186 186 186
186 186 186
186 186 186
186 186 186
186 186 186
186 186 186
186 186 186
186 186 186
186 186 186
186 186 186
186 186 186
186 186 186
186 186 186
186 186 186
186 186 186
186 186 186
186 186 186
186 186 186
186 186 186
186 186 186
186 186 186
186 186 186
186 186 186
186 186 186
186 186 186
186 186 186
186 186 186
186 186 186
186 186 186
186 186 186
186 186 186
186 186 186
186 186 186
186 186 186
186 186 186
186 186 186
186 186 186
186 186 186
186 186 186
186 186 186
186 186 186
186 186 186
186 186 186
186 186 186
186 186 186
186 186 186
186 186 186
186 186 186
186 186 186
186 186 186
186 186 186
186 186 186
186 186 186
96 139 174
96 139 174
96 139 174
96 139 174
96 139 174
96 139 174
96 139 174
96 139 174
96 139 174
96 139 174
96 139 174
96 139 174
96 139 174
96 139 174
96 139 174
96 139 174
96 139 174
96 139 174
96 139 174
96 139 174
96 139 174
96 139 174
96 139 174
96 139 174
96 139 174
96 139 174
96 139 174
96 139 174
96 139 174
96 139 174
96 139 174
96 139 174
96 139 174
96 139 174
96 139 174
96 139 174
96 139 174
96 139 174
96 139 174
96 139 174
96 139 174
96 139 174
96 139 174
96 139 174
96 139 175
96 139 175
96 139 175
96 139 175
96 139 174
96 139 174
96 139 174
96 139 174
96 139 174
95 139 174
95 139 174
95 139 174
95 138 174
95 138 174
95 138 174
95 138 174
95 138 174
95 138 174
95 138 174
95 138 174
95 138 174
95 138 174
95 138 174
95 138 174
95 138 174
95 138 174
95 138 174
95 138 174
186 186 186
186 186 186
186 186 186
186 186 186
186 186 186
186 186 186
186 186 186
186 186 186
186 186 186
186 186 186
186 186 186
186 186 186
186 186 186
186 186 186
186 186 186
186 186 186
186 186 186
186 186 186
186 186 186
186 186 186
186 186 186
186 186 186
186 186 186
186 186 186
186 186 186
186 186 186
186 186 186
186 186 186
186 186 186
186 186 186
186 186 186
186 186 186
186 186 186
186 186 186
186 186 186
186 186 186
186 186 186
186 186 186
186 186 186
186 186 186
186 186 186
186 186 186
186 186 186
186 186 186
186 186 186
186 186 186
186 186 186
186 186 186
186 186 186
186 186 186
186 186 186
186 186 186
186 186 186
186 186 186
186 186 186
186 186 186
186 186 186
186 186 186
186 186 186
186 186 186
186 186 186
186 186 186
186 186 186
186 186 186
186 186 186
186 186 186
186 186 186
186 186 186
186 186 186
186 186 186
186 186 186
186 186 186
186 186 186
186 186 186
186 186 186
186 186 186
186 186 186
186 186 186
186 186 186
186 186 186
186 186 186
186 186 186
186 186 186
186 186 186
186 186 186
186 186 186
186 186 186
186 186 186
186 186 186
186 186 186
186 186 186
186 186 186
186 186 186
186 186 186
186 186 186
186 186 186
186 186 186
186 186 186
186 186 186
186 186 186
186 186 186
186 186 186
186 186 186
186 186 186
186 186 186
186 186 186
186 186 186
186 186 186
186 186 186
186 186 186
186 186 186
186 186 186
186 186 186
186 186 186
186 186 186
186 186 186
186 186 186
186 186 186
186 186 186
186 186 186
186 186 186
186 186 186
186 186 186
186 186 186
186 186 186
186 186 186
186 186 186
186 186 186
186 186 186
186 186 186
186 186 186
186 186 186
186 186 186
186 186 186
186 186 186
186 186 186
186 186 186
186 186 186
186 186 186
186 186 186
186 186 186
186 186 186
186 186 186
186 186 186
186 186 186
186 186 186
186 186 186
186 186 186
186 186 186
186 186 186
186 186 186
186 186 186
186 186 186
186 186 186
186 186 186
186 186 186
186 186 186
186 186 186
186 186 186
186 186 186
186 186 186
186 186 186
186 186 186
186 186 186
186 186 186
186 186 186
186 186 186
186 186 186
186 186 186
186 186 186
186 186 186
186 186 186
186 186 186
186 186 186
186 186 186
186 186 186
186 186 186
186 186 186
186 186 186
186 186 186
186 186 186
186 186 186
186 186 186
186 186 186
95 139 174
95 139 174
95 139 174
95 139 174
95 139 174
95 139 174
95 139 174
96 139 174
96 139 174
96 139 174
96 139 174
96 139 174
96 139 174
96 139 174
96 139 174
96 139 174
96 139 174
96 139 174
96 139 174
96 139 174
96 139 174
96 139 174
96 139 174
96 139 174
96 139 174
96 139 174
96 139 174
96 139 174
96 139 174
96 139 174
96 139 174
96 139 174
96 139 174
96 139 174
96 139 174
96 139 174
96 139 174
96 139 174
96 139 174
96 139 174
96 139 174
96 139 174
96 139 174
96 139 174
96 139 174
96 139 174
96 139 174
96 139 174
96 139 174
96 139 174
96 139 174
96 139 174
95 139 174
95 139 174
95 138 174
95 138 174
95 138 174
95 138 174
95 138 174
95 138 174
95 138 174
95 138 174
95 138 174
95 138 174
95 138 174
95 138 174
95 138 174
95 138 173
95 138 173
95 138 173
95 138 173
95 138 173
186 186 186
186 186 186
186 186 186
186 186 186
186 186 186
186 186 186
186 186 186
186 186 186
186 186 186
186 186 186
186 186 186
186 186 186
186 186 186
186 186 186
186 186 186
186 186 186
186 186 186
186 186 186
186 186 186
186 186 186
186 186 186
186 186 186
186 186 186
186 186 186
186 186 186
186 186 186
186 186 186
186 186 186
186 186 186
186 186 186
186 186 186
186 186 186
186 186 186
186 186 186
186 186 186
186 186 186
186 186 186
186 186 186
186 186 186
186 186 186
186 186 186
186 186 186
186 186 186
186 186 186
186 186 186
186 186 186
186 186 186
186 186 186
186 186 186
186 186 186
186 186 186
186 186 186
186 186 186
186 186 186
186 186 186
186 186 186
186 186 186
186 186 186
186 186 186
186 186 186
186 186 186
186 186 186
186 186 186
186 186 186
186 186 186
186 186 186
186 186 186
186 186 186
186 186 186
186 186 186
186 186 186
186 186 186
186 186 186
186 186 186
186 186 186
186 186 186
186 186 186
186 186 186
186 186 186
186 186 186
186 186 186
186 186 186
186 186 186
186 186 186
186 186 186
186 186 186
186 186 186
186 186 186
186 186 186
186 186 186
186 186 186
186 186 186
186 186 186
186 186 186
186 186 186
186 186 186
186 186 186
186 186 186
186 186 186
186 186 186
186 186 186
186 186 186
186 186 186
186 186 186
186 186 186
186 186 186
186 186 186
186 186 186
186 186 186
186 186 186
186 186 186
186 186 186
186 186 186
186 186 186
186 186 186
186 186 186
186 186 186
186 186 186
186 186 186
186 186 186
186 186 186
186 186 186
186 186 186
186 186 186
186 186 186
186 186 186
186 186 186
186 186 186
186 186 186
186 186 186
186 186 186
186 186 186
186 186 186
186 186 186
186 186 186
186 186 186
186 186 186
186 186 186
186 186 186
186 186 186
186 186 186
186 186 186
186 186 186
186 186 186
186 186 186
186 186 186
186 186 186
186 186 186
186 186 186
186 186 186
186 186 186
186 186 186
186 186 186
186 186 186
186 186 186
186 186 186
186 186 186
186 186 186
186 186 186
186 186 186
186 186 186
186 186 186
186 186 186
186 186 186
186 186 186
186 186 186
186 186 186
186 186 186
186 186 186
186 186 186
186 186 186
186 186 186
186 186 186
186 186 186
186 186 186
186 186 186
186 186 186
186 186 186
186 186 186
186 186 186
186 186 186
186 186 186
186 186 186
186 186 186
95 138 174
95 138 174
95 138 174
95 139 174
95 139 174
95 139 174
95 139 174
95 139 174
95 139 174
95 139 174
95 139 174
95 139 174
95 139 174
95 139 174
95 139 174
95 139 174
96 139 174
96 139 174
96 139 174
96 139 174
96 139 174
96 139 174
96 139 174
96 139 174
96 139 174
96 139 174
96 139 174
96 139 174
96 139 174
96 139 174
96 139 174
96 139 174
96 139 174
96 139 174
96 139 174
96 139 174
96 139 174
96 139 174
96 139 174
96 139 174
96 139 174
96 139 174
96 139 174
96 139 174
96 139 174
96 139 174
96 139 174
96 139 174
96 139 174
96 139 174
95 139 174
95 139 174
95 138 174
95 138 174
95 138 174
95 138 174
95 138 174
95 138 174
95 138 174
95 138 174
95 138 174
95 138 174
95 138 174
95 138 174
95 138 174
95 138 173
95 138 173
95 138 173
95 138 173
95 138 173
95 138 173
95 138 173
186 186 186
186 186 186
186 186 186
186 186 186
186 186 186
186 186 186
186 186 186
186 186 186
186 186 186
186 186 186
186 186 186
186 186 186
186 186 186
186 186 186
186 186 186
186 186 186
186 186 186
186 186 186
186 186 186
186 186 186
186 186 186
186 186 186
186 186 186
186 186 186
186 186 186
186 186 186
186 186 186
186 186 186
186 186 186
186 186 186
186 186 186
186 186 186
186 186 186
186 186 186
186 186 186
186 186 186
186 186 186
186 186 186
186 186 186
186 186 186
186 186 186
186 186 186
186 186 186
186 186 186
186 186 186
186 186 186
186 186 186
186 186 186
186 186 186
186 186 186
186 186 186
186 186 186
186 186 186
186 186 186
186 186 186
186 186 186
186 186 186
186 186 186
186 186 186
186 186 186
186 186 186
186 186 186
186 186 186
186 186 186
186 186 186
186 186 186
186 186 186
186 186 186
186 186 186
186 186 186
186 186 186
186 186 186
186 186 186
186 186 186
186 186 186
186 186 186
186 186 186
186 186 186
186 186 186
186 186 186
186 186 186
186 186 186
186 186 186
186 186 186
186 186 186
186 186 186
186 186 186
186 186 186
186 186 186
186 186 186
186 186 186
186 186 186
186 186 186
186 186 186
186 186 186
186 186 186
186 186 186
186 186 186
186 186 186
186 186 186
186 186 186
186 186 186
186 186 186
186 186 186
186 186 186
186 186 186
186 186 186
186 186 186
186 186 186
186 186 186
186 186 186
186 186 186
186 186 186
186 186 186
186 186 186
186 186 186
186 186 186
186 186 186
186 186 186
186 186 186
186 186 186
186 186 186
186 186 186
186 186 186
186 186 186
186 186 186
186 186 186
186 186 186
186 186 186
186 186 186
186 186 186
186 186 186
186 186 186
186 186 186
186 186 186
186 186 186
186 186 186
186 186 186
186 186 186
186 186 186
186 186 186
186 186 186
186 186 186
186 186 186
186 186 186
186 186 186
186 186 186
186 186 186
186 186 186
186 186 186
186 186 186
186 186 186
186 186 186
186 186 186
186 186 186
186 186 186
186 186 186
186 186 186
186 186 186
186 186 186
186 186 186
186 186 186
186 186 186
186 186 186
186 186 186
186 186 186
186 186 186
186 186 186
186 186 186
186 186 186
186 186 186
186 186 186
186 186 186
186 186 186
186 186 186
186 186 186
186 186 186
186 186 186
186 186 186
186 186 186
186 186 186
186 186 186
186 186 186
186 186 186
95 138 174
95 138 174
95 138 174
95 138 174
95 138 174
95 138 174
95 138 174
95 138 174
95 138 174
95 138 174
95 138 174
95 138 174
95 138 174
95 138 174
95 138 174
95 139 174
95 139 174
95 139 174
95 139 174
95 139 174
95 139 174
95 139 174
95 139 174
96 139 174
95 139 174
96 139 174
96 139 174
96 139 174
96 139 174
96 139 174
96 139 174
96 139 174
96 139 174
96 139 174
96 139 174
96 139 174
96 139 174
96 139 174
96 139 174
96 139 174
96 139 174
96 139 174
96 139 174
96 139 174
96 139 174
96 139 174
96 139 174
96 139 174
95 139 174
95 139 174
95 138 174
95 138 174
95 138 174
95 138 174
95 138 174
95 138 174
95 138 174
95 138 174
95 138 174
95 138 174
95 138 174
95 138 173
95 138 173
95 138 173
95 138 173
95 138 173
95 138 173
95 138 173
95 138 173
95 138 173
95 138 173
95 138 173
186 186 186
186 186 186
186 186 186
186 186 186
186 186 186
186 186 186
186 186 186
186 186 186
186 186 186
186 186 186
186 186 186
186 186 186
186 186 186
186 186 186
186 186 186
186 186 186
186 186 186
186 186 186
186 186 186
186 186 186
186 186 186
186 186 186
186 186 186
186 186 186
186 186 186
186 186 186
186 186 186
186 186 186
186 186 186
186 186 186
186 186 186
186 186 186
186 186 186
186 186 186
186 186 186
186 186 186
186 186 186
186 186 186
186 186 186
186 186 186
186 186 186
186 186 186
186 186 186
186 186 186
186 186 186
186 186 186
186 186 186
186 186 186
186 186 186
186 186 186
186 186 186
186 186 186
186 186 186
186 186 186
186 186 186
186 186 186
186 186 186
186 186 186
186 186 186
186 186 186
186 186 186
186 186 186
186 186 186
186 186 186
186 186 186
186 186 186
186 186 186
186 186 186
186 186 186
186 186 186
186 186 186
186 186 186
186 186 186
186 186 186
186 186 186
186 186 186
186 186 186
186 186 186
186 186 186
186 186 186
186 186 186
186 186 186
186 186 186
186 186 186
186 186 186
186 186 186
186 186 186
186 186 186
186 186 186
186 186 186
186 186 186
186 186 186
186 186 186
186 186 186
186 186 186
186 186 186
186 186 186
186 186 186
186 186 186
186 186 186
186 186 186
186 186 186
186 186 186
186 186 186
186 186 186
186 186 186
186 186 186
186 186 186
186 186 186
186 186 186
186 186 186
186 186 186
186 186 186
186 186 186
186 186 186
186 186 186
186 186 186
186 186 186
186 186 186
186 186 186
186 186 186
186 186 186
186 186 186
186 186 186
186 186 186
186 186 186
186 186 186
186 186 186
186 186 186
186 186 186
186 186 186
186 186 186
186 186 186
186 186 186
186 186 186
186 186 186
186 186 186
186 186 186
186 186 186
186 186 186
186 186 186
186 186 186
186 186 186
186 186 186
186 186 186
186 186 186
186 186 186
186 186 186
186 186 186
186 186 186
186 186 186
186 186 186
186 186 186
186 186 186
186 186 186
186 186 186
186 186 186
186 186 186
186 186 186
186 186 186
186 186 186
186 186 186
186 186 186
186 186 186
186 186 186
186 186 186
186 186 186
186 186 186
186 186 186
186 186 186
186 186 186
186 186 186
186 186 186
186 186 186
186 186 186
186 186 186
186 186 186
186 186 186
186 186 186
186 186 186
186 186 186
186 186 186
186 186 186
186 186 186
95 138 174
95 138 174
95 138 174
95 138 174
95 138 174
95 138 174
95 138 174
95 138 174
95 138 174
95 138 174
95 138 174
95 138 174
95 138 174
95 138 174
95 138 174
95 138 174
95 138 174
95 138 174
95 138 174
95 138 174
95 138 174
95 138 174
95 139 174
95 139 174
95 139 174
95 139 174
95 139 174
95 139 174
95 139 174
95 139 174
96 139 174
96 139 174
96 139 174
96 139 174
96 139 174
96 139 174
96 139 174
96 139 174
96 139 174
96 139 174
96 139 174
96 139 174
96 139 174
96 139 174
96 139 174
96 139 174
96 139 174
96 139 174
95 139 174
95 138 174
95 138 174
95 138 174
95 138 174
95 138 174
95 138 174
95 138 174
95 138 174
95 138 174
95 138 174
95 138 173
95 138 173
95 138 173
95 138 173
95 138 173
95 138 173
95 138 173
95 138 173
95 138 173
95 138 173
95 138 173
95 138 173
95 138 173
186 186 186
186 186 186
186 186 186
186 186 186
186 186 186
186 186 186
186 186 186
186 186 186
186 186 186
186 186 186
186 186 186
186 186 186
186 186 186
186 186 186
186 186 186
186 186 186
186 186 186
186 186 186
186 186 186
186 186 186
186 186 186
186 186 186
186 186 186
186 186 186
186 186 186
186 186 186
186 186 186
186 186 186
186 186 186
186 186 186
186 186 186
186 186 186
186 186 186
186 186 186
186 186 186
186 186 186
186 186 186
186 186 186
186 186 186
186 186 186
186 186 186
186 186 186
186 186 186
186 186 186
186 186 186
186 186 186
186 186 186
186 186 186
186 186 186
186 186 186
186 186 186
186 186 186
186 186 186
186 186 186
186 186 186
186 186 186
186 186 186
186 186 186
186 186 186
186 186 186
186 186 186
186 186 186
186 186 186
186 186 186
186 186 186
186 186 186
186 186 186
186 186 186
186 186 186
186 186 186
186 186 186
186 186 186
186 186 186
186 186 186
186 186 186
186 186 186
186 186 186
186 186 186
186 186 186
186 186 186
186 186 186
186 186 186
186 186 186
186 186 186
186 186 186
186 186 186
186 186 186
186 186 186
186 186 186
186 186 186
186 186 186
186 186 186
186 186 186
186 186 186
186 186 186
186 186 186
186 186 186
186 186 186
186 186 186
186 186 186
186 186 186
186 186 186
186 186 186
186 186 186
186 186 186
186 186 186
186 186 186
186 186 186
186 186 186
186 186 186
186 186 186
186 186 186
186 186 186
186 186 186
186 186 186
186 186 186
186 186 186
186 186 186
186 186 186
186 186 186
186 186 186
186 186 186
186 186 186
186 186 186
186 186 186
186 186 186
186 186 186
186 186 186
186 186 186
186 186 186
186 186 186
186 186 186
186 186 186
186 186 186
186 186 186
186 186 186
186 186 186
186 186 186
186 186 186
186 186 186
186 186 186
186 186 186
186 186 186
186 186 186
186 186 186
186 186 186
186 186 186
186 186 186
186 186 186
186 186 186
186 186 186
186 186 186
186 186 186
186 186 186
186 186 186
186 186 186
186 186 186
186 186 186
186 186 186
186 186 186
186 186 186
186 186 186
186 186 186
186 186 186
186 186 186
186 186 186
186 186 186
186 186 186
186 186 186
186 186 186
186 186 186
186 186 186
186 186 186
186 186 186
186 186 186
186 186 186
186 186 186
186 186 186
186 186 186
186 186 186
186 186 186
186 186 186
186 186 186
186 186 186
95 138 174
95 138 174
95 138 174
95 138 174
95 138 174
95 138 174
95 138 174
95 138 174
95 138 174
95 138 174
95 138 174
95 138 174
95 138 174
95 138 174
95 138 174
95 138 174
95 138 174
95 138 174
95 138 174
95 138 174
95 138 174
95 138 174
95 138 174
95 138 174
95 138 174
95 138 174
95 138 174
95 138 174
95 139 174
95 139 174
95 139 174
95 139 174
95 139 174
95 139 174
96 139 174
96 139 174
96 139 174
96 139 174
96 139 174
96 139 174
96 139 174
96 139 174
96 139 174
96 139 174
96 139 174
96 139 174
96 139 174
96 139 174
95 138 174
95 138 174
95 138 174
95 138 174
95 138 174
95 138 174
95 138 174
95 138 174
95 138 174
95 138 173
95 138 173
95 138 173
95 138 173
95 138 173
95 138 173
95 138 173
95 138 173
95 138 173
95 138 173
95 138 173
95 138 173
95 138 173
95 138 173
95 138 173
186 186 186
186 186 186
186 186 186
186 186 186
186 186 186
186 186 186
186 186 186
186 186 186
186 186 186
186 186 186
186 186 186
186 186 186
186 186 186
186 186 186
186 186 186
186 186 186
186 186 186
186 186 186
186 186 186
186 186 186
186 186 186
186 186 186
186 186 186
186 186 186
186 186 186
186 186 186
186 186 186
186 186 186
186 186 186
186 186 186
186 186 186
186 186 186
186 186 186
186 186 186
186 186 186
186 186 186
186 186 186
186 186 186
186 186 186
186 186 186
186 186 186
186 186 186
186 186 186
186 186 186
186 186 186
186 186 186
186 186 186
186 186 186
186 186 186
186 186 186
186 186 186
186 186 186
186 186 186
186 186 186
186 186 186
186 186 186
186 186 186
186 186 186
186 186 186
186 186 186
186 186 186
186 186 186
186 186 186
186 186 186
186 186 186
186 186 186
186 186 186
186 186 186
186 186 186
186 186 186
186 186 186
186 186 186
186 186 186
186 186 186
186 186 186
186 186 186
186 186 186
186 186 186
186 186 186
186 186 186
186 186 186
186 186 186
186 186 186
186 186 186
186 186 186
186 186 186
186 186 186
186 186 186
186 186 186
186 186 186
186 186 186
186 186 186
186 186 186
186 186 186
186 186 186
186 186 186
186 186 186
186 186 186
186 186 186
186 186 186
186 186 186
186 186 186
186 186 186
186 186 186
186 186 186
186 186 186
186 186 186
186 186 186
186 186 186
186 186 186
186 186 186
186 186 186
186 186 186
186 186 186
186 186 186
186 186 186
186 186 186
186 186 186
186 186 186
186 186 186
186 186 186
186 186 186
186 186 186
186 186 186
186 186 186
186 186 186
186 186 186
186 186 186
186 186 186
186 186 186
186 186 186
186 186 186
186 186 186
186 186 186
186 186 186
186 186 186
186 186 186
186 186 186
186 186 186
186 186 186
186 186 186
186 186 186
186 186 186
186 186 186
186 186 186
186 186 186
186 186 186
186 186 186
186 186 186
186 186 186
186 186 186
186 186 186
186 186 186
186 186 186
186 186 186
186 186 186
186 186 186
186 186 186
186 186 186
186 186 186
186 186 186
186 186 186
186 186 186
186 186 186
186 186 186
186 186 186
186 186 186
186 186 186
186 186 186
186 186 186
186 186 186
186 186 186
186 186 186
186 186 186
186 186 186
186 186 186
186 186 186
186 186 186
186 186 186
186 186 186
186 186 186
186 186 186
186 186 186
186 186 186
95 138 174
95 138 174
95 138 174
95 138 174
95 138 174
95 138 174
95 138 174
95 138 174
95 138 174
95 138 174
95 138 174
95 138 174
95 138 174
95 138 174
95 138 174
95 138 174
95 138 174
95 138 174
95 138 174
95 138 174
95 138 174
95 138 174
95 138 174
95 138 174
95 138 174
95 138 174
95 138 174
95 138 174
95 138 174
95 138 174
95 138 174
95 139 174
95 138 174
95 139 174
95 139 174
95 139 174
95 139 174
95 139 174
96 139 174
95 139 174
96 139 174
96 139 174
96 139 174
96 139 174
96 139 174
96 139 174
96 139 174
96 139 174
95 138 174
95 138 174
95 138 174
95 138 174
95 138 174
95 138 174
95 138 173
95 138 173
95 138 173
95 138 173
95 138 173
95 138 173
95 138 173
95 138 173
95 138 173
95 138 173
95 138 173
95 138 173
95 138 173
95 138 173
95 138 173
95 138 173
95 138 173
95 138 173
186 186 186
186 186 186
186 186 186
186 186 186
186 186 186
186 186 186
186 186 186
186 186 186
186 186 186
186 186 186
186 186 186
186 186 186
186 186 186
186 186 186
186 186 186
186 186 186
186 186 186
186 186 186
186 186 186
186 186 186
186 186 186
186 186 186
186 186 186
186 186 186
186 186 186
186 186 186
186 186 186
186 186 186
186 186 186
186 186 186
186 186 186
186 186 186
186 186 186
186 186 186
186 186 186
186 186 186
186 186 186
186 186 186
186 186 186
186 186 186
186 186 186
186 186 186
186 186 186
186 186 186
186 186 186
186 186 186
186 186 186
186 186 186
186 186 186
186 186 186
186 186 186
186 186 186
186 186 186
186 186 186
186 186 186
186 186 186
186 186 186
186 186 186
186 186 186
186 186 186
186 186 186
186 186 186
186 186 186
186 186 186
186 186 186
186 186 186
186 186 186
186 186 186
186 186 186
186 186 186
186 186 186
186 186 186
186 186 186
186 186 186
186 186 186
186 186 186
186 186 186
186 186 186
186 186 186
186 186 186
186 186 186
186 186 186
186 186 186
186 186 186
186 186 186
186 186 186
186 186 186
186 186 186
186 186 186
186 186 186
186 186 186
186 186 186
186 186 186
186 186 186
186 186 186
186 186 186
186 186 186
186 186 186
186 186 186
186 186 186
186 186 186
186 186 186
186 186 186
186 186 186
186 186 186
186 186 186
186 186 186
186 186 186
186 186 186
186 186 186
186 186 186
186 186 186
186 186 186
186 186 186
186 186 186
186 186 186
186 186 186
186 186 186
186 186 186
186 186 186
186 186 186
186 186 186
186 186 186
186 186 186
186 186 186
186 186 186
186 186 186
186 186 186
186 186 186
186 186 186
186 186 186
186 186 186
186 186 186
186 186 186
186 186 186
186 186 186
186 186 186
186 186 186
186 186 186
186 186 186
186 186 186
186 186 186
186 186 186
186 186 186
186 186 186
186 186 186
186 186 186
186 186 186
186 186 186
186 186 186
186 186 186
186 186 186
186 186 186
186 186 186
186 186 186
186 186 186
186 186 186
186 186 186
186 186 186
186 186 186
186 186 186
186 186 186
186 186 186
186 186 186
186 186 186
186 186 186
186 186 186
186 186 186
186 186 186
186 186 186
186 186 186
186 186 186
186 186 186
186 186 186
186 186 186
186 186 186
186 186 186
186 186 186
186 186 186
186 186 186
186 186 186
186 186 186
186 186 186
186 186 186
95 138 173
95 138 173
95 138 173
95 138 174
95 138 174
95 138 174
95 138 174
95 138 174
95 138 174
95 138 174
95 138 174
95 138 174
95 138 174
95 138 174
95 138 174
95 138 174
95 138 174
95 138 174
95 138 174
95 138 174
95 138 174
95 138 174
95 138 174
95 138 174
95 138 174
95 138 174
95 138 174
95 138 174
95 138 174
95 138 174
95 138 174
95 138 174
95 138 174
95 138 174
95 138 174
95 138 174
95 138 174
95 139 174
95 139 174
95 139 174
95 139 174
95 139 174
95 139 174
96 139 174
96 139 174
96 139 174
96 139 174
96 139 174
95 138 174
95 138 174
95 138 174
95 138 174
95 138 174
95 138 173
95 138 173
95 138 173
95 138 173
95 138 173
95 138 173
95 138 173
95 138 173
95 138 173
95 138 173
95 138 173
95 138 173
95 138 173
95 138 173
95 138 173
95 138 173
95 138 173
95 138 173
95 138 173
186 186 186
186 186 186
186 186 186
186 186 186
186 186 186
186 186 186
186 186 186
186 186 186
186 186 186
186 186 186
186 186 186
186 186 186
186 186 186
186 186 186
186 186 186
186 186 186
186 186 186
186 186 186
186 186 186
186 186 186
186 186 186
186 186 186
186 186 186
186 186 186
186 186 186
186 186 186
186 186 186
186 186 186
186 186 186
186 186 186
186 186 186
186 186 186
186 186 186
186 186 186
186 186 186
186 186 186
186 186 186
186 186 186
186 186 186
186 186 186
186 186 186
186 186 186
186 186 186
186 186 186
186 186 186
186 186 186
186 186 186
186 186 186
186 186 186
186 186 186
186 186 186
186 186 186
186 186 186
186 186 186
186 186 186
186 186 186
186 186 186
186 186 186
186 186 186
186 186 186
186 186 186
186 186 186
186 186 186
186 186 186
186 186 186
186 186 186
186 186 186
186 186 186
186 186 186
186 186 186
186 186 186
186 186 186
186 186 186
186 186 186
186 186 186
186 186 186
186 186 186
186 186 186
186 186 186
186 186 186
186 186 186
186 186 186
186 186 186
186 186 186
186 186 186
186 186 186
186 186 186
186 186 186
186 186 186
186 186 186
186 186 186
186 186 186
186 186 186
186 186 186
186 186 186
186 186 186
186 186 186
186 186 186
186 186 186
186 186 186
186 186 186
186 186 186
186 186 186
186 186 186
186 186 186
186 186 186
186 186 186
186 186 186
186 186 186
186 186 186
186 186 186
186 186 186
186 186 186
186 186 186
186 186 186
186 186 186
186 186 186
186 186 186
186 186 186
186 186 186
186 186 186
186 186 186
186 186 186
186 186 186
186 186 186
186 186 186
186 186 186
186 186 186
186 186 186
186 186 186
186 186 186
186 186 186
186 186 186
186 186 186
186 186 186
186 186 186
186 186 186
186 186 186
186 186 186
186 186 186
186 186 186
186 186 186
186 186 186
186 186 186
186 186 186
186 186 186
186 186 186
186 186 186
186 186 186
186 186 186
186 186 186
186 186 186
186 186 186
186 186 186
186 186 186
186 186 186
186 186 186
186 186 186
186 186 186
186 186 186
186 186 186
186 186 186
186 186 186
186 186 186
186 186 186
186 186 186
186 186 186
186 186 186
186 186 186
186 186 186
186 186 186
186 186 186
186 186 186
186 186 186
186 186 186
186 186 186
186 186 186
186 186 186
186 186 186
186 186 186
186 186 186
186 186 186
186 186 186
186 186 186
95 138 173
95 138 173
95 138 173
95 138 173
95 138 173
95 138 173
95 138 173
95 138 173
95 138 173
95 138 173
95 138 173
95 138 173
95 138 174
95 138 174
95 138 174
95 138 174
95 138 174
95 138 174
95 138 174
95 138 174
95 138 174
95 138 174
95 138 174
95 138 174
95 138 174
95 138 174
95 138 174
95 138 174
95 138 174
95 138 174
95 138 174
95 138 174
95 138 174
95 138 174
95 138 174
95 138 174
95 138 174
95 138 174
95 138 174
95 138 174
95 139 174
95 139 174
95 139 174
95 139 174
95 139 174
95 139 174
96 139 174
96 139 174
95 138 174
95 138 174
95 138 174
95 138 173
95 138 173
95 138 173
95 138 173
95 138 173
95 138 173
95 138 173
95 138 173
95 138 173
95 138 173
95 138 173
95 138 173
95 138 173
95 138 173
95 138 173
95 138 173
95 137 173
95 137 173
95 137 173
95 137 173
95 137 173
186 186 186
186 186 186
186 186 186
186 186 186
186 186 186
186 186 186
186 186 186
186 186 186
186 186 186
186 186 186
186 186 186
186 186 186
186 186 186
186 186 186
186 186 186
186 186 186
186 186 186
186 186 186
186 186 186
186 186 186
186 186 186
186 186 186
186 186 186
186 186 186
186 186 186
186 186 186
186 186 186
186 186 186
186 186 186
186 186 186
186 186 186
186 186 186
186 186 186
186 186 186
186 186 186
186 186 186
186 186 186
186 186 186
186 186 186
186 186 186
186 186 186
186 186 186
186 186 186
186 186 186
186 186 186
186 186 186
186 186 186
186 186 186
186 186 186
186 186 186
186 186 186
186 186 186
186 186 186
186 186 186
186 186 186
186 186 186
186 186 186
186 186 186
186 186 186
186 186 186
186 186 186
186 186 186
186 186 186
186 186 186
186 186 186
186 186 186
186 186 186
186 186 186
186 186 186
186 186 186
186 186 186
186 186 186
186 186 186
186 186 186
186 186 186
186 186 186
186 186 186
186 186 186
186 186 186
186 186 186
186 186 186
186 186 186
186 186 186
186 186 186
186 186 186
186 186 186
186 186 186
186 186 186
186 186 186
186 186 186
186 186 186
186 186 186
186 186 186
186 186 186
186 186 186
186 186 186
186 186 186
186 186 186
186 186 186
186 186 186
186 186 186
186 186 186
186 186 186
186 186 186
186 186 186
186 186 186
186 186 186
186 186 186
186 186 186
186 186 186
186 186 186
186 186 186
186 186 186
186 186 186
186 186 186
186 186 186
186 186 186
186 186 186
186 186 186
186 186 186
186 186 186
186 186 186
186 186 186
186 186 186
186 186 186
186 186 186
186 186 186
186 186 186
186 186 186
186 186 186
186 186 186
186 186 186
186 186 186
186 186 186
186 186 186
186 186 186
186 186 186
186 186 186
186 186 186
186 186 186
186 186 186
186 186 186
186 186 186
186 186 186
186 186 186
186 186 186
186 186 186
186 186 186
186 186 186
186 186 186
186 186 186
186 186 186
186 186 186
186 186 186
186 186 186
186 186 186
186 186 186
186 186 186
186 186 186
186 186 186
186 186 186
186 186 186
186 186 186
186 186 186
186 186 186
186 186 186
186 186 186
186 186 186
186 186 186
186 186 186
186 186 186
186 186 186
186 186 186
186 186 186
186 186 186
186 186 186
186 186 186
186 186 186
186 186 186
186 186 186
186 186 186
186 186 186
186 186 186
186 186 186
95 138 173
95 138 173
95 138 173
95 138 173
95 138 173
95 138 173
95 138 173
95 138 173
95 138 173
95 138 173
95 138 173
95 138 173
95 138 173
95 138 173
95 138 173
95 138 173
95 138 173
95 138 173
95 138 173
95 138 173
95 138 174
95 138 174
95 138 174
95 138 174
95 138 174
95 138 174
95 138 174
95 138 174
95 138 174
95 138 174
95 138 174
95 138 174
95 138 174
95 138 174
95 138 174
95 138 174
95 138 174
95 138 174
95 138 174
95 138 174
95 138 174
95 138 174
95 138 174
95 138 174
95 138 174
95 139 174
95 139 174
95 139 174
95 138 174
95 138 173
95 138 173
95 138 173
95 138 173
95 138 173
95 138 173
95 138 173
95 138 173
95 138 173
95 138 173
95 138 173
95 138 173
95 138 173
95 138 173
95 137 173
94 137 173
94 137 173
94 137 173
94 137 173
94 137 173
94 137 173
94 137 173
94 137 173
186 186 186
186 186 186
186 186 186
186 186 186
186 186 186
186 186 186
186 186 186
186 186 186
186 186 186
186 186 186
186 186 186
186 186 186
186 186 186
186 186 186
186 186 186
186 186 186
186 186 186
186 186 186
186 186 186
186 186 186
186 186 186
186 186 186
186 186 186
186 186 186
186 186 186
186 186 186
186 186 186
186 186 186
186 186 186
186 186 186
186 186 186
186 186 186
186 186 186
186 186 186
186 186 186
186 186 186
186 186 186
186 186 186
186 186 186
186 186 186
186 186 186
186 186 186
186 186 186
186 186 186
186 186 186
186 186 186
186 186 186
186 186 186
186 186 186
186 186 186
186 186 186
186 186 186
186 186 186
186 186 186
186 186 186
186 186 186
186 186 186
186 186 186
186 186 186
186 186 186
186 186 186
186 186 186
186 186 186
186 186 186
186 186 186
186 186 186
186 186 186
186 186 186
186 186 186
186 186 186
186 186 186
186 186 186
186 186 186
186 186 186
186 186 186
186 186 186
186 186 186
186 186 186
186 186 186
186 186 186
186 186 186
186 186 186
186 186 186
186 186 186
186 186 186
186 186 186
186 186 186
186 186 186
186 186 186
186 186 186
186 186 186
186 186 186
186 186 186
186 186 186
186 186 186
186 186 186
186 186 186
186 186 186
186 186 186
186 186 186
186 186 186
186 186 186
186 186 186
186 186 186
186 186 186
186 186 186
186 186 186
186 186 186
186 186 186
186 186 186
186 186 186
186 186 186
186 186 186
186 186 186
186 186 186
186 186 186
186 186 186
186 186 186
186 186 186
186 186 186
186 186 186
186 186 186
186 186 186
186 186 186
186 186 186
186 186 186
186 186 186
186 186 186
186 186 186
186 186 186
186 186 186
186 186 186
186 186 186
186 186 186
186 186 186
186 186 186
186 186 186
186 186 186
186 186 186
186 186 186
186 186 186
186 186 186
186 186 186
186 186 186
186 186 186
186 186 186
186 186 186
186 186 186
186 186 186
186 186 186
186 186 186
186 186 186
186 186 186
186 186 186
186 186 186
186 186 186
186 186 186
186 186 186
186 186 186
186 186 186
186 186 186
186 186 186
186 186 186
186 186 186
186 186 186
186 186 186
186 186 186
186 186 186
186 186 186
186 186 186
186 186 186
186 186 186
186 186 186
186 186 186
186 186 186
186 186 186
186 186 186
186 186 186
186 186 186
186 186 186
186 186 186
186 186 186
186 186 186
186 186 186
95 138 173
95 138 173
95 138 173
95 138 173
95 138 173
95 138 173
95 138 173
95 138 173
95 138 173
95 138 173
95 138 173
95 138 173
95 138 173
95 138 173
95 138 173
95 138 173
95 138 173
95 138 173
95 138 173
95 138 173
95 138 173
95 138 173
95 138 173
95 138 173
95 138 173
95 138 174
95 138 174
95 138 174
95 138 174
95 138 174
95 138 174
95 138 174
95 138 174
95 138 174
95 138 174
95 138 174
95 138 174
95 138 174
95 138 174
95 138 174
95 138 174
95 138 174
95 138 174
95 138 174
95 138 174
95 138 174
95 138 174
95 139 174
95 138 173
95 138 173
95 138 173
95 138 173
95 138 173
95 138 173
95 138 173
95 138 173
95 138 173
95 138 173
95 138 173
95 138 173
95 137 173
95 137 173
94 137 173
94 137 173
94 137 173
94 137 173
94 137 173
94 137 173
94 137 173
94 137 173
94 137 173
94 137 173
186 186 186
186 186 186
186 186 186
186 186 186
186 186 186
186 186 186
186 186 186
186 186 186
186 186 186
186 186 186
186 186 186
186 186 186
186 186 186
186 186 186
186 186 186
186 186 186
186 186 186
186 186 186
186 186 186
186 186 186
186 186 186
186 186 186
186 186 186
186 186 186
186 186 186
186 186 186
186 186 186
186 186 186
186 186 186
186 186 186
186 186 186
186 186 186
186 186 186
186 186 186
186 186 186
186 186 186
186 186 186
186 186 186
186 186 186
186 186 186
186 186 186
186 186 186
186 186 186
186 186 186
186 186 186
186 186 186
186 186 186
186 186 186
186 186 186
186 186 186
186 186 186
186 186 186
186 186 186
186 186 186
186 186 186
186 186 186
186 186 186
186 186 186
186 186 186
186 186 186
186 186 186
186 186 186
186 186 186
186 186 186
186 186 186
186 186 186
186 186 186
186 186 186
186 186 186
186 186 186
186 186 186
186 186 186
186 186 186
186 186 186
186 186 186
186 186 186
186 186 186
186 186 186
186 186 186
186 186 186
186 186 186
186 186 186
186 186 186
186 186 186
186 186 186
186 186 186
186 186 186
186 186 186
186 186 186
186 186 186
186 186 186
186 186 186
186 186 186
186 186 186
186 186 186
186 186 186
186 186 186
186 186 186
186 186 186
186 186 186
186 186 186
186 186 186
186 186 186
186 186 186
186 186 186
186 186 186
186 186 186
186 186 186
186 186 186
186 186 186
186 186 186
186 186 186
186 186 186
186 186 186
186 186 186
186 186 186
186 186 186
186 186 186
186 186 186
186 186 186
186 186 186
186 186 186
186 186 186
186 186 186
186 186 186
186 186 186
186 186 186
186 186 186
186 186 186
186 186 186
186 186 186
186 186 186
186 186 186
186 186 186
186 186 186
186 186 186
186 186 186
186 186 186
186 186 186
186 186 186
186 186 186
186 186 186
186 186 186
186 186 186
186 186 186
186 186 186
186 186 186
186 186 186
186 186 186
186 186 186
186 186 186
186 186 186
186 186 186
186 186 186
186 186 186
186 186 186
186 186 186
186 186 186
186 186 186
186 186 186
186 186 186
186 186 186
186 186 186
186 186 186
186 186 186
186 186 186
186 186 186
186 186 186
186 186 186
186 186 186
186 186 186
186 186 186
186 186 186
186 186 186
186 186 186
186 186 186
186 186 186
186 186 186
186 186 186
186 186 186
186 186 186
186 186 186
186 186 186
186 186 186
95 138 173
95 138 173
95 138 173
95 138 173
95 138 173
95 138 173
95 138 173
95 138 173
95 138 173
95 138 173
95 138 173
95 138 173
95 138 173
95 138 173
95 138 173
95 138 173
95 138 173
95 138 173
95 138 173
95 138 173
95 138 173
95 138 173
95 138 173
95 138 173
95 138 173
95 138 173
95 138 173
95 138 173
95 138 173
95 138 173
95 138 174
95 138 174
95 138 174
95 138 174
95 138 174
95 138 174
95 138 174
95 138 174
95 138 174
95 138 174
95 138 174
95 138 174
95 138 174
95 138 174
95 138 174
95 138 174
95 138 174
95 138 174
95 138 173
95 138 173
95 138 173
95 138 173
95 138 173
95 138 173
95 138 173
95 138 173
95 138 173
95 138 173
95 137 173
94 137 173
94 137 173
94 137 173
94 137 173
94 137 173
94 137 173
94 137 173
94 137 173
94 137 173
94 137 173
94 137 173
94 137 173
94 137 173
186 186 186
186 186 186
186 186 186
186 186 186
186 186 186
186 186 186
186 186 186
186 186 186
186 186 186
186 186 186
186 186 186
186 186 186
186 186 186
186 186 186
186 186 186
186 186 186
186 186 186
186 186 186
186 186 186
186 186 186
186 186 186
186 186 186
186 186 186
186 186 186
186 186 186
186 186 186
186 186 186
186 186 186
186 186 186
186 186 186
186 186 186
186 186 186
186 186 186
186 186 186
186 186 186
186 186 186
186 186 186
186 186 186
186 186 186
186 186 186
186 186 186
186 186 186
186 186 186
186 186 186
186 186 186
186 186 186
186 186 186
186 186 186
186 186 186
186 186 186
186 186 186
186 186 186
186 186 186
186 186 186
186 186 186
186 186 186
186 186 186
186 186 186
186 186 186
186 186 186
186 186 186
186 186 186
186 186 186
186 186 186
186 186 186
186 186 186
186 186 186
186 186 186
186 186 186
186 186 186
186 186 186
186 186 186
186 186 186
186 186 186
186 186 186
186 186 186
186 186 186
186 186 186
186 186 186
186 186 186
186 186 186
186 186 186
186 186 186
186 186 186
186 186 186
186 186 186
186 186 186
186 186 186
186 186 186
186 186 186
186 186 186
186 186 186
186 186 186
186 186 186
186 186 186
186 186 186
186 186 186
186 186 186
186 186 186
186 186 186
186 186 186
186 186 186
186 186 186
186 186 186
186 186 186
186 186 186
186 186 186
186 186 186
186 186 186
186 186 186
186 186 186
186 186 186
186 186 186
186 186 186
186 186 186
186 186 186
186 186 186
186 186 186
186 186 186
186 186 186
186 186 186
186 186 186
186 186 186
186 186 186
186 186 186
186 186 186
186 186 186
186 186 186
186 186 186
186 186 186
186 186 186
186 186 186
186 186 186
186 186 186
186 186 186
186 186 186
186 186 186
186 186 186
186 186 186
186 186 186
186 186 186
186 186 186
186 186 186
186 186 186
186 186 186
186 186 186
186 186 186
186 186 186
186 186 186
186 186 186
186 186 186
186 186 186
186 186 186
186 186 186
186 186 186
186 186 186
186 186 186
186 186 186
186 186 186
186 186 186
186 186 186
186 186 186
186 186 186
186 186 186
186 186 186
186 186 186
186 186 186
186 186 186
186 186 186
186 186 186
186 186 186
186 186 186
186 186 186
186 186 186
186 186 186
186 186 186
186 186 186
186 186 186
186 186 186
186 186 186
186 186 186
186 186 186
186 186 186
186 186 186
95 138 173
95 138 173
95 138 173
95 138 173
95 138 173
95 138 173
95 138 173
95 138 173
95 138 173
95 138 173
95 138 173
95 138 173
95 138 173
95 138 173
95 138 173
95 138 173
95 138 173
95 138 173
95 138 173
95 138 173
95 138 173
95 138 173
95 138 173
95 138 173
95 138 173
95 138 173
95 138 173
95 138 173
95 138 173
95 138 173
95 138 173
95 138 173
95 138 173
95 138 173
95 138 173
95 138 174
95 138 174
95 138 174
95 138 174
95 138 174
95 138 174
95 138 174
95 138 174
95 138 174
95 138 174
95 138 174
95 138 174
95 138 174
95 138 173
95 138 173
95 138 173
95 138 173
95 138 173
95 138 173
95 138 173
95 138 173
95 137 173
94 137 173
94 137 173
94 137 173
94 137 173
94 137 173
94 137 173
94 137 173
94 137 173
94 137 173
94 137 173
94 137 173
94 137 173
94 137 173
94 137 173
94 137 173
186 186 186
186 186 186
186 186 186
186 186 186
186 186 186
186 186 186
186 186 186
186 186 186
186 186 186
186 186 186
186 186 186
186 186 186
186 186 186
186 186 186
186 186 186
186 186 186
186 186 186
186 186 186
186 186 186
186 186 186
186 186 186
186 186 186
186 186 186
186 186 186
186 186 186
186 186 186
186 186 186
186 186 186
186 186 186
186 186 186
186 186 186
186 186 186
186 186 186
186 186 186
186 186 186
186 186 186
186 186 186
186 186 186
186 186 186
186 186 186
186 186 186
186 186 186
186 186 186
186 186 186
186 186 186
186 186 186
186 186 186
186 186 186
186 186 186
186 186 186
186 186 186
186 186 186
186 186 186
186 186 186
186 186 186
186 186 186
186 186 186
186 186 186
186 186 186
186 186 186
186 186 186
186 186 186
186 186 186
186 186 186
186 186 186
186 186 186
186 186 186
186 186 186
186 186 186
186 186 186
186 186 186
186 186 186
186 186 186
186 186 186
186 186 186
186 186 186
186 186 186
186 186 186
186 186 186
186 186 186
186 186 186
186 186 186
186 186 186
186 186 186
186 186 186
186 186 186
186 186 186
186 186 186
186 186 186
186 186 186
186 186 186
186 186 186
186 186 186
186 186 186
186 186 186
186 186 186
186 186 186
186 186 186
186 186 186
186 186 186
186 186 186
186 186 186
186 186 186
186 186 186
186 186 186
186 186 186
186 186 186
186 186 186
186 186 186
186 186 186
186 186 186
186 186 186
167 167 167
167 167 167
167 167 167
167 167 167
167 167 167
167 167 167
167 167 167
167 167 167
167 167 167
167 167 167
167 167 167
167 167 167
167 167 167
167 167 167
167 167 167
167 167 167
167 167 167
167 167 167
167 167 167
167 167 167
167 167 167
167 167 167
167 167 167
167 167 167
167 167 167
167 167 167
167 167 167
167 167 167
167 167 167
167 167 167
167 167 167
167 167 167
167 167 167
167 167 167
167 167 167
167 167 167
167 167 167
167 167 167
167 167 167
167 167 167
167 167 167
167 167 167
167 167 167
167 167 167
167 167 167
167 167 167
167 167 167
167 167 167
167 167 167
167 167 167
167 167 167
167 167 167
167 167 167
167 167 167
167 167 167
167 167 167
167 167 167
167 167 167
167 167 167
167 167 167
167 167 167
167 167 167
167 167 167
167 167 167
167 167 167
167 167 167
167 167 167
167 167 167
167 167 167
167 167 167
167 167 167
167 167 167
95 138 173
95 138 173
95 138 173
95 137 173
95 138 173
95 138 173
95 138 173
95 138 173
95 138 173
95 138 173
95 138 173
95 138 173
95 138 173
95 138 173
95 138 173
95 138 173
95 138 173
95 138 173
95 138 173
95 138 173
95 138 173
95 138 173
95 138 173
95 138 173
95 138 173
95 138 173
95 138 173
95 138 173
95 138 173
95 138 173
95 138 173
95 138 173
95 138 173
95 138 173
95 138 173
95 138 173
95 138 173
95 138 173
95 138 173
95 138 173
95 138 173
95 138 174
95 138 174
95 138 174
95 138 174
95 138 174
95 138 174
95 138 174
95 138 173
95 138 173
95 138 173
95 138 173
95 138 173
95 138 173
95 137 173
94 137 173
94 137 173
94 137 173
94 137 173
94 137 173
94 137 173
94 137 173
94 137 173
94 137 173
94 137 173
94 137 173
94 137 173
94 137 173
94 137 173
94 137 173
94 137 173
94 137 173
167 167 167
167 167 167
167 167 167
167 167 167
167 167 167
167 167 167
167 167 167
167 167 167
167 167 167
167 167 167
167 167 167
167 167 167
167 167 167
167 167 167
167 167 167
167 167 167
167 167 167
167 167 167
167 167 167
167 167 167
167 167 167
167 167 167
167 167 167
167 167 167
167 167 167
167 167 167
167 167 167
167 167 167
167 167 167
167 167 167
167 167 167
167 167 167
167 167 167
167 167 167
167 167 167
167 167 167
167 167 167
167 167 167
167 167 167
167 167 167
167 167 167
167 167 167
167 167 167
167 167 167
167 167 167
167 167 167
167 167 167
167 167 167
167 167 167
167 167 167
167 167 167
167 167 167
167 167 167
167 167 167
167 167 167
167 167 167
167 167 167
167 167 167
167 167 167
167 167 167
167 167 167
167 167 167
167 167 167
167 167 167
167 167 167
167 167 167
167 167 167
167 167 167
167 167 167
167 167 167
167 167 167
167 167 167
167 167 167
167 167 167
186 186 186
186 186 186
186 186 186
186 186 186
186 186 186
186 186 186
186 186 186
186 186 186
186 186 186
186 186 186
186 186 186
186 186 186
186 186 186
186 186 186
186 186 186
186 186 186
186 186 186
186 186 186
186 186 186
186 186 186
186 186 186
186 186 186
186 186 186
186 186 186
186 186 186
186 186 186
186 186 186
186 186 186
186 186 186
186 186 186
186 186 186
186 186 186
186 186 186
186 186 186
186 186 186
186 186 186
167 167 167
167 167 167
167 167 167
167 167 167
167 167 167
167 167 167
167 167 167
167 167 167
167 167 167
167 167 167
167 167 167
167 167 167
167 167 167
167 167 167
167 167 167
167 167 167
167 167 167
167 167 167
167 167 167
167 167 167
167 167 167
167 167 167
167 167 167
167 167 167
167 167 167
167 167 167
167 167 167
167 167 167
167 167 167
167 167 167
167 167 167
167 167 167
167 167 167
167 167 167
167 167 167
167 167 167
167 167 167
167 167 167
167 167 167
167 167 167
167 167 167
167 167 167
167 167 167
167 167 167
167 167 167
167 167 167
167 167 167
167 167 167
167 167 167
167 167 167
167 167 167
167 167 167
167 167 167
167 167 167
167 167 167
167 167 167
167 167 167
167 167 167
167 167 167
167 167 167
167 167 167
167 167 167
167 167 167
167 167 167
167 167 167
167 167 167
167 167 167
167 167 167
167 167 167
167 167 167
167 167 167
167 167 167
167 167 167
167 167 167
94 137 173
94 137 173
94 137 173
94 137 173
94 137 173
94 137 173
94 137 173
94 137 173
94 137 173
94 137 173
94 137 173
94 137 173
94 137 173
95 137 173
94 137 173
95 137 173
95 138 173
95 138 173
95 138 173
95 138 173
95 138 173
95 138 173
95 138 173
95 138 173
95 138 173
95 138 173
95 138 173
95 138 173
95 138 173
95 138 173
95 138 173
95 138 173
95 138 173
95 138 173
95 138 173
95 138 173
95 138 173
95 138 173
95 138 173
95 138 173
95 138 173
95 138 173
95 138 173
95 138 174
95 138 174
95 138 174
95 138 174
95 138 174
95 138 173
95 138 173
95 138 173
95 138 173
95 137 173
94 137 173
94 137 173
94 137 173
94 137 173
94 137 173
94 137 173
94 137 173
94 137 173
94 137 173
94 137 173
94 137 173
94 137 173
94 137 173
94 137 173
94 137 173
94 137 173
94 137 172
94 137 172
94 137 172
167 167 167
167 167 167
167 167 167
167 167 167
167 167 167
167 167 167
167 167 167
167 167 167
167 167 167
167 167 167
167 167 167
167 167 167
167 167 167
167 167 167
167 167 167
167 167 167
167 167 167
167 167 167
167 167 167
167 167 167
167 167 167
167 167 167
167 167 167
167 167 167
167 167 167
167 167 167
167 167 167
167 167 167
167 167 167
167 167 167
167 167 167
167 167 167
167 167 167
167 167 167
167 167 167
167 167 167
167 167 167
167 167 167
167 167 167
167 167 167
167 167 167
167 167 167
167 167 167
167 167 167
167 167 167
167 167 167
167 167 167
167 167 167
167 167 167
167 167 167
167 167 167
167 167 167
167 167 167
167 167 167
167 167 167
167 167 167
167 167 167
167 167 167
167 167 167
167 167 167
167 167 167
167 167 167
167 167 167
167 167 167
167 167 167
167 167 167
167 167 167
167 167 167
167 167 167
167 167 167
167 167 167
167 167 167
167 167 167
167 167 167
167 167 167
167 167 167
186 186 186
186 186 186
186 186 186
186 186 186
186 186 186
186 186 186
186 186 186
186 186 186
186 186 186
186 186 186
186 186 186
186 186 186
186 186 186
186 186 186
186 186 186
186 186 186
186 186 186
186 186 186
186 186 186
186 186 186
186 186 186
186 186 186
186 186 186
186 186 186
186 186 186
186 186 186
186 186 186
186 186 186
186 186 186
186 186 186
186 186 186
167 167 167
167 167 167
167 167 167
167 167 167
167 167 167
167 167 167
167 167 167
167 167 167
167 167 167
167 167 167
167 167 167
167 167 167
167 167 167
167 167 167
167 167 167
167 167 167
167 167 167
167 167 167
167 167 167
167 167 167
167 167 167
167 167 167
167 167 167
167 167 167
167 167 167
167 167 167
167 167 167
167 167 167
167 167 167
167 167 167
167 167 167
167 167 167
167 167 167
167 167 167
167 167 167
167 167 167
167 167 167
167 167 167
167 167 167
167 167 167
167 167 167
167 167 167
167 167 167
167 167 167
167 167 167
167 167 167
167 167 167
167 167 167
167 167 167
167 167 167
167 167 167
167 167 167
167 167 167
167 167 167
167 167 167
167 167 167
167 167 167
167 167 167
167 167 167
167 167 167
167 167 167
167 167 167
167 167 167
167 167 167
167 167 167
167 167 167
167 167 167
167 167 167
167 167 167
167 167 167
167 167 167
167 167 167
167 167 167
167 167 167
167 167 167
167 167 167
167 167 167
94 137 173
94 137 173
94 137 173
94 137 173
94 137 173
94 137 173
94 137 173
94 137 173
94 137 173
94 137 173
94 137 173
94 137 173
94 137 173
94 137 173
94 137 173
94 137 173
94 137 173
94 137 173
94 137 173
94 137 173
94 137 173
94 137 173
94 137 173
95 137 173
95 137 173
95 138 173
95 138 173
95 138 173
95 138 173
95 138 173
95 138 173
95 138 173
95 138 173
95 138 173
95 138 173
95 138 173
95 138 173
95 138 173
95 138 173
95 138 173
95 138 173
95 138 173
95 138 173
95 138 173
95 138 173
95 138 173
95 138 173
95 138 174
95 138 173
95 138 173
95 138 173
95 137 173
94 137 173
94 137 173
94 137 173
94 137 173
94 137 173
94 137 173
94 137 173
94 137 173
94 137 173
94 137 173
94 137 173
94 137 173
94 137 173
94 137 172
94 137 172
94 137 172
94 137 172
94 137 172
94 137 172
94 137 172
167 167 167
167 167 167
167 167 167
167 167 167
167 167 167
167 167 167
167 167 167
167 167 167
167 167 167
167 167 167
167 167 167
167 167 167
167 167 167
167 167 167
167 167 167
167 167 167
167 167 167
167 167 167
167 167 167
167 167 167
167 167 167
167 167 167
167 167 167
167 167 167
167 167 167
167 167 167
167 167 167
167 167 167
167 167 167
167 167 167
167 167 167
167 167 167
167 167 167
167 167 167
167 167 167
167 167 167
167 167 167
167 167 167
167 167 167
167 167 167
167 167 167
167 167 167
167 167 167
167 167 167
167 167 167
167 167 167
167 167 167
167 167 167
167 167 167
167 167 167
167 167 167
167 167 167
167 167 167
167 167 167
167 167 167
167 167 167
167 167 167
167 167 167
167 167 167
167 167 167
167 167 167
167 167 167
167 167 167
167 167 167
167 167 167
167 167 167
167 167 167
167 167 167
167 167 167
167 167 167
167 167 167
167 167 167
167 167 167
167 167 167
167 167 167
167 167 167
167 167 167
167 167 167
167 167 167
186 186 186
186 186 186
186 186 186
186 186 186
186 186 186
186 186 186
186 186 186
186 186 186
186 186 186
186 186 186
186 186 186
186 186 186
186 186 186
186 186 186
186 186 186
186 186 186
186 186 186
186 186 186
186 186 186
186 186 186
186 186 186
186 186 186
186 186 186
186 186 186
186 186 186
186 186 186
167 167 167
167 167 167
167 167 167
167 167 167
167 167 167
167 167 167
167 167 167
167 167 167
167 167 167
167 167 167
167 167 167
167 167 167
167 167 167
167 167 167
167 167 167
167 167 167
167 167 167
167 167 167
167 167 167
167 167 167
167 167 167
167 167 167
167 167 167
167 167 167
167 167 167
167 167 167
167 167 167
167 167 167
167 167 167
167 167 167
167 167 167
167 167 167
167 167 167
167 167 167
167 167 167
167 167 167
167 167 167
167 167 167
167 167 167
167 167 167
167 167 167
167 167 167
167 167 167
167 167 167
167 167 167
167 167 167
167 167 167
167 167 167
167 167 167
167 167 167
167 167 167
167 167 167
167 167 167
167 167 167
167 167 167
167 167 167
167 167 167
167 167 167
167 167 167
167 167 167
167 167 167
167 167 167
167 167 167
167 167 167
167 167 167
167 167 167
167 167 167
167 167 167
167 167 167
167 167 167
167 167 167
167 167 167
167 167 167
167 167 167
167 167 167
167 167 167
167 167 167
167 167 167
167 167 167
94 137 173
94 137 173
94 137 173
94 137 173
94 137 173
94 137 173
94 137 173
94 137 173
94 137 173
94 137 173
94 137 173
94 137 173
94 137 173
94 137 173
94 137 173
94 137 173
94 137 173
94 137 173
94 137 173
94 137 173
94 137 173
94 137 173
94 137 173
94 137 173
94 137 173
94 137 173
94 137 173
94 137 173
94 137 173
94 137 173
95 138 173
95 138 173
95 138 173
95 138 173
95 138 173
95 138 173
95 138 173
95 138 173
95 138 173
95 138 173
95 138 173
95 138 173
95 138 173
95 138 173
95 138 173
95 138 173
95 138 173
95 138 173
95 138 173
95 137 173
94 137 173
94 137 173
94 137 173
94 137 173
94 137 173
94 137 173
94 137 173
94 137 173
94 137 173
94 137 173
94 137 173
94 137 173
94 137 172
94 137 172
94 137 172
94 137 172
94 137 172
94 137 172
94 137 172
94 137 172
94 137 172
94 137 172
167 167 167
167 167 167
167 167 167
167 167 167
167 167 167
167 167 167
167 167 167
167 167 167
167 167 167
167 167 167
167 167 167
167 167 167
167 167 167
167 167 167
167 167 167
167 167 167
167 167 167
167 167 167
167 167 167
167 167 167
167 167 167
167 167 167
167 167 167
167 167 167
167 167 167
167 167 167
167 167 167
167 167 167
167 167 167
167 167 167
167 167 167
167 167 167
167 167 167
167 167 167
167 167 167
167 167 167
167 167 167
167 167 167
167 167 167
167 167 167
167 167 167
167 167 167
167 167 167
167 167 167
167 167 167
167 167 167
167 167 167
167 167 167
167 167 167
167 167 167
167 167 167
167 167 167
167 167 167
167 167 167
167 167 167
167 167 167
167 167 167
167 167 167
167 167 167
167 167 167
167 167 167
167 167 167
167 167 167
167 167 167
167 167 167
167 167 167
167 167 167
167 167 167
167 167 167
167 167 167
167 167 167
167 167 167
167 167 167
167 167 167
167 167 167
167 167 167
167 167 167
167 167 167
167 167 167
167 167 167
167 167 167
186 186 186
186 186 186
186 186 186
186 186 186
186 186 186
186 186 186
186 186 186
186 186 186
186 186 186
186 186 186
186 186 186
186 186 186
186 186 186
186 186 186
186 186 186
186 186 186
186 186 186
186 186 186
186 186 186
186 186 186
186 186 186
167 167 167
167 167 167
167 167 167
167 167 167
167 167 167
167 167 167
167 167 167
167 167 167
167 167 167
167 167 167
167 167 167
167 167 167
167 167 167
167 167 167
167 167 167
167 167 167
167 167 167
167 167 167
167 167 167
167 167 167
167 167 167
167 167 167
167 167 167
167 167 167
167 167 167
167 167 167
167 167 167
167 167 167
167 167 167
167 167 167
167 167 167
167 167 167
167 167 167
167 167 167
167 167 167
167 167 167
167 167 167
167 167 167
167 167 167
167 167 167
167 167 167
167 167 167
167 167 167
167 167 167
167 167 167
167 167 167
167 167 167
167 167 167
167 167 167
167 167 167
167 167 167
167 167 167
167 167 167
167 167 167
167 167 167
167 167 167
167 167 167
167 167 167
167 167 167
167 167 167
167 167 167
167 167 167
167 167 167
167 167 167
167 167 167
167 167 167
167 167 167
167 167 167
167 167 167
167 167 167
167 167 167
167 167 167
167 167 167
167 167 167
167 167 167
167 167 167
167 167 167
167 167 167
167 167 167
167 167 167
167 167 167
167 167 167
94 137 173
94 137 173
94 137 173
94 137 173
94 137 173
94 137 173
94 137 173
94 137 173
94 137 173
94 137 173
94 137 173
94 137 173
94 137 173
94 137 173
94 137 173
94 137 173
94 137 173
94 137 173
94 137 173
94 137 173
94 137 173
94 137 173
94 137 173
94 137 173
94 137 173
94 137 173
94 137 173
94 137 173
94 137 173
94 137 173
94 137 173
94 137 173
94 137 173
95 137 173
95 138 173
95 138 173
95 138 173
95 138 173
95 138 173
95 138 173
95 138 173
95 138 173
95 138 173
95 138 173
95 138 173
95 138 173
95 138 173
95 138 173
94 137 173
94 137 173
94 137 173
94 137 173
94 137 173
94 137 173
94 137 173
94 137 173
94 137 173
94 137 173
94 137 173
94 137 172
94 137 172
94 137 172
94 137 172
94 137 172
94 137 172
94 137 172
94 137 172
94 137 172
94 137 172
94 137 172
94 137 172
94 137 172
167 167 167
167 167 167
167 167 167
167 167 167
167 167 167
167 167 167
167 167 167
167 167 167
167 167 167
167 167 167
167 167 167
167 167 167
167 167 167
167 167 167
167 167 167
167 167 167
167 167 167
167 167 167
167 167 167
167 167 167
167 167 167
167 167 167
167 167 167
167 167 167
167 167 167
167 167 167
167 167 167
167 167 167
167 167 167
167 167 167
167 167 167
167 167 167
167 167 167
167 167 167
167 167 167
167 167 167
167 167 167
167 167 167
167 167 167
167 167 167
167 167 167
167 167 167
167 167 167
167 167 167
167 167 167
167 167 167
167 167 167
167 167 167
167 167 167
167 167 167
167 167 167
167 167 167
167 167 167
167 167 167
167 167 167
167 167 167
167 167 167
167 167 167
167 167 167
167 167 167
167 167 167
167 167 167
167 167 167
167 167 167
167 167 167
167 167 167
167 167 167
167 167 167
167 167 167
167 167 167
167 167 167
167 167 167
167 167 167
167 167 167
167 167 167
167 167 167
167 167 167
167 167 167
167 167 167
167 167 167
167 167 167
167 167 167
167 167 167
167 167 167
186 186 186
186 186 186
186 186 186
186 186 186
186 186 186
186 186 186
186 186 186
186 186 186
186 186 186
186 186 186
186 186 186
186 186 186
186 186 186
186 186 186
186 186 186
186 186 186
167 167 167
167 167 167
167 167 167
167 167 167
167 167 167
167 167 167
167 167 167
167 167 167
167 167 167
167 167 167
167 167 167
167 167 167
167 167 167
167 167 167
167 167 167
167 167 167
167 167 167
167 167 167
167 167 167
167 167 167
167 167 167
167 167 167
167 167 167
167 167 167
167 167 167
167 167 167
167 167 167
167 167 167
167 167 167
167 167 167
167 167 167
167 167 167
167 167 167
167 167 167
167 167 167
167 167 167
167 167 167
167 167 167
167 167 167
167 167 167
167 167 167
167 167 167
167 167 167
167 167 167
167 167 167
167 167 167
167 167 167
167 167 167
167 167 167
167 167 167
167 167 167
167 167 167
167 167 167
167 167 167
167 167 167
167 167 167
167 167 167
167 167 167
167 167 167
167 167 167
167 167 167
167 167 167
167 167 167
167 167 167
167 167 167
167 167 167
167 167 167
167 167 167
167 167 167
167 167 167
167 167 167
167 167 167
167 167 167
167 167 167
167 167 167
167 167 167
167 167 167
167 167 167
167 167 167
167 167 167
167 167 167
167 167 167
167 167 167
167 167 167
94 137 173
94 137 173
94 137 173
94 137 173
94 137 173
94 137 173
94 137 173
94 137 173
94 137 173
94 137 173
94 137 173
94 137 173
94 137 173
94 137 173
94 137 173
94 137 173
94 137 173
94 137 173
94 137 173
94 137 173
94 137 173
94 137 173
94 137 173
94 137 173
94 137 173
94 137 173
94 137 173
94 137 173
94 137 173
94 137 173
94 137 173
94 137 173
94 137 173
94 137 173
94 137 173
94 137 173
94 137 173
94 137 173
95 138 173
95 138 173
95 138 173
95 138 173
95 138 173
95 138 173
95 138 173
95 138 173
95 138 173
95 138 173
94 137 173
94 137 173
94 137 173
94 137 173
94 137 173
94 137 173
94 137 173
94 137 173
94 137 173
94 137 172
94 137 172
94 137 172
94 137 172
94 137 172
94 137 172
94 137 172
94 137 172
94 137 172
94 137 172
94 136 172
94 136 172
94 136 172
94 136 172
94 136 172
167 167 167
167 167 167
167 167 167
167 167 167
167 167 167
167 167 167
167 167 167
167 167 167
167 167 167
167 167 167
167 167 167
167 167 167
167 167 167
167 167 167
167 167 167
167 167 167
167 167 167
167 167 167
167 167 167
167 167 167
167 167 167
167 167 167
167 167 167
167 167 167
167 167 167
167 167 167
167 167 167
167 167 167
167 167 167
167 167 167
167 167 167
167 167 167
167 167 167
167 167 167
167 167 167
167 167 167
167 167 167
167 167 167
167 167 167
167 167 167
167 167 167
167 167 167
167 167 167
167 167 167
167 167 167
167 167 167
167 167 167
167 167 167
167 167 167
167 167 167
167 167 167
167 167 167
167 167 167
167 167 167
167 167 167
167 167 167
167 167 167
167 167 167
167 167 167
167 167 167
167 167 167
167 167 167
167 167 167
167 167 167
167 167 167
167 167 167
167 167 167
167 167 167
167 167 167
167 167 167
167 167 167
167 167 167
167 167 167
167 167 167
167 167 167
167 167 167
167 167 167
167 167 167
167 167 167
167 167 167
167 167 167
167 167 167
167 167 167
167 167 167
167 167 167
167 167 167
186 186 186
186 186 186
186 186 186
186 186 186
186 186 186
186 186 186
186 186 186
186 186 186
186 186 186
186 186 186
186 186 186
167 167 167
167 167 167
167 167 167
167 167 167
167 167 167
167 167 167
167 167 167
167 167 167
167 167 167
167 167 167
167 167 167
167 167 167
167 167 167
167 167 167
167 167 167
167 167 167
167 167 167
167 167 167
167 167 167
167 167 167
167 167 167
167 167 167
167 167 167
167 167 167
167 167 167
167 167 167
167 167 167
167 167 167
167 167 167
167 167 167
167 167 167
167 167 167
167 167 167
167 167 167
167 167 167
167 167 167
167 167 167
167 167 167
167 167 167
167 167 167
167 167 167
167 167 167
167 167 167
167 167 167
167 167 167
167 167 167
167 167 167
167 167 167
167 167 167
167 167 167
167 167 167
167 167 167
167 167 167
167 167 167
167 167 167
167 167 167
167 167 167
167 167 167
167 167 167
167 167 167
167 167 167
167 167 167
167 167 167
167 167 167
167 167 167
167 167 167
167 167 167
167 167 167
167 167 167
167 167 167
167 167 167
167 167 167
167 167 167
167 167 167
167 167 167
167 167 167
167 167 167
167 167 167
167 167 167
167 167 167
167 167 167
167 167 167
167 167 167
167 167 167
167 167 167
167 167 167
167 167 167
94 137 173
94 137 173
94 137 172
94 137 173
94 137 173
94 137 173
94 137 173
94 137 173
94 137 173
94 137 173
94 137 173
94 137 173
94 137 173
94 137 173
94 137 173
94 137 173
94 137 173
94 137 173
94 137 173
94 137 173
94 137 173
94 137 173
94 137 173
94 137 173
94 137 173
94 137 173
94 137 173
94 137 173
94 137 173
94 137 173
94 137 173
94 137 173
94 137 173
94 137 173
94 137 173
94 137 173
94 137 173
94 137 173
94 137 173
94 137 173
94 137 173
94 137 173
95 138 173
95 138 173
95 138 173
95 138 173
95 138 173
95 138 173
94 137 173
94 137 173
94 137 173
94 137 173
94 137 173
94 137 173
94 137 173
94 137 172
94 137 172
94 137 172
94 137 172
94 137 172
94 137 172
94 137 172
94 136 172
94 136 172
94 136 172
94 136 172
94 136 172
94 136 172
93 136 172
94 136 172
93 136 172
94 136 172
167 167 167
167 167 167
167 167 167
167 167 167
167 167 167
167 167 167
167 167 167
167 167 167
167 167 167
167 167 167
167 167 167
167 167 167
167 167 167
167 167 167
167 167 167
167 167 167
167 167 167
167 167 167
167 167 167
167 167 167
167 167 167
167 167 167
167 167 167
167 167 167
167 167 167
167 167 167
167 167 167
167 167 167
167 167 167
167 167 167
167 167 167
167 167 167
167 167 167
167 167 167
167 167 167
167 167 167
167 167 167
167 167 167
167 167 167
167 167 167
167 167 167
167 167 167
167 167 167
167 167 167
167 167 167
167 167 167
167 167 167
167 167 167
167 167 167
167 167 167
167 167 167
167 167 167
167 167 167
167 167 167
167 167 167
167 167 167
167 167 167
167 167 167
167 167 167
167 167 167
167 167 167
167 167 167
167 167 167
167 167 167
167 167 167
167 167 167
167 167 167
167 167 167
167 167 167
167 167 167
167 167 167
167 167 167
167 167 167
167 167 167
167 167 167
167 167 167
167 167 167
167 167 167
167 167 167
167 167 167
167 167 167
167 167 167
167 167 167
167 167 167
167 167 167
167 167 167
167 167 167
167 167 167
167 167 167
186 186 186
186 186 186
186 186 186
186 186 186
186 186 186
186 186 186
167 167 167
167 167 167
167 167 167
167 167 167
167 167 167
167 167 167
167 167 167
167 167 167
167 167 167
167 167 167
167 167 167
167 167 167
167 167 167
167 167 167
167 167 167
167 167 167
167 167 167
167 167 167
167 167 167
167 167 167
167 167 167
167 167 167
167 167 167
167 167 167
167 167 167
167 167 167
167 167 167
167 167 167
167 167 167
167 167 167
167 167 167
167 167 167
167 167 167
167 167 167
167 167 167
167 167 167
167 167 167
167 167 167
167 167 167
167 167 167
167 167 167
167 167 167
167 167 167
167 167 167
167 167 167
167 167 167
167 167 167
167 167 167
167 167 167
167 167 167
167 167 167
167 167 167
167 167 167
167 167 167
167 167 167
167 167 167
167 167 167
167 167 167
167 167 167
167 167 167
167 167 167
167 167 167
167 167 167
167 167 167
167 167 167
167 167 167
167 167 167
167 167 167
167 167 167
167 167 167
167 167 167
167 167 167
167 167 167
167 167 167
167 167 167
167 167 167
167 167 167
167 167 167
167 167 167
167 167 167
167 167 167
167 167 167
167 167 167
167 167 167
167 167 167
167 167 167
167 167 167
167 167 167
167 167 167
94 137 172
94 137 172
94 137 172
94 137 172
94 137 172
94 137 172
94 137 172
94 137 172
94 137 172
94 137 172
94 137 172
94 137 172
94 137 172
94 137 172
94 137 173
94 137 173
94 137 173
94 137 173
94 137 173
94 137 173
94 137 173
94 137 173
94 137 173
94 137 173
94 137 173
94 137 173
94 137 173
94 137 173
94 137 173
94 137 173
94 137 173
94 137 173
94 137 173
94 137 173
94 137 173
94 137 173
94 137 173
94 137 173
94 137 173
94 137 173
94 137 173
94 137 173
94 137 173
94 137 173
94 137 173
95 138 173
95 138 173
95 138 173
94 137 173
94 137 173
94 137 173
94 137 173
94 137 173
94 137 173
94 137 172
94 137 172
94 137 172
94 137 172
94 137 172
94 136 172
94 136 172
94 136 172
94 136 172
93 136 172
93 136 172
93 136 172
93 136 172
93 136 172
93 136 172
93 136 172
93 136 172
93 136 172
167 167 167
167 167 167
167 167 167
167 167 167
167 167 167
167 167 167
167 167 167
167 167 167
167 167 167
167 167 167
167 167 167
167 167 167
167 167 167
167 167 167
167 167 167
167 167 167
167 167 167
167 167 167
167 167 167
167 167 167
167 167 167
167 167 167
167 167 167
167 167 167
167 167 167
167 167 167
167 167 167
167 167 167
167 167 167
167 167 167
167 167 167
167 167 167
167 167 167
167 167 167
167 167 167
167 167 167
167 167 167
167 167 167
167 167 167
167 167 167
167 167 167
167 167 167
167 167 167
167 167 167
167 167 167
167 167 167
167 167 167
167 167 167
167 167 167
167 167 167
167 167 167
167 167 167
167 167 167
167 167 167
167 167 167
167 167 167
167 167 167
167 167 167
167 167 167
167 167 167
167 167 167
167 167 167
167 167 167
167 167 167
167 167 167
167 167 167
167 167 167
167 167 167
167 167 167
167 167 167
167 167 167
167 167 167
167 167 167
167 167 167
167 167 167
167 167 167
167 167 167
167 167 167
167 167 167
167 167 167
167 167 167
167 167 167
167 167 167
167 167 167
167 167 167
167 167 167
167 167 167
167 167 167
167 167 167
167 167 167
167 167 167
186 186 186
186 186 186
167 167 167
167 167 167
167 167 167
167 167 167
167 167 167
167 167 167
167 167 167
167 167 167
167 167 167
167 167 167
167 167 167
167 167 167
167 167 167
167 167 167
167 167 167
167 167 167
167 167 167
167 167 167
167 167 167
167 167 167
167 167 167
167 167 167
167 167 167
167 167 167
167 167 167
167 167 167
167 167 167
167 167 167
167 167 167
167 167 167
167 167 167
167 167 167
167 167 167
167 167 167
167 167 167
167 167 167
167 167 167
167 167 167
167 167 167
167 167 167
167 167 167
167 167 167
167 167 167
167 167 167
167 167 167
167 167 167
167 167 167
167 167 167
167 167 167
167 167 167
167 167 167
167 167 167
167 167 167
167 167 167
167 167 167
167 167 167
167 167 167
167 167 167
167 167 167
167 167 167
167 167 167
167 167 167
167 167 167
167 167 167
167 167 167
167 167 167
167 167 167
167 167 167
167 167 167
167 167 167
167 167 167
167 167 167
167 167 167
167 167 167
167 167 167
167 167 167
167 167 167
167 167 167
167 167 167
167 167 167
167 167 167
167 167 167
167 167 167
167 167 167
167 167 167
167 167 167
167 167 167
167 167 167
167 167 167
167 167 167
166 167 167
94 137 172
94 137 172
94 137 172
94 137 172
94 137 172
94 137 172
94 137 172
94 137 172
94 137 172
94 137 172
94 137 172
94 137 172
94 137 172
94 137 172
94 137 172
94 137 172
94 137 172
94 137 172
94 137 172
94 137 172
94 137 172
94 137 173
94 137 173
94 137 173
94 137 173
94 137 173
94 137 173
94 137 173
94 137 173
94 137 173
94 137 173
94 137 173
94 137 173
94 137 173
94 137 173
94 137 173
94 137 173
94 137 173
94 137 173
94 137 173
94 137 173
94 137 173
94 137 173
94 137 173
94 137 173
94 137 173
94 137 173
94 137 173
94 137 173
94 137 173
94 137 173
94 137 173
94 137 172
94 137 172
94 137 172
94 137 172
94 137 172
94 136 172
94 136 172
94 136 172
93 136 172
93 136 172
93 136 172
93 136 172
93 136 172
93 136 172
93 136 172
93 136 172
93 136 172
93 136 172
93 136 172
93 136 172
167 167 167
167 167 167
167 167 167
167 167 167
167 167 167
167 167 167
167 167 167
167 167 167
167 167 167
167 167 167
167 167 167
167 167 167
167 167 167
167 167 167
167 167 167
167 167 167
167 167 167
167 167 167
167 167 167
167 167 167
167 167 167
167 167 167
167 167 167
167 167 167
167 167 167
167 167 167
167 167 167
167 167 167
167 167 167
167 167 167
167 167 167
167 167 167
167 167 167
167 167 167
167 167 167
167 167 167
167 167 167
167 167 167
167 167 167
167 167 167
167 167 167
167 167 167
167 167 167
167 167 167
167 167 167
167 167 167
167 167 167
167 167 167
167 167 167
167 167 167
167 167 167
167 167 167
167 167 167
167 167 167
167 167 167
167 167 167
167 167 167
167 167 167
167 167 167
167 167 167
167 167 167
167 167 167
167 167 167
167 167 167
167 167 167
167 167 167
167 167 167
167 167 167
167 167 167
167 167 167
167 167 167
167 167 167
167 167 167
167 167 167
167 167 167
167 167 167
167 167 167
167 167 167
167 167 167
167 167 167
167 167 167
167 167 167
167 167 167
167 167 167
167 167 167
167 167 167
167 167 167
167 167 167
167 167 167
167 167 167
167 167 167
167 167 167
167 167 167
167 167 167
167 167 167
167 167 167
167 167 167
167 167 167
167 167 167
167 167 167
167 167 167
167 167 167
167 167 167
167 167 167
167 167 167
167 167 167
167 167 167
167 167 167
167 167 167
167 167 167
167 167 167
167 167 167
167 167 167
167 167 167
167 167 167
167 167 167
167 167 167
167 167 167
167 167 167
167 167 167
167 167 167
167 167 167
167 167 167
167 167 167
167 167 167
167 167 167
167 167 167
167 167 167
167 167 167
167 167 167
167 167 167
167 167 167
167 167 167
167 167 167
167 167 167
167 167 167
167 167 167
167 167 167
167 167 167
167 167 167
167 167 167
167 167 167
167 167 167
167 167 167
167 167 167
167 167 167
167 167 167
167 167 167
167 167 167
167 167 167
167 167 167
167 167 167
167 167 167
167 167 167
167 167 167
167 167 167
167 167 167
167 167 167
167 167 167
167 167 167
167 167 167
167 167 167
167 167 167
167 167 167
167 167 167
167 167 167
167 167 167
167 167 167
167 167 167
166 167 167
166 167 167
166 167 167
166 167 167
166 167 167
166 167 167
166 167 167
166 167 167
166 167 167
166 167 167
166 167 167
166 167 167
166 167 167
166 167 167
166 167 167
94 137 172
94 137 172
94 137 172
94 137 172
94 137 172
94 137 172
94 137 172
94 137 172
94 137 172
94 137 172
94 137 172
94 137 172
94 137 172
94 137 172
94 137 172
94 137 172
94 137 172
94 137 172
94 137 172
94 137 172
94 137 172
94 137 172
94 137 172
94 137 172
94 137 172
94 137 172
94 137 172
94 137 173
94 137 173
94 137 173
94 137 173
94 137 173
94 137 173
94 137 173
94 137 173
94 137 173
94 137 173
94 137 173
94 137 173
94 137 173
94 137 173
94 137 173
94 137 173
94 137 173
94 137 173
94 137 173
94 137 173
94 137 173
94 137 173
94 137 173
94 137 172
94 137 172
94 137 172
94 137 172
94 137 172
94 137 172
94 136 172
94 136 172
93 136 172
93 136 172
93 136 172
93 136 172
93 136 172
93 136 172
93 136 172
93 136 172
93 136 172
93 136 172
93 136 172
93 136 172
93 136 172
93 136 172
166 167 167
166 167 167
166 167 167
166 167 167
166 167 167
166 167 167
166 167 167
166 167 167
167 167 167
167 167 167
167 167 167
167 167 167
167 167 167
167 167 167
167 167 167
167 167 167
167 167 167
167 167 167
167 167 167
167 167 167
167 167 167
167 167 167
167 167 167
167 167 167
167 167 167
167 167 167
167 167 167
167 167 167
167 167 167
167 167 167
167 167 167
167 167 167
167 167 167
167 167 167
167 167 167
167 167 167
167 167 167
167 167 167
167 167 167
167 167 167
167 167 167
167 167 167
167 167 167
167 167 167
167 167 167
167 167 167
167 167 167
167 167 167
167 167 167
167 167 167
167 167 167
167 167 167
167 167 167
167 167 167
167 167 167
167 167 167
167 167 167
167 167 167
167 167 167
167 167 167
167 167 167
167 167 167
167 167 167
167 167 167
167 167 167
167 167 167
167 167 167
167 167 167
167 167 167
167 167 167
167 167 167
167 167 167
167 167 167
167 167 167
167 167 167
167 167 167
167 167 167
167 167 167
167 167 167
167 167 167
167 167 167
167 167 167
167 167 167
167 167 167
167 167 167
167 167 167
167 167 167
167 167 167
167 167 167
167 167 167
167 167 167
167 167 167
167 167 167
167 167 167
167 167 167
167 167 167
167 167 167
167 167 167
167 167 167
167 167 167
167 167 167
167 167 167
167 167 167
167 167 167
167 167 167
167 167 167
167 167 167
167 167 167
167 167 167
167 167 167
167 167 167
167 167 167
167 167 167
167 167 167
167 167 167
167 167 167
167 167 167
167 167 167
167 167 167
167 167 167
167 167 167
167 167 167
167 167 167
167 167 167
167 167 167
167 167 167
167 167 167
167 167 167
167 167 167
167 167 167
167 167 167
167 167 167
167 167 167
167 167 167
167 167 167
167 167 167
167 167 167
167 167 167
167 167 167
167 167 167
167 167 167
167 167 167
167 167 167
167 167 167
167 167 167
167 167 167
167 167 167
167 167 167
167 167 167
167 167 167
167 167 167
167 167 167
167 167 167
167 167 167
167 167 167
167 167 167
167 167 167
167 167 167
167 167 167
167 167 167
167 167 167
166 167 167
166 167 167
166 167 167
166 167 167
166 167 167
166 167 167
166 167 167
166 167 167
166 167 167
166 167 167
166 167 167
166 167 167
166 167 167
166 167 167
166 167 167
166 167 167
166 166 167
166 166 167
166 166 167
166 166 167
166 166 167
166 166 167
166 166 167
94 136 172
94 136 172
94 136 172
94 136 172
94 136 172
94 136 172
94 136 172
94 136 172
94 136 172
94 136 172
94 136 172
94 136 172
94 136 172
94 136 172
94 136 172
94 136 172
94 136 172
94 136 172
94 136 172
94 136 172
94 136 172
94 137 172
94 137 172
94 137 172
94 137 172
94 137 172
94 137 172
94 137 172
94 137 172
94 137 172
94 137 172
94 137 172
94 137 173
94 137 173
94 137 173
94 137 173
94 137 173
94 137 173
94 137 173
94 137 173
94 137 173
94 137 173
94 137 173
94 137 173
94 137 173
94 137 173
94 137 173
94 137 173
94 137 173
94 137 172
94 137 172
94 137 172
94 137 172
94 137 172
94 136 172
94 136 172
93 136 172
93 136 172
93 136 172
93 136 172
93 136 172
93 136 172
93 136 172
93 136 172
93 136 172
93 136 172
93 136 172
93 136 172
93 136 172
93 136 172
93 136 172
93 136 172
166 166 167
166 167 167
166 167 167
166 167 167
166 167 167
166 167 167
166 167 167
166 167 167
166 167 167
166 167 167
166 167 167
166 167 167
166 167 167
166 167 167
166 167 167
166 167 167
166 167 167
166 167 167
166 167 167
166 167 167
166 167 167
166 167 167
167 167 167
167 167 167
167 167 167
167 167 167
167 167 167
167 167 167
167 167 167
167 167 167
167 167 167
167 167 167
167 167 167
167 167 167
167 167 167
167 167 167
167 167 167
167 167 167
167 167 167
167 167 167
167 167 167
167 167 167
167 167 167
167 167 167
167 167 167
167 167 167
167 167 167
167 167 167
167 167 167
167 167 167
167 167 167
167 167 167
167 167 167
167 167 167
167 167 167
167 167 167
167 167 167
167 167 167
167 167 167
167 167 167
167 167 167
167 167 167
167 167 167
167 167 167
167 167 167
167 167 167
167 167 167
167 167 167
167 167 167
167 167 167
167 167 167
167 167 167
167 167 167
167 167 167
167 167 167
167 167 167
167 167 167
167 167 167
167 167 167
167 167 167
167 167 167
167 167 167
167 167 167
167 167 167
167 167 167
167 167 167
167 167 167
167 167 167
167 167 167
167 167 167
167 167 167
167 167 167
167 167 167
167 167 167
167 167 167
167 167 167
167 167 167
167 167 167
167 167 167
167 167 167
167 167 167
167 167 167
167 167 167
167 167 167
167 167 167
167 167 167
167 167 167
167 167 167
167 167 167
167 167 167
167 167 167
167 167 167
167 167 167
167 167 167
167 167 167
167 167 167
167 167 167
167 167 167
167 167 167
167 167 167
167 167 167
167 167 167
167 167 167
167 167 167
167 167 167
167 167 167
167 167 167
167 167 167
167 167 167
167 167 167
167 167 167
167 167 167
167 167 167
167 167 167
167 167 167
167 167 167
167 167 167
167 167 167
167 167 167
167 167 167
167 167 167
167 167 167
167 167 167
167 167 167
167 167 167
167 167 167
167 167 167
167 167 167
167 167 167
167 167 167
167 167 167
167 167 167
166 167 167
166 167 167
166 167 167
166 167 167
166 167 167
166 167 167
166 167 167
166 167 167
166 167 167
166 167 167
166 167 167
166 167 167
166 167 167
166 167 167
166 167 167
166 166 167
166 166 167
166 166 167
166 166 167
166 166 167
166 166 167
166 166 167
166 166 167
166 166 167
166 166 167
166 166 167
166 166 167
166 166 167
166 166 167
166 166 167
166 166 167
166 166 167
93 136 172
93 136 172
93 136 172
93 136 172
93 136 172
93 136 172
93 136 172
93 136 172
93 136 172
93 136 172
93 136 172
93 136 172
93 136 172
93 136 172
93 136 172
93 136 172
93 136 172
93 136 172
93 136 172
94 136 172
94 136 172
94 136 172
94 136 172
94 136 172
94 136 172
94 136 172
94 137 172
94 137 172
94 137 172
94 137 172
94 137 172
94 137 172
94 137 172
94 137 172
94 137 172
94 137 172
94 137 172
94 137 173
94 137 173
94 137 173
94 137 173
94 137 173
94 137 173
94 137 173
94 137 173
94 137 173
94 137 173
94 137 173
94 137 172
94 137 172
94 137 172
94 137 172
94 136 172
94 136 172
93 136 172
93 136 172
93 136 172
93 136 172
93 136 172
93 136 172
93 136 172
93 136 172
93 136 172
93 136 172
93 136 172
93 136 172
93 136 172
93 136 172
93 136 172
93 136 172
93 136 172
93 136 172
166 166 167
166 166 167
166 166 167
166 166 167
166 166 167
166 166 167
166 166 167
166 166 167
166 166 167
166 166 167
166 166 167
166 166 167
166 166 167
166 166 167
166 166 167
166 166 167
166 167 167
166 167 167
166 167 167
166 167 167
166 167 167
166 167 167
166 167 167
166 167 167
166 167 167
166 167 167
166 167 167
166 167 167
166 167 167
166 167 167
167 167 167
167 167 167
167 167 167
167 167 167
167 167 167
167 167 167
167 167 167
167 167 167
167 167 167
167 167 167
167 167 167
167 167 167
167 167 167
167 167 167
167 167 167
167 167 167
167 167 167
167 167 167
167 167 167
167 167 167
167 167 167
167 167 167
167 167 167
167 167 167
167 167 167
167 167 167
167 167 167
167 167 167
167 167 167
167 167 167
167 167 167
167 167 167
167 167 167
167 167 167
167 167 167
167 167 167
167 167 167
167 167 167
167 167 167
167 167 167
167 167 167
167 167 167
167 167 167
167 167 167
167 167 167
167 167 167
167 167 167
167 167 167
167 167 167
167 167 167
167 167 167
167 167 167
167 167 167
167 167 167
167 167 167
167 167 167
167 167 167
167 167 167
167 167 167
167 167 167
167 167 167
167 167 167
167 167 167
167 167 167
167 167 167
167 167 167
167 167 167
167 167 167
167 167 167
167 167 167
167 167 167
167 167 167
167 167 167
167 167 167
167 167 167
167 167 167
167 167 167
167 167 167
167 167 167
167 167 167
167 167 167
167 167 167
167 167 167
167 167 167
167 167 167
167 167 167
167 167 167
167 167 167
167 167 167
167 167 167
167 167 167
167 167 167
167 167 167
167 167 167
167 167 167
167 167 167
167 167 167
167 167 167
167 167 167
167 167 167
167 167 167
167 167 167
167 167 167
167 167 167
167 167 167
167 167 167
167 167 167
167 167 167
167 167 167
167 167 167
167 167 167
167 167 167
167 167 167
167 167 167
166 167 167
166 167 167
166 167 167
166 167 167
166 167 167
166 167 167
166 167 167
166 167 167
166 167 167
166 167 167
166 167 167
166 167 167
166 167 167
166 167 167
166 166 167
166 166 167
166 166 167
166 166 167
166 166 167
166 166 167
166 166 167
166 166 167
166 166 167
166 166 167
166 166 167
166 166 167
166 166 167
166 166 167
166 166 167
166 166 167
166 166 167
166 166 167
166 166 167
166 166 167
166 166 167
166 166 167
166 166 167
166 166 167
166 166 167
166 166 167
93 136 172
93 136 172
93 136 172
93 136 172
93 136 172
93 136 172
93 136 172
93 136 172
93 136 172
93 136 172
93 136 172
93 136 172
93 136 172
93 136 172
93 136 172
93 136 172
93 136 172
93 136 172
93 136 172
93 136 172
93 136 172
93 136 172
93 136 172
93 136 172
93 136 172
93 136 172
94 136 172
94 136 172
94 136 172
94 136 172
94 136 172
94 136 172
94 137 172
94 137 172
94 137 172
94 137 172
94 137 172
94 137 172
94 137 172
94 137 172
94 137 172
94 137 173
94 137 173
94 137 173
94 137 173
94 137 173
94 137 173
94 137 173
94 137 172
94 137 172
94 137 172
94 136 172
94 136 172
93 136 172
93 136 172
93 136 172
93 136 172
93 136 172
93 136 172
93 136 172
93 136 172
93 136 172
93 136 172
93 136 172
93 136 172
93 136 172
93 136 172
93 136 171
93 136 171
93 136 171
93 136 171
93 136 171
166 166 167
166 166 167
166 166 167
166 166 167
166 166 167
166 166 167
166 166 167
166 166 167
166 166 167
166 166 167
166 166 167
166 166 167
166 166 167
166 166 167
166 166 167
166 166 167
166 166 167
166 166 167
166 166 167
166 166 167
166 166 167
166 166 167
166 166 167
166 166 167
166 166 167
166 166 167
166 167 167
166 167 167
166 167 167
166 167 167
166 167 167
166 167 167
166 167 167
166 167 167
166 167 167
166 167 167
166 167 167
166 167 167
166 167 167
166 167 167
167 167 167
167 167 167
167 167 167
167 167 167
167 167 167
167 167 167
167 167 167
167 167 167
167 167 167
167 167 167
167 167 167
167 167 167
167 167 167
167 167 167
167 167 167
167 167 167
167 167 167
167 167 167
167 167 167
167 167 167
167 167 167
167 167 167
167 167 167
167 167 167
167 167 167
167 167 167
167 167 167
167 167 167
167 167 167
167 167 167
167 167 167
167 167 167
167 167 167
167 167 167
167 167 167
167 167 167
167 167 167
167 167 167
167 167 167
167 167 167
167 167 167
167 167 167
167 167 167
167 167 167
167 167 167
167 167 167
167 167 167
167 167 167
167 167 167
167 167 167
167 167 167
167 167 167
167 167 167
167 167 167
167 167 167
167 167 167
167 167 167
167 167 167
167 167 167
167 167 167
167 167 167
167 167 167
167 167 167
167 167 167
167 167 167
167 167 167
167 167 167
167 167 167
167 167 167
167 167 167
167 167 167
167 167 167
167 167 167
167 167 167
167 167 167
167 167 167
167 167 167
167 167 167
167 167 167
167 167 167
167 167 167
167 167 167
167 167 167
167 167 167
167 167 167
167 167 167
167 167 167
167 167 167
167 167 167
167 167 167
167 167 167
167 167 167
167 167 167
167 167 167
167 167 167
167 167 167
167 167 167
167 167 167
167 167 167
166 167 167
166 167 167
166 167 167
166 167 167
166 167 167
166 167 167
166 167 167
166 167 167
166 167 167
166 167 167
166 167 167
166 167 167
166 166 167
166 166 167
166 166 167
166 166 167
166 166 167
166 166 167
166 166 167
166 166 167
166 166 167
166 166 167
166 166 167
166 166 167
166 166 167
166 166 167
166 166 167
166 166 167
166 166 167
166 166 167
166 166 167
166 166 167
166 166 167
166 166 167
166 166 167
166 166 167
166 166 167
166 166 167
166 166 167
166 166 167
166 166 167
166 166 167
166 166 167
166 166 167
166 166 167
93 136 172
93 136 172
93 136 172
93 136 172
93 136 172
93 136 172
93 136 172
93 136 172
93 136 172
93 136 172
93 136 172
93 136 172
93 136 172
93 136 172
93 136 172
93 136 172
93 136 172
93 136 172
93 136 172
93 136 172
93 136 172
93 136 172
93 136 172
93 136 172
93 136 172
93 136 172
93 136 172
93 136 172
93 136 172
93 136 172
93 136 172
94 136 172
94 136 172
94 136 172
94 136 172
94 136 172
94 137 172
94 137 172
94 137 172
94 137 172
94 137 172
94 137 172
94 137 172
94 137 172
94 137 173
94 137 173
94 137 173
94 137 173
94 137 172
94 137 172
94 136 172
94 136 172
93 136 172
93 136 172
93 136 172
93 136 172
93 136 172
93 136 172
93 136 172
93 136 172
93 136 172
93 136 172
93 136 172
93 136 171
93 135 171
93 135 171
93 135 171
93 135 171
93 135 171
93 135 171
93 135 171
93 135 171
166 166 167
166 166 167
166 166 167
166 166 167
166 166 167
166 166 167
166 166 167
166 166 167
166 166 167
166 166 167
166 166 167
166 166 167
166 166 167
166 166 167
166 166 167
166 166 167
166 166 167
166 166 167
166 166 167
166 166 167
166 166 167
166 166 167
166 166 167
166 166 167
166 166 167
166 166 167
166 166 167
166 166 167
166 166 167
166 166 167
166 166 167
166 166 167
166 166 167
166 167 167
166 167 167
166 167 167
166 167 167
166 167 167
166 167 167
166 167 167
166 167 167
166 167 167
166 167 167
166 167 167
166 167 167
166 167 167
166 167 167
166 167 167
167 167 167
167 167 167
167 167 167
167 167 167
167 167 167
167 167 167
167 167 167
167 167 167
167 167 167
167 167 167
167 167 167
167 167 167
167 167 167
167 167 167
167 167 167
167 167 167
167 167 167
167 167 167
167 167 167
167 167 167
167 167 167
167 167 167
167 167 167
167 167 167
167 167 167
167 167 167
167 167 167
167 167 167
167 167 167
167 167 167
167 167 167
167 167 167
167 167 167
167 167 167
167 167 167
167 167 167
167 167 167
167 167 167
167 167 167
167 167 167
167 167 167
167 167 167
167 167 167
167 167 167
167 167 167
167 167 167
167 167 167
167 167 167
167 167 167
167 167 167
167 167 167
167 167 167
167 167 167
167 167 167
167 167 167
167 167 167
167 167 167
167 167 167
167 167 167
167 167 167
167 167 167
167 167 167
167 167 167
167 167 167
167 167 167
167 167 167
167 167 167
167 167 167
167 167 167
167 167 167
167 167 167
167 167 167
167 167 167
167 167 167
167 167 167
167 167 167
167 167 167
167 167 167
167 167 167
167 167 167
167 167 167
167 167 167
167 167 167
167 167 167
167 167 167
166 167 167
166 167 167
166 167 167
166 167 167
166 167 167
166 167 167
166 167 167
166 167 167
166 167 167
166 167 167
166 167 167
166 166 167
166 166 167
166 166 167
166 166 167
166 166 167
166 166 167
166 166 167
166 166 167
166 166 167
166 166 167
166 166 167
166 166 167
166 166 167
166 166 167
166 166 167
166 166 167
166 166 167
166 166 167
166 166 167
166 166 167
166 166 167
166 166 167
166 166 167
166 166 167
166 166 167
166 166 167
166 166 167
166 166 167
166 166 167
166 166 167
166 166 167
166 166 167
166 166 167
166 166 167
166 166 167
166 166 167
166 166 167
166 166 167
166 166 167
166 166 167
93 136 172
93 136 172
93 136 172
93 136 172
93 136 172
93 136 172
93 136 172
93 136 172
93 136 172
93 136 172
93 136 172
93 136 172
93 136 172
93 136 172
93 136 172
93 136 172
93 136 172
93 136 172
93 136 172
93 136 172
93 136 172
93 136 172
93 136 172
93 136 172
93 136 172
93 136 172
93 136 172
93 136 172
93 136 172
93 136 172
93 136 172
93 136 172
93 136 172
93 136 172
93 136 172
94 136 172
94 136 172
94 136 172
94 136 172
94 137 172
94 137 172
94 137 172
94 137 172
94 137 172
94 137 172
94 137 172
94 137 172
94 137 173
94 136 172
94 136 172
93 136 172
93 136 172
93 136 172
93 136 172
93 136 172
93 136 172
93 136 172
93 136 172
93 136 172
93 136 172
93 136 172
93 135 171
93 135 171
93 135 171
93 135 171
93 135 171
93 135 171
92 135 171
93 135 171
93 135 171
93 135 171
93 135 171
166 166 167
166 166 167
166 166 167
166 166 167
166 166 167
166 166 167
166 166 167
166 166 167
166 166 167
166 166 167
166 166 167
166 166 167
166 166 167
166 166 167
166 166 167
166 166 167
166 166 167
166 166 167
166 166 167
166 166 167
166 166 167
166 166 167
166 166 167
166 166 167
166 166 167
166 166 167
166 166 167
166 166 167
166 166 167
166 166 167
166 166 167
166 166 167
166 166 167
166 166 167
166 166 167
166 166 167
166 166 167
166 166 167
166 166 167
166 166 167
166 166 167
166 166 167
166 167 167
166 167 167
166 167 167
166 167 167
166 167 167
166 167 167
166 167 167
166 167 167
166 167 167
166 167 167
166 167 167
166 167 167
166 167 167
166 167 167
167 167 167
167 167 167
167 167 167
167 167 167
167 167 167
167 167 167
167 167 167
167 167 167
167 167 167
167 167 167
167 167 167
167 167 167
167 167 167
167 167 167
167 167 167
167 167 167
167 167 167
167 167 167
167 167 167
167 167 167
167 167 167
167 167 167
167 167 167
167 167 167
167 167 167
167 167 167
167 167 167
167 167 167
167 167 167
167 167 167
167 167 167
167 167 167
167 167 167
167 167 167
167 167 167
167 167 167
167 167 167
167 167 167
167 167 167
167 167 167
167 167 167
167 167 167
167 167 167
167 167 167
167 167 167
167 167 167
167 167 167
167 167 167
167 167 167
167 167 167
167 167 167
167 167 167
167 167 167
167 167 167
167 167 167
167 167 167
167 167 167
167 167 167
167 167 167
167 167 167
167 167 167
167 167 167
167 167 167
167 167 167
167 167 167
167 167 167
167 167 167
167 167 167
167 167 167
167 167 167
167 167 167
166 167 167
166 167 167
166 167 167
166 167 167
166 167 167
166 167 167
166 167 167
166 167 167
166 167 167
166 167 167
166 167 167
166 167 167
166 167 167
166 166 167
166 166 167
166 166 167
166 166 167
166 166 167
166 166 167
166 166 167
166 166 167
166 166 167
166 166 167
166 166 167
166 166 167
166 166 167
166 166 167
166 166 167
166 166 167
166 166 167
166 166 167
166 166 167
166 166 167
166 166 167
166 166 167
166 166 167
166 166 167
166 166 167
166 166 167
166 166 167
166 166 167
166 166 167
166 166 167
166 166 167
166 166 167
166 166 167
166 166 167
166 166 167
166 166 167
166 166 167
166 166 167
166 166 167
166 166 167
166 166 166
166 166 166
166 166 166
166 166 166
93 136 172
93 136 172
93 136 172
93 136 172
93 136 172
93 136 172
93 136 172
93 136 172
93 136 172
93 136 172
93 136 172
93 136 172
93 136 172
93 136 172
93 136 172
93 136 172
93 136 172
93 136 172
93 136 172
93 136 172
93 136 172
93 136 172
93 136 172
93 136 172
93 136 172
93 136 172
93 136 172
93 136 172
93 136 172
93 136 172
93 136 172
93 136 172
93 136 172
93 136 172
93 136 172
93 136 172
93 136 172
93 136 172
93 136 172
94 136 172
94 136 172
94 136 172
94 136 172
94 137 172
94 137 172
94 137 172
94 137 172
94 137 172
94 136 172
93 136 172
93 136 172
93 136 172
93 136 172
93 136 172
93 136 172
93 136 172
93 136 172
93 136 172
93 136 171
93 135 171
93 135 171
93 135 171
93 135 171
92 135 171
92 135 171
92 135 171
92 135 171
92 135 171
92 135 171
92 135 171
92 135 171
92 135 171
166 166 166
166 166 166
166 166 166
166 166 166
166 166 166
166 166 166
166 166 166
166 166 167
166 166 167
166 166 167
166 166 167
166 166 167
166 166 167
166 166 167
166 166 167
166 166 167
166 166 167
166 166 167
166 166 167
166 166 167
166 166 167
166 166 167
166 166 167
166 166 167
166 166 167
166 166 167
166 166 167
166 166 167
166 166 167
166 166 167
166 166 167
166 166 167
166 166 167
166 166 167
166 166 167
166 166 167
166 166 167
166 166 167
166 166 167
166 166 167
166 166 167
166 166 167
166 166 167
166 166 167
166 166 167
166 166 167
166 166 167
166 166 167
166 166 167
166 167 167
166 167 167
166 167 167
166 167 167
166 167 167
166 167 167
166 167 167
166 167 167
166 167 167
166 167 167
166 167 167
166 167 167
166 167 167
166 167 167
167 167 167
167 167 167
167 167 167
167 167 167
167 167 167
167 167 167
167 167 167
167 167 167
167 167 167
167 167 167
167 167 167
167 167 167
167 167 167
167 167 167
167 167 167
167 167 167
167 167 167
167 167 167
167 167 167
167 167 167
167 167 167
167 167 167
167 167 167
167 167 167
167 167 167
167 167 167
167 167 167
167 167 167
167 167 167
167 167 167
167 167 167
167 167 167
167 167 167
167 167 167
167 167 167
167 167 167
167 167 167
167 167 167
167 167 167
167 167 167
167 167 167
167 167 167
167 167 167
167 167 167
167 167 167
167 167 167
167 167 167
167 167 167
167 167 167
167 167 167
167 167 167
167 167 167
167 167 167
167 167 167
167 167 167
167 167 167
167 167 167
166 167 167
166 167 167
166 167 167
166 167 167
166 167 167
166 167 167
166 167 167
166 167 167
166 167 167
166 167 167
166 167 167
166 167 167
166 167 167
166 166 167
166 166 167
166 166 167
166 166 167
166 166 167
166 166 167
166 166 167
166 166 167
166 166 167
166 166 167
166 166 167
166 166 167
166 166 167
166 166 167
166 166 167
166 166 167
166 166 167
166 166 167
166 166 167
166 166 167
166 166 167
166 166 167
166 166 167
166 166 167
166 166 167
166 166 167
166 166 167
166 166 167
166 166 167
166 166 167
166 166 167
166 166 167
166 166 167
166 166 167
166 166 167
166 166 167
166 166 167
166 166 167
166 166 167
166 166 166
166 166 166
166 166 166
166 166 166
166 166 166
166 166 166
166 166 166
165 166 166
165 166 166
165 166 166
165 166 166
165 166 166
93 136 172
93 136 172
93 136 172
93 136 172
93 136 172
93 136 172
93 136 172
93 136 172
93 136 172
93 136 172
93 136 172
93 136 172
93 136 172
93 136 172
93 136 172
93 136 172
93 136 172
93 136 172
93 136 172
93 136 172
93 136 172
93 136 172
93 136 172
93 136 172
93 136 172
93 136 172
93 136 172
93 136 172
93 136 172
93 136 172
93 136 172
93 136 172
93 136 172
93 136 172
93 136 172
93 136 172
93 136 172
93 136 172
93 136 172
93 136 172
93 136 172
93 136 172
94 136 172
94 136 172
94 136 172
94 137 172
94 137 172
94 137 172
93 136 172
93 136 172
93 136 172
93 136 172
93 136 172
93 136 172
93 136 172
93 136 172
93 136 172
93 135 171
93 135 171
93 135 171
92 135 171
92 135 171
92 135 171
92 135 171
92 135 171
92 135 171
92 135 171
92 135 171
92 135 171
92 135 171
92 135 171
92 135 171
165 166 166
165 166 166
165 166 166
165 166 166
165 166 166
165 166 166
165 166 166
165 166 166
166 166 166
166 166 166
166 166 166
166 166 166
166 166 166
166 166 166
166 166 166
166 166 166
166 166 167
166 166 167
166 166 167
166 166 167
166 166 167
166 166 167
166 166 167
166 166 167
166 166 167
166 166 167
166 166 167
166 166 167
166 166 167
166 166 167
166 166 167
166 166 167
166 166 167
166 166 167
166 166 167
166 166 167
166 166 167
166 166 167
166 166 167
166 166 167
166 166 167
166 166 167
166 166 167
166 166 167
166 166 167
166 166 167
166 166 167
166 166 167
166 166 167
166 166 167
166 166 167
166 166 167
166 166 167
166 166 167
166 166 167
166 167 167
166 167 167
166 167 167
166 167 167
166 167 167
166 167 167
166 167 167
166 167 167
166 167 167
166 167 167
166 167 167
166 167 167
166 167 167
167 167 167
167 167 167
167 167 167
167 167 167
167 167 167
167 167 167
167 167 167
167 167 167
167 167 167
167 167 167
167 167 167
167 167 167
167 167 167
167 167 167
167 167 167
167 167 167
167 167 167
167 167 167
167 167 167
167 167 167
167 167 167
167 167 167
167 167 167
167 167 167
167 167 167
167 167 167
167 167 167
167 167 167
167 167 167
167 167 167
167 167 167
167 167 167
167 167 167
167 167 167
167 167 167
167 167 167
167 167 167
167 167 167
167 167 167
167 167 167
167 167 167
167 167 167
167 167 167
167 167 167
167 167 167
167 167 167
167 167 167
166 167 167
166 167 167
166 167 167
166 167 167
166 167 167
166 167 167
166 167 167
166 167 167
166 167 167
166 167 167
166 167 167
166 167 167
166 166 167
166 166 167
166 166 167
166 166 167
166 166 167
166 166 167
166 166 167
166 166 167
166 166 167
166 166 167
166 166 167
166 166 167
166 166 167
166 166 167
166 166 167
166 166 167
166 166 167
166 166 167
166 166 167
166 166 167
166 166 167
166 166 167
166 166 167
166 166 167
166 166 167
166 166 167
166 166 167
166 166 167
166 166 167
166 166 167
166 166 167
166 166 167
166 166 167
166 166 167
166 166 167
166 166 167
166 166 167
166 166 167
166 166 166
166 166 166
166 166 166
166 166 166
166 166 166
166 166 166
166 166 166
165 166 166
165 166 166
165 166 166
165 166 166
165 166 166
165 166 166
165 166 166
165 166 166
165 166 166
165 166 166
165 166 166
165 166 166
93 136 171
93 136 171
93 135 171
93 135 171
93 135 171
93 135 171
93 135 171
93 135 171
93 135 171
93 135 171
93 135 171
93 135 171
93 135 171
93 135 171
93 135 171
93 135 171
93 135 172
93 135 172
93 135 172
93 135 172
93 136 172
93 136 172
93 136 172
93 136 172
93 136 172
93 136 172
93 136 172
93 136 172
93 136 172
93 136 172
93 136 172
93 136 172
93 136 172
93 136 172
93 136 172
93 136 172
93 136 172
93 136 172
93 136 172
93 136 172
93 136 172
93 136 172
93 136 172
93 136 172
93 136 172
94 136 172
94 136 172
94 136 172
93 136 172
93 136 172
93 136 172
93 136 172
93 136 172
93 136 172
93 136 172
93 135 171
93 135 171
93 135 171
92 135 171
92 135 171
92 135 171
92 135 171
92 135 171
92 135 171
92 135 171
92 135 171
92 135 171
92 135 171
92 135 171
92 135 171
92 135 171
92 135 171
165 165 166
165 165 166
165 165 166
165 165 166
165 165 166
165 166 166
165 166 166
165 166 166
165 166 166
165 166 166
165 166 166
165 166 166
165 166 166
165 166 166
165 166 166
165 166 166
166 166 166
166 166 166
166 166 166
166 166 166
166 166 166
166 166 167
166 166 167
166 166 167
166 166 167
166 166 167
166 166 167
166 166 167
166 166 167
166 166 167
166 166 167
166 166 167
166 166 167
166 166 167
166 166 167
166 166 167
166 166 167
166 166 167
166 166 167
166 166 167
166 166 167
166 166 167
166 166 167
166 166 167
166 166 167
166 166 167
166 166 167
166 166 167
166 166 167
166 166 167
166 166 167
166 166 167
166 166 167
166 166 167
166 166 167
166 166 167
166 166 167
166 166 167
166 166 167
166 166 167
166 166 167
166 167 167
166 167 167
166 167 167
166 167 167
166 167 167
166 167 167
166 167 167
166 167 167
166 167 167
166 167 167
166 167 167
166 167 167
166 167 167
167 167 167
167 167 167
167 167 167
167 167 167
167 167 167
167 167 167
167 167 167
167 167 167
167 167 167
167 167 167
167 167 167
167 167 167
167 167 167
167 167 167
167 167 167
167 167 167
167 167 167
167 167 167
167 167 167
167 167 167
167 167 167
167 167 167
167 167 167
167 167 167
167 167 167
167 167 167
167 167 167
167 167 167
167 167 167
167 167 167
167 167 167
167 167 167
167 167 167
167 167 167
167 167 167
167 167 167
167 167 167
166 167 167
166 167 167
166 167 167
166 167 167
166 167 167
166 167 167
166 167 167
166 167 167
166 167 167
166 167 167
166 167 167
166 166 167
166 166 167
166 166 167
166 166 167
166 166 167
166 166 167
166 166 167
166 166 167
166 166 167
166 166 167
166 166 167
166 166 167
166 166 167
166 166 167
166 166 167
166 166 167
166 166 167
166 166 167
166 166 167
166 166 167
166 166 167
166 166 167
166 166 167
166 166 167
166 166 167
166 166 167
166 166 167
166 166 167
166 166 167
166 166 167
166 166 167
166 166 167
166 166 167
166 166 167
166 166 167
166 166 167
166 166 167
166 166 166
166 166 166
166 166 166
166 166 166
166 166 166
166 166 166
165 166 166
165 166 166
165 166 166
165 166 166
165 166 166
165 166 166
165 166 166
165 166 166
165 166 166
165 166 166
165 166 166
165 165 166
165 165 166
165 165 166
165 165 166
165 165 166
165 165 166
165 165 166
165 165 166
93 135 171
93 135 171
93 135 171
93 135 171
93 135 171
93 135 171
93 135 171
93 135 171
92 135 171
92 135 171
93 135 171
92 135 171
92 135 171
92 135 171
93 135 171
92 135 171
93 135 171
92 135 171
93 135 171
93 135 171
93 135 171
93 135 171
93 135 171
93 135 171
93 135 172
93 135 172
93 136 172
93 136 172
93 136 172
93 136 172
93 136 172
93 136 172
93 136 172
93 136 172
93 136 172
93 136 172
93 136 172
93 136 172
93 136 172
93 136 172
93 136 172
93 136 172
93 136 172
93 136 172
93 136 172
93 136 172
93 136 172
93 136 172
93 136 172
93 136 172
93 136 172
93 136 172
93 136 172
93 136 171
93 135 171
93 135 171
92 135 171
92 135 171
92 135 171
92 135 171
92 135 171
92 135 171
92 135 171
92 135 171
92 135 171
92 135 171
92 135 171
92 135 171
92 135 171
92 135 171
92 135 171
92 135 171
164 165 166
165 165 166
165 165 166
165 165 166
165 165 166
165 165 166
165 165 166
165 165 166
165 165 166
165 165 166
165 165 166
165 165 166
165 166 166
165 166 166
165 166 166
165 166 166
165 166 166
165 166 166
165 166 166
165 166 166
165 166 166
166 166 166
166 166 166
166 166 166
166 166 166
166 166 166
166 166 166
166 166 167
166 166 167
166 166 167
166 166 167
166 166 167
166 166 167
166 166 167
166 166 167
166 166 167
166 166 167
166 166 167
166 166 167
166 166 167
166 166 167
166 166 167
166 166 167
166 166 167
166 166 167
166 166 167
166 166 167
166 166 167
166 166 167
166 166 167
166 166 167
166 166 167
166 166 167
166 166 167
166 166 167
166 166 167
166 166 167
166 166 167
166 166 167
166 166 167
166 166 167
166 166 167
166 166 167
166 166 167
166 166 167
166 166 167
166 167 167
166 167 167
166 167 167
166 167 167
166 167 167
166 167 167
166 167 167
166 167 167
166 167 167
166 167 167
166 167 167
166 167 167
166 167 167
167 167 167
167 167 167
167 167 167
167 167 167
167 167 167
167 167 167
167 167 167
167 167 167
167 167 167
167 167 167
167 167 167
167 167 167
167 167 167
167 167 167
167 167 167
167 167 167
167 167 167
167 167 167
167 167 167
167 167 167
167 167 167
167 167 167
167 167 167
167 167 167
167 167 167
167 167 167
167 167 167
167 167 167
166 167 167
166 167 167
166 167 167
166 167 167
166 167 167
166 167 167
166 167 167
166 167 167
166 167 167
166 167 167
166 167 167
166 166 167
166 166 167
166 166 167
166 166 167
166 166 167
166 166 167
166 166 167
166 166 167
166 166 167
166 166 167
166 166 167
166 166 167
166 166 167
166 166 167
166 166 167
166 166 167
166 166 167
166 166 167
166 166 167
166 166 167
166 166 167
166 166 167
166 166 167
166 166 167
166 166 167
166 166 167
166 166 167
166 166 167
166 166 167
166 166 167
166 166 167
166 166 167
166 166 167
166 166 167
166 166 166
166 166 166
166 166 166
166 166 166
166 166 166
166 166 166
165 166 166
165 166 166
165 166 166
165 166 166
165 166 166
165 166 166
165 166 166
165 166 166
165 166 166
165 166 166
165 166 166
165 165 166
165 165 166
165 165 166
165 165 166
165 165 166
165 165 166
165 165 166
165 165 166
165 165 166
165 165 166
165 165 166
165 165 166
164 165 166
164 165 166
164 165 166
93 135 171
92 135 171
92 135 171
92 135 171
92 135 171
92 135 171
92 135 171
92 135 171
92 135 171
92 135 171
92 135 171
92 135 171
92 135 171
92 135 171
92 135 171
92 135 171
92 135 171
92 135 171
92 135 171
92 135 171
92 135 171
92 135 171
92 135 171
92 135 171
92 135 171
93 135 171
93 135 171
93 135 171
93 135 171
93 135 171
93 135 172
93 136 172
93 136 172
93 136 172
93 136 172
93 136 172
93 136 172
93 136 172
93 136 172
93 136 172
93 136 172
93 136 172
93 136 172
93 136 172
93 136 172
93 136 172
93 136 172
93 136 172
93 136 172
93 136 172
93 136 172
93 136 172
93 136 171
93 135 171
93 135 171
92 135 171
92 135 171
92 135 171
92 135 171
92 135 171
92 135 171
92 135 171
92 135 171
92 135 171
92 134 171
92 134 171
92 134 171
92 134 171
92 134 171
92 134 171
92 134 171
92 134 171
164 165 166
164 165 166
164 165 166
164 165 166
164 165 166
164 165 166
164 165 166
164 165 166
165 165 166
165 165 166
165 165 166
165 165 166
165 165 166
165 165 166
165 165 166
165 165 166
165 165 166
165 166 166
165 166 166
165 166 166
165 166 166
165 166 166
165 166 166
165 166 166
165 166 166
165 166 166
165 166 166
166 166 166
166 166 166
166 166 166
166 166 166
166 166 166
166 166 166
166 166 166
166 166 167
166 166 167
166 166 167
166 166 167
166 166 167
166 166 167
166 166 167
166 166 167
166 166 167
166 166 167
166 166 167
166 166 167
166 166 167
166 166 167
166 166 167
166 166 167
166 166 167
166 166 167
166 166 167
166 166 167
166 166 167
166 166 167
166 166 167
166 166 167
166 166 167
166 166 167
166 166 167
166 166 167
166 166 167
166 166 167
166 166 167
166 166 167
166 166 167
166 166 167
166 166 167
166 166 167
166 166 167
166 167 167
166 167 167
166 167 167
166 167 167
166 167 167
166 167 167
166 167 167
166 167 167
166 167 167
166 167 167
166 167 167
166 167 167
166 167 167
167 167 167
167 167 167
167 167 167
167 167 167
167 167 167
167 167 167
167 167 167
167 167 167
167 167 167
167 167 167
167 167 167
167 167 167
167 167 167
167 167 167
167 167 167
167 167 167
167 167 167
167 167 167
167 167 167
166 167 167
166 167 167
166 167 167
166 167 167
166 167 167
166 167 167
166 167 167
166 167 167
166 167 167
166 167 167
166 167 167
166 166 167
166 166 167
166 166 167
166 166 167
166 166 167
166 166 167
166 166 167
166 166 167
166 166 167
166 166 167
166 166 167
166 166 167
166 166 167
166 166 167
166 166 167
166 166 167
166 166 167
166 166 167
166 166 167
166 166 167
166 166 167
166 166 167
166 166 167
166 166 167
166 166 167
166 166 167
166 166 167
166 166 167
166 166 167
166 166 167
166 166 167
166 166 167
166 166 166
166 166 166
166 166 166
166 166 166
166 166 166
166 166 166
165 166 166
165 166 166
165 166 166
165 166 166
165 166 166
165 166 166
165 166 166
165 166 166
165 166 166
165 166 166
165 165 166
165 165 166
165 165 166
165 165 166
165 165 166
165 165 166
165 165 166
165 165 166
165 165 166
165 165 166
165 165 166
164 165 166
164 165 166
164 165 166
164 165 166
164 165 166
164 165 166
164 165 166
164 165 166
164 165 166
164 165 166
164 165 166
92 135 171
92 135 171
92 135 171
92 135 171
92 135 171
92 135 171
92 135 171
92 135 171
92 135 171
92 135 171
92 135 171
92 135 171
92 135 171
92 135 171
92 135 171
92 135 171
92 135 171
92 135 171
92 135 171
92 135 171
92 135 171
92 135 171
92 135 171
92 135 171
92 135 171
92 135 171
92 135 171
92 135 171
92 135 171
92 135 171
93 135 171
93 135 171
93 135 171
93 135 171
93 135 172
93 136 172
93 136 172
93 136 172
93 136 172
93 136 172
93 136 172
93 136 172
93 136 172
93 136 172
93 136 172
93 136 172
93 136 172
93 136 172
93 136 172
93 136 172
93 136 172
93 135 171
93 135 171
92 135 171
92 135 171
92 135 171
92 135 171
92 135 171
92 135 171
92 135 171
92 135 171
92 134 171
92 134 171
92 134 171
92 134 171
92 134 171
91 134 171
92 134 171
92 134 171
92 134 170
92 134 170
92 134 171
163 164 166
163 164 166
163 164 166
164 164 166
164 164 166
164 165 166
164 165 166
164 165 166
164 165 166
164 165 166
164 165 166
164 165 166
164 165 166
164 165 166
165 165 166
165 165 166
165 165 166
165 165 166
165 165 166
165 165 166
165 165 166
165 165 166
165 166 166
165 166 166
165 166 166
165 166 166
165 166 166
165 166 166
165 166 166
165 166 166
165 166 166
165 166 166
166 166 166
166 166 166
166 166 166
166 166 166
166 166 166
166 166 166
166 166 166
166 166 167
166 166 167
166 166 167
166 166 167
166 166 167
166 166 167
166 166 167
166 166 167
166 166 167
166 166 167
166 166 167
166 166 167
166 166 167
166 166 167
166 166 167
166 166 167
166 166 167
166 166 167
166 166 167
166 166 167
166 166 167
166 166 167
166 166 167
166 166 167
166 166 167
166 166 167
166 166 167
166 166 167
166 166 167
166 166 167
166 166 167
166 166 167
166 166 167
166 166 167
166 166 167
166 166 167
166 167 167
166 167 167
166 167 167
166 167 167
166 167 167
166 167 167
166 167 167
166 167 167
166 167 167
166 167 167
166 167 167
166 167 167
166 167 167
167 167 167
167 167 167
167 167 167
167 167 167
167 167 167
167 167 167
167 167 167
167 167 167
167 167 167
167 167 167
167 167 167
167 167 167
166 167 167
166 167 167
166 167 167
166 167 167
166 167 167
166 167 167
166 167 167
166 167 167
166 167 167
166 167 167
166 167 167
166 166 167
166 166 167
166 166 167
166 166 167
166 166 167
166 166 167
166 166 167
166 166 167
166 166 167
166 166 167
166 166 167
166 166 167
166 166 167
166 166 167
166 166 167
166 166 167
166 166 167
166 166 167
166 166 167
166 166 167
166 166 167
166 166 167
166 166 167
166 166 167
166 166 167
166 166 167
166 166 167
166 166 167
166 166 167
166 166 167
166 166 167
166 166 166
166 166 166
166 166 166
166 166 166
166 166 166
165 166 166
165 166 166
165 166 166
165 166 166
165 166 166
165 166 166
165 166 166
165 166 166
165 166 166
165 166 166
165 165 166
165 165 166
165 165 166
165 165 166
165 165 166
165 165 166
165 165 166
165 165 166
165 165 166
164 165 166
164 165 166
164 165 166
164 165 166
164 165 166
164 165 166
164 165 166
164 165 166
164 165 166
164 165 166
164 164 166
164 164 166
164 164 166
164 164 166
163 164 166
163 164 166
163 164 166
163 164 166
92 135 171
92 135 171
92 135 171
92 135 171
92 135 171
92 135 171
92 135 171
92 135 171
92 135 171
92 135 171
92 135 171
92 135 171
92 135 171
92 135 171
92 135 171
92 135 171
92 135 171
92 135 171
92 135 171
92 135 171
92 135 171
92 135 171
92 135 171
92 135 171
92 135 171
92 135 171
92 135 171
92 135 171
92 135 171
92 135 171
92 135 171
92 135 171
92 135 171
92 135 171
93 135 171
93 135 171
93 135 171
93 135 171
93 136 172
93 136 172
93 136 172
93 136 172
93 136 172
93 136 172
93 136 172
93 136 172
93 136 172
93 136 172
93 136 172
93 136 171
93 135 171
93 135 171
92 135 171
92 135 171
92 135 171
92 135 171
92 135 171
92 135 171
92 135 171
92 134 171
92 134 171
92 134 171
91 134 171
91 134 171
91 134 170
91 134 170
91 134 170
91 134 170
91 134 170
91 134 170
91 134 170
91 134 170
163 164 166
163 164 166
163 164 166
163 164 166
163 164 166
163 164 166
163 164 166
163 164 166
164 164 166
164 164 166
164 165 166
164 165 166
164 165 166
164 165 166
164 165 166
164 165 166
164 165 166
164 165 166
165 165 166
165 165 166
165 165 166
165 165 166
165 165 166
165 165 166
165 165 166
165 165 166
165 165 166
165 165 166
165 166 166
165 166 166
165 166 166
165 166 166
165 166 166
165 166 166
165 166 166
165 166 166
165 166 166
165 166 166
166 166 166
166 166 166
166 166 166
166 166 166
166 166 166
166 166 167
166 166 167
166 166 167
166 166 167
166 166 167
166 166 167
166 166 167
166 166 167
166 166 167
166 166 167
166 166 167
166 166 167
166 166 167
166 166 167
166 166 167
166 166 167
166 166 167
166 166 167
166 166 167
166 166 167
166 166 167
166 166 167
166 166 167
166 166 167
166 166 167
166 166 167
166 166 167
166 166 167
166 166 167
166 166 167
166 166 167
166 166 167
166 166 167
166 166 167
166 166 167
166 166 167
166 167 167
166 167 167
166 167 167
166 167 167
166 167 167
166 167 167
166 167 167
166 167 167
166 167 167
166 167 167
166 167 167
166 167 167
166 167 167
167 167 167
167 167 167
167 167 167
166 167 167
166 167 167
166 167 167
166 167 167
166 167 167
166 167 167
166 167 167
166 167 167
166 167 167
166 167 167
166 167 167
166 167 167
166 166 167
166 166 167
166 166 167
166 166 167
166 166 167
166 166 167
166 166 167
166 166 167
166 166 167
166 166 167
166 166 167
166 166 167
166 166 167
166 166 167
166 166 167
166 166 167
166 166 167
166 166 167
166 166 167
166 166 167
166 166 167
166 166 167
166 166 167
166 166 167
166 166 167
166 166 167
166 166 167
166 166 167
166 166 167
166 166 167
166 166 167
166 166 166
166 166 166
166 166 166
166 166 166
166 166 166
165 166 166
165 166 166
165 166 166
165 166 166
165 166 166
165 166 166
165 166 166
165 166 166
165 166 166
165 165 166
165 165 166
165 165 166
165 165 166
165 165 166
165 165 166
165 165 166
165 165 166
165 165 166
164 165 166
164 165 166
164 165 166
164 165 166
164 165 166
164 165 166
164 165 166
164 165 166
164 165 166
164 164 166
164 164 166
163 164 166
163 164 166
163 164 166
163 164 166
163 164 166
163 164 166
163 164 166
163 164 166
163 164 166
162 164 166
162 163 165
162 163 165
92 135 171
92 135 171
92 135 171
92 135 171
92 135 171
92 135 171
92 135 171
92 135 171
92 135 171
92 135 171
92 135 171
92 135 171
92 135 171
92 135 171
92 135 171
92 135 171
92 135 171
92 135 171
92 135 171
92 135 171
92 135 171
92 135 171
92 135 171
92 135 171
92 135 171
92 135 171
92 135 171
92 135 171
92 135 171
92 135 171
92 135 171
92 135 171
92 135 171
92 135 171
92 135 171
92 135 171
92 135 171
92 135 171
93 135 171
93 135 171
93 135 171
93 135 171
93 136 172
93 136 172
93 136 172
93 136 172
93 136 172
93 136 172
93 136 171
93 135 171
93 135 171
92 135 171
92 135 171
92 135 171
92 135 171
92 135 171
92 135 171
92 134 171
92 134 171
91 134 171
91 134 171
91 134 170
91 134 170
91 134 170
91 134 170
91 134 170
91 134 170
91 134 170
91 134 170
91 134 170
91 134 170
91 134 170
162 163 165
162 163 165
162 163 165
162 163 165
162 163 165
163 164 166
163 164 166
163 164 166
163 164 166
163 164 166
163 164 166
163 164 166
164 164 166
164 164 166
164 165 166
164 165 166
164 165 166
164 165 166
164 165 166
164 165 166
164 165 166
164 165 166
165 165 166
165 165 166
165 165 166
165 165 166
165 165 166
165 165 166
165 165 166
165 165 166
165 165 166
165 165 166
165 166 166
165 166 166
165 166 166
165 166 166
165 166 166
165 166 166
165 166 166
165 166 166
165 166 166
165 166 166
166 166 166
166 166 166
166 166 166
166 166 166
166 166 166
166 166 167
166 166 167
166 166 167
166 166 167
166 166 167
166 166 167
166 166 167
166 166 167
166 166 167
166 166 167
166 166 167
166 166 167
166 166 167
166 166 167
166 166 167
166 166 167
166 166 167
166 166 167
166 166 167
166 166 167
166 166 167
166 166 167
166 166 167
166 166 167
166 166 167
166 166 167
166 166 167
166 166 167
166 166 167
166 166 167
166 166 167
166 166 167
166 166 167
166 166 167
166 166 167
166 166 167
166 167 167
166 167 167
166 167 167
166 167 167
166 167 167
166 167 167
166 167 167
166 167 167
166 167 167
166 167 167
166 167 167
166 167 167
166 167 167
166 167 167
166 167 167
166 167 167
166 167 167
166 167 167
166 167 167
166 167 167
166 167 167
166 166 167
166 166 167
166 166 167
166 166 167
166 166 167
166 166 167
166 166 167
166 166 167
166 166 167
166 166 167
166 166 167
166 166 167
166 166 167
166 166 167
166 166 167
166 166 167
166 166 167
166 166 167
166 166 167
166 166 167
166 166 167
166 166 167
166 166 167
166 166 167
166 166 167
166 166 167
166 166 167
166 166 167
166 166 167
166 166 167
166 166 167
166 166 166
166 166 166
166 166 166
166 166 166
166 166 166
165 166 166
165 166 166
165 166 166
165 166 166
165 166 166
165 166 166
165 166 166
165 166 166
165 165 166
165 165 166
165 165 166
165 165 166
165 165 166
165 165 166
165 165 166
165 165 166
165 165 166
164 165 166
164 165 166
164 165 166
164 165 166
164 165 166
164 165 166
164 165 166
164 165 166
164 164 166
164 164 166
163 164 166
163 164 166
163 164 166
163 164 166
163 164 166
163 164 166
163 164 166
163 164 166
162 163 165
162 163 165
162 163 165
162 163 165
162 163 165
162 163 165
161 163 165
161 163 165
161 163 165
92 135 171
92 135 171
92 135 171
92 134 171
92 134 171
92 134 171
92 134 171
92 134 171
92 134 171
92 134 171
92 134 171
92 134 171
92 134 171
92 134 171
92 134 171
92 134 171
92 134 171
92 134 171
92 134 171
92 134 171
92 134 171
92 134 171
92 134 171
92 135 171
92 135 171
92 135 171
92 135 171
92 135 171
92 135 171
92 135 171
92 135 171
92 135 171
92 135 171
92 135 171
92 135 171
92 135 171
92 135 171
92 135 171
92 135 171
92 135 171
93 135 171
93 135 171
93 135 171
93 135 171
93 135 171
93 136 172
93 136 172
93 136 172
93 135 171
93 135 171
92 135 171
92 135 171
92 135 171
92 135 171
92 135 171
92 134 171
92 134 171
92 134 171
91 134 171
91 134 170
91 134 170
91 134 170
91 134 170
91 134 170
91 134 170
91 134 170
91 133 170
91 133 170
91 133 170
91 134 170
91 134 170
91 134 170
161 162 165
161 162 165
161 163 165
161 163 165
162 163 165
162 163 165
162 163 165
162 163 165
162 163 165
163 164 166
163 164 166
163 164 166
163 164 166
163 164 166
163 164 166
164 164 166
164 164 166
164 164 166
164 165 166
164 165 166
164 165 166
164 165 166
164 165 166
164 165 166
164 165 166
164 165 166
164 165 166
165 165 166
165 165 166
165 165 166
165 165 166
165 165 166
165 165 166
165 165 166
165 165 166
165 165 166
165 166 166
165 166 166
165 166 166
165 166 166
165 166 166
165 166 166
165 166 166
165 166 166
165 166 166
166 166 166
166 166 166
166 166 166
166 166 166
166 166 166
166 166 166
166 166 167
166 166 167
166 166 167
166 166 167
166 166 167
166 166 167
166 166 167
166 166 167
166 166 167
166 166 167
166 166 167
166 166 167
166 166 167
166 166 167
166 166 167
166 166 167
166 166 167
166 166 167
166 166 167
166 166 167
166 166 167
166 166 167
166 166 167
166 166 167
166 166 167
166 166 167
166 166 167
166 166 167
166 166 167
166 166 167
166 166 167
166 166 167
166 166 167
166 166 167
166 166 167
166 167 167
166 167 167
166 167 167
166 167 167
166 167 167
166 167 167
166 167 167
166 167 167
166 167 167
166 167 167
166 167 167
166 167 167
166 167 167
166 167 167
166 166 167
166 166 167
166 166 167
166 166 167
166 166 167
166 166 167
166 166 167
166 166 167
166 166 167
166 166 167
166 166 167
166 166 167
166 166 167
166 166 167
166 166 167
166 166 167
166 166 167
166 166 167
166 166 167
166 166 167
166 166 167
166 166 167
166 166 167
166 166 167
166 166 167
166 166 167
166 166 167
166 166 167
166 166 167
166 166 167
166 166 167
166 166 167
166 166 167
166 166 166
166 166 166
166 166 166
166 166 166
165 166 166
165 166 166
165 166 166
165 166 166
165 166 166
165 166 166
165 166 166
165 166 166
165 165 166
165 165 166
165 165 166
165 165 166
165 165 166
165 165 166
165 165 166
165 165 166
164 165 166
164 165 166
164 165 166
164 165 166
164 165 166
164 165 166
164 165 166
164 165 166
164 164 166
164 164 166
163 164 166
163 164 166
163 164 166
163 164 166
163 164 166
163 164 166
163 164 166
162 164 165
162 163 165
162 163 165
162 163 165
162 163 165
162 163 165
161 163 165
161 163 165
161 162 165
161 162 165
161 162 165
160 162 165
160 162 165
160 162 165
92 134 171
92 134 171
92 134 171
92 134 171
92 134 171
92 134 171
91 134 171
91 134 171
91 134 170
91 134 171
91 134 171
91 134 171
91 134 171
91 134 171
91 134 171
91 134 171
91 134 171
91 134 171
91 134 171
91 134 171
91 134 171
92 134 171
92 134 171
92 134 171
92 134 171
92 134 171
92 134 171
92 134 171
92 134 171
92 135 171
92 135 171
92 135 171
92 135 171
92 135 171
92 135 171
92 135 171
92 135 171
92 135 171
92 135 171
92 135 171
92 135 171
92 135 171
92 135 171
93 135 171
93 135 171
93 135 171
93 135 171
93 136 171
93 135 171
92 135 171
92 135 171
92 135 171
92 135 171
92 135 171
92 134 171
92 134 171
91 134 171
91 134 170
91 134 170
91 134 170
91 134 170
91 134 170
91 133 170
91 133 170
91 133 170
91 133 170
91 133 170
91 133 170
91 133 170
91 133 170
91 133 170
91 133 170
160 161 165
160 162 165
160 162 165
161 162 165
161 162 165
161 162 165
161 163 165
162 163 165
162 163 165
162 163 165
162 163 165
163 164 165
163 164 166
163 164 166
163 164 166
163 164 166
163 164 166
163 164 166
163 164 166
163 164 166
164 164 166
164 164 166
164 165 166
164 165 166
164 165 166
164 165 166
164 165 166
164 165 166
164 165 166
164 165 166
164 165 166
165 165 166
165 165 166
165 165 166
165 165 166
165 165 166
165 165 166
165 165 166
165 165 166
165 165 166
165 166 166
165 166 166
165 166 166
165 166 166
165 166 166
165 166 166
165 166 166
165 166 166
166 166 166
166 166 166
166 166 166
166 166 166
166 166 166
166 166 166
166 166 167
166 166 167
166 166 167
166 166 167
166 166 167
166 166 167
166 166 167
166 166 167
166 166 167
166 166 167
166 166 167
166 166 167
166 166 167
166 166 167
166 166 167
166 166 167
166 166 167
166 166 167
166 166 167
166 166 167
166 166 167
166 166 167
166 166 167
166 166 167
166 166 167
166 166 167
166 166 167
166 166 167
166 166 167
166 166 167
166 166 167
166 166 167
166 166 167
166 166 167
166 166 167
166 167 167
166 167 167
166 167 167
166 167 167
166 167 167
166 167 167
166 167 167
166 166 167
166 166 167
166 166 167
166 166 167
166 166 167
166 166 167
166 166 167
166 166 167
166 166 167
166 166 167
166 166 167
166 166 167
166 166 167
166 166 167
166 166 167
166 166 167
166 166 167
166 166 167
166 166 167
166 166 167
166 166 167
166 166 167
166 166 167
166 166 167
166 166 167
166 166 167
166 166 167
166 166 167
166 166 167
166 166 167
166 166 167
166 166 167
166 166 167
166 166 167
166 166 166
166 166 166
166 166 166
166 166 166
166 166 166
165 166 166
165 166 166
165 166 166
165 166 166
165 166 166
165 166 166
165 166 166
165 166 166
165 165 166
165 165 166
165 165 166
165 165 166
165 165 166
165 165 166
165 165 166
164 165 166
164 165 166
164 165 166
164 165 166
164 165 166
164 165 166
164 165 166
164 165 166
164 164 166
164 164 166
163 164 166
163 164 166
163 164 166
163 164 166
163 164 166
163 164 166
163 164 165
162 163 165
162 163 165
162 163 165
162 163 165
162 163 165
161 163 165
161 163 165
161 162 165
161 162 165
160 162 165
160 162 165
160 162 165
160 161 165
159 161 165
159 161 164
159 161 164
159 161 164
92 134 170
92 134 170
91 134 170
91 134 170
91 134 170
91 134 170
91 134 170
91 134 170
91 134 170
91 134 170
91 134 170
91 134 170
91 134 170
91 134 170
91 134 170
91 134 170
91 134 170
91 134 170
91 134 170
91 134 170
91 134 171
91 134 171
91 134 171
91 134 171
91 134 171
91 134 171
91 134 171
92 134 171
92 134 171
92 134 171
92 134 171
92 134 171
92 134 171
92 135 171
92 135 171
92 135 171
92 135 171
92 135 171
92 135 171
92 135 171
92 135 171
92 135 171
92 135 171
92 135 171
92 135 171
93 135 171
93 135 171
93 135 171
92 135 171
92 135 171
92 135 171
92 135 171
92 135 171
92 134 171
92 134 171
91 134 170
91 134 170
91 134 170
91 134 170
91 134 170
91 133 170
91 133 170
91 133 170
90 133 170
90 133 170
90 133 170
90 133 170
90 133 170
90 133 170
90 133 170
90 133 170
91 133 170
158 161 164
159 161 164
159 161 164
160 161 165
160 162 165
160 162 165
161 162 165
161 162 165
161 163 165
162 163 165
162 163 165
162 163 165
162 163 165
162 163 165
162 163 165
163 164 166
163 164 166
163 164 166
163 164 166
163 164 166
163 164 166
163 164 166
163 164 166
164 164 166
164 164 166
164 165 166
164 165 166
164 165 166
164 165 166
164 165 166
164 165 166
164 165 166
164 165 166
164 165 166
165 165 166
165 165 166
165 165 166
165 165 166
165 165 166
165 165 166
165 165 166
165 165 166
165 166 166
165 166 166
165 166 166
165 166 166
165 166 166
165 166 166
165 166 166
165 166 166
165 166 166
165 166 166
166 166 166
166 166 166
166 166 166
166 166 166
166 166 166
166 166 167
166 166 167
166 166 167
166 166 167
166 166 167
166 166 167
166 166 167
166 166 167
166 166 167
166 166 167
166 166 167
166 166 167
166 166 167
166 166 167
166 166 167
166 166 167
166 166 167
166 166 167
166 166 167
166 166 167
166 166 167
166 166 167
166 166 167
166 166 167
166 166 167
166 166 167
166 166 167
166 166 167
166 166 167
166 166 167
166 166 167
166 166 167
166 166 167
166 166 167
166 166 167
166 166 167
166 166 167
166 166 167
166 166 167
166 166 167
166 166 167
166 166 167
166 166 167
166 166 167
166 166 167
166 166 167
166 166 167
166 166 167
166 166 167
166 166 167
166 166 167
166 166 167
166 166 167
166 166 167
166 166 167
166 166 167
166 166 167
166 166 167
166 166 167
166 166 167
166 166 167
166 166 167
166 166 167
166 166 167
166 166 167
166 166 167
166 166 167
166 166 167
166 166 167
166 166 167
166 166 167
166 166 166
166 166 166
166 166 166
166 166 166
166 166 166
165 166 166
165 166 166
165 166 166
165 166 166
165 166 166
165 166 166
165 166 166
165 165 166
165 165 166
165 165 166
165 165 166
165 165 166
165 165 166
165 165 166
165 165 166
164 165 166
164 165 166
164 165 166
164 165 166
164 165 166
164 165 166
164 165 166
164 164 166
164 164 166
163 164 166
163 164 166
163 164 166
163 164 166
163 164 166
163 164 166
163 164 166
162 163 165
162 163 165
162 163 165
162 163 165
162 163 165
161 163 165
161 163 165
161 162 165
161 162 165
160 162 165
160 162 165
160 162 165
159 161 165
159 161 164
159 161 164
159 161 164
158 160 164
158 160 164
157 160 164
157 160 164
91 134 170
91 134 170
91 134 170
91 134 170
91 134 170
91 134 170
91 134 170
91 134 170
91 134 170
91 134 170
91 134 170
91 134 170
91 134 170
91 134 170
91 134 170
91 134 170
91 134 170
91 134 170
91 134 170
91 134 170
91 134 170
91 134 170
91 134 170
91 134 170
91 134 170
91 134 170
91 134 170
91 134 171
91 134 171
91 134 171
91 134 171
91 134 171
92 134 171
92 134 171
92 134 171
92 134 171
92 134 171
92 135 171
92 135 171
92 135 171
92 135 171
92 135 171
92 135 171
92 135 171
92 135 171
92 135 171
92 135 171
92 135 171
92 135 171
92 135 171
92 135 171
92 135 171
92 134 171
91 134 171
91 134 170
91 134 170
91 134 170
91 134 170
91 133 170
91 133 170
91 133 170
90 133 170
90 133 170
90 133 170
90 133 170
90 133 170
90 133 169
90 133 169
90 133 169
90 133 169
90 133 169
90 133 170
157 160 164
158 160 164
158 160 164
159 161 164
159 161 164
160 161 165
160 162 165
161 162 165
161 162 165
161 162 165
161 163 165
161 163 165
162 163 165
162 163 165
162 163 165
162 163 165
162 163 165
162 163 165
163 164 166
163 164 166
163 164 166
163 164 166
163 164 166
163 164 166
163 164 166
163 164 166
164 164 166
164 164 166
164 165 166
164 165 166
164 165 166
164 165 166
164 165 166
164 165 166
164 165 166
164 165 166
164 165 166
165 165 166
165 165 166
165 165 166
165 165 166
165 165 166
165 165 166
165 165 166
165 165 166
165 166 166
165 166 166
165 166 166
165 166 166
165 166 166
165 166 166
165 166 166
165 166 166
165 166 166
166 166 166
166 166 166
166 166 166
166 166 166
166 166 166
166 166 166
166 166 167
166 166 167
166 166 167
166 166 167
166 166 167
166 166 167
166 166 167
166 166 167
166 166 167
166 166 167
166 166 167
166 166 167
166 166 167
166 166 167
166 166 167
166 166 167
166 166 167
166 166 167
166 166 167
166 166 167
166 166 167
166 166 167
166 166 167
166 166 167
166 166 167
166 166 167
166 166 167
166 166 167
166 166 167
166 166 167
166 166 167
166 166 167
166 166 167
166 166 167
166 166 167
166 166 167
166 166 167
166 166 167
166 166 167
166 166 167
166 166 167
166 166 167
166 166 167
166 166 167
166 166 167
166 166 167
166 166 167
166 166 167
166 166 167
166 166 167
166 166 167
166 166 167
166 166 167
166 166 167
166 166 167
166 166 167
166 166 167
166 166 167
166 166 167
166 166 167
166 166 167
166 166 167
166 166 167
166 166 167
166 166 167
166 166 166
166 166 166
166 166 166
166 166 166
166 166 166
165 166 166
165 166 166
165 166 166
165 166 166
165 166 166
165 166 166
165 166 166
165 166 166
165 166 166
165 165 166
165 165 166
165 165 166
165 165 166
165 165 166
165 165 166
165 165 166
165 165 166
164 165 166
164 165 166
164 165 166
164 165 166
164 165 166
164 165 166
164 164 166
164 164 166
163 164 166
163 164 166
163 164 166
163 164 166
163 164 166
163 164 166
163 164 166
162 163 165
162 163 165
162 163 165
162 163 165
161 163 165
161 163 165
161 162 165
161 162 165
161 162 165
160 162 165
160 162 165
160 161 165
159 161 164
159 161 164
159 161 164
158 160 164
158 160 164
157 160 164
157 159 164
157 159 164
156 159 164
156 158 163
91 134 170
91 134 170
91 134 170
91 134 170
91 134 170
91 134 170
91 133 170
91 133 170
91 133 170
91 133 170
91 133 170
91 133 170
91 133 170
91 133 170
91 133 170
91 133 170
91 133 170
91 133 170
91 133 170
91 133 170
91 134 170
91 134 170
91 134 170
91 134 170
91 134 170
91 134 170
91 134 170
91 134 170
91 134 170
91 134 170
91 134 170
91 134 170
91 134 171
91 134 171
91 134 171
92 134 171
92 134 171
92 134 171
92 134 171
92 134 171
92 135 171
92 135 171
92 135 171
92 135 171
92 135 171
92 135 171
92 135 171
92 135 171
92 135 171
92 135 171
92 135 171
92 134 171
91 134 171
91 134 170
91 134 170
91 134 170
91 133 170
91 133 170
90 133 170
90 133 170
90 133 170
90 133 170
90 133 170
90 133 169
90 132 169
90 132 169
90 132 169
90 132 169
90 132 169
90 132 169
90 132 169
90 133 169
156 159 163
157 159 164
158 160 164
158 160 164
159 161 164
159 161 164
160 161 165
160 162 165
160 162 165
160 162 165
161 162 165
161 162 165
161 162 165
161 163 165
161 163 165
162 163 165
162 163 165
162 163 165
162 163 165
162 163 165
162 163 165
163 164 166
163 164 166
163 164 166
163 164 166
163 164 166
163 164 166
163 164 166
163 164 166
164 164 166
164 164 166
164 165 166
164 165 166
164 165 166
164 165 166
164 165 166
164 165 166
164 165 166
164 165 166
165 165 166
165 165 166
165 165 166
165 165 166
165 165 166
165 165 166
165 165 166
165 165 166
165 165 166
165 166 166
165 166 166
165 166 166
165 166 166
165 166 166
165 166 166
165 166 166
165 166 166
165 166 166
166 166 166
166 166 166
166 166 166
166 166 166
166 166 166
166 166 167
166 166 167
166 166 167
166 166 167
166 166 167
166 166 167
166 166 167
166 166 167
166 166 167
166 166 167
166 166 167
166 166 167
166 166 167
166 166 167
166 166 167
166 166 167
166 166 167
166 166 167
166 166 167
166 166 167
166 166 167
166 166 167
166 166 167
166 166 167
166 166 167
166 166 167
166 166 167
166 166 167
166 166 167
166 166 167
166 166 167
166 166 167
166 166 167
166 166 167
166 166 167
166 166 167
166 166 167
166 166 167
166 166 167
166 166 167
166 166 167
166 166 167
166 166 167
166 166 167
166 166 167
166 166 167
166 166 167
166 166 167
166 166 167
166 166 167
166 166 167
166 166 167
166 166 167
166 166 167
166 166 167
166 166 167
166 166 167
166 166 167
166 166 167
166 166 167
166 166 167
166 166 166
166 166 166
166 166 166
166 166 166
165 166 166
165 166 166
165 166 166
165 166 166
165 166 166
165 166 166
165 166 166
165 166 166
165 166 166
165 166 166
165 165 166
165 165 166
165 165 166
165 165 166
165 165 166
165 165 166
165 165 166
165 165 166
164 165 166
164 165 166
164 165 166
164 165 166
164 165 166
164 165 166
164 165 166
164 164 166
164 164 166
163 164 166
163 164 166
163 164 166
163 164 166
163 164 166
163 164 166
162 164 165
162 163 165
162 163 165
162 163 165
162 163 165
161 163 165
161 163 165
161 162 165
161 162 165
160 162 165
160 162 165
160 161 165
159 161 165
159 161 164
159 161 164
158 160 164
158 160 164
157 160 164
157 159 164
156 159 164
156 159 163
155 158 163
155 158 163
154 157 163
91 134 170
91 133 170
91 133 170
91 133 170
91 133 170
91 133 170
91 133 170
90 133 170
90 133 170
90 133 170
90 133 170
90 133 170
90 133 170
90 133 170
90 133 170
90 133 170
90 133 170
90 133 170
90 133 170
91 133 170
91 133 170
91 133 170
91 133 170
91 133 170
91 133 170
91 133 170
91 133 170
91 134 170
91 134 170
91 134 170
91 134 170
91 134 170
91 134 170
91 134 170
91 134 170
91 134 170
91 134 171
91 134 171
91 134 171
92 134 171
92 134 171
92 134 171
92 135 171
92 135 171
92 135 171
92 135 171
92 135 171
92 135 171
92 135 171
92 135 171
92 134 171
91 134 170
91 134 170
91 134 170
91 134 170
91 133 170
91 133 170
90 133 170
90 133 170
90 133 170
90 133 170
90 132 169
90 132 169
89 132 169
89 132 169
89 132 169
89 132 169
89 132 169
89 132 169
89 132 169
89 132 169
90 132 169
155 158 163
156 159 163
157 160 164
158 160 164
158 160 164
159 161 164
159 161 164
159 161 164
159 161 165
160 161 165
160 162 165
160 162 165
160 162 165
161 162 165
161 162 165
161 162 165
161 163 165
161 163 165
162 163 165
162 163 165
162 163 165
162 163 165
162 163 165
163 164 166
163 164 166
163 164 166
163 164 166
163 164 166
163 164 166
163 164 166
163 164 166
164 164 166
164 164 166
164 165 166
164 165 166
164 165 166
164 165 166
164 165 166
164 165 166
164 165 166
164 165 166
165 165 166
165 165 166
165 165 166
165 165 166
165 165 166
165 165 166
165 165 166
165 165 166
165 165 166
165 166 166
165 166 166
165 166 166
165 166 166
165 166 166
165 166 166
165 166 166
165 166 166
165 166 166
166 166 166
166 166 166
166 166 166
166 166 166
166 166 166
166 166 167
166 166 167
166 166 167
166 166 167
166 166 167
166 166 167
166 166 167
166 166 167
166 166 167
166 166 167
166 166 167
166 166 167
166 166 167
166 166 167
166 166 167
166 166 167
166 166 167
166 166 167
166 166 167
166 166 167
166 166 167
166 166 167
166 166 167
166 166 167
166 166 167
166 166 167
166 166 167
166 166 167
166 166 167
166 166 167
166 166 167
166 166 167
166 166 167
166 166 167
166 166 167
166 166 167
166 166 167
166 166 167
166 166 167
166 166 167
166 166 167
166 166 167
166 166 167
166 166 167
166 166 167
166 166 167
166 166 167
166 166 167
166 166 167
166 166 167
166 166 167
166 166 167
166 166 167
166 166 167
166 166 167
166 166 167
166 166 167
166 166 166
166 166 166
166 166 166
166 166 166
166 166 166
165 166 166
165 166 166
165 166 166
165 166 166
165 166 166
165 166 166
165 166 166
165 166 166
165 166 166
165 165 166
165 165 166
165 165 166
165 165 166
165 165 166
165 165 166
165 165 166
165 165 166
165 165 166
164 165 166
164 165 166
164 165 166
164 165 166
164 165 166
164 165 166
164 165 166
164 164 166
164 164 166
163 164 166
163 164 166
163 164 166
163 164 166
163 164 166
163 164 166
162 164 165
162 163 165
162 163 165
162 163 165
162 163 165
161 163 165
161 162 165
161 162 165
160 162 165
160 162 165
160 162 165
160 161 165
159 161 164
159 161 164
158 160 164
158 160 164
157 160 164
157 159 164
157 159 164
156 159 164
155 158 163
155 158 163
154 157 163
153 157 163
153 156 163
91 133 170
91 133 170
91 133 170
90 133 170
90 133 170
90 133 170
90 133 170
90 133 170
90 133 170
90 133 170
90 133 170
90 133 170
90 133 170
90 133 170
90 133 170
90 133 170
90 133 170
90 133 170
90 133 170
90 133 170
90 133 170
90 133 170
90 133 170
90 133 170
90 133 170
90 133 170
91 133 170
91 133 170
91 133 170
91 133 170
91 133 170
91 133 170
91 134 170
91 134 170
91 134 170
91 134 170
91 134 170
91 134 170
91 134 170
91 134 171
91 134 171
92 134 171
92 134 171
92 134 171
92 135 171
92 135 171
92 135 171
92 135 171
92 135 171
92 134 171
91 134 170
91 134 170
91 134 170
91 134 170
91 133 170
90 133 170
90 133 170
90 133 170
90 133 170
90 132 169
90 132 169
89 132 169
89 132 169
89 132 169
89 132 169
89 131 169
89 131 169
89 131 169
88 131 168
88 131 168
88 131 168
89 131 168
155 158 163
157 159 163
157 159 164
157 160 164
158 160 164
158 160 164
158 160 164
159 161 164
159 161 164
159 161 164
159 161 165
160 161 165
160 162 165
160 162 165
160 162 165
161 162 165
161 162 165
161 163 165
161 163 165
162 163 165
162 163 165
162 163 165
162 163 165
162 163 165
162 163 165
163 164 166
163 164 166
163 164 166
163 164 166
163 164 166
163 164 166
163 164 166
163 164 166
164 164 166
164 164 166
164 165 166
164 165 166
164 165 166
164 165 166
164 165 166
164 165 166
164 165 166
164 165 166
165 165 166
165 165 166
165 165 166
165 165 166
165 165 166
165 165 166
165 165 166
165 165 166
165 165 166
165 166 166
165 166 166
165 166 166
165 166 166
165 166 166
165 166 166
165 166 166
165 166 166
165 166 166
166 166 166
166 166 166
166 166 166
166 166 166
166 166 166
166 166 167
166 166 167
166 166 167
166 166 167
166 166 167
166 166 167
166 166 167
166 166 167
166 166 167
166 166 167
166 166 167
166 166 167
166 166 167
166 166 167
166 166 167
166 166 167
166 166 167
166 166 167
166 166 167
166 166 167
166 166 167
166 166 167
166 166 167
166 166 167
166 166 167
166 166 167
166 166 167
166 166 167
166 166 167
166 166 167
166 166 167
166 166 167
166 166 167
166 166 167
166 166 167
166 166 167
166 166 167
166 166 167
166 166 167
166 166 167
166 166 167
166 166 167
166 166 167
166 166 167
166 166 167
166 166 167
166 166 167
166 166 167
166 166 167
166 166 167
166 166 167
166 166 167
166 166 166
166 166 166
166 166 166
166 166 166
166 166 166
166 166 166
165 166 166
165 166 166
165 166 166
165 166 166
165 166 166
165 166 166
165 166 166
165 166 166
165 166 166
165 165 166
165 165 166
165 165 166
165 165 166
165 165 166
165 165 166
165 165 166
165 165 166
165 165 166
164 165 166
164 165 166
164 165 166
164 165 166
164 165 166
164 165 166
164 165 166
164 165 166
164 164 166
164 164 166
163 164 166
163 164 166
163 164 166
163 164 166
163 164 166
163 164 166
163 164 166
162 163 165
162 163 165
162 163 165
162 163 165
161 163 165
161 163 165
161 162 165
161 162 165
160 162 165
160 162 165
160 161 165
159 161 164
159 161 164
158 161 164
158 160 164
158 160 164
157 159 164
156 159 164
156 159 163
155 158 163
155 158 163
154 157 163
153 157 163
152 156 162
152 156 162
90 133 170
90 133 170
90 133 170
90 133 169
90 133 169
90 133 169
90 132 169
90 132 169
90 132 169
90 132 169
90 132 169
90 132 169
90 132 169
90 132 169
90 132 169
90 132 169
90 132 169
90 133 170
90 133 170
90 133 170
90 133 170
90 133 170
90 133 170
90 133 170
90 133 170
90 133 170
90 133 170
90 133 170
90 133 170
90 133 170
90 133 170
91 133 170
91 133 170
91 133 170
91 133 170
91 134 170
91 134 170
91 134 170
91 134 170
91 134 170
91 134 170
91 134 170
91 134 171
92 134 171
92 134 171
92 134 171
92 135 171
92 135 171
92 134 171
92 134 170
91 134 170
91 134 170
91 133 170
91 133 170
90 133 170
90 133 170
90 133 170
90 132 169
90 132 169
89 132 169
89 132 169
89 132 169
89 131 169
89 131 169
89 131 169
88 131 168
88 131 168
88 130 168
88 130 168
87 130 168
87 129 167
142 148 159
148 153 161
153 156 162
155 158 163
157 159 164
157 159 164
157 160 164
158 160 164
158 160 164
158 160 164
159 161 164
159 161 164
159 161 164
160 161 165
160 162 165
160 162 165
160 162 165
161 162 165
161 162 165
161 162 165
161 163 165
161 163 165
162 163 165
162 163 165
162 163 165
162 163 165
162 163 165
162 164 166
163 164 166
163 164 166
163 164 166
163 164 166
163 164 166
163 164 166
163 164 166
164 164 166
164 164 166
164 165 166
164 165 166
164 165 166
164 165 166
164 165 166
164 165 166
164 165 166
164 165 166
164 165 166
165 165 166
165 165 166
165 165 166
165 165 166
165 165 166
165 165 166
165 165 166
165 165 166
165 166 166
165 166 166
165 166 166
165 166 166
165 166 166
165 166 166
165 166 166
165 166 166
165 166 166
165 166 166
166 166 166
166 166 166
166 166 166
166 166 166
166 166 167
166 166 167
166 166 167
166 166 167
166 166 167
166 166 167
166 166 167
166 166 167
166 166 167
166 166 167
166 166 167
166 166 167
166 166 167
166 166 167
166 166 167
166 166 167
166 166 167
166 166 167
166 166 167
166 166 167
166 166 167
166 166 167
166 166 167
166 166 167
166 166 167
166 166 167
166 166 167
166 166 167
166 166 167
166 166 167
166 166 167
166 166 167
166 166 167
166 166 167
166 166 167
166 166 167
166 166 167
166 166 167
166 166 167
166 166 167
166 166 167
166 166 167
166 166 167
166 166 167
166 166 167
166 166 167
166 166 167
166 166 167
166 166 167
166 166 167
166 166 166
166 166 166
166 166 166
166 166 166
166 166 166
165 166 166
165 166 166
165 166 166
165 166 166
165 166 166
165 166 166
165 166 166
165 166 166
165 166 166
165 165 166
165 165 166
165 165 166
165 165 166
165 165 166
165 165 166
165 165 166
165 165 166
165 165 166
164 165 166
164 165 166
164 165 166
164 165 166
164 165 166
164 165 166
164 165 166
164 165 166
164 165 166
164 164 166
164 164 166
163 164 166
163 164 166
163 164 166
163 164 166
163 164 166
163 164 166
163 164 166
162 164 165
162 163 165
162 163 165
162 163 165
162 163 165
162 163 165
161 163 165
161 162 165
161 162 165
160 162 165
160 162 165
160 161 165
159 161 164
159 161 164
158 161 164
158 160 164
157 160 164
157 159 164
156 159 164
156 158 163
155 158 163
154 157 163
153 157 163
152 156 162
151 155 162
150 155 162
90 133 169
90 133 169
90 132 169
90 132 169
90 132 169
90 132 169
89 132 169
89 132 169
89 132 169
89 132 169
89 132 169
89 132 169
89 132 169
89 132 169
89 132 169
89 132 169
89 132 169
90 132 169
90 132 169
90 132 169
90 132 169
90 132 169
90 132 169
90 132 169
90 132 169
90 133 170
90 133 170
90 133 170
90 133 170
90 133 170
90 133 170
90 133 170
90 133 170
90 133 170
90 133 170
91 133 170
91 133 170
91 133 170
91 133 170
91 134 170
91 134 170
91 134 170
91 134 170
91 134 170
91 134 170
92 134 171
92 134 171
92 134 171
92 134 170
91 134 170
91 134 170
91 133 170
91 133 170
90 133 170
90 133 170
90 133 169
90 132 169
89 132 169
89 132 169
89 132 169
89 131 169
89 131 169
88 131 169
88 131 168
88 131 168
88 130 168
87 130 168
87 130 168
87 129 167
140 147 158
142 149 159
144 150 160
147 152 160
149 153 161
150 155 162
152 156 162
153 157 163
155 158 163
156 158 163
157 159 164
157 160 164
158 160 164
159 161 164
159 161 164
159 161 164
160 161 165
160 162 165
160 162 165
160 162 165
161 162 165
161 162 165
161 162 165
161 163 165
161 163 165
162 163 165
162 163 165
162 163 165
162 163 165
162 163 165
162 164 166
163 164 166
163 164 166
163 164 166
163 164 166
163 164 166
163 164 166
163 164 166
164 164 166
164 164 166
164 164 166
164 165 166
164 165 166
164 165 166
164 165 166
164 165 166
164 165 166
164 165 166
164 165 166
165 165 166
165 165 166
165 165 166
165 165 166
165 165 166
165 165 166
165 165 166
165 165 166
165 165 166
165 166 166
165 166 166
165 166 166
165 166 166
165 166 166
165 166 166
165 166 166
165 166 166
165 166 166
166 166 166
166 166 166
166 166 166
166 166 166
166 166 166
166 166 167
166 166 167
166 166 167
166 166 167
166 166 167
166 166 167
166 166 167
166 166 167
166 166 167
166 166 167
166 166 167
166 166 167
166 166 167
166 166 167
166 166 167
166 166 167
166 166 167
166 166 167
166 166 167
166 166 167
166 166 167
166 166 167
166 166 167
166 166 167
166 166 167
166 166 167
166 166 167
166 166 167
166 166 167
166 166 167
166 166 167
166 166 167
166 166 167
166 166 167
166 166 167
166 166 167
166 166 167
166 166 167
166 166 167
166 166 167
166 166 167
166 166 167
166 166 167
166 166 167
166 166 167
166 166 167
166 166 166
166 166 166
166 166 166
166 166 166
166 166 166
166 166 166
165 166 166
165 166 166
165 166 166
165 166 166
165 166 166
165 166 166
165 166 166
165 166 166
165 166 166
165 165 166
165 165 166
165 165 166
165 165 166
165 165 166
165 165 166
165 165 166
165 165 166
165 165 166
164 165 166
164 165 166
164 165 166
164 165 166
164 165 166
164 165 166
164 165 166
164 165 166
164 164 166
164 164 166
164 164 166
163 164 166
163 164 166
163 164 166
163 164 166
163 164 166
163 164 166
163 164 166
162 163 165
162 163 165
162 163 165
162 163 165
162 163 165
162 163 165
161 163 165
161 163 165
161 162 165
161 162 165
161 162 165
160 162 165
160 162 165
160 161 165
159 161 164
159 161 164
158 161 164
158 160 164
157 160 164
157 159 164
156 159 163
155 158 163
154 157 163
153 157 163
152 156 162
151 155 162
149 154 161
90 132 169
90 132 169
89 132 169
89 132 169
89 132 169
89 132 169
89 132 169
89 132 169
89 132 169
89 132 169
89 132 169
89 132 169
89 132 169
89 132 169
89 132 169
89 132 169
89 132 169
89 132 169
89 132 169
89 132 169
89 132 169
89 132 169
89 132 169
89 132 169
90 132 169
90 132 169
90 132 169
90 132 169
90 132 169
90 132 169
90 133 170
90 133 170
90 133 170
90 133 170
90 133 170
90 133 170
90 133 170
90 133 170
91 133 170
91 133 170
91 133 170
91 134 170
91 134 170
91 134 170
91 134 170
91 134 170
91 134 170
92 134 171
91 134 170
91 134 170
91 134 170
91 133 170
90 133 170
90 133 170
90 132 169
90 132 169
89 132 169
89 132 169
89 131 169
89 131 169
88 131 169
88 131 168
88 130 168
88 130 168
87 130 168
87 130 167
86 129 167
140 147 158
141 148 159
143 149 159
144 150 160
146 151 160
147 152 161
148 153 161
150 154 162
151 155 162
152 156 162
153 157 163
154 157 163
155 158 163
155 158 163
156 159 164
157 159 164
157 160 164
158 160 164
159 161 164
159 161 164
159 161 165
160 162 165
160 162 165
160 162 165
161 162 165
161 162 165
161 163 165
161 163 165
162 163 165
162 163 165
162 163 165
162 163 165
162 163 165
162 164 166
163 164 166
163 164 166
163 164 166
163 164 166
163 164 166
163 164 166
163 164 166
164 164 166
164 164 166
164 164 166
164 165 166
164 165 166
164 165 166
164 165 166
164 165 166
164 165 166
164 165 166
164 165 166
165 165 166
165 165 166
165 165 166
165 165 166
165 165 166
165 165 166
165 165 166
165 165 166
165 165 166
165 166 166
165 166 166
165 166 166
165 166 166
165 166 166
165 166 166
165 166 166
165 166 166
165 166 166
166 166 166
166 166 166
166 166 166
166 166 166
166 166 166
166 166 167
166 166 167
166 166 167
166 166 167
166 166 167
166 166 167
166 166 167
166 166 167
166 166 167
166 166 167
166 166 167
166 166 167
166 166 167
166 166 167
166 166 167
166 166 167
166 166 167
166 166 167
166 166 167
166 166 167
166 166 167
166 166 167
166 166 167
166 166 167
166 166 167
166 166 167
166 166 167
166 166 167
166 166 167
166 166 167
166 166 167
166 166 167
166 166 167
166 166 167
166 166 167
166 166 167
166 166 167
166 166 167
166 166 167
166 166 167
166 166 167
166 166 167
166 166 167
166 166 167
166 166 166
166 166 166
166 166 166
166 166 166
166 166 166
165 166 166
165 166 166
165 166 166
165 166 166
165 166 166
165 166 166
165 166 166
165 166 166
165 166 166
165 166 166
165 165 166
165 165 166
165 165 166
165 165 166
165 165 166
165 165 166
165 165 166
165 165 166
165 165 166
164 165 166
164 165 166
164 165 166
164 165 166
164 165 166
164 165 166
164 165 166
164 165 166
164 165 166
164 164 166
164 164 166
163 164 166
163 164 166
163 164 166
163 164 166
163 164 166
163 164 166
163 164 166
163 164 166
162 163 165
162 163 165
162 163 165
162 163 165
162 163 165
162 163 165
161 163 165
161 163 165
161 162 165
161 162 165
160 162 165
160 162 165
160 162 165
160 161 165
160 161 165
159 161 164
159 161 164
159 161 164
158 160 164
158 160 164
157 160 164
157 159 164
155 158 163
154 157 163
153 156 162
151 155 162
149 153 161
89 132 169
89 131 169
89 131 169
89 131 168
88 131 168
88 131 168
88 131 168
88 131 168
88 131 168
88 131 168
88 131 169
88 131 169
88 131 169
89 131 169
89 131 169
89 131 169
89 131 169
89 131 169
89 131 169
89 131 169
89 131 169
89 132 169
89 132 169
89 132 169
89 132 169
89 132 169
89 132 169
89 132 169
89 132 169
89 132 169
90 132 169
90 132 169
90 132 169
90 132 169
90 132 169
90 133 170
90 133 170
90 133 170
90 133 170
90 133 170
91 133 170
91 133 170
91 133 170
91 133 170
91 134 170
91 134 170
91 134 170
91 134 170
91 134 170
91 134 170
91 133 170
90 133 170
90 133 169
90 132 169
89 132 169
89 132 169
89 132 169
89 131 169
88 131 168
88 131 168
88 130 168
88 130 168
87 130 168
87 129 167
86 129 167
140 147 158
141 148 159
142 149 159
143 150 160
145 150 160
146 151 160
147 152 161
148 153 161
149 154 161
150 154 162
151 155 162
152 156 162
152 156 162
153 157 163
154 157 163
155 158 163
155 158 163
156 159 164
157 159 164
157 160 164
158 160 164
158 160 164
159 161 164
159 161 164
159 161 165
160 162 165
160 162 165
160 162 165
161 162 165
161 162 165
161 163 165
162 163 165
162 163 165
162 163 165
162 163 165
162 163 166
163 164 166
163 164 166
163 164 166
163 164 166
163 164 166
163 164 166
163 164 166
163 164 166
164 164 166
164 164 166
164 165 166
164 165 166
164 165 166
164 165 166
164 165 166
164 165 166
164 165 166
164 165 166
164 165 166
165 165 166
165 165 166
165 165 166
165 165 166
165 165 166
165 165 166
165 165 166
165 165 166
165 165 166
165 166 166
165 166 166
165 166 166
165 166 166
165 166 166
165 166 166
165 166 166
165 166 166
165 166 166
166 166 166
166 166 166
166 166 166
166 166 166
166 166 166
166 166 167
166 166 167
166 166 167
166 166 167
166 166 167
166 166 167
166 166 167
166 166 167
166 166 167
166 166 167
166 166 167
166 166 167
166 166 167
166 166 167
166 166 167
166 166 167
166 166 167
166 166 167
166 166 167
166 166 167
166 166 167
166 166 167
166 166 167
166 166 167
166 166 167
166 166 167
166 166 167
166 166 167
166 166 167
166 166 167
166 166 167
166 166 167
166 166 167
166 166 167
166 166 167
166 166 167
166 166 167
166 166 167
166 166 167
166 166 167
166 166 167
166 166 167
166 166 166
166 166 166
166 166 166
166 166 166
166 166 166
165 166 166
165 166 166
165 166 166
165 166 166
165 166 166
165 166 166
165 166 166
165 166 166
165 166 166
165 166 166
165 165 166
165 165 166
165 165 166
165 165 166
165 165 166
165 165 166
165 165 166
165 165 166
165 165 166
164 165 166
164 165 166
164 165 166
164 165 166
164 165 166
164 165 166
164 165 166
164 165 166
164 165 166
164 164 166
164 164 166
163 164 166
163 164 166
163 164 166
163 164 166
163 164 166
163 164 166
163 164 166
163 164 166
162 164 165
162 163 165
162 163 165
162 163 165
162 163 165
162 163 165
161 163 165
161 163 165
161 162 165
161 162 165
161 162 165
160 162 165
160 162 165
160 162 165
160 161 165
159 161 165
159 161 164
159 161 164
159 161 164
158 160 164
158 160 164
158 160 164
157 160 164
157 159 164
157 159 164
156 159 163
156 159 163
152 156 162
88 130 168
87 130 168
87 130 168
87 130 168
87 130 168
88 130 168
88 130 168
88 130 168
88 130 168
88 130 168
88 130 168
88 130 168
88 131 168
88 131 168
88 131 168
88 131 168
88 131 168
88 131 168
88 131 168
88 131 168
88 131 169
88 131 169
89 131 169
89 131 169
89 131 169
89 131 169
89 131 169
89 131 169
89 132 169
89 132 169
89 132 169
89 132 169
89 132 169
89 132 169
90 132 169
90 132 169
90 132 169
90 132 169
90 133 170
90 133 170
90 133 170
90 133 170
90 133 170
91 133 170
91 133 170
91 134 170
91 134 170
91 134 170
91 134 170
91 133 170
90 133 170
90 133 169
90 132 169
89 132 169
89 132 169
89 131 169
88 131 169
88 131 168
88 130 168
88 130 168
87 130 168
87 129 167
86 129 167
140 147 158
141 148 159
142 149 159
143 149 160
144 150 160
145 151 160
146 152 161
147 152 161
148 153 161
149 153 161
149 154 162
150 155 162
151 155 162
152 156 162
152 156 163
153 157 163
154 157 163
155 158 163
155 158 163
156 159 163
156 159 164
157 159 164
157 160 164
158 160 164
158 160 164
159 161 164
159 161 164
159 161 165
160 161 165
160 162 165
160 162 165
161 162 165
161 162 165
161 163 165
161 163 165
162 163 165
162 163 165
162 163 165
162 163 165
162 164 166
163 164 166
163 164 166
163 164 166
163 164 166
163 164 166
163 164 166
164 164 166
164 164 166
164 164 166
164 165 166
164 165 166
164 165 166
164 165 166
164 165 166
164 165 166
164 165 166
164 165 166
164 165 166
165 165 166
165 165 166
165 165 166
165 165 166
165 165 166
165 165 166
165 165 166
165 165 166
165 166 166
165 166 166
165 166 166
165 166 166
165 166 166
165 166 166
165 166 166
165 166 166
165 166 166
165 166 166
165 166 166
166 166 166
166 166 166
166 166 166
166 166 166
166 166 167
166 166 167
166 166 167
166 166 167
166 166 167
166 166 167
166 166 167
166 166 167
166 166 167
166 166 167
166 166 167
166 166 167
166 166 167
166 166 167
166 166 167
166 166 167
166 166 167
166 166 167
166 166 167
166 166 167
166 166 167
166 166 167
166 166 167
166 166 167
166 166 167
166 166 167
166 166 167
166 166 167
166 166 167
166 166 167
166 166 167
166 166 167
166 166 167
166 166 167
166 166 167
166 166 167
166 166 167
166 166 167
166 166 167
166 166 167
166 166 166
166 166 166
166 166 166
166 166 166
166 166 166
165 166 166
165 166 166
165 166 166
165 166 166
165 166 166
165 166 166
165 166 166
165 166 166
165 166 166
165 166 166
165 165 166
165 165 166
165 165 166
165 165 166
165 165 166
165 165 166
165 165 166
165 165 166
165 165 166
164 165 166
164 165 166
164 165 166
164 165 166
164 165 166
164 165 166
164 165 166
164 165 166
164 165 166
164 165 166
164 164 166
164 164 166
163 164 166
163 164 166
163 164 166
163 164 166
163 164 166
163 164 166
163 164 166
163 164 166
162 164 165
162 163 165
162 163 165
162 163 165
162 163 165
162 163 165
161 163 165
161 163 165
161 163 165
161 162 165
161 162 165
161 162 165
160 162 165
160 162 165
160 162 165
160 161 165
159 161 164
159 161 164
159 161 164
159 161 164
158 160 164
158 160 164
158 160 164
157 160 164
157 159 164
157 159 163
154 157 163
152 156 162
149 154 161
146 152 160
144 150 160
142 149 159
141 148 158
139 146 158
86 129 167
87 129 167
87 129 167
87 129 167
87 130 167
87 130 168
87 130 168
87 130 168
87 130 168
87 130 168
88 130 168
88 130 168
88 130 168
88 130 168
88 130 168
88 131 168
88 131 168
88 131 168
88 131 168
88 131 168
88 131 169
88 131 169
88 131 169
89 131 169
89 131 169
89 131 169
89 132 169
89 132 169
89 132 169
89 132 169
89 132 169
89 132 169
90 132 169
90 132 169
90 132 169
90 133 170
90 133 170
90 133 170
90 133 170
91 133 170
91 133 170
91 134 170
91 133 170
90 133 170
90 133 169
90 132 169
89 132 169
89 131 169
89 131 169
88 131 168
88 130 168
88 130 168
87 130 168
87 129 167
86 129 167
140 147 158
141 148 159
142 149 159
143 149 159
144 150 160
145 151 160
146 151 160
146 152 161
147 152 161
148 153 161
149 154 161
149 154 162
150 155 162
151 155 162
152 156 162
152 156 162
153 157 163
153 157 163
154 157 163
155 158 163
155 158 163
156 159 163
156 159 164
157 159 164
157 160 164
158 160 164
158 160 164
158 161 164
159 161 164
159 161 165
159 161 165
160 162 165
160 162 165
160 162 165
161 162 165
161 162 165
161 163 165
161 163 165
162 163 165
162 163 165
162 163 165
162 163 165
162 163 166
163 164 166
163 164 166
163 164 166
163 164 166
163 164 166
163 164 166
164 164 166
164 164 166
164 164 166
164 165 166
164 165 166
164 165 166
164 165 166
164 165 166
164 165 166
164 165 166
164 165 166
165 165 166
165 165 166
165 165 166
165 165 166
165 165 166
165 165 166
165 165 166
165 165 166
165 165 166
165 166 166
165 166 166
165 166 166
165 166 166
165 166 166
165 166 166
165 166 166
165 166 166
165 166 166
165 166 166
166 166 166
166 166 166
166 166 166
166 166 166
166 166 166
166 166 167
166 166 167
166 166 167
166 166 167
166 166 167
166 166 167
166 166 167
166 166 167
166 166 167
166 166 167
166 166 167
166 166 167
166 166 167
166 166 167
166 166 167
166 166 167
166 166 167
166 166 167
166 166 167
166 166 167
166 166 167
166 166 167
166 166 167
166 166 167
166 166 167
166 166 167
166 166 167
166 166 167
166 166 167
166 166 167
166 166 167
166 166 167
166 166 167
166 166 167
166 166 167
166 166 167
166 166 167
166 166 167
166 166 166
166 166 166
166 166 166
166 166 166
166 166 166
165 166 166
165 166 166
165 166 166
165 166 166
165 166 166
165 166 166
165 166 166
165 166 166
165 166 166
165 166 166
165 165 166
165 165 166
165 165 166
165 165 166
165 165 166
165 165 166
165 165 166
165 165 166
165 165 166
165 165 166
164 165 166
164 165 166
164 165 166
164 165 166
164 165 166
164 165 166
164 165 166
164 165 166
164 165 166
164 164 166
164 164 166
164 164 166
163 164 166
163 164 166
163 164 166
163 164 166
163 164 166
163 164 166
163 164 166
163 164 166
162 164 166
162 163 165
162 163 165
162 163 165
162 163 165
162 163 165
162 163 165
161 163 165
161 163 165
161 162 165
161 162 165
161 162 165
160 162 165
160 162 165
160 162 165
160 161 165
159 161 165
159 161 164
159 161 164
159 161 164
159 161 164
158 160 164
158 160 164
157 159 164
156 159 163
155 158 163
154 157 163
152 156 162
151 155 162
150 154 162
148 153 161
147 152 161
146 152 160
145 151 160
144 150 160
143 149 159
142 149 159
141 148 159
141 148 158
140 147 158
86 129 167
86 129 167
87 129 167
87 129 167
87 129 167
87 129 167
87 130 168
87 130 168
87 130 168
87 130 168
87 130 168
88 130 168
88 130 168
88 130 168
88 130 168
88 131 168
88 131 168
88 131 168
88 131 168
88 131 168
88 131 169
89 131 169
89 131 169
89 131 169
89 131 169
89 132 169
89 132 169
89 132 169
89 132 169
90 132 169
90 132 169
90 133 169
90 133 170
90 133 170
91 133 170
91 133 170
91 133 170
90 133 169
90 132 169
89 132 169
89 131 169
88 131 168
88 131 168
88 130 168
87 130 168
87 129 167
86 129 167
140 147 158
141 148 159
142 149 159
143 149 159
144 150 160
145 151 160
145 151 160
146 152 161
147 152 161
148 153 161
149 153 161
149 154 162
150 154 162
151 155 162
151 155 162
152 156 162
152 156 163
153 157 163
154 157 163
154 157 163
155 158 163
155 158 163
156 158 163
156 159 164
157 159 164
157 159 164
157 160 164
158 160 164
158 160 164
158 161 164
159 161 164
159 161 165
159 161 165
160 162 165
160 162 165
160 162 165
161 162 165
161 162 165
161 163 165
161 163 165
162 163 165
162 163 165
162 163 165
162 163 165
162 163 165
162 164 166
163 164 166
163 164 166
163 164 166
163 164 166
163 164 166
163 164 166
164 164 166
164 164 166
164 165 166
164 165 166
164 165 166
164 165 166
164 165 166
164 165 166
164 165 166
164 165 166
165 165 166
165 165 166
165 165 166
165 165 166
165 165 166
165 165 166
165 165 166
165 165 166
165 165 166
165 166 166
165 166 166
165 166 166
165 166 166
165 166 166
165 166 166
165 166 166
165 166 166
165 166 166
165 166 166
166 166 166
166 166 166
166 166 166
166 166 166
166 166 166
166 166 167
166 166 167
166 166 167
166 166 167
166 166 167
166 166 167
166 166 167
166 166 167
166 166 167
166 166 167
166 166 167
166 166 167
166 166 167
166 166 167
166 166 167
166 166 167
166 166 167
166 166 167
166 166 167
166 166 167
166 166 167
166 166 167
166 166 167
166 166 167
166 166 167
166 166 167
166 166 167
166 166 167
166 166 167
166 166 167
166 166 167
166 166 167
166 166 167
166 166 167
166 166 167
166 166 167
166 166 167
166 166 167
166 166 166
166 166 166
166 166 166
166 166 166
166 166 166
165 166 166
165 166 166
165 166 166
165 166 166
165 166 166
165 166 166
165 166 166
165 166 166
165 166 166
165 166 166
165 165 166
165 165 166
165 165 166
165 165 166
165 165 166
165 165 166
165 165 166
165 165 166
165 165 166
165 165 166
164 165 166
164 165 166
164 165 166
164 165 166
164 165 166
164 165 166
164 165 166
164 165 166
164 165 166
164 165 166
164 164 166
164 164 166
163 164 166
163 164 166
163 164 166
163 164 166
163 164 166
163 164 166
163 164 166
163 164 166
163 164 166
162 163 165
162 163 165
162 163 165
162 163 165
162 163 165
162 163 165
161 163 165
161 163 165
161 163 165
161 162 165
161 162 165
161 162 165
160 162 165
160 162 165
160 162 165
160 161 165
160 161 165
159 161 165
159 161 164
159 161 164
158 160 164
157 160 164
157 159 164
156 159 163
155 158 163
154 157 163
153 157 163
152 156 162
152 156 162
151 155 162
150 154 162
149 154 161
148 153 161
147 153 161
147 152 161
146 152 161
145 151 160
145 151 160
144 150 160
143 150 160
143 149 159
142 149 159
141 148 159
141 148 159
140 147 158
140 147 158
86 129 167
86 129 167
87 129 167
87 129 167
87 129 167
87 129 167
87 130 168
87 130 168
87 130 168
87 130 168
88 130 168
88 130 168
88 130 168
88 130 168
88 131 168
88 131 168
88 131 168
88 131 168
89 131 169
89 131 169
89 131 169
89 132 169
89 132 169
89 132 169
90 132 169
90 132 169
90 133 169
90 133 170
91 133 170
90 133 170
90 132 169
89 132 169
89 131 169
88 131 168
88 130 168
87 130 168
87 129 167
86 129 167
140 147 158
141 148 159
142 149 159
143 149 160
144 150 160
145 151 160
146 151 160
146 152 161
147 152 161
148 153 161
148 153 161
149 154 162
150 154 162
150 155 162
151 155 162
152 156 162
152 156 162
153 156 163
153 157 163
154 157 163
154 158 163
155 158 163
155 158 163
156 159 163
156 159 164
157 159 164
157 159 164
157 160 164
158 160 164
158 160 164
158 160 164
159 161 164
159 161 164
159 161 165
160 161 165
160 162 165
160 162 165
160 162 165
161 162 165
161 162 165
161 162 165
161 163 165
162 163 165
162 163 165
162 163 165
162 163 165
162 163 165
162 164 166
163 164 166
163 164 166
163 164 166
163 164 166
163 164 166
163 164 166
163 164 166
164 164 166
164 164 166
164 165 166
164 165 166
164 165 166
164 165 166
164 165 166
164 165 166
164 165 166
164 165 166
165 165 166
165 165 166
165 165 166
165 165 166
165 165 166
165 165 166
165 165 166
165 165 166
165 165 166
165 166 166
165 166 166
165 166 166
165 166 166
165 166 166
165 166 166
165 166 166
165 166 166
165 166 166
165 166 166
166 166 166
166 166 166
166 166 166
166 166 166
166 166 167
166 166 167
166 166 167
166 166 167
166 166 167
166 166 167
166 166 167
166 166 167
166 166 167
166 166 167
166 166 167
166 166 167
166 166 167
166 166 167
166 166 167
166 166 167
166 166 167
166 166 167
166 166 167
166 166 167
166 166 167
166 166 167
166 166 167
166 166 167
166 166 167
166 166 167
166 166 167
166 166 167
166 166 167
166 166 167
166 166 167
166 166 167
166 166 167
166 166 167
166 166 167
166 166 167
166 166 167
166 166 166
166 166 166
166 166 166
166 166 166
166 166 166
165 166 166
165 166 166
165 166 166
165 166 166
165 166 166
165 166 166
165 166 166
165 166 166
165 166 166
165 166 166
165 166 166
165 165 166
165 165 166
165 165 166
165 165 166
165 165 166
165 165 166
165 165 166
165 165 166
165 165 166
165 165 166
164 165 166
164 165 166
164 165 166
164 165 166
164 165 166
164 165 166
164 165 166
164 165 166
164 165 166
164 165 166
164 164 166
164 164 166
164 164 166
163 164 166
163 164 166
163 164 166
163 164 166
163 164 166
163 164 166
163 164 166
163 164 166
162 164 166
162 163 165
162 163 165
162 163 165
162 163 165
162 163 165
162 163 165
161 163 165
161 163 165
161 163 165
161 162 165
161 162 165
161 162 165
160 162 165
160 162 165
160 162 165
160 161 165
159 161 165
159 161 164
158 160 164
158 160 164
157 160 164
157 159 164
156 159 164
156 158 163
155 158 163
154 158 163
154 157 163
153 157 163
152 156 162
152 156 162
151 155 162
150 155 162
150 154 162
149 154 162
149 153 161
148 153 161
147 153 161
147 152 161
146 152 161
146 151 161
145 151 160
145 151 160
144 150 160
144 150 160
143 150 160
143 149 159
142 149 159
142 148 159
141 148 159
141 147 158
140 147 158
139 146 158
86 129 167
86 129 167
87 129 167
87 129 167
87 129 167
87 130 168
87 130 168
87 130 168
87 130 168
88 130 168
88 130 168
88 130 168
88 131 168
88 131 168
88 131 168
89 131 169
89 131 169
89 132 169
89 132 169
90 132 169
90 133 169
90 133 170
90 132 169
89 132 169
89 131 168
88 131 168
87 130 168
87 129 167
86 129 167
140 147 158
142 148 159
142 149 159
143 150 160
144 150 160
145 151 160
146 152 161
147 152 161
147 153 161
148 153 161
149 154 161
149 154 162
150 155 162
151 155 162
151 155 162
152 156 162
152 156 162
153 157 163
153 157 163
154 157 163
154 158 163
155 158 163
155 158 163
156 158 163
156 159 164
156 159 164
157 159 164
157 160 164
157 160 164
158 160 164
158 160 164
158 160 164
159 161 164
159 161 164
159 161 165
160 161 165
160 162 165
160 162 165
160 162 165
161 162 165
161 162 165
161 162 165
161 163 165
161 163 165
162 163 165
162 163 165
162 163 165
162 163 165
162 163 165
162 164 166
163 164 166
163 164 166
163 164 166
163 164 166
163 164 166
163 164 166
163 164 166
164 164 166
164 164 166
164 165 166
164 165 166
164 165 166
164 165 166
164 165 166
164 165 166
164 165 166
164 165 166
164 165 166
165 165 166
165 165 166
165 165 166
165 165 166
165 165 166
165 165 166
165 165 166
165 165 166
165 165 166
165 166 166
165 166 166
165 166 166
165 166 166
165 166 166
165 166 166
165 166 166
165 166 166
165 166 166
166 166 166
166 166 166
166 166 166
166 166 166
166 166 166
166 166 167
166 166 167
166 166 167
166 166 167
166 166 167
166 166 167
166 166 167
166 166 167
166 166 167
166 166 167
166 166 167
166 166 167
166 166 167
166 166 167
166 166 167
166 166 167
166 166 167
166 166 167
166 166 167
166 166 167
166 166 167
166 166 167
166 166 167
166 166 167
166 166 167
166 166 167
166 166 167
166 166 167
166 166 167
166 166 167
166 166 167
166 166 167
166 166 167
166 166 167
166 166 167
166 166 167
166 166 166
166 166 166
166 166 166
166 166 166
166 166 166
165 166 166
165 166 166
165 166 166
165 166 166
165 166 166
165 166 166
165 166 166
165 166 166
165 166 166
165 166 166
165 166 166
165 165 166
165 165 166
165 165 166
165 165 166
165 165 166
165 165 166
165 165 166
165 165 166
165 165 166
165 165 166
165 165 166
164 165 166
164 165 166
164 165 166
164 165 166
164 165 166
164 165 166
164 165 166
164 165 166
164 165 166
164 165 166
164 164 166
164 164 166
163 164 166
163 164 166
163 164 166
163 164 166
163 164 166
163 164 166
163 164 166
163 164 166
163 164 166
162 164 166
162 163 165
162 163 165
162 163 165
162 163 165
162 163 165
162 163 165
162 163 165
161 163 165
161 163 165
161 162 165
161 162 165
161 162 165
160 162 165
160 162 165
160 161 165
159 161 165
159 161 164
158 161 164
158 160 164
158 160 164
157 160 164
157 159 164
156 159 164
156 159 164
155 158 163
155 158 163
154 158 163
154 157 163
153 157 163
153 156 163
152 156 162
152 156 162
151 155 162
151 155 162
150 155 162
150 154 162
149 154 162
149 154 162
148 153 161
148 153 161
148 153 161
147 152 161
147 152 161
146 152 161
146 151 161
145 151 160
145 151 160
145 151 160
144 150 160
144 150 160
143 149 160
143 149 159
142 149 159
142 148 159
141 148 159
141 147 158
140 147 158
86 129 167
86 129 167
87 129 167
87 129 167
87 129 167
87 130 168
87 130 168
88 130 168
88 130 168
88 130 168
88 131 168
88 131 168
89 131 169
89 132 169
90 132 169
90 132 169
89 132 169
89 131 168
88 130 168
87 130 167
86 129 167
141 147 158
142 148 159
143 149 159
144 150 160
145 151 160
146 151 160
147 152 161
148 153 161
148 153 161
149 154 161
150 154 162
150 155 162
151 155 162
151 155 162
152 156 162
152 156 162
153 156 163
153 157 163
154 157 163
154 157 163
154 158 163
155 158 163
155 158 163
156 159 163
156 159 164
156 159 164
157 159 164
157 160 164
157 160 164
158 160 164
158 160 164
158 160 164
159 161 164
159 161 164
159 161 165
159 161 165
160 161 165
160 162 165
160 162 165
160 162 165
161 162 165
161 162 165
161 162 165
161 163 165
161 163 165
162 163 165
162 163 165
162 163 165
162 163 165
162 163 165
162 163 165
163 164 166
163 164 166
163 164 166
163 164 166
163 164 166
163 164 166
163 164 166
163 164 166
164 164 166
164 164 166
164 164 166
164 165 166
164 165 166
164 165 166
164 165 166
164 165 166
164 165 166
164 165 166
164 165 166
165 165 166
165 165 166
165 165 166
165 165 166
165 165 166
165 165 166
165 165 166
165 165 166
165 165 166
165 166 166
165 166 166
165 166 166
165 166 166
165 166 166
165 166 166
165 166 166
165 166 166
165 166 166
166 166 166
166 166 166
166 166 166
166 166 166
166 166 166
166 166 167
166 166 167
166 166 167
166 166 167
166 166 167
166 166 167
166 166 167
166 166 167
166 166 167
166 166 167
166 166 167
166 166 167
166 166 167
166 166 167
166 166 167
166 166 167
166 166 167
166 166 167
166 166 167
166 166 167
166 166 167
166 166 167
166 166 167
166 166 167
166 166 167
166 166 167
166 166 167
166 166 167
166 166 167
166 166 167
166 166 167
166 166 167
166 166 167
166 166 167
166 166 167
166 166 167
166 166 166
166 166 166
166 166 166
166 166 166
166 166 166
166 166 166
165 166 166
165 166 166
165 166 166
165 166 166
165 166 166
165 166 166
165 166 166
165 166 166
165 166 166
165 166 166
165 165 166
165 165 166
165 165 166
165 165 166
165 165 166
165 165 166
165 165 166
165 165 166
165 165 166
165 165 166
165 165 166
164 165 166
164 165 166
164 165 166
164 165 166
164 165 166
164 165 166
164 165 166
164 165 166
164 165 166
164 165 166
164 164 166
164 164 166
164 164 166
163 164 166
163 164 166
163 164 166
163 164 166
163 164 166
163 164 166
163 164 166
163 164 166
163 164 166
163 164 166
162 164 166
162 163 165
162 163 165
162 163 165
162 163 165
162 163 165
162 163 165
161 163 165
161 163 165
161 162 165
161 162 165
160 162 165
160 162 165
160 162 165
160 161 165
159 161 165
159 161 164
158 161 164
158 160 164
158 160 164
157 160 164
157 159 164
157 159 164
156 159 164
156 159 164
155 158 163
155 158 163
155 158 163
154 158 163
154 157 163
153 157 163
153 157 163
153 156 163
152 156 163
152 156 162
151 156 162
151 155 162
151 155 162
150 155 162
150 154 162
150 154 162
149 154 162
149 154 162
149 153 161
148 153 161
148 153 161
147 153 161
147 152 161
147 152 161
146 152 161
146 152 161
146 151 160
145 151 160
145 151 160
144 150 160
144 150 160
143 150 160
143 149 159
142 149 159
142 148 159
141 148 159
141 147 158
140 147 158
86 129 167
87 129 167
87 129 167
87 130 168
87 130 168
88 130 168
88 131 168
89 131 169
90 132 169
89 131 169
87 130 168
86 129 167
141 148 159
143 149 159
144 150 160
146 151 160
147 152 161
148 153 161
148 153 161
149 154 161
150 154 162
150 155 162
151 155 162
151 155 162
152 156 162
152 156 162
153 156 163
153 157 163
154 157 163
154 157 163
154 158 163
155 158 163
155 158 163
155 158 163
156 159 164
156 159 164
156 159 164
157 159 164
157 160 164
157 160 164
158 160 164
158 160 164
158 160 164
158 161 164
159 161 164
159 161 164
159 161 165
159 161 165
160 161 165
160 162 165
160 162 165
160 162 165
160 162 165
161 162 165
161 162 165
161 162 165
161 163 165
161 163 165
162 163 165
162 163 165
162 163 165
162 163 165
162 163 165
162 163 165
162 164 166
163 164 166
163 164 166
163 164 166
163 164 166
163 164 166
163 164 166
163 164 166
163 164 166
164 164 166
164 164 166
164 165 166
164 165 166
164 165 166
164 165 166
164 165 166
164 165 166
164 165 166
164 165 166
164 165 166
164 165 166
165 165 166
165 165 166
165 165 166
165 165 166
165 165 166
165 165 166
165 165 166
165 165 166
165 166 166
165 166 166
165 166 166
165 166 166
165 166 166
165 166 166
165 166 166
165 166 166
165 166 166
165 166 166
166 166 166
166 166 166
166 166 166
166 166 166
166 166 167
166 166 167
166 166 167
166 166 167
166 166 167
166 166 167
166 166 167
166 166 167
166 166 167
166 166 167
166 166 167
166 166 167
166 166 167
166 166 167
166 166 167
166 166 167
166 166 167
166 166 167
166 166 167
166 166 167
166 166 167
166 166 167
166 166 167
166 166 167
166 166 167
166 166 167
166 166 167
166 166 167
166 166 167
166 166 167
166 166 167
166 166 167
166 166 167
166 166 167
166 166 167
166 166 167
166 166 166
166 166 166
166 166 166
166 166 166
166 166 166
166 166 166
165 166 166
165 166 166
165 166 166
165 166 166
165 166 166
165 166 166
165 166 166
165 166 166
165 166 166
165 166 166
165 166 166
165 165 166
165 165 166
165 165 166
165 165 166
165 165 166
165 165 166
165 165 166
165 165 166
165 165 166
165 165 166
165 165 166
164 165 166
164 165 166
164 165 166
164 165 166
164 165 166
164 165 166
164 165 166
164 165 166
164 165 166
164 165 166
164 165 166
164 164 166
164 164 166
164 164 166
163 164 166
163 164 166
163 164 166
163 164 166
163 164 166
163 164 166
163 164 166
163 164 166
163 164 166
162 164 166
162 163 166
162 163 165
162 163 165
162 163 165
162 163 165
162 163 165
161 163 165
161 162 165
161 162 165
161 162 165
160 162 165
160 162 165
160 162 165
160 161 165
159 161 165
159 161 164
159 161 164
158 161 164
158 160 164
158 160 164
157 160 164
157 160 164
157 159 164
157 159 164
156 159 164
156 159 164
156 158 163
155 158 163
155 158 163
155 158 163
154 158 163
154 157 163
154 157 163
153 157 163
153 157 163
153 156 163
152 156 163
152 156 162
152 156 162
151 156 162
151 155 162
151 155 162
151 155 162
150 155 162
150 155 162
150 154 162
150 154 162
149 154 162
149 154 162
149 154 161
148 153 161
148 153 161
148 153 161
148 153 161
147 153 161
147 152 161
147 152 161
146 152 161
146 152 161
146 151 160
145 151 160
145 151 160
145 151 160
144 150 160
143 150 159
143 149 159
142 148 159
140 147 158
87 129 167
88 131 168
86 129 167
144 150 160
147 152 160
148 153 161
149 154 161
150 154 162
151 155 162
151 155 162
152 156 162
152 156 162
152 156 162
153 156 163
153 157 163
154 157 163
154 157 163
154 157 163
154 158 163
155 158 163
155 158 163
155 158 163
156 159 163
156 159 164
156 159 164
157 159 164
157 159 164
157 159 164
157 160 164
158 160 164
158 160 164
158 160 164
158 160 164
158 161 164
159 161 164
159 161 164
159 161 165
159 161 165
160 161 165
160 162 165
160 162 165
160 162 165
160 162 165
161 162 165
161 162 165
161 162 165
161 162 165
161 163 165
161 163 165
162 163 165
162 163 165
162 163 165
162 163 165
162 163 165
162 163 165
162 163 166
163 164 166
163 164 166
163 164 166
163 164 166
163 164 166
163 164 166
163 164 166
163 164 166
163 164 166
164 164 166
164 164 166
164 165 166
164 165 166
164 165 166
164 165 166
164 165 166
164 165 166
164 165 166
164 165 166
164 165 166
164 165 166
165 165 166
165 165 166
165 165 166
165 165 166
165 165 166
165 165 166
165 165 166
165 165 166
165 165 166
165 165 166
165 166 166
165 166 166
165 166 166
165 166 166
165 166 166
165 166 166
165 166 166
165 166 166
165 166 166
165 166 166
166 166 166
166 166 166
166 166 166
166 166 166
166 166 167
166 166 167
166 166 167
166 166 167
166 166 167
166 166 167
166 166 167
166 166 167
166 166 167
166 166 167
166 166 167
166 166 167
166 166 167
166 166 167
166 166 167
166 166 167
166 166 167
166 166 167
166 166 167
166 166 167
166 166 167
166 166 167
166 166 167
166 166 167
166 166 167
166 166 167
166 166 167
166 166 167
166 166 167
166 166 167
166 166 167
166 166 167
166 166 167
166 166 167
166 166 167
166 166 166
166 166 166
166 166 166
166 166 166
166 166 166
166 166 166
165 166 166
165 166 166
165 166 166
165 166 166
165 166 166
165 166 166
165 166 166
165 166 166
165 166 166
165 166 166
165 166 166
165 166 166
165 165 166
165 165 166
165 165 166
165 165 166
165 165 166
165 165 166
165 165 166
165 165 166
165 165 166
165 165 166
165 165 166
164 165 166
164 165 166
164 165 166
164 165 166
164 165 166
164 165 166
164 165 166
164 165 166
164 165 166
164 165 166
164 165 166
164 164 166
164 164 166
164 164 166
163 164 166
163 164 166
163 164 166
163 164 166
163 164 166
163 164 166
163 164 166
163 164 166
163 164 166
163 164 166
162 164 166
162 163 165
162 163 165
162 163 165
162 163 165
162 163 165
161 163 165
161 163 165
161 162 165
161 162 165
160 162 165
160 162 165
160 162 165
160 162 165
160 161 165
159 161 165
159 161 165
159 161 164
159 161 164
158 160 164
158 160 164
158 160 164
157 160 164
157 160 164
157 160 164
157 159 164
156 159 164
156 159 164
156 159 164
156 159 164
155 158 163
155 158 163
155 158 163
155 158 163
154 158 163
154 158 163
154 157 163
154 157 163
154 157 163
153 157 163
153 157 163
153 157 163
153 156 163
152 156 163
152 156 163
152 156 162
152 156 162
152 156 162
151 156 162
151 155 162
151 155 162
151 155 162
151 155 162
151 155 162
151 155 162
151 155 162
151 155 162
150 155 162
150 155 162
151 155 162
151 155 162
151 155 162
151 155 162
151 155 162
152 156 162
153 156 162
154 157 163
156 159 163
156 159 163
156 159 163
157 159 163
157 159 164
157 159 164
157 159 164
156 159 163
156 159 163
156 159 163
156 159 163
156 159 163
156 159 163
156 159 163
156 159 163
156 159 164
156 159 164
156 159 164
157 159 164
157 159 164
157 159 164
157 160 164
157 160 164
157 160 164
158 160 164
158 160 164
158 160 164
158 160 164
158 161 164
159 161 164
159 161 164
159 161 164
159 161 165
159 161 165
159 161 165
160 161 165
160 162 165
160 162 165
160 162 165
160 162 165
160 162 165
161 162 165
161 162 165
161 162 165
161 163 165
161 163 165
161 163 165
162 163 165
162 163 165
162 163 165
162 163 165
162 163 165
162 163 165
162 164 166
163 164 166
163 164 166
163 164 166
163 164 166
163 164 166
163 164 166
163 164 166
163 164 166
163 164 166
163 164 166
164 164 166
164 164 166
164 165 166
164 165 166
164 165 166
164 165 166
164 165 166
164 165 166
164 165 166
164 165 166
164 165 166
164 165 166
164 165 166
165 165 166
165 165 166
165 165 166
165 165 166
165 165 166
165 165 166
165 165 166
165 165 166
165 165 166
165 166 166
165 166 166
165 166 166
165 166 166
165 166 166
165 166 166
165 166 166
165 166 166
165 166 166
165 166 166
166 166 166
166 166 166
166 166 166
166 166 166
166 166 166
166 166 167
166 166 167
166 166 167
166 166 167
166 166 167
166 166 167
166 166 167
166 166 167
166 166 167
166 166 167
166 166 167
166 166 167
166 166 167
166 166 167
166 166 167
166 166 167
166 166 167
166 166 167
166 166 167
166 166 167
166 166 167
166 166 167
166 166 167
166 166 167
166 166 167
166 166 167
166 166 167
166 166 167
166 166 167
166 166 167
166 166 167
166 166 167
166 166 167
166 166 167
166 166 167
166 166 166
166 166 166
166 166 166
166 166 166
166 166 166
166 166 166
165 166 166
165 166 166
165 166 166
165 166 166
165 166 166
165 166 166
165 166 166
165 166 166
165 166 166
165 166 166
165 166 166
165 166 166
165 165 166
165 165 166
165 165 166
165 165 166
165 165 166
165 165 166
165 165 166
165 165 166
165 165 166
165 165 166
165 165 166
165 165 166
164 165 166
164 165 166
164 165 166
164 165 166
164 165 166
164 165 166
164 165 166
164 165 166
164 165 166
164 165 166
164 165 166
164 165 166
164 164 166
164 164 166
164 164 166
163 164 166
163 164 166
163 164 166
163 164 166
163 164 166
163 164 166
163 164 166
163 164 166
163 164 166
162 163 166
162 163 165
162 163 165
162 163 165
162 163 165
162 163 165
161 163 165
161 163 165
161 162 165
161 162 165
161 162 165
160 162 165
160 162 165
160 162 165
160 162 165
160 161 165
159 161 165
159 161 165
159 161 165
159 161 164
159 161 164
158 161 164
158 160 164
158 160 164
158 160 164
158 160 164
157 160 164
157 160 164
157 159 164
157 159 164
157 159 164
156 159 164
156 159 164
156 159 164
156 159 164
156 159 164
155 158 163
155 158 163
155 158 163
155 158 163
155 158 163
155 158 163
154 158 163
154 158 163
154 158 163
154 157 163
154 157 163
154 157 163
154 157 163
154 157 163
154 157 163
154 157 163
154 157 163
154 157 163
154 157 163
154 157 163
154 157 163
154 157 163
154 158 163
155 158 163
155 158 163
155 158 163
156 159 163
157 159 164
157 160 164
157 160 164
158 160 164
158 160 164
158 160 164
158 160 164
158 160 164
158 160 164
158 160 164
158 160 164
158 160 164
158 160 164
158 160 164
158 160 164
159 161 164
158 161 164
158 161 164
158 160 164
158 161 164
158 161 164
159 161 164
159 161 164
159 161 164
159 161 164
159 161 164
159 161 164
159 161 164
159 161 164
159 161 165
159 161 165
159 161 165
160 161 165
160 162 165
160 162 165
160 162 165
160 162 165
160 162 165
160 162 165
161 162 165
161 162 165
161 162 165
161 162 165
161 163 165
161 163 165
161 163 165
161 163 165
162 163 165
162 163 165
162 163 165
162 163 165
162 163 165
162 163 165
162 163 165
162 164 166
163 164 166
163 164 166
163 164 166
163 164 166
163 164 166
163 164 166
163 164 166
163 164 166
163 164 166
163 164 166
164 164 166
164 164 166
164 164 166
164 165 166
164 165 166
164 165 166
164 165 166
164 165 166
164 165 166
164 165 166
164 165 166
164 165 166
164 165 166
165 165 166
165 165 166
165 165 166
165 165 166
165 165 166
165 165 166
165 165 166
165 165 166
165 165 166
165 165 166
165 165 166
165 166 166
165 166 166
165 166 166
165 166 166
165 166 166
165 166 166
165 166 166
165 166 166
165 166 166
165 166 166
165 166 166
166 166 166
166 166 166
166 166 166
166 166 166
166 166 166
166 166 167
166 166 167
166 166 167
166 166 167
166 166 167
166 166 167
166 166 167
166 166 167
166 166 167
166 166 167
166 166 167
166 166 167
166 166 167
166 166 167
166 166 167
166 166 167
166 166 167
166 166 167
166 166 167
166 166 167
166 166 167
166 166 167
166 166 167
166 166 167
166 166 167
166 166 167
166 166 167
166 166 167
166 166 167
166 166 167
166 166 167
166 166 167
166 166 167
166 166 167
166 166 167
166 166 166
166 166 166
166 166 166
166 166 166
166 166 166
166 166 166
165 166 166
165 166 166
165 166 166
165 166 166
165 166 166
165 166 166
165 166 166
165 166 166
165 166 166
165 166 166
165 166 166
165 166 166
165 165 166
165 165 166
165 165 166
165 165 166
165 165 166
165 165 166
165 165 166
165 165 166
165 165 166
165 165 166
165 165 166
165 165 166
165 165 166
164 165 166
164 165 166
164 165 166
164 165 166
164 165 166
164 165 166
164 165 166
164 165 166
164 165 166
164 165 166
164 165 166
164 165 166
164 164 166
164 164 166
164 164 166
163 164 166
163 164 166
163 164 166
163 164 166
163 164 166
163 164 166
163 164 166
163 164 166
162 163 166
162 163 165
162 163 165
162 163 165
162 163 165
162 163 165
162 163 165
161 163 165
161 163 165
161 163 165
161 162 165
161 162 165
161 162 165
160 162 165
160 162 165
160 162 165
160 162 165
160 162 165
160 161 165
159 161 165
159 161 165
159 161 165
159 161 164
159 161 164
159 161 164
158 161 164
158 160 164
158 160 164
158 160 164
158 160 164
158 160 164
157 160 164
157 160 164
157 160 164
157 160 164
157 159 164
157 159 164
157 159 164
157 159 164
156 159 164
156 159 164
156 159 164
156 159 164
156 159 164
156 159 164
156 159 164
156 159 164
156 159 164
156 159 164
156 159 164
156 159 164
156 159 164
156 159 164
156 159 164
156 159 164
157 159 164
157 159 164
157 159 164
157 160 164
158 160 164
158 160 164
158 160 164
158 160 164
158 160 164
158 161 164
159 161 164
159 161 164
159 161 164
159 161 164
159 161 164
159 161 164
159 161 164
159 161 164
159 161 164
159 161 164
159 161 164
159 161 164
159 161 165
159 161 165
160 161 165
160 161 165
160 161 165
160 162 165
160 162 165
160 162 165
160 162 165
160 162 165
160 162 165
160 162 165
160 162 165
160 162 165
160 162 165
160 162 165
160 162 165
161 162 165
161 162 165
161 162 165
161 162 165
161 162 165
161 162 165
161 163 165
161 163 165
161 163 165
161 163 165
162 163 165
162 163 165
162 163 165
162 163 165
162 163 165
162 163 165
162 163 165
162 163 165
162 163 166
162 164 166
163 164 166
163 164 166
163 164 166
163 164 166
163 164 166
163 164 166
163 164 166
163 164 166
163 164 166
163 164 166
163 164 166
164 164 166
164 164 166
164 164 166
164 165 166
164 165 166
164 165 166
164 165 166
164 165 166
164 165 166
164 165 166
164 165 166
164 165 166
164 165 166
164 165 166
165 165 166
165 165 166
165 165 166
165 165 166
165 165 166
165 165 166
165 165 166
165 165 166
165 165 166
165 165 166
165 165 166
165 166 166
165 166 166
165 166 166
165 166 166
165 166 166
165 166 166
165 166 166
165 166 166
165 166 166
165 166 166
165 166 166
165 166 166
166 166 166
166 166 166
166 166 166
166 166 166
166 166 166
166 166 167
166 166 167
166 166 167
166 166 167
166 166 167
166 166 167
166 166 167
166 166 167
166 166 167
166 166 167
166 166 167
166 166 167
166 166 167
166 166 167
166 166 167
166 166 167
166 166 167
166 166 167
166 166 167
166 166 167
166 166 167
166 166 167
166 166 167
166 166 167
166 166 167
166 166 167
166 166 167
166 166 167
166 166 167
166 166 167
166 166 167
166 166 167
166 166 167
166 166 167
166 166 167
166 166 166
166 166 166
166 166 166
166 166 166
166 166 166
166 166 166
166 166 166
165 166 166
165 166 166
165 166 166
165 166 166
165 166 166
165 166 166
165 166 166
165 166 166
165 166 166
165 166 166
165 166 166
165 166 166
165 166 166
165 165 166
165 165 166
165 165 166
165 165 166
165 165 166
165 165 166
165 165 166
165 165 166
165 165 166
165 165 166
165 165 166
165 165 166
165 165 166
164 165 166
164 165 166
164 165 166
164 165 166
164 165 166
164 165 166
164 165 166
164 165 166
164 165 166
164 165 166
164 165 166
164 164 166
164 164 166
164 164 166
163 164 166
163 164 166
163 164 166
163 164 166
163 164 166
163 164 166
163 164 166
163 164 166
163 164 166
162 163 166
162 163 165
162 163 165
162 163 165
162 163 165
162 163 165
162 163 165
162 163 165
161 163 165
161 163 165
161 163 165
161 162 165
161 162 165
161 162 165
161 162 165
160 162 165
160 162 165
160 162 165
160 162 165
160 162 165
160 161 165
160 161 165
159 161 165
159 161 165
159 161 165
159 161 165
159 161 164
159 161 164
159 161 164
159 161 164
158 161 164
158 160 164
158 160 164
158 160 164
158 160 164
158 160 164
158 160 164
158 160 164
158 160 164
158 160 164
158 160 164
158 160 164
158 160 164
158 160 164
158 160 164
158 160 164
158 160 164
158 160 164
158 160 164
158 160 164
158 160 164
158 160 164
158 160 164
158 160 164
159 161 164
159 161 164
159 161 164
159 161 165
159 161 164
159 161 164
159 161 165
159 161 165
159 161 165
159 161 165
159 161 165
159 161 165
160 161 165
160 161 165
160 161 165
160 161 165
160 161 165
160 162 165
160 162 165
160 162 165
160 162 165
160 162 165
160 162 165
160 162 165
160 162 165
160 162 165
160 162 165
161 162 165
161 162 165
161 162 165
161 162 165
161 162 165
161 162 165
161 162 165
161 163 165
161 163 165
161 163 165
161 163 165
161 163 165
161 163 165
162 163 165
162 163 165
162 163 165
162 163 165
162 163 165
162 163 165
162 163 165
162 163 165
162 163 165
162 163 165
162 163 165
162 163 165
162 164 166
163 164 166
163 164 166
163 164 166
163 164 166
163 164 166
163 164 166
163 164 166
163 164 166
163 164 166
163 164 166
163 164 166
163 164 166
163 164 166
164 164 166
164 164 166
164 164 166
164 164 166
164 165 166
164 165 166
164 165 166
164 165 166
164 165 166
164 165 166
164 165 166
164 165 166
164 165 166
164 165 166
164 165 166
165 165 166
165 165 166
165 165 166
165 165 166
165 165 166
165 165 166
165 165 166
165 165 166
165 165 166
165 165 166
165 165 166
165 165 166
165 166 166
165 166 166
165 166 166
165 166 166
165 166 166
165 166 166
165 166 166
165 166 166
165 166 166
165 166 166
165 166 166
165 166 166
166 166 166
166 166 166
166 166 166
166 166 166
166 166 166
166 166 167
166 166 167
166 166 167
166 166 167
166 166 167
166 166 167
166 166 167
166 166 167
166 166 167
166 166 167
166 166 167
166 166 167
166 166 167
166 166 167
166 166 167
166 166 167
166 166 167
166 166 167
166 166 167
166 166 167
166 166 167
166 166 167
166 166 167
166 166 167
166 166 167
166 166 167
166 166 167
166 166 167
166 166 167
166 166 167
166 166 167
166 166 167
166 166 167
166 166 167
166 166 167
166 166 167
166 166 167
166 166 167
166 166 166
166 166 166
166 166 166
166 166 166
166 166 166
166 166 166
165 166 166
165 166 166
165 166 166
165 166 166
165 166 166
165 166 166
165 166 166
165 166 166
165 166 166
165 166 166
165 166 166
165 166 166
165 166 166
165 165 166
165 165 166
165 165 166
165 165 166
165 165 166
165 165 166
165 165 166
165 165 166
165 165 166
165 165 166
165 165 166
165 165 166
165 165 166
165 165 166
164 165 166
164 165 166
164 165 166
164 165 166
164 165 166
164 165 166
164 165 166
164 165 166
164 165 166
164 165 166
164 165 166
164 164 166
164 164 166
163 164 166
163 164 166
163 164 166
163 164 166
163 164 166
163 164 166
163 164 166
163 164 166
163 164 166
163 164 166
162 164 166
162 163 166
162 163 165
162 163 165
162 163 165
162 163 165
162 163 165
162 163 165
162 163 165
161 163 165
161 163 165
161 163 165
161 163 165
161 162 165
161 162 165
161 162 165
161 162 165
161 162 165
160 162 165
160 162 165
160 162 165
160 162 165
160 162 165
160 162 165
160 162 165
160 161 165
160 161 165
160 161 165
159 161 165
159 161 165
159 161 165
159 161 165
159 161 165
159 161 165
159 161 165
159 161 165
159 161 164
159 161 164
159 161 164
159 161 164
159 161 164
159 161 164
159 161 164
159 161 164
159 161 164
159 161 164
159 161 165
159 161 165
159 161 165
159 161 165
160 161 165
160 161 165
160 162 165
160 162 165
160 162 165
160 162 165
160 162 165
160 162 165
160 162 165
160 162 165
160 162 165
160 162 165
160 162 165
160 162 165
160 162 165
160 162 165
160 162 165
160 162 165
160 162 165
160 162 165
161 162 165
161 162 165
161 162 165
161 162 165
161 162 165
161 162 165
161 162 165
161 162 165
161 162 165
161 163 165
161 163 165
161 163 165
161 163 165
161 163 165
161 163 165
162 163 165
162 163 165
162 163 165
162 163 165
162 163 165
162 163 165
162 163 165
162 163 165
162 163 165
162 163 165
162 163 165
162 163 165
162 163 166
162 164 166
163 164 166
163 164 166
163 164 166
163 164 166
163 164 166
163 164 166
163 164 166
163 164 166
163 164 166
163 164 166
163 164 166
163 164 166
163 164 166
163 164 166
163 164 166
164 164 166
164 164 166
164 164 166
164 164 166
164 165 166
164 165 166
164 165 166
164 165 166
164 165 166
164 165 166
164 165 166
164 165 166
164 165 166
164 165 166
164 165 166
164 165 166
164 165 166
165 165 166
165 165 166
165 165 166
165 165 166
165 165 166
165 165 166
165 165 166
165 165 166
165 165 166
165 165 166
165 165 166
165 165 166
165 166 166
165 166 166
165 166 166
165 166 166
165 166 166
165 166 166
165 166 166
165 166 166
165 166 166
165 166 166
165 166 166
165 166 166
165 166 166
165 166 166
166 166 166
166 166 166
166 166 166
166 166 166
166 166 167
166 166 167
166 166 167
166 166 167
166 166 167
166 166 167
166 166 167
166 166 167
166 166 167
166 166 167
166 166 167
166 166 167
166 166 167
166 166 167
166 166 167
166 166 167
166 166 167
166 166 167
166 166 167
166 166 167
166 166 167
166 166 167
166 166 167
166 166 167
166 166 167
166 166 167
166 166 167
166 166 167
166 166 167
166 166 167
166 166 167
166 166 167
166 166 167
166 166 167
166 166 167
166 166 167
166 166 167
166 166 167
166 166 167
166 166 167
166 166 166
166 166 166
166 166 166
166 166 166
166 166 166
165 166 166
165 166 166
165 166 166
165 166 166
165 166 166
165 166 166
165 166 166
165 166 166
165 166 166
165 166 166
165 166 166
165 166 166
165 166 166
165 166 166
165 166 166
165 165 166
165 165 166
165 165 166
165 165 166
165 165 166
165 165 166
165 165 166
165 165 166
165 165 166
165 165 166
165 165 166
165 165 166
165 165 166
165 165 166
164 165 166
164 165 166
164 165 166
164 165 166
164 165 166
164 165 166
164 165 166
164 165 166
164 165 166
164 165 166
164 164 166
164 164 166
164 164 166
163 164 166
163 164 166
163 164 166
163 164 166
163 164 166
163 164 166
163 164 166
163 164 166
163 164 166
163 164 166
163 164 166
162 164 166
162 163 166
162 163 165
162 163 165
162 163 165
162 163 165
162 163 165
162 163 165
162 163 165
162 163 165
161 163 165
161 163 165
161 163 165
161 163 165
161 163 165
161 162 165
161 162 165
161 162 165
161 162 165
161 162 165
161 162 165
161 162 165
161 162 165
160 162 165
160 162 165
160 162 165
160 162 165
160 162 165
160 162 165
160 162 165
160 162 165
160 162 165
160 162 165
160 162 165
160 162 165
160 162 165
160 162 165
160 162 165
160 162 165
160 162 165
160 162 165
160 162 165
160 162 165
160 162 165
160 162 165
160 162 165
160 162 165
161 162 165
161 162 165
161 162 165
161 162 165
161 162 165
161 162 165
161 162 165
161 162 165
161 162 165
161 162 165
161 162 165
161 162 165
161 162 165
161 162 165
161 162 165
161 162 165
161 162 165
161 162 165
161 162 165
161 163 165
161 163 165
161 163 165
161 163 165
161 163 165
161 163 165
161 163 165
161 163 165
162 163 165
162 163 165
162 163 165
162 163 165
162 163 165
162 163 165
162 163 165
162 163 165
162 163 165
162 163 165
162 163 165
162 163 165
162 163 165
162 163 165
162 163 166
162 164 166
163 164 166
163 164 166
163 164 166
163 164 166
163 164 166
163 164 166
163 164 166
163 164 166
163 164 166
163 164 166
163 164 166
163 164 166
163 164 166
163 164 166
163 164 166
163 164 166
163 164 166
164 164 166
164 164 166
164 164 166
164 164 166
164 165 166
164 165 166
164 165 166
164 165 166
164 165 166
164 165 166
164 165 166
164 165 166
164 165 166
164 165 166
164 165 166
164 165 166
164 165 166
164 165 166
164 165 166
165 165 166
165 165 166
165 165 166
165 165 166
165 165 166
165 165 166
165 165 166
165 165 166
165 165 166
165 165 166
165 165 166
165 165 166
165 165 166
165 166 166
165 166 166
165 166 166
165 166 166
165 166 166
165 166 166
165 166 166
165 166 166
165 166 166
165 166 166
165 166 166
165 166 166
165 166 166
166 166 166
166 166 166
166 166 166
166 166 166
166 166 166
166 166 166
166 166 167
166 166 167
166 166 167
166 166 167
166 166 167
166 166 167
166 166 167
166 166 167
166 166 167
166 166 167
166 166 167
166 166 167
166 166 167
166 166 167
166 166 167
166 166 167
166 166 167
166 166 167
166 166 167
166 166 167
166 166 167
166 166 167
166 166 167
166 166 167
166 166 167
166 166 167
166 166 167
166 166 167
166 166 167
166 166 167
166 166 167
166 166 167
166 166 167
166 166 167
166 166 167
166 166 167
166 166 167
166 166 167
166 166 167
166 166 167
166 166 167
166 166 166
166 166 166
166 166 166
166 166 166
166 166 166
166 166 166
165 166 166
165 166 166
165 166 166
165 166 166
165 166 166
165 166 166
165 166 166
165 166 166
165 166 166
165 166 166
165 166 166
165 166 166
165 166 166
165 166 166
165 166 166
165 165 166
165 165 166
165 165 166
165 165 166
165 165 166
165 165 166
165 165 166
165 165 166
165 165 166
165 165 166
165 165 166
165 165 166
165 165 166
164 165 166
164 165 166
164 165 166
164 165 166
164 165 166
164 165 166
164 165 166
164 165 166
164 165 166
164 165 166
164 165 166
164 164 166
164 164 166
164 164 166
164 164 166
163 164 166
163 164 166
163 164 166
163 164 166
163 164 166
163 164 166
163 164 166
163 164 166
163 164 166
163 164 166
163 164 166
163 164 166
162 164 166
162 163 166
162 163 166
162 163 165
162 163 165
162 163 165
162 163 165
162 163 165
162 163 165
162 163 165
162 163 165
162 163 165
162 163 165
161 163 165
161 163 165
161 163 165
161 163 165
161 163 165
161 163 165
161 163 165
161 162 165
161 162 165
161 162 165
161 162 165
161 162 165
161 162 165
161 162 165
161 162 165
161 162 165
161 162 165
161 162 165
161 162 165
161 162 165
161 162 165
161 162 165
161 162 165
161 162 165
161 162 165
161 162 165
161 163 165
161 163 165
161 163 165
161 163 165
161 163 165
161 163 165
161 163 165
161 163 165
161 163 165
161 163 165
161 163 165
161 163 165
161 163 165
161 163 165
161 163 165
161 163 165
161 163 165
161 163 165
161 163 165
161 163 165
162 163 165
162 163 165
162 163 165
162 163 165
162 163 165
162 163 165
162 163 165
162 163 165
162 163 165
162 163 165
162 163 165
162 163 165
162 163 165
162 163 165
162 163 165
162 163 165
162 163 165
162 163 165
162 163 165
162 164 166
162 164 166
163 164 166
163 164 166
163 164 166
163 164 166
163 164 166
163 164 166
163 164 166
163 164 166
163 164 166
163 164 166
163 164 166
163 164 166
163 164 166
163 164 166
163 164 166
163 164 166
163 164 166
164 164 166
164 164 166
164 164 166
164 164 166
164 165 166
164 165 166
164 165 166
164 165 166
164 165 166
164 165 166
164 165 166
164 165 166
164 165 166
164 165 166
164 165 166
164 165 166
164 165 166
164 165 166
164 165 166
164 165 166
164 165 166
165 165 166
165 165 166
165 165 166
165 165 166
165 165 166
165 165 166
165 165 166
165 165 166
165 165 166
165 165 166
165 165 166
165 165 166
165 165 166
165 165 166
165 165 166
165 166 166
165 166 166
165 166 166
165 166 166
165 166 166
165 166 166
165 166 166
165 166 166
165 166 166
165 166 166
165 166 166
165 166 166
165 166 166
165 166 166
166 166 166
166 166 166
166 166 166
166 166 166
166 166 166
166 166 166
166 166 167
166 166 167
166 166 167
166 166 167
166 166 167
166 166 167
166 166 167
166 166 167
166 166 167
166 166 167
166 166 167
166 166 167
166 166 167
166 166 167
166 166 167
166 166 167
166 166 167
166 166 167
166 166 167
166 166 167
166 166 167
166 166 167
166 166 167
166 166 167
166 166 167
166 166 167
166 166 167
166 166 167
166 166 167
166 166 167
166 166 167
166 166 167
166 166 167
166 166 167
166 166 167
166 166 167
166 166 167
166 166 167
166 166 167
166 166 167
166 166 167
166 166 167
166 166 167
166 166 167
166 166 166
166 166 166
166 166 166
166 166 166
166 166 166
166 166 166
165 166 166
165 166 166
165 166 166
165 166 166
165 166 166
165 166 166
165 166 166
165 166 166
165 166 166
165 166 166
165 166 166
165 166 166
165 166 166
165 166 166
165 166 166
165 165 166
165 165 166
165 165 166
165 165 166
165 165 166
165 165 166
165 165 166
165 165 166
165 165 166
165 165 166
165 165 166
165 165 166
164 165 166
164 165 166
164 165 166
164 165 166
164 165 166
164 165 166
164 165 166
164 165 166
164 165 166
164 165 166
164 165 166
164 165 166
164 165 166
164 164 166
164 164 166
164 164 166
164 164 166
163 164 166
163 164 166
163 164 166
163 164 166
163 164 166
163 164 166
163 164 166
163 164 166
163 164 166
163 164 166
163 164 166
163 164 166
163 164 166
163 164 166
162 164 166
162 164 166
162 163 166
162 163 166
162 163 165
162 163 165
162 163 165
162 163 165
162 163 165
162 163 165
162 163 165
162 163 165
162 163 165
162 163 165
162 163 165
162 163 165
162 163 165
162 163 165
162 163 165
162 163 165
162 163 165
162 163 165
162 163 165
162 163 165
162 163 165
162 163 165
162 163 165
162 163 165
162 163 165
162 163 165
162 163 165
162 163 165
162 163 165
162 163 165
162 163 165
162 163 165
162 163 165
162 163 165
162 163 165
162 163 165
162 163 165
162 163 165
162 163 165
162 163 165
162 163 165
162 163 165
162 163 165
162 163 165
162 163 165
162 163 165
162 163 165
162 163 165
162 163 165
162 163 165
162 163 165
162 163 165
162 163 165
162 163 165
162 163 165
162 163 165
162 163 165
162 163 165
162 163 165
162 163 165
162 163 166
162 164 166
162 164 166
163 164 166
163 164 166
163 164 166
163 164 166
163 164 166
163 164 166
163 164 166
163 164 166
163 164 166
163 164 166
163 164 166
163 164 166
163 164 166
163 164 166
163 164 166
163 164 166
163 164 166
163 164 166
163 164 166
163 164 166
163 164 166
164 164 166
164 164 166
164 164 166
164 164 166
164 165 166
164 165 166
164 165 166
164 165 166
164 165 166
164 165 166
164 165 166
164 165 166
164 165 166
164 165 166
164 165 166
164 165 166
164 165 166
164 165 166
164 165 166
164 165 166
164 165 166
165 165 166
165 165 166
165 165 166
165 165 166
165 165 166
165 165 166
165 165 166
165 165 166
165 165 166
165 165 166
165 165 166
165 165 166
165 165 166
165 165 166
165 165 166
165 165 166
165 166 166
165 166 166
165 166 166
165 166 166
165 166 166
165 166 166
165 166 166
165 166 166
165 166 166
165 166 166
165 166 166
165 166 166
165 166 166
165 166 166
165 166 166
166 166 166
166 166 166
166 166 166
166 166 166
166 166 166
166 166 166
166 166 167
166 166 167
166 166 167
166 166 167
166 166 167
166 166 167
166 166 167
166 166 167
166 166 167
166 166 167
166 166 167
166 166 167
166 166 167
166 166 167
166 166 167
166 166 167
166 166 167
166 166 167
166 166 167
166 166 167
166 166 167
166 166 167
166 166 167
166 166 167
166 166 167
166 166 167
166 166 167
166 166 167
166 166 167
166 166 167
166 166 167
166 166 167
166 166 167
166 166 167
166 166 167
166 166 167
166 166 167
166 166 167
166 166 167
166 166 167
166 166 167
166 166 167
166 166 167
166 166 167
166 166 167
166 166 167
166 166 167
166 166 166
166 166 166
166 166 166
166 166 166
166 166 166
166 166 166
166 166 166
165 166 166
165 166 166
165 166 166
165 166 166
165 166 166
165 166 166
165 166 166
165 166 166
165 166 166
165 166 166
165 166 166
165 166 166
165 166 166
165 166 166
165 166 166
165 165 166
165 165 166
165 165 166
165 165 166
165 165 166
165 165 166
165 165 166
165 165 166
165 165 166
165 165 166
165 165 166
165 165 166
165 165 166
164 165 166
164 165 166
164 165 166
164 165 166
164 165 166
164 165 166
164 165 166
164 165 166
164 165 166
164 165 166
164 165 166
164 165 166
164 165 166
164 164 166
164 164 166
164 164 166
164 164 166
163 164 166
163 164 166
163 164 166
163 164 166
163 164 166
163 164 166
163 164 166
163 164 166
163 164 166
163 164 166
163 164 166
163 164 166
163 164 166
163 164 166
163 164 166
163 164 166
163 164 166
163 164 166
163 164 166
162 164 166
162 164 166
162 164 166
162 163 166
162 163 166
162 163 165
162 163 165
162 163 165
162 163 165
162 163 165
162 163 165
162 163 165
162 163 165
162 163 165
162 163 165
162 163 165
162 163 165
162 163 165
162 163 165
162 163 165
162 163 165
162 163 165
162 163 165
162 163 165
162 163 165
162 163 166
162 163 166
162 163 166
162 163 165
162 163 165
162 163 165
162 163 165
162 163 165
162 163 165
162 163 165
162 163 165
162 163 165
162 163 166
162 163 165
162 163 166
162 163 166
162 163 166
162 163 166
162 164 166
162 164 166
162 164 166
162 164 166
162 164 166
163 164 166
163 164 166
163 164 166
163 164 166
163 164 166
163 164 166
163 164 166
163 164 166
163 164 166
163 164 166
163 164 166
163 164 166
163 164 166
163 164 166
163 164 166
163 164 166
163 164 166
163 164 166
163 164 166
163 164 166
163 164 166
163 164 166
163 164 166
163 164 166
163 164 166
163 164 166
163 164 166
164 164 166
164 164 166
164 164 166
164 164 166
164 164 166
164 165 166
164 165 166
164 165 166
164 165 166
164 165 166
164 165 166
164 165 166
164 165 166
164 165 166
164 165 166
164 165 166
164 165 166
164 165 166
164 165 166
164 165 166
164 165 166
164 165 166
165 165 166
165 165 166
165 165 166
165 165 166
165 165 166
165 165 166
165 165 166
165 165 166
165 165 166
165 165 166
165 165 166
165 165 166
165 165 166
165 165 166
165 165 166
165 165 166
165 165 166
165 166 166
165 166 166
165 166 166
165 166 166
165 166 166
165 166 166
165 166 166
165 166 166
165 166 166
165 166 166
165 166 166
165 166 166
165 166 166
165 166 166
165 166 166
165 166 166
166 166 166
166 166 166
166 166 166
166 166 166
166 166 166
166 166 166
166 166 166
166 166 167
166 166 167
166 166 167
166 166 167
166 166 167
166 166 167
166 166 167
166 166 167
166 166 167
166 166 167
166 166 167
166 166 167
166 166 167
166 166 167
166 166 167
166 166 167
166 166 167
166 166 167
166 166 167
166 166 167
166 166 167
166 166 167
166 166 167
166 166 167
166 166 167
166 166 167
166 166 167
166 166 167
166 166 167
166 166 167
166 166 167
166 166 167
166 166 167
166 166 167
166 166 167
166 166 167
166 166 167
166 166 167
166 166 167
166 166 167
166 166 167
166 166 167
166 166 167
166 166 167
166 166 167
166 166 167
166 166 167
166 166 167
166 166 167
166 166 167
166 166 167
166 166 166
166 166 166
166 166 166
166 166 166
166 166 166
166 166 166
165 166 166
165 166 166
165 166 166
165 166 166
165 166 166
165 166 166
165 166 166
165 166 166
165 166 166
165 166 166
165 166 166
165 166 166
165 166 166
165 166 166
165 166 166
165 165 166
165 165 166
165 165 166
165 165 166
165 165 166
165 165 166
165 165 166
165 165 166
165 165 166
165 165 166
165 165 166
165 165 166
165 165 166
164 165 166
164 165 166
164 165 166
164 165 166
164 165 166
164 165 166
164 165 166
164 165 166
164 165 166
164 165 166
164 165 166
164 165 166
164 165 166
164 165 166
164 165 166
164 165 166
164 164 166
164 164 166
164 164 166
164 164 166
163 164 166
163 164 166
163 164 166
163 164 166
163 164 166
163 164 166
163 164 166
163 164 166
163 164 166
163 164 166
163 164 166
163 164 166
163 164 166
163 164 166
163 164 166
163 164 166
163 164 166
163 164 166
163 164 166
163 164 166
163 164 166
163 164 166
163 164 166
163 164 166
163 164 166
163 164 166
163 164 166
163 164 166
163 164 166
163 164 166
163 164 166
163 164 166
163 164 166
163 164 166
163 164 166
163 164 166
163 164 166
163 164 166
163 164 166
163 164 166
163 164 166
163 164 166
163 164 166
163 164 166
163 164 166
163 164 166
163 164 166
163 164 166
163 164 166
163 164 166
163 164 166
163 164 166
163 164 166
163 164 166
163 164 166
163 164 166
163 164 166
163 164 166
163 164 166
163 164 166
163 164 166
163 164 166
163 164 166
163 164 166
163 164 166
163 164 166
163 164 166
163 164 166
163 164 166
163 164 166
163 164 166
163 164 166
163 164 166
163 164 166
163 164 166
163 164 166
163 164 166
163 164 166
163 164 166
163 164 166
163 164 166
163 164 166
164 164 166
164 164 166
164 164 166
164 164 166
164 164 166
164 164 166
164 165 166
164 165 166
164 165 166
164 165 166
164 165 166
164 165 166
164 165 166
164 165 166
164 165 166
164 165 166
164 165 166
164 165 166
164 165 166
164 165 166
164 165 166
164 165 166
164 165 166
164 165 166
164 165 166
164 165 166
165 165 166
165 165 166
165 165 166
165 165 166
165 165 166
165 165 166
165 165 166
165 165 166
165 165 166
165 165 166
165 165 166
165 165 166
165 165 166
165 165 166
165 165 166
165 165 166
165 166 166
165 166 166
165 166 166
165 166 166
165 166 166
165 166 166
165 166 166
165 166 166
165 166 166
165 166 166
165 166 166
165 166 166
165 166 166
165 166 166
165 166 166
165 166 166
165 166 166
165 166 166
166 166 166
166 166 166
166 166 166
166 166 166
166 166 166
166 166 166
166 166 167
166 166 166
166 166 167
166 166 167
166 166 167
166 166 167
166 166 167
166 166 167
166 166 167
166 166 167
166 166 167
166 166 167
166 166 167
166 166 167
166 166 167
166 166 167
166 166 167
166 166 167
166 166 167
166 166 167
166 166 167
166 166 167
166 166 167
166 166 167
166 166 167
166 166 167
166 166 167
166 166 167
166 166 167
166 166 167
166 166 167
166 166 167
166 166 167
166 166 167
166 166 167
166 166 167
166 166 167
166 166 167
166 166 167
166 166 167
166 166 167
166 166 167
166 166 167
166 166 167
166 166 167
166 166 167
166 166 167
166 166 167
166 166 167
166 166 167
166 166 167
166 166 167
166 166 167
166 166 167
166 166 167
166 166 166
166 166 166
166 166 166
166 166 166
166 166 166
166 166 166
166 166 166
165 166 166
165 166 166
165 166 166
165 166 166
165 166 166
165 166 166
165 166 166
165 166 166
165 166 166
165 166 166
165 166 166
165 166 166
165 166 166
165 166 166
165 166 166
165 165 166
165 165 166
165 165 166
165 165 166
165 165 166
165 165 166
165 165 166
165 165 166
165 165 166
165 165 166
165 165 166
165 165 166
165 165 166
165 165 166
164 165 166
164 165 166
164 165 166
164 165 166
164 165 166
164 165 166
164 165 166
164 165 166
164 165 166
164 165 166
164 165 166
164 165 166
164 165 166
164 165 166
164 165 166
164 165 166
164 165 166
164 165 166
164 164 166
164 164 166
164 164 166
164 164 166
164 164 166
164 164 166
163 164 166
163 164 166
163 164 166
163 164 166
163 164 166
163 164 166
163 164 166
163 164 166
163 164 166
163 164 166
163 164 166
163 164 166
163 164 166
163 164 166
163 164 166
163 164 166
163 164 166
163 164 166
163 164 166
163 164 166
163 164 166
163 164 166
163 164 166
163 164 166
163 164 166
163 164 166
163 164 166
163 164 166
163 164 166
163 164 166
163 164 166
163 164 166
163 164 166
163 164 166
163 164 166
163 164 166
163 164 166
163 164 166
163 164 166
163 164 166
163 164 166
163 164 166
163 164 166
163 164 166
163 164 166
163 164 166
163 164 166
163 164 166
163 164 166
163 164 166
163 164 166
163 164 166
163 164 166
163 164 166
163 164 166
163 164 166
163 164 166
163 164 166
163 164 166
163 164 166
163 164 166
163 164 166
163 164 166
163 164 166
163 164 166
163 164 166
163 164 166
164 164 166
164 164 166
164 164 166
164 164 166
164 164 166
164 164 166
164 164 166
164 164 166
164 165 166
164 165 166
164 165 166
164 165 166
164 165 166
164 165 166
164 165 166
164 165 166
164 165 166
164 165 166
164 165 166
164 165 166
164 165 166
164 165 166
164 165 166
164 165 166
164 165 166
164 165 166
164 165 166
164 165 166
164 165 166
164 165 166
165 165 166
165 165 166
165 165 166
165 165 166
165 165 166
165 165 166
165 165 166
165 165 166
165 165 166
165 165 166
165 165 166
165 165 166
165 165 166
165 165 166
165 165 166
165 165 166
165 165 166
165 166 166
165 166 166
165 166 166
165 166 166
165 166 166
165 166 166
165 166 166
165 166 166
165 166 166
165 166 166
165 166 166
165 166 166
165 166 166
165 166 166
165 166 166
165 166 166
165 166 166
165 166 166
166 166 166
166 166 166
166 166 166
166 166 166
166 166 166
166 166 166
166 166 166
166 166 167
166 166 167
166 166 167
166 166 167
166 166 167
166 166 167
166 166 167
166 166 167
166 166 167
166 166 167
166 166 167
166 166 167
166 166 167
166 166 167
166 166 167
166 166 167
166 166 167
166 166 167
166 166 167
166 166 167
166 166 167
166 166 167
166 166 167
166 166 167
166 166 167
166 166 167
166 166 167
166 166 167
166 166 167
166 166 167
166 166 167
166 166 167
166 166 167
166 166 167
166 166 167
166 166 167
166 166 167
166 166 167
166 166 167
166 166 167
166 166 167
166 166 167
166 166 167
166 166 167
166 166 167
166 166 167
166 166 167
166 166 167
166 166 167
166 166 167
166 166 167
166 166 167
166 166 167
166 166 167
166 166 167
166 166 167
166 166 167
166 166 167
166 166 167
166 166 167
166 166 166
166 166 166
166 166 166
166 166 166
166 166 166
166 166 166
166 166 166
165 166 166
165 166 166
165 166 166
165 166 166
165 166 166
165 166 166
165 166 166
165 166 166
165 166 166
165 166 166
165 166 166
165 166 166
165 166 166
165 166 166
165 165 166
165 165 166
165 165 166
165 165 166
165 165 166
165 165 166
165 165 166
165 165 166
165 165 166
165 165 166
165 165 166
165 165 166
165 165 166
165 165 166
165 165 166
165 165 166
164 165 166
164 165 166
164 165 166
164 165 166
164 165 166
164 165 166
164 165 166
164 165 166
164 165 166
164 165 166
164 165 166
164 165 166
164 165 166
164 165 166
164 165 166
164 165 166
164 165 166
164 165 166
164 165 166
164 165 166
164 165 166
164 165 166
164 164 166
164 164 166
164 164 166
164 164 166
164 164 166
164 164 166
164 164 166
164 164 166
164 164 166
164 164 166
164 164 166
164 164 166
164 164 166
163 164 166
163 164 166
163 164 166
163 164 166
163 164 166
163 164 166
163 164 166
163 164 166
163 164 166
163 164 166
164 164 166
164 164 166
164 164 166
164 164 166
163 164 166
163 164 166
163 164 166
163 164 166
163 164 166
163 164 166
163 164 166
163 164 166
163 164 166
163 164 166
163 164 166
163 164 166
163 164 166
163 164 166
163 164 166
163 164 166
163 164 166
163 164 166
163 164 166
163 164 166
163 164 166
163 164 166
163 164 166
163 164 166
164 164 166
164 164 166
164 164 166
164 164 166
164 164 166
164 164 166
164 164 166
164 164 166
164 164 166
164 164 166
164 164 166
164 164 166
164 164 166
164 165 166
164 165 166
164 165 166
164 165 166
164 165 166
164 165 166
164 165 166
164 165 166
164 165 166
164 165 166
164 165 166
164 165 166
164 165 166
164 165 166
164 165 166
164 165 166
164 165 166
164 165 166
164 165 166
164 165 166
164 165 166
164 165 166
164 165 166
164 165 166
164 165 166
164 165 166
164 165 166
165 165 166
165 165 166
165 165 166
165 165 166
165 165 166
165 165 166
165 165 166
165 165 166
165 165 166
165 165 166
165 165 166
165 165 166
165 165 166
165 165 166
165 165 166
165 165 166
165 165 166
165 165 166
165 165 166
165 166 166
165 166 166
165 166 166
165 166 166
165 166 166
165 166 166
165 166 166
165 166 166
165 166 166
165 166 166
165 166 166
165 166 166
165 166 166
165 166 166
165 166 166
165 166 166
165 166 166
166 166 166
166 166 166
166 166 166
166 166 166
166 166 166
166 166 166
166 166 166
166 166 166
166 166 167
166 166 167
166 166 167
166 166 167
166 166 167
166 166 167
166 166 167
166 166 167
166 166 167
166 166 167
166 166 167
166 166 167
166 166 167
166 166 167
166 166 167
166 166 167
166 166 167
166 166 167
166 166 167
166 166 167
166 166 167
166 166 167
166 166 167
166 166 167
166 166 167
166 166 167
166 166 167
166 166 167
166 166 167
166 166 167
166 166 167
166 166 167
166 166 167
166 166 167
166 166 167
166 166 167
166 166 167
166 166 167
166 166 167
166 166 167
166 166 167
166 166 167
166 166 167
166 166 167
166 166 167
166 166 167
166 166 167
166 166 167
166 166 167
166 166 167
166 166 167
166 166 167
166 166 167
166 166 167
166 166 167
166 166 167
166 166 167
166 166 167
166 166 167
166 166 167
166 166 167
166 166 167
166 166 167
166 166 167
166 166 167
166 166 166
166 166 166
166 166 166
166 166 166
166 166 166
166 166 166
165 166 166
165 166 166
165 166 166
165 166 166
165 166 166
165 166 166
165 166 166
165 166 166
165 166 166
165 166 166
165 166 166
165 166 166
165 166 166
165 166 166
165 165 166
165 165 166
165 165 166
165 165 166
165 165 166
165 165 166
165 165 166
165 165 166
165 165 166
165 165 166
165 165 166
165 165 166
165 165 166
165 165 166
165 165 166
165 165 166
165 165 166
165 165 166
164 165 166
164 165 166
164 165 166
164 165 166
164 165 166
164 165 166
164 165 166
164 165 166
164 165 166
164 165 166
164 165 166
164 165 166
164 165 166
164 165 166
164 165 166
164 165 166
164 165 166
164 165 166
164 165 166
164 165 166
164 165 166
164 165 166
164 165 166
164 165 166
164 165 166
164 165 166
164 165 166
164 165 166
164 165 166
164 165 166
164 165 166
164 165 166
164 165 166
164 165 166
164 165 166
164 165 166
164 165 166
164 165 166
164 165 166
164 165 166
164 165 166
164 165 166
164 165 166
164 165 166
164 165 166
164 164 166
164 165 166
164 165 166
164 164 166
164 164 166
164 164 166
164 164 166
164 164 166
164 164 166
164 164 166
164 164 166
164 164 166
164 164 166
164 164 166
164 164 166
164 164 166
164 164 166
164 164 166
164 165 166
164 164 166
164 165 166
164 164 166
164 165 166
164 165 166
164 165 166
164 165 166
164 165 166
164 165 166
164 165 166
164 165 166
164 165 166
164 165 166
164 165 166
164 165 166
164 165 166
164 165 166
164 165 166
164 165 166
164 165 166
164 165 166
164 165 166
164 165 166
164 165 166
164 165 166
164 165 166
164 165 166
164 165 166
164 165 166
164 165 166
164 165 166
164 165 166
164 165 166
164 165 166
164 165 166
164 165 166
164 165 166
164 165 166
164 165 166
165 165 166
165 165 166
165 165 166
165 165 166
165 165 166
165 165 166
165 165 166
165 165 166
165 165 166
165 165 166
165 165 166
165 165 166
165 165 166
165 165 166
165 165 166
165 165 166
165 165 166
165 165 166
165 165 166
165 165 166
165 165 166
165 166 166
165 166 166
165 166 166
165 166 166
165 166 166
165 166 166
165 166 166
165 166 166
165 166 166
165 166 166
165 166 166
165 166 166
165 166 166
165 166 166
165 166 166
165 166 166
165 166 166
166 166 166
166 166 166
166 166 166
166 166 166
166 166 166
166 166 166
166 166 166
166 166 166
166 166 166
166 166 167
166 166 167
166 166 167
166 166 167
166 166 167
166 166 167
166 166 167
166 166 167
166 166 167
166 166 167
166 166 167
166 166 167
166 166 167
166 166 167
166 166 167
166 166 167
166 166 167
166 166 167
166 166 167
166 166 167
166 166 167
166 166 167
166 166 167
166 166 167
166 166 167
166 166 167
166 166 167
166 166 167
166 166 167
166 166 167
166 166 167
166 166 167
166 166 167
166 166 167
166 166 167
166 166 167
166 166 167
166 166 167
166 166 167
166 166 167
166 166 167
166 166 167
166 166 167
166 166 167
166 166 167
166 166 167
166 166 167
166 166 167
166 166 167
166 166 167
166 166 167
166 166 167
166 166 167
166 166 167
166 166 167
166 166 167
166 166 167
166 166 167
166 166 167
166 166 167
166 166 167
166 166 167
166 166 167
166 166 167
166 166 167
166 166 167
166 166 167
166 166 167
166 166 167
166 166 166
166 166 166
166 166 166
166 166 166
166 166 166
166 166 166
165 166 166
165 166 166
165 166 166
165 166 166
165 166 166
165 166 166
165 166 166
165 166 166
165 166 166
165 166 166
165 166 166
165 166 166
165 166 166
165 166 166
165 166 166
165 166 166
165 166 166
165 165 166
165 165 166
165 165 166
165 165 166
165 165 166
165 165 166
165 165 166
165 165 166
165 165 166
165 165 166
165 165 166
165 165 166
165 165 166
165 165 166
165 165 166
165 165 166
165 165 166
165 165 166
165 165 166
165 165 166
164 165 166
164 165 166
164 165 166
164 165 166
164 165 166
164 165 166
164 165 166
164 165 166
164 165 166
164 165 166
164 165 166
164 165 166
164 165 166
164 165 166
164 165 166
164 165 166
164 165 166
164 165 166
164 165 166
164 165 166
164 165 166
164 165 166
164 165 166
164 165 166
164 165 166
164 165 166
164 165 166
164 165 166
164 165 166
164 165 166
164 165 166
164 165 166
164 165 166
164 165 166
164 165 166
164 165 166
164 165 166
164 165 166
164 165 166
164 165 166
164 165 166
164 165 166
164 165 166
164 165 166
164 165 166
164 165 166
164 165 166
164 165 166
164 165 166
164 165 166
164 165 166
164 165 166
164 165 166
164 165 166
164 165 166
164 165 166
164 165 166
164 165 166
164 165 166
164 165 166
164 165 166
164 165 166
164 165 166
164 165 166
164 165 166
164 165 166
164 165 166
164 165 166
164 165 166
164 165 166
164 165 166
164 165 166
164 165 166
164 165 166
164 165 166
164 165 166
164 165 166
164 165 166
164 165 166
164 165 166
164 165 166
164 165 166
164 165 166
164 165 166
164 165 166
164 165 166
164 165 166
164 165 166
164 165 166
164 165 166
165 165 166
165 165 166
165 165 166
165 165 166
165 165 166
165 165 166
165 165 166
165 165 166
165 165 166
165 165 166
165 165 166
165 165 166
165 165 166
165 165 166
165 165 166
165 165 166
165 165 166
165 165 166
165 165 166
165 165 166
165 165 166
165 165 166
165 165 166
165 165 166
165 165 166
165 166 166
165 166 166
165 166 166
165 166 166
165 166 166
165 166 166
165 166 166
165 166 166
165 166 166
165 166 166
165 166 166
165 166 166
165 166 166
165 166 166
165 166 166
165 166 166
165 166 166
165 166 166
165 166 166
166 166 166
166 166 166
166 166 166
166 166 166
166 166 166
166 166 166
166 166 166
166 166 167
166 166 167
166 166 167
166 166 167
166 166 167
166 166 167
166 166 167
166 166 167
166 166 167
166 166 167
166 166 167
166 166 167
166 166 167
166 166 167
166 166 167
166 166 167
166 166 167
166 166 167
166 166 167
166 166 167
166 166 167
166 166 167
166 166 167
166 166 167
166 166 167
166 166 167
166 166 167
166 166 167
166 166 167
166 166 167
166 166 167
166 166 167
166 166 167
166 166 167
166 166 167
166 166 167
166 166 167
166 166 167
166 166 167
166 166 167
166 166 167
166 166 167
166 166 167
166 166 167
166 166 167
166 166 167
166 166 167
166 166 167
166 166 167
166 166 167
166 166 167
166 166 167
166 166 167
166 166 167
166 166 167
166 166 167
166 166 167
166 166 167
166 166 167
166 166 167
166 166 167
166 166 167
166 166 167
166 166 167
166 166 167
166 166 167
166 166 167
166 166 167
166 166 167
166 166 167
166 166 167
166 166 167
166 166 167
166 166 167
166 166 166
166 166 166
166 166 166
166 166 166
166 166 166
166 166 166
165 166 166
165 166 166
165 166 166
165 166 166
165 166 166
165 166 166
165 166 166
165 166 166
165 166 166
165 166 166
165 166 166
165 166 166
165 166 166
165 166 166
165 166 166
165 166 166
165 166 166
165 166 166
165 166 166
165 165 166
165 165 166
165 165 166
165 165 166
165 165 166
165 165 166
165 165 166
165 165 166
165 165 166
165 165 166
165 165 166
165 165 166
165 165 166
165 165 166
165 165 166
165 165 166
165 165 166
165 165 166
165 165 166
165 165 166
165 165 166
165 165 166
165 165 166
165 165 166
164 165 166
164 165 166
164 165 166
164 165 166
164 165 166
164 165 166
164 165 166
164 165 166
164 165 166
164 165 166
164 165 166
164 165 166
164 165 166
164 165 166
164 165 166
164 165 166
164 165 166
164 165 166
164 165 166
164 165 166
164 165 166
164 165 166
164 165 166
164 165 166
164 165 166
164 165 166
164 165 166
164 165 166
164 165 166
164 165 166
164 165 166
164 165 166
164 165 166
164 165 166
164 165 166
164 165 166
164 165 166
164 165 166
164 165 166
164 165 166
164 165 166
164 165 166
164 165 166
164 165 166
164 165 166
164 165 166
164 165 166
164 165 166
164 165 166
164 165 166
164 165 166
164 165 166
164 165 166
164 165 166
164 165 166
164 165 166
164 165 166
164 165 166
164 165 166
164 165 166
164 165 166
164 165 166
164 165 166
164 165 166
164 165 166
164 165 166
164 165 166
164 165 166
164 165 166
164 165 166
164 165 166
164 165 166
164 165 166
164 165 166
164 165 166
165 165 166
165 165 166
165 165 166
165 165 166
165 165 166
165 165 166
165 165 166
165 165 166
165 165 166
165 165 166
165 165 166
165 165 166
165 165 166
165 165 166
165 165 166
165 165 166
165 165 166
165 165 166
165 165 166
165 165 166
165 165 166
165 165 166
165 165 166
165 165 166
165 165 166
165 165 166
165 165 166
165 166 166
165 166 166
165 166 166
165 166 166
165 166 166
165 166 166
165 166 166
165 166 166
165 166 166
165 166 166
165 166 166
165 166 166
165 166 166
165 166 166
165 166 166
165 166 166
165 166 166
165 166 166
165 166 166
165 166 166
165 166 166
166 166 166
166 166 166
166 166 166
166 166 166
166 166 166
166 166 166
166 166 166
166 166 166
166 166 166
166 166 167
166 166 167
166 166 167
166 166 167
166 166 167
166 166 167
166 166 167
166 166 167
166 166 167
166 166 167
166 166 167
166 166 167
166 166 167
166 166 167
166 166 167
166 166 167
166 166 167
166 166 167
166 166 167
166 166 167
166 166 167
166 166 167
166 166 167
166 166 167
166 166 167
166 166 167
166 166 167
166 166 167
166 166 167
166 166 167
166 166 167
166 166 167
166 166 167
166 166 167
166 166 167
166 166 167
166 166 167
166 166 167
166 166 167
166 166 167
166 166 167
166 166 167
166 166 167
166 166 167
166 166 167
166 166 167
166 166 167
166 166 167
166 166 167
166 166 167
166 166 167
166 166 167
166 166 167
166 166 167
166 166 167
166 166 167
166 166 167
166 166 167
166 166 167
166 166 167
166 166 167
166 166 167
166 166 167
166 166 167
166 166 167
166 166 167
166 166 167
166 166 167
166 166 167
166 166 167
166 166 167
166 166 167
166 166 167
166 166 167
166 166 167
166 166 167
166 166 167
166 166 166
166 166 166
166 166 166
166 166 166
166 166 166
166 166 166
166 166 166
165 166 166
165 166 166
165 166 166
165 166 166
165 166 166
165 166 166
165 166 166
165 166 166
165 166 166
165 166 166
165 166 166
165 166 166
165 166 166
165 166 166
165 166 166
165 166 166
165 166 166
165 166 166
165 166 166
165 166 166
165 165 166
165 165 166
165 165 166
165 165 166
165 165 166
165 165 166
165 165 166
165 165 166
165 165 166
165 165 166
165 165 166
165 165 166
165 165 166
165 165 166
165 165 166
165 165 166
165 165 166
165 165 166
165 165 166
165 165 166
165 165 166
165 165 166
165 165 166
165 165 166
165 165 166
165 165 166
165 165 166
165 165 166
165 165 166
165 165 166
165 165 166
165 165 166
165 165 166
165 165 166
165 165 166
165 165 166
165 165 166
165 165 166
165 165 166
165 165 166
165 165 166
165 165 166
165 165 166
164 165 166
165 165 166
164 165 166
164 165 166
164 165 166
164 165 166
164 165 166
164 165 166
164 165 166
164 165 166
164 165 166
164 165 166
164 165 166
164 165 166
164 165 166
164 165 166
164 165 166
164 165 166
164 165 166
164 165 166
164 165 166
164 165 166
164 165 166
164 165 166
164 165 166
164 165 166
164 165 166
164 165 166
164 165 166
164 165 166
164 165 166
164 165 166
164 165 166
164 165 166
164 165 166
164 165 166
164 165 166
164 165 166
164 165 166
164 165 166
164 165 166
165 165 166
165 165 166
165 165 166
165 165 166
165 165 166
165 165 166
165 165 166
165 165 166
165 165 166
165 165 166
165 165 166
165 165 166
165 165 166
165 165 166
165 165 166
165 165 166
165 165 166
165 165 166
165 165 166
165 165 166
165 165 166
165 165 166
165 165 166
165 165 166
165 165 166
165 165 166
165 165 166
165 165 166
165 165 166
165 165 166
165 165 166
165 165 166
165 165 166
165 165 166
165 166 166
165 166 166
165 166 166
165 166 166
165 166 166
165 166 166
165 166 166
165 166 166
165 166 166
165 166 166
165 166 166
165 166 166
165 166 166
165 166 166
165 166 166
165 166 166
165 166 166
165 166 166
165 166 166
165 166 166
165 166 166
166 166 166
166 166 166
166 166 166
166 166 166
166 166 166
166 166 166
166 166 166
166 166 166
166 166 166
166 166 166
166 166 167
166 166 167
166 166 167
166 166 167
166 166 167
166 166 167
166 166 167
166 166 167
166 166 167
166 166 167
166 166 167
166 166 167
166 166 167
166 166 167
166 166 167
166 166 167
166 166 167
166 166 167
166 166 167
166 166 167
166 166 167
166 166 167
166 166 167
166 166 167
166 166 167
166 166 167
166 166 167
166 166 167
166 166 167
166 166 167
166 166 167
166 166 167
166 166 167
166 166 167
166 166 167
166 166 167
166 166 167
166 166 167
166 166 167
166 166 167
166 166 167
166 166 167
166 166 167
166 166 167
166 166 167
166 166 167
166 166 167
166 166 167
166 166 167
166 166 167
166 166 167
166 166 167
166 166 167
166 166 167
166 166 167
166 166 167
166 166 167
166 166 167
166 166 167
166 166 167
166 166 167
166 166 167
166 166 167
166 166 167
166 166 167
166 166 167
166 166 167
166 166 167
166 166 167
166 166 167
166 166 167
166 166 167
166 166 167
166 166 167
166 166 167
166 166 167
166 166 167
166 166 167
166 166 167
166 166 167
166 166 167
166 166 167
166 166 167
166 166 166
166 166 166
166 166 166
166 166 166
166 166 166
166 166 166
166 166 166
165 166 166
165 166 166
165 166 166
165 166 166
165 166 166
165 166 166
165 166 166
165 166 166
165 166 166
165 166 166
165 166 166
165 166 166
165 166 166
165 166 166
165 166 166
165 166 166
165 166 166
165 166 166
165 166 166
165 166 166
165 166 166
165 166 166
165 166 166
165 165 166
165 165 166
165 165 166
165 165 166
165 165 166
165 165 166
165 165 166
165 165 166
165 165 166
165 165 166
165 165 166
165 165 166
165 165 166
165 165 166
165 165 166
165 165 166
165 165 166
165 165 166
165 165 166
165 165 166
165 165 166
165 165 166
165 165 166
165 165 166
165 165 166
165 165 166
165 165 166
165 165 166
165 165 166
165 165 166
165 165 166
165 165 166
165 165 166
165 165 166
165 165 166
165 165 166
165 165 166
165 165 166
165 165 166
165 165 166
165 165 166
165 165 166
165 165 166
165 165 166
165 165 166
165 165 166
165 165 166
165 165 166
165 165 166
165 165 166
165 165 166
165 165 166
165 165 166
165 165 166
165 165 166
165 165 166
165 165 166
165 165 166
165 165 166
165 165 166
165 165 166
165 165 166
165 165 166
165 165 166
165 165 166
165 165 166
165 165 166
165 165 166
165 165 166
165 165 166
165 165 166
165 165 166
165 165 166
165 165 166
165 165 166
165 165 166
165 165 166
165 165 166
165 165 166
165 165 166
165 165 166
165 165 166
165 165 166
165 165 166
165 165 166
165 165 166
165 165 166
165 165 166
165 165 166
165 165 166
165 165 166
165 165 166
165 165 166
165 165 166
165 165 166
165 165 166
165 165 166
165 165 166
165 165 166
165 165 166
165 165 166
165 165 166
165 165 166
165 165 166
165 165 166
165 165 166
165 166 166
165 166 166
165 166 166
165 166 166
165 166 166
165 166 166
165 166 166
165 166 166
165 166 166
165 166 166
165 166 166
165 166 166
165 166 166
165 166 166
165 166 166
165 166 166
165 166 166
165 166 166
165 166 166
165 166 166
165 166 166
165 166 166
165 166 166
165 166 166
166 166 166
166 166 166
166 166 166
166 166 166
166 166 166
166 166 166
166 166 166
166 166 166
166 166 166
166 166 167
166 166 167
166 166 167
166 166 167
166 166 167
166 166 167
166 166 167
166 166 167
166 166 167
166 166 167
166 166 167
166 166 167
166 166 167
166 166 167
166 166 167
166 166 167
166 166 167
166 166 167
166 166 167
166 166 167
166 166 167
166 166 167
166 166 167
166 166 167
166 166 167
166 166 167
166 166 167
166 166 167
166 166 167
166 166 167
166 166 167
166 166 167
166 166 167
166 166 167
166 166 167
166 166 167
166 166 167
166 166 167
166 166 167
166 166 167
166 166 167
166 166 167
166 166 167
166 166 167
166 166 167
166 166 167
166 166 167
166 166 167
166 166 167
166 166 167
166 166 167
166 166 167
166 166 167
166 166 167
166 166 167
166 166 167
166 166 167
166 166 167
166 166 167
166 166 167
166 166 167
166 166 167
166 166 167
166 166 167
166 166 167
166 166 167
166 166 167
166 166 167
166 166 167
166 166 167
166 166 167
166 166 167
166 166 167
166 166 167
166 166 167
166 166 167
166 166 167
166 166 167
166 166 167
166 166 167
166 166 167
166 166 167
166 166 167
166 166 167
166 166 167
166 166 167
166 166 167
166 166 167
166 166 167
166 166 167
166 166 166
166 166 166
166 166 166
166 166 166
166 166 166
166 166 166
166 166 166
166 166 166
165 166 166
165 166 166
165 166 166
165 166 166
165 166 166
165 166 166
165 166 166
165 166 166
165 166 166
165 166 166
165 166 166
165 166 166
165 166 166
165 166 166
165 166 166
165 166 166
165 166 166
165 166 166
165 166 166
165 166 166
165 166 166
165 166 166
165 166 166
165 166 166
165 166 166
165 166 166
165 165 166
165 166 166
165 165 166
165 165 166
165 165 166
165 165 166
165 165 166
165 165 166
165 165 166
165 165 166
165 165 166
165 165 166
165 165 166
165 165 166
165 165 166
165 165 166
165 165 166
165 165 166
165 165 166
165 165 166
165 165 166
165 165 166
165 165 166
165 165 166
165 165 166
165 165 166
165 165 166
165 165 166
165 165 166
165 165 166
165 165 166
165 165 166
165 165 166
165 165 166
165 165 166
165 165 166
165 165 166
165 165 166
165 165 166
165 165 166
165 165 166
165 165 166
165 165 166
165 165 166
165 165 166
165 165 166
165 165 166
165 165 166
165 165 166
165 165 166
165 165 166
165 165 166
165 165 166
165 165 166
165 165 166
165 165 166
165 165 166
165 165 166
165 165 166
165 165 166
165 165 166
165 165 166
165 165 166
165 165 166
165 165 166
165 165 166
165 165 166
165 165 166
165 165 166
165 165 166
165 165 166
165 165 166
165 165 166
165 165 166
165 165 166
165 165 166
165 165 166
165 165 166
165 165 166
165 165 166
165 165 166
165 165 166
165 165 166
165 165 166
165 165 166
165 165 166
165 165 166
165 165 166
165 165 166
165 165 166
165 165 166
165 165 166
165 166 166
165 166 166
165 166 166
165 166 166
165 166 166
165 166 166
165 166 166
165 166 166
165 166 166
165 166 166
165 166 166
165 166 166
165 166 166
165 166 166
165 166 166
165 166 166
165 166 166
165 166 166
165 166 166
165 166 166
165 166 166
165 166 166
165 166 166
165 166 166
165 166 166
165 166 166
165 166 166
166 166 166
166 166 166
166 166 166
166 166 166
166 166 166
166 166 166
166 166 166
166 166 166
166 166 166
166 166 166
166 166 166
166 166 167
166 166 167
166 166 167
166 166 167
166 166 167
166 166 167
166 166 167
166 166 167
166 166 167
166 166 167
166 166 167
166 166 167
166 166 167
166 166 167
166 166 167
166 166 167
166 166 167
166 166 167
166 166 167
166 166 167
166 166 167
166 166 167
166 166 167
166 166 167
166 166 167
166 166 167
166 166 167
166 166 167
166 166 167
166 166 167
166 166 167
166 166 167
166 166 167
166 166 167
166 166 167
166 166 167
166 166 167
166 166 167
166 166 167
166 166 167
166 166 167
166 166 167
166 166 167
166 166 167
166 166 167
166 166 167
166 166 167
166 166 167
166 166 167
166 166 167
166 166 167
166 166 167
166 166 167
166 166 167
166 166 167
166 166 167
166 166 167
166 166 167
166 166 167
166 166 167
166 166 167
166 166 167
166 166 167
166 166 167
166 166 167
166 166 167
166 166 167
166 166 167
166 166 167
166 166 167
166 166 167
166 166 167
166 166 167
166 166 167
166 166 167
166 166 167
166 166 167
166 166 167
166 166 167
166 166 167
166 166 167
166 166 167
166 166 167
166 166 167
166 166 167
166 166 167
166 166 167
166 166 167
166 166 167
166 166 167
166 166 167
166 166 167
166 166 167
166 166 167
166 166 167
166 166 166
166 166 166
166 166 166
166 166 166
166 166 166
166 166 166
166 166 166
166 166 166
166 166 166
165 166 166
165 166 166
165 166 166
165 166 166
165 166 166
165 166 166
165 166 166
165 166 166
165 166 166
165 166 166
165 166 166
165 166 166
165 166 166
165 166 166
165 166 166
165 166 166
165 166 166
165 166 166
165 166 166
165 166 166
165 166 166
165 166 166
165 166 166
165 166 166
165 166 166
165 166 166
165 166 166
165 166 166
165 166 166
165 166 166
165 166 166
165 166 166
165 166 166
165 166 166
165 166 166
165 166 166
165 165 166
165 166 166
165 166 166
165 165 166
165 165 166
165 165 166
165 165 166
165 165 166
165 165 166
165 165 166
165 165 166
165 165 166
165 165 166
165 165 166
165 165 166
165 165 166
165 165 166
165 165 166
165 165 166
165 165 166
165 165 166
165 165 166
165 165 166
165 165 166
165 165 166
165 165 166
165 165 166
165 165 166
165 165 166
165 165 166
165 165 166
165 165 166
165 165 166
165 165 166
165 165 166
165 165 166
165 165 166
165 165 166
165 165 166
165 165 166
165 165 166
165 165 166
165 165 166
165 165 166
165 165 166
165 165 166
165 165 166
165 165 166
165 165 166
165 165 166
165 165 166
165 165 166
165 165 166
165 165 166
165 165 166
165 165 166
165 165 166
165 165 166
165 165 166
165 165 166
165 165 166
165 165 166
165 165 166
165 165 166
165 165 166
165 165 166
165 165 166
165 165 166
165 165 166
165 166 166
165 166 166
165 166 166
165 166 166
165 166 166
165 166 166
165 166 166
165 166 166
165 166 166
165 166 166
165 166 166
165 166 166
165 166 166
165 166 166
165 166 166
165 166 166
165 166 166
165 166 166
165 166 166
165 166 166
165 166 166
165 166 166
165 166 166
165 166 166
165 166 166
165 166 166
165 166 166
165 166 166
165 166 166
165 166 166
165 166 166
165 166 166
165 166 166
166 166 166
166 166 166
166 166 166
166 166 166
166 166 166
166 166 166
166 166 166
166 166 166
166 166 166
166 166 166
166 166 167
166 166 167
166 166 167
166 166 167
166 166 167
166 166 167
166 166 167
166 166 167
166 166 167
166 166 167
166 166 167
166 166 167
166 166 167
166 166 167
166 166 167
166 166 167
166 166 167
166 166 167
166 166 167
166 166 167
166 166 167
166 166 167
166 166 167
166 166 167
166 166 167
166 166 167
166 166 167
166 166 167
166 166 167
166 166 167
166 166 167
166 166 167
166 166 167
166 166 167
166 166 167
166 166 167
166 166 167
166 166 167
166 166 167
166 166 167
166 166 167
166 166 167
166 166 167
166 166 167
166 166 167
166 166 167
166 166 167
166 166 167
166 166 167
166 166 167
166 166 167
166 166 167
166 166 167
166 166 167
166 166 167
166 166 167
166 166 167
166 166 167
166 166 167
166 166 167
166 166 167
166 166 167
166 166 167
166 166 167
166 166 167
166 166 167
166 166 167
166 166 167
166 166 167
166 166 167
166 166 167
166 166 167
166 166 167
166 166 167
166 166 167
166 166 167
166 166 167
166 166 167
166 166 167
166 166 167
166 166 167
166 166 167
166 166 167
166 166 167
166 166 167
166 166 167
166 166 167
166 166 167
166 166 167
166 166 167
166 166 167
166 166 167
166 166 167
166 166 167
166 166 167
166 166 167
166 166 167
166 166 167
166 166 167
166 166 167
166 166 167
166 166 167
166 166 167
166 166 166
166 166 166
166 166 166
166 166 166
166 166 166
166 166 166
166 166 166
166 166 166
166 166 166
166 166 166
165 166 166
165 166 166
165 166 166
165 166 166
165 166 166
165 166 166
165 166 166
165 166 166
165 166 166
165 166 166
165 166 166
165 166 166
165 166 166
165 166 166
165 166 166
165 166 166
165 166 166
165 166 166
165 166 166
165 166 166
165 166 166
165 166 166
165 166 166
165 166 166
165 166 166
165 166 166
165 166 166
165 166 166
165 166 166
165 166 166
165 166 166
165 166 166
165 166 166
165 166 166
165 166 166
165 166 166
165 166 166
165 166 166
165 166 166
165 166 166
165 166 166
165 166 166
165 166 166
165 166 166
165 166 166
165 166 166
165 166 166
165 166 166
165 166 166
165 165 166
165 165 166
165 165 166
165 165 166
165 165 166
165 165 166
165 165 166
165 165 166
165 165 166
165 165 166
165 165 166
165 165 166
165 165 166
165 165 166
165 165 166
165 165 166
165 165 166
165 165 166
165 165 166
165 165 166
165 165 166
165 165 166
165 165 166
165 165 166
165 165 166
165 165 166
165 165 166
165 165 166
165 165 166
165 165 166
165 165 166
165 165 166
165 165 166
165 165 166
165 165 166
165 165 166
165 165 166
165 165 166
165 165 166
165 166 166
165 166 166
165 166 166
165 166 166
165 166 166
165 166 166
165 166 166
165 166 166
165 166 166
165 166 166
165 166 166
165 166 166
165 166 166
165 166 166
165 166 166
165 166 166
165 166 166
165 166 166
165 166 166
165 166 166
165 166 166
165 166 166
165 166 166
165 166 166
165 166 166
165 166 166
165 166 166
165 166 166
165 166 166
165 166 166
165 166 166
165 166 166
165 166 166
165 166 166
165 166 166
165 166 166
165 166 166
165 166 166
165 166 166
166 166 166
165 166 166
166 166 166
166 166 166
166 166 166
166 166 166
166 166 166
166 166 166
166 166 166
166 166 166
166 166 166
166 166 166
166 166 166
166 166 167
166 166 167
166 166 167
166 166 167
166 166 167
166 166 167
166 166 167
166 166 167
166 166 167
166 166 167
166 166 167
166 166 167
166 166 167
166 166 167
166 166 167
166 166 167
166 166 167
166 166 167
166 166 167
166 166 167
166 166 167
166 166 167
166 166 167
166 166 167
166 166 167
166 166 167
166 166 167
166 166 167
166 166 167
166 166 167
166 166 167
166 166 167
166 166 167
166 166 167
166 166 167
166 166 167
166 166 167
166 166 167
166 166 167
166 166 167
166 166 167
166 166 167
166 166 167
166 166 167
166 166 167
166 166 167
166 166 167
166 166 167
166 166 167
166 166 167
166 166 167
166 166 167
166 166 167
166 166 167
166 166 167
166 166 167
166 166 167
166 166 167
166 166 167
166 166 167
166 166 167
166 166 167
166 166 167
166 166 167
166 166 167
166 166 167
166 166 167
166 166 167
166 166 167
166 166 167
166 166 167
166 166 167
166 166 167
166 166 167
166 166 167
166 166 167
166 166 167
166 166 167
166 166 167
166 166 167
166 166 167
166 166 167
166 166 167
166 166 167
166 166 167
166 166 167
166 166 167
166 166 167
166 166 167
166 166 167
166 166 167
166 166 167
166 166 167
166 166 167
166 166 167
166 166 167
166 166 167
166 166 167
166 166 167
166 166 167
166 166 167
166 166 167
166 166 167
166 166 167
166 166 167
166 166 167
166 166 167
166 166 167
166 166 167
166 166 167
166 166 167
166 166 166
166 166 166
166 166 166
166 166 166
166 166 166
166 166 166
166 166 166
166 166 166
166 166 166
166 166 166
166 166 166
166 166 166
165 166 166
165 166 166
165 166 166
165 166 166
165 166 166
165 166 166
165 166 166
165 166 166
165 166 166
165 166 166
165 166 166
165 166 166
165 166 166
165 166 166
165 166 166
165 166 166
165 166 166
165 166 166
165 166 166
165 166 166
165 166 166
165 166 166
165 166 166
165 166 166
165 166 166
165 166 166
165 166 166
165 166 166
165 166 166
165 166 166
165 166 166
165 166 166
165 166 166
165 166 166
165 166 166
165 166 166
165 166 166
165 166 166
165 166 166
165 166 166
165 166 166
165 166 166
165 166 166
165 166 166
165 166 166
165 166 166
165 166 166
165 166 166
165 166 166
165 166 166
165 166 166
165 166 166
165 166 166
165 166 166
165 166 166
165 166 166
165 166 166
165 166 166
165 166 166
165 166 166
165 166 166
165 166 166
165 166 166
165 166 166
165 166 166
165 166 166
165 166 166
165 166 166
165 166 166
165 166 166
165 166 166
165 166 166
165 166 166
165 166 166
165 166 166
165 166 166
165 166 166
165 166 166
165 166 166
165 166 166
165 166 166
165 166 166
165 166 166
165 166 166
165 166 166
165 166 166
165 166 166
165 166 166
165 166 166
165 166 166
165 166 166
165 166 166
165 166 166
165 166 166
165 166 166
165 166 166
165 166 166
165 166 166
165 166 166
165 166 166
165 166 166
165 166 166
165 166 166
165 166 166
165 166 166
165 166 166
165 166 166
165 166 166
165 166 166
165 166 166
165 166 166
165 166 166
165 166 166
165 166 166
165 166 166
166 166 166
166 166 166
166 166 166
166 166 166
166 166 166
166 166 166
166 166 166
166 166 166
166 166 166
166 166 166
166 166 166
166 166 166
166 166 166
166 166 167
166 166 167
166 166 167
166 166 167
166 166 167
166 166 167
166 166 167
166 166 167
166 166 167
166 166 167
166 166 167
166 166 167
166 166 167
166 166 167
166 166 167
166 166 167
166 166 167
166 166 167
166 166 167
166 166 167
166 166 167
166 166 167
166 166 167
166 166 167
166 166 167
166 166 167
166 166 167
166 166 167
166 166 167
166 166 167
166 166 167
166 166 167
166 166 167
166 166 167
166 166 167
166 166 167
166 166 167
166 166 167
166 166 167
166 166 167
166 166 167
166 166 167
166 166 167
166 166 167
166 166 167
166 166 167
166 166 167
166 166 167
166 166 167
166 166 167
166 166 167
166 166 167
166 166 167
166 166 167
166 166 167
166 166 167
166 166 167
166 166 167
166 166 167
166 166 167
166 166 167
166 166 167
166 166 167
166 166 167
166 166 167
166 166 167
166 166 167
166 166 167
166 166 167
166 166 167
166 166 167
166 166 167
166 166 167
166 166 167
166 166 167
166 166 167
166 166 167
166 166 167
166 166 167
166 166 167
166 166 167
166 166 167
166 166 167
166 166 167
166 166 167
166 166 167
166 166 167
166 166 167
166 166 167
166 166 167
166 166 167
166 166 167
166 166 167
166 166 167
166 166 167
166 166 167
166 166 167
166 166 167
166 166 167
166 166 167
166 166 167
166 166 167
166 166 167
166 166 167
166 166 167
166 166 167
166 166 167
166 166 167
166 166 167
166 166 167
166 166 167
166 166 167
166 166 167
166 166 167
166 166 167
166 166 167
166 166 167
166 166 167
166 166 167
166 166 167
166 166 167
166 166 167
166 166 166
166 166 166
166 166 166
166 166 166
166 166 166
166 166 166
166 166 166
166 166 166
166 166 166
166 166 166
166 166 166
166 166 166
166 166 166
166 166 166
165 166 166
165 166 166
165 166 166
165 166 166
165 166 166
165 166 166
165 166 166
165 166 166
165 166 166
165 166 166
165 166 166
165 166 166
165 166 166
165 166 166
165 166 166
165 166 166
165 166 166
165 166 166
165 166 166
165 166 166
165 166 166
165 166 166
165 166 166
165 166 166
165 166 166
165 166 166
165 166 166
165 166 166
165 166 166
165 166 166
165 166 166
165 166 166
165 166 166
165 166 166
165 166 166
165 166 166
165 166 166
165 166 166
165 166 166
165 166 166
165 166 166
165 166 166
165 166 166
165 166 166
165 166 166
165 166 166
165 166 166
165 166 166
165 166 166
165 166 166
165 166 166
165 166 166
165 166 166
165 166 166
165 166 166
165 166 166
165 166 166
165 166 166
165 166 166
165 166 166
165 166 166
165 166 166
165 166 166
165 166 166
165 166 166
165 166 166
165 166 166
165 166 166
165 166 166
165 166 166
165 166 166
165 166 166
165 166 166
165 166 166
165 166 166
165 166 166
165 166 166
165 166 166
165 166 166
165 166 166
165 166 166
165 166 166
165 166 166
165 166 166
165 166 166
165 166 166
165 166 166
165 166 166
165 166 166
165 166 166
165 166 166
165 166 166
165 166 166
165 166 166
165 166 166
165 166 166
165 166 166
165 166 166
165 166 166
165 166 166
165 166 166
165 166 166
166 166 166
166 166 166
166 166 166
166 166 166
166 166 166
166 166 166
166 166 166
166 166 166
166 166 166
166 166 166
166 166 166
166 166 166
166 166 166
166 166 166
166 166 167
166 166 167
166 166 167
166 166 167
166 166 167
166 166 167
166 166 167
166 166 167
166 166 167
166 166 167
166 166 167
166 166 167
166 166 167
166 166 167
166 166 167
166 166 167
166 166 167
166 166 167
166 166 167
166 166 167
166 166 167
166 166 167
166 166 167
166 166 167
166 166 167
166 166 167
166 166 167
166 166 167
166 166 167
166 166 167
166 166 167
166 166 167
166 166 167
166 166 167
166 166 167
166 166 167
166 166 167
166 166 167
166 166 167
166 166 167
166 166 167
166 166 167
166 166 167
166 166 167
166 166 167
166 166 167
166 166 167
166 166 167
166 166 167
166 166 167
166 166 167
166 166 167
166 166 167
166 166 167
166 166 167
166 166 167
166 166 167
166 166 167
166 166 167
166 166 167
166 166 167
166 166 167
166 166 167
166 166 167
166 166 167
166 166 167
166 166 167
166 166 167
166 166 167
166 166 167
166 166 167
166 166 167
166 166 167
166 166 167
166 166 167
166 166 167
166 166 167
166 166 167
166 166 167
166 166 167
166 166 167
166 166 167
166 166 167
166 166 167
166 166 167
166 166 167
166 166 167
166 166 167
166 166 167
166 166 167
166 166 167
166 166 167
166 166 167
166 166 167
166 166 167
166 166 167
166 166 167
166 166 167
166 166 167
166 166 167
166 166 167
166 166 167
166 166 167
166 166 167
166 166 167
166 166 167
166 166 167
166 166 167
166 166 167
166 166 167
166 166 167
166 166 167
166 166 167
166 166 167
166 166 167
166 166 167
166 166 167
166 166 167
166 166 167
166 166 167
166 166 167
166 166 167
166 166 167
166 166 167
166 166 167
166 166 167
166 166 167
166 166 167
166 166 167
166 166 167
166 166 167
166 166 167
166 166 167
166 166 166
166 166 166
166 166 166
166 166 166
166 166 166
166 166 166
166 166 166
166 166 166
166 166 166
166 166 166
166 166 166
166 166 166
166 166 166
166 166 166
166 166 166
166 166 166
166 166 166
166 166 166
166 166 166
166 166 166
165 166 166
166 166 166
166 166 166
165 166 166
165 166 166
165 166 166
165 166 166
165 166 166
165 166 166
165 166 166
165 166 166
165 166 166
165 166 166
165 166 166
165 166 166
165 166 166
165 166 166
165 166 166
165 166 166
165 166 166
165 166 166
165 166 166
165 166 166
165 166 166
165 166 166
165 166 166
165 166 166
165 166 166
165 166 166
165 166 166
165 166 166
165 166 166
165 166 166
165 166 166
165 166 166
165 166 166
165 166 166
165 166 166
165 166 166
165 166 166
165 166 166
165 166 166
165 166 166
165 166 166
165 166 166
165 166 166
165 166 166
165 166 166
165 166 166
165 166 166
165 166 166
165 166 166
165 166 166
165 166 166
165 166 166
165 166 166
165 166 166
165 166 166
165 166 166
165 166 166
165 166 166
165 166 166
165 166 166
165 166 166
165 166 166
165 166 166
165 166 166
165 166 166
165 166 166
165 166 166
165 166 166
165 166 166
165 166 166
165 166 166
165 166 166
165 166 166
165 166 166
165 166 166
165 166 166
165 166 166
165 166 166
166 166 166
166 166 166
166 166 166
166 166 166
166 166 166
166 166 166
166 166 166
166 166 166
166 166 166
166 166 166
166 166 166
166 166 166
166 166 166
166 166 166
166 166 167
166 166 167
166 166 167
166 166 167
166 166 167
166 166 167
166 166 167
166 166 167
166 166 167
166 166 167
166 166 167
166 166 167
166 166 167
166 166 167
166 166 167
166 166 167
166 166 167
166 166 167
166 166 167
166 166 167
166 166 167
166 166 167
166 166 167
166 166 167
166 166 167
166 166 167
166 166 167
166 166 167
166 166 167
166 166 167
166 166 167
166 166 167
166 166 167
166 166 167
166 166 167
166 166 167
166 166 167
166 166 167
166 166 167
166 166 167
166 166 167
166 166 167
166 166 167
166 166 167
166 166 167
166 166 167
166 166 167
166 166 167
166 166 167
166 166 167
166 166 167
166 166 167
166 166 167
166 166 167
166 166 167
166 166 167
166 166 167
166 166 167
166 166 167
166 166 167
166 166 167
166 166 167
166 166 167
166 166 167
166 166 167
166 166 167
166 166 167
166 166 167
166 166 167
166 166 167
166 166 167
166 166 167
166 166 167
166 166 167
166 166 167
166 166 167
166 166 167
166 166 167
166 166 167
166 166 167
166 166 167
166 166 167
166 166 167
166 166 167
166 166 167
166 166 167
166 166 167
166 166 167
166 166 167
166 166 167
166 166 167
166 166 167
166 166 167
166 166 167
166 166 167
166 166 167
166 166 167
166 166 167
166 166 167
166 166 167
166 166 167
166 166 167
166 166 167
166 166 167
166 166 167
166 166 167
166 166 167
166 166 167
166 166 167
166 166 167
166 166 167
166 166 167
166 166 167
166 166 167
166 166 167
166 166 167
166 166 167
166 166 167
166 166 167
166 166 167
166 166 167
166 166 167
166 166 167
166 166 167
166 166 167
166 166 167
166 166 167
166 166 167
166 166 167
166 166 167
166 166 167
166 166 167
166 166 167
166 166 167
166 166 167
166 166 167
166 166 167
166 166 167
166 166 167
166 166 167
166 166 167
166 166 167
166 166 167
166 166 167
166 166 167
166 166 167
166 166 167
166 166 167
166 166 167
166 166 166
166 166 166
166 166 166
166 166 166
166 166 166
166 166 166
166 166 166
166 166 166
166 166 166
166 166 166
166 166 166
166 166 166
166 166 166
166 166 166
166 166 166
166 166 166
166 166 166
166 166 166
166 166 166
166 166 166
166 166 166
166 166 166
166 166 166
166 166 166
165 166 166
165 166 166
165 166 166
165 166 166
165 166 166
165 166 166
165 166 166
165 166 166
165 166 166
165 166 166
165 166 166
165 166 166
165 166 166
165 166 166
165 166 166
165 166 166
165 166 166
165 166 166
165 166 166
165 166 166
165 166 166
165 166 166
165 166 166
165 166 166
165 166 166
165 166 166
165 166 166
165 166 166
165 166 166
165 166 166
165 166 166
165 166 166
165 166 166
165 166 166
165 166 166
165 166 166
165 166 166
165 166 166
165 166 166
165 166 166
165 166 166
165 166 166
165 166 166
165 166 166
165 166 166
165 166 166
165 166 166
165 166 166
165 166 166
165 166 166
165 166 166
165 166 166
165 166 166
165 166 166
165 166 166
165 166 166
165 166 166
165 166 166
166 166 166
166 166 166
166 166 166
166 166 166
166 166 166
166 166 166
166 166 166
166 166 166
166 166 166
166 166 166
166 166 166
166 166 166
166 166 166
166 166 166
166 166 166
166 166 166
166 166 166
166 166 166
166 166 166
166 166 167
166 166 167
166 166 167
166 166 167
166 166 167
166 166 167
166 166 167
166 166 167
166 166 167
166 166 167
166 166 167
166 166 167
166 166 167
166 166 167
166 166 167
166 166 167
166 166 167
166 166 167
166 166 167
166 166 167
166 166 167
166 166 167
166 166 167
166 166 167
166 166 167
166 166 167
166 166 167
166 166 167
166 166 167
166 166 167
166 166 167
166 166 167
166 166 167
166 166 167
166 166 167
166 166 167
166 166 167
166 166 167
166 166 167
166 166 167
166 166 167
166 166 167
166 166 167
166 166 167
166 166 167
166 166 167
166 166 167
166 166 167
166 166 167
166 166 167
166 166 167
166 166 167
166 166 167
166 166 167
166 166 167
166 166 167
166 166 167
166 166 167
166 166 167
166 166 167
166 166 167
166 166 167
166 166 167
166 166 167
166 166 167
166 166 167
166 166 167
166 166 167
166 166 167
166 166 167
166 166 167
166 166 167
166 166 167
166 166 167
166 166 167
166 166 167
166 166 167
166 166 167
166 166 167
166 166 167
166 166 167
166 166 167
166 166 167
166 166 167
166 166 167
166 166 167
166 166 167
166 166 167
166 166 167
166 166 167
166 166 167
166 166 167
166 166 167
166 166 167
166 166 167
166 166 167
166 166 167
166 166 167
166 166 167
166 166 167
166 166 167
166 166 167
166 166 167
166 166 167
166 166 167
166 166 167
166 166 167
166 166 167
166 166 167
166 166 167
166 166 167
166 166 167
166 166 167
166 166 167
166 166 167
166 166 167
166 166 167
166 166 167
166 166 167
166 166 167
166 166 167
166 166 167
166 166 167
166 166 167
166 166 167
166 166 167
166 166 167
166 166 167
166 166 167
166 166 167
166 166 167
166 166 167
166 166 167
166 166 167
166 166 167
166 166 167
166 166 167
166 166 167
166 166 167
166 166 167
166 166 167
166 166 167
166 166 167
166 166 167
166 166 167
166 166 167
166 166 167
166 166 167
166 166 167
166 166 167
166 166 167
166 166 167
166 166 167
166 166 167
166 166 167
166 166 167
166 166 167
166 166 167
166 166 167
166 166 167
166 166 167
166 166 167
166 166 167
166 166 167
166 166 167
166 166 167
166 166 167
166 166 167
166 166 166
166 166 167
166 166 166
166 166 166
166 166 166
166 166 166
166 166 166
166 166 166
166 166 166
166 166 166
166 166 166
166 166 166
166 166 166
166 166 166
166 166 166
166 166 166
166 166 166
166 166 166
166 166 166
166 166 166
166 166 166
166 166 166
166 166 166
166 166 166
166 166 166
166 166 166
166 166 166
166 166 166
166 166 166
165 166 166
166 166 166
165 166 166
165 166 166
165 166 166
165 166 166
165 166 166
166 166 166
165 166 166
165 166 166
165 166 166
165 166 166
165 166 166
165 166 166
165 166 166
165 166 166
165 166 166
165 166 166
166 166 166
166 166 166
165 166 166
165 166 166
165 166 166
166 166 166
166 166 166
166 166 166
166 166 166
166 166 166
166 166 166
166 166 166
166 166 166
166 166 166
166 166 166
166 166 166
166 166 166
166 166 166
166 166 166
166 166 166
166 166 166
166 166 166
166 166 166
166 166 166
166 166 166
166 166 166
166 166 166
166 166 166
166 166 166
166 166 166
166 166 166
166 166 166
166 166 166
166 166 167
166 166 167
166 166 167
166 166 167
166 166 167
166 166 167
166 166 167
166 166 167
166 166 167
166 166 167
166 166 167
166 166 167
166 166 167
166 166 167
166 166 167
166 166 167
166 166 167
166 166 167
166 166 167
166 166 167
166 166 167
166 166 167
166 166 167
166 166 167
166 166 167
166 166 167
166 166 167
166 166 167
166 166 167
166 166 167
166 166 167
166 166 167
166 166 167
166 166 167
166 166 167
166 166 167
166 166 167
166 166 167
166 166 167
166 166 167
166 166 167
166 166 167
166 166 167
166 166 167
166 166 167
166 166 167
166 166 167
166 166 167
166 166 167
166 166 167
166 166 167
166 166 167
166 166 167
166 166 167
166 166 167
166 166 167
166 166 167
166 166 167
166 166 167
166 166 167
166 166 167
166 166 167
166 166 167
166 166 167
166 166 167
166 166 167
166 166 167
166 166 167
166 166 167
166 166 167
166 166 167
166 166 167
166 166 167
166 166 167
166 166 167
166 166 167
166 166 167
166 166 167
166 166 167
166 166 167
166 166 167
166 166 167
166 166 167
166 166 167
166 166 167
166 166 167
166 166 167
166 166 167
166 166 167
166 166 167
166 166 167
166 166 167
166 166 167
166 166 167
166 166 167
166 166 167
166 166 167
166 166 167
166 166 167
166 166 167
166 166 167
166 166 167
166 166 167
166 166 167
166 166 167
166 166 167
166 166 167
166 166 167
166 166 167
166 166 167
166 166 167
166 166 167
166 166 167
166 166 167
166 166 167
166 166 167
166 166 167
166 166 167
166 166 167
166 166 167
166 166 167
166 166 167
166 166 167
166 166 167
166 166 167
166 166 167
166 166 167
166 166 167
166 166 167
166 166 167
166 166 167
166 166 167
166 166 167
166 166 167
166 166 167
166 166 167
166 166 167
166 166 167
166 166 167
166 166 167
166 166 167
166 166 167
166 166 167
166 166 167
166 166 167
166 166 167
166 166 167
166 166 167
166 166 167
166 166 167
166 166 167
166 166 167
166 166 167
166 166 167
166 166 167
166 166 167
166 166 167
166 166 167
166 166 167
166 166 167
166 166 167
166 166 167
166 166 167
166 166 167
166 166 167
166 166 167
166 166 167
166 166 167
166 166 167
166 166 167
166 166 167
166 166 167
166 166 167
166 166 167
166 166 167
166 166 167
166 166 167
166 166 167
166 166 167
166 166 167
166 166 167
166 166 167
166 166 167
166 166 167
166 166 167
166 166 167
166 166 167
166 166 167
166 166 167
166 166 166
166 166 166
166 166 166
166 166 166
166 166 166
166 166 166
166 166 166
166 166 166
166 166 166
166 166 166
166 166 166
166 166 166
166 166 166
166 166 166
166 166 166
166 166 166
166 166 166
166 166 166
166 166 166
166 166 166
166 166 166
166 166 166
166 166 166
166 166 166
166 166 166
166 166 166
166 166 166
166 166 166
166 166 166
166 166 166
166 166 166
166 166 166
166 166 166
166 166 166
166 166 166
166 166 166
166 166 166
166 166 166
166 166 166
166 166 166
166 166 166
166 166 166
166 166 166
166 166 166
166 166 166
166 166 166
166 166 166
166 166 166
166 166 166
166 166 166
166 166 166
166 166 166
166 166 166
166 166 166
166 166 166
166 166 166
166 166 167
166 166 166
166 166 166
166 166 166
166 166 167
166 166 167
166 166 167
166 166 167
166 166 167
166 166 167
166 166 167
166 166 167
166 166 167
166 166 167
166 166 167
166 166 167
166 166 167
166 166 167
166 166 167
166 166 167
166 166 167
166 166 167
166 166 167
166 166 167
166 166 167
166 166 167
166 166 167
166 166 167
166 166 167
166 166 167
166 166 167
166 166 167
166 166 167
166 166 167
166 166 167
166 166 167
166 166 167
166 166 167
166 166 167
166 166 167
166 166 167
166 166 167
166 166 167
166 166 167
166 166 167
166 166 167
166 166 167
166 166 167
166 166 167
166 166 167
166 166 167
166 166 167
166 166 167
166 166 167
166 166 167
166 166 167
166 166 167
166 166 167
166 166 167
166 166 167
166 166 167
166 166 167
166 166 167
166 166 167
166 166 167
166 166 167
166 166 167
166 166 167
166 166 167
166 166 167
166 166 167
166 166 167
166 166 167
166 166 167
166 166 167
166 166 167
166 166 167
166 166 167
166 166 167
166 166 167
166 166 167
166 166 167
166 166 167
166 166 167
166 166 167
166 166 167
166 166 167
166 166 167
166 166 167
166 166 167
166 166 167
166 166 167
166 166 167
166 166 167
166 166 167
166 166 167
166 166 167
166 166 167
166 166 167
166 166 167
166 166 167
166 166 167
166 166 167
166 166 167
166 166 167
166 166 167
166 166 167
166 166 167
166 166 167
166 166 167
166 166 167
166 166 167
166 166 167
166 166 167
166 166 167
166 166 167
166 166 167
166 166 167
166 166 167
166 166 167
166 166 167
166 166 167
166 166 167
166 166 167
166 166 167
166 166 167
166 166 167
166 166 167
166 166 167
166 166 167
166 166 167
166 166 167
166 166 167
166 166 167
166 166 167
166 166 167
166 166 167
166 166 167
166 166 167
166 166 167
166 166 167
166 166 167
166 166 167
166 166 167
166 166 167
166 166 167
166 166 167
166 166 167
166 166 167
166 166 167
166 166 167
166 166 167
166 166 167
166 166 167
166 166 167
166 166 167
166 166 167
166 166 167
166 166 167
166 166 167
166 166 167
166 166 167
166 166 167
166 166 167
166 166 167
166 166 167
166 166 167
166 166 167
166 166 167
166 166 167
166 166 167
166 166 167
166 166 167
166 166 167
166 166 167
166 166 167
166 166 167
166 166 167
166 166 167
166 166 167
166 166 167
166 166 167
166 166 167
166 166 167
166 166 167
166 166 167
166 166 167
166 166 167
166 166 167
166 166 167
166 166 167
166 166 167
166 166 167
166 166 167
166 166 167
166 166 167
166 166 167
166 166 167
166 166 167
166 166 167
166 166 167
166 166 167
166 166 167
166 166 167
166 166 167
166 166 167
166 166 167
166 166 167
166 166 167
166 166 167
166 166 167
166 166 167
166 166 167
166 166 167
166 166 167
166 166 166
166 166 167
166 166 166
166 166 166
166 166 167
166 166 166
166 166 167
166 166 167
166 166 166
166 166 166
166 166 167
166 166 167
166 166 166
166 166 166
166 166 166
166 166 167
166 166 166
166 166 166
166 166 166
166 166 167
166 166 166
166 166 167
166 166 167
166 166 167
166 166 167
166 166 167
166 166 167
166 166 167
166 166 167
166 166 167
166 166 167
166 166 167
166 166 167
166 166 167
166 166 167
166 166 167
166 166 167
166 166 167
166 166 167
166 166 167
166 166 167
166 166 167
166 166 167
166 166 167
166 166 167
166 166 167
166 166 167
166 166 167
166 166 167
166 166 167
166 166 167
166 166 167
166 166 167
166 166 167
166 166 167
166 166 167
166 166 167
166 166 167
166 166 167
166 166 167
166 166 167
166 166 167
166 166 167
166 166 167
166 166 167
166 166 167
166 166 167
166 166 167
166 166 167
166 166 167
166 166 167
166 166 167
166 166 167
166 166 167
166 166 167
166 166 167
166 166 167
166 166 167
166 166 167
166 166 167
166 166 167
166 166 167
166 166 167
166 166 167
166 166 167
166 166 167
166 166 167
166 166 167
166 166 167
166 166 167
166 166 167
166 166 167
166 166 167
166 166 167
166 166 167
166 166 167
166 166 167
166 166 167
166 166 167
166 166 167
166 166 167
166 166 167
166 166 167
166 166 167
166 166 167
166 166 167
166 166 167
166 166 167
166 166 167
166 166 167
166 166 167
166 166 167
166 166 167
166 166 167
166 166 167
166 166 167
166 166 167
166 166 167
166 166 167
166 166 167
166 166 167
166 166 167
166 166 167
166 166 167
166 166 167
166 166 167
166 166 167
166 166 167
166 166 167
166 166 167
166 166 167
166 166 167
166 166 167
166 166 167
166 166 167
166 166 167
166 166 167
166 166 167
166 166 167
166 166 167
166 166 167
166 166 167
166 166 167
166 166 167
166 166 167
166 166 167
166 166 167
166 166 167
166 166 167
166 166 167
166 166 167
166 166 167
166 166 167
166 166 167
166 166 167
166 166 167
166 166 167
166 166 167
166 166 167
166 166 167
166 166 167
166 166 167
166 166 167
166 166 167
166 166 167
166 166 167
166 166 167
166 166 167
166 166 167
166 166 167
166 166 167
166 166 167
166 166 167
166 166 167
166 166 167
166 166 167
166 166 167
166 166 167
166 166 167
166 166 167
166 166 167
166 166 167
166 166 167
166 166 167
166 166 167
166 166 167
166 166 167
166 166 167
166 166 167
166 166 167
166 166 167
166 166 167
166 166 167
166 166 167
166 166 167
166 166 167
166 166 167
166 166 167
166 166 167
166 166 167
166 166 167
166 166 167
166 166 167
166 166 167
166 166 167
166 166 167
166 166 167
166 166 167
166 166 167
166 166 167
166 166 167
166 166 167
166 166 167
166 166 167
166 166 167
166 166 167
166 166 167
166 166 167
166 166 167
166 166 167
166 166 167
166 166 167
166 166 167
166 166 167
166 166 167
166 166 167
166 166 167
166 166 167
166 166 167
166 166 167
166 166 167
166 166 167
166 166 167
166 166 167
166 166 167
166 166 167
166 166 167
166 166 167
166 166 167
166 166 167
166 166 167
166 166 167
166 166 167
166 166 167
166 166 167
166 166 167
166 166 167
166 166 167
166 166 167
166 166 167
166 166 167
166 166 167
166 166 167
166 166 167
166 166 167
166 166 167
166 166 167
166 166 167
166 166 167
166 166 167
166 166 167
166 166 167
166 166 167
166 166 167
166 166 167
166 166 167
166 166 167
166 166 167
166 166 167
166 166 167
166 166 167
166 166 167
166 166 167
166 166 167
166 166 167
166 166 167
166 166 167
166 166 167
166 166 167
166 166 167
166 166 167
166 166 167
166 166 167
166 166 167
166 166 167
166 166 167
166 166 167
166 166 167
166 166 167
166 166 167
166 166 167
166 166 167
166 166 167
166 166 167
166 166 167
166 166 167
166 166 167
166 166 167
166 166 167
166 166 167
166 166 167
166 166 167
166 166 167
166 166 167
166 166 167
166 166 167
166 166 167
166 166 167
166 166 167
166 166 167
166 166 167
166 166 167
166 166 167
166 166 167
166 166 167
166 166 167
166 166 167
166 166 167
166 166 167
166 166 167
166 166 167
166 166 167
166 166 167
166 166 167
166 166 167
166 166 167
166 166 167
166 166 167
166 166 167
166 166 167
166 166 167
166 166 167
166 166 167
166 166 167
166 166 167
166 166 167
166 166 167
166 166 167
166 166 167
166 166 167
166 166 167
166 166 167
166 166 167
166 166 167
166 166 167
166 166 167
166 166 167
166 166 167
166 166 167
166 166 167
166 166 167
166 166 167
166 166 167
166 166 167
166 166 167
166 166 167
166 166 167
166 166 167
166 166 167
166 166 167
166 166 167
166 166 167
166 166 167
166 166 167
166 166 167
166 166 167
166 166 167
166 166 167
166 166 167
166 166 167
166 166 167
166 166 167
166 166 167
166 166 167
166 166 167
166 166 167
166 166 167
166 166 167
166 166 167
166 166 167
166 166 167
166 166 167
166 166 167
166 166 167
166 166 167
166 166 167
166 166 167
166 166 167
166 166 167
166 166 167
166 166 167
166 166 167
166 166 167
166 166 167
166 166 167
166 166 167
166 166 167
166 166 167
166 166 167
166 166 167
166 166 167
166 166 167
166 166 167
166 166 167
166 166 167
166 166 167
166 166 167
166 166 167
166 166 167
166 166 167
166 166 167
166 166 167
166 166 167
166 166 167
166 166 167
166 166 167
166 166 167
166 166 167
166 166 167
166 166 167
166 166 167
166 166 167
166 166 167
166 166 167
166 166 167
166 166 167
166 166 167
166 166 167
166 166 167
166 166 167
166 166 167
166 166 167
166 166 167
166 166 167
166 166 167
166 166 167
166 166 167
166 166 167
166 166 167
166 166 167
166 166 167
166 166 167
166 166 167
166 166 167
166 166 167
166 166 167
166 166 167
166 166 167
166 166 167
166 166 167
166 166 167
166 166 167
166 166 167
166 166 167
166 166 167
166 166 167
166 166 167
166 166 167
166 166 167
166 166 167
166 166 167
166 166 167
166 166 167
166 166 167
166 166 167
166 166 167
166 166 167
166 166 167
166 166 167
166 166 167
166 166 167
166 166 167
166 166 167
166 166 167
166 166 167
166 166 167
166 166 167
166 166 167
166 166 167
166 166 167
166 166 167
166 166 167
166 166 167
166 166 167
166 166 167
166 166 167
166 166 167
166 166 167
166 166 167
166 166 167
166 166 167
166 166 167
166 166 167
166 166 167
166 166 167
166 166 167
166 166 167
166 166 167
166 166 167
166 166 167
166 166 167
166 166 167
166 166 167
166 166 167
166 166 167
166 166 167
166 166 167
166 166 167
166 166 167
166 166 167
166 166 167
166 166 167
166 166 167
166 166 167
166 166 167
166 166 167
166 166 167
166 166 167
166 166 167
166 166 167
166 166 167
166 166 167
166 166 167
166 166 167
166 166 167
166 166 167
166 166 167
166 166 167
166 166 167
166 166 167
166 166 167
166 166 167
166 166 167
166 166 167
166 166 167
166 166 167
166 166 167
166 166 167
166 166 167
166 166 167
166 166 167
166 166 167
166 166 167
166 166 167
166 166 167
166 166 167
166 166 167
166 166 167
166 166 167
166 166 167
166 166 167
166 166 167
166 166 167
166 166 167
166 166 167
166 166 167
166 166 167
166 166 167
166 166 167
166 166 167
166 166 167
166 166 167
166 166 167
166 166 167
166 166 167
166 166 167
166 166 167
166 166 167
166 166 167
166 166 167
166 166 167
166 166 167
166 166 167
166 166 167
166 166 167
166 166 167
166 166 167
166 166 167
166 166 167
166 166 167
166 166 167
166 166 167
166 166 167
166 166 167
166 166 167
166 166 167
166 166 167
166 166 167
166 166 167
166 166 167
166 166 167
166 166 167
166 166 167
166 166 167
166 166 167
166 166 167
166 166 167
166 166 167
166 166 167
166 166 167
166 166 167
166 166 167
166 166 167
166 166 167
166 166 167
166 166 167
166 166 167
166 166 167
166 166 167
166 166 167
166 166 167
166 166 167
166 166 167
166 166 167
166 166 167
166 166 167
166 166 167
166 166 167
166 166 167
166 166 167
166 166 167
166 166 167
166 166 167
166 166 167
166 166 167
166 166 167
166 166 167
166 166 167
166 166 167
166 166 167
166 166 167
166 166 167
166 166 167
166 166 167
166 166 167
166 166 167
166 166 167
166 166 167
166 166 167
166 166 167
166 166 167
166 166 167
166 166 167
166 166 167
166 166 167
166 166 167
166 166 167
166 166 167
166 166 167
166 166 167
166 166 167
166 166 167
166 166 167
166 166 167
166 166 167
166 166 167
166 166 167
166 166 167
166 166 167
166 166 167
166 166 167
166 166 167
166 166 167
166 166 167
166 166 167
166 166 167
166 166 167
166 166 167
166 166 167
166 166 167
166 166 167
166 166 167
166 166 167
166 166 167
166 166 167
166 166 167
166 166 167
166 166 167
166 166 167
166 166 167
166 166 167
166 166 167
166 166 167
166 166 167
166 166 167
166 166 167
166 166 167
166 166 167
166 166 167
166 166 167
166 166 167
166 166 167
166 166 167
166 166 167
166 166 167
166 166 167
166 166 167
166 166 167
166 166 167
166 166 167
166 166 167
166 166 167
166 166 167
166 166 167
166 166 167
166 166 167
166 166 167
166 166 167
166 166 167
166 166 167
166 166 167
166 166 167
166 166 167
166 166 167
166 166 167
166 166 167
166 166 167
166 166 167
166 166 167
166 166 167
166 166 167
166 166 167
166 166 167
166 166 167
166 166 167
166 166 167
166 166 167
166 166 167
166 166 167
166 166 167
166 166 167
166 166 167
166 166 167
166 166 167
166 166 167
166 166 167
166 166 167
166 166 167
166 166 167
166 166 167
166 166 167
166 166 167
166 166 167
166 166 167
166 166 167
166 166 167
166 166 167
166 166 167
166 166 167
166 166 167
166 166 167
166 166 167
166 166 167
166 166 167
166 166 167
166 166 167
166 166 167
166 166 167
166 166 167
166 166 167
166 166 167
166 166 167
166 166 167
166 166 167
166 166 167
166 166 167
166 166 167
166 166 167
166 166 167
166 166 167
166 166 167
166 166 167
166 166 167
166 166 167
166 166 167
166 166 167
166 166 167
166 166 167
166 166 167
166 166 167
166 166 167
166 166 167
166 166 167
166 166 167
166 166 167
166 166 167
166 166 167
166 166 167
166 166 167
166 166 167
166 166 167
166 166 167
166 166 167
166 166 167
166 166 167
166 166 167
166 166 167
166 166 167
166 166 167
166 166 167
166 166 167
166 166 167
166 166 167
166 166 167
166 166 167
166 166 167
166 166 167
166 166 167
166 166 167
166 166 167
166 166 167
166 166 167
166 166 167
166 166 167
166 166 167
166 166 167
166 166 167
166 166 167
166 166 167
166 166 167
166 166 167
166 166 167
166 166 167
166 166 167
166 166 167
166 166 167
166 166 167
166 166 167
166 166 167
166 166 167
166 166 167
166 166 167
166 166 167
166 166 167
166 166 167
166 166 167
166 166 167
166 166 167
166 166 167
166 166 167
166 166 167
166 166 167
166 166 167
166 166 167
166 166 167
166 166 167
166 166 167
166 166 167
166 166 167
166 166 167
166 166 167
166 166 167
166 166 167
166 166 167
166 166 167
166 166 167
166 166 167
166 166 167
166 166 167
166 166 167
166 166 167
166 166 167
166 166 167
166 166 167
166 166 167
166 166 167
166 166 167
166 166 167
166 166 167
166 166 167
166 166 167
166 166 167
166 166 167
166 166 167
166 166 167
166 166 167
166 166 167
166 166 167
166 166 167
166 166 167
166 166 167
166 166 167
166 166 167
166 166 167
166 166 167
166 166 167
166 166 167
166 166 167
166 166 167
166 166 167
166 166 167
166 166 167
166 166 167
166 166 167
166 166 167
166 166 167
166 166 167
166 166 167
166 166 167
166 166 167
166 166 167
166 166 167
166 166 167
166 166 167
166 166 167
166 166 167
166 166 167
166 166 167
166 166 167
166 166 167
166 166 167
166 166 167
166 166 167
166 166 167
166 166 167
166 166 167
166 166 167
166 166 167
166 166 167
166 166 167
166 166 167
166 166 167
166 166 167
166 166 167
166 166 167
166 166 167
166 166 167
166 166 167
166 166 167
166 166 167
166 166 167
166 166 167
166 166 167
166 166 167
166 166 167
166 166 167
166 166 167
166 166 167
166 166 167
166 166 167
166 166 167
166 166 167
166 166 167
166 166 167
166 166 167
166 166 167
166 166 167
166 166 167
166 166 167
166 166 167
166 166 167
166 166 167
166 166 167
166 166 167
166 166 167
166 166 167
166 166 167
166 166 167
166 166 167
166 166 167
166 166 167
166 166 167
166 166 167
166 166 167
166 166 167
166 166 167
166 166 167
166 166 167
166 166 167
166 166 167
166 166 167
166 166 167
166 166 167
166 166 167
166 166 167
166 166 167
166 166 167
166 166 167
166 166 167
166 166 167
166 166 167
166 166 167
166 166 167
166 166 167
166 166 167
166 166 167
166 166 167
166 166 167
166 166 167
166 166 167
166 166 167
166 166 167
166 166 167
166 166 167
166 166 167
166 166 167
166 166 167
166 166 167
166 166 167
166 166 167
166 166 167
166 166 167
166 166 167
166 166 167
166 166 167
166 166 167
166 166 167
166 166 167
166 166 167
166 166 167
166 166 167
166 166 167
166 166 167
166 166 167
166 166 167
166 166 167
166 166 167
166 166 167
166 166 167
166 166 167
166 166 167
166 166 167
166 166 167
166 166 167
166 166 167
166 166 167
166 166 167
166 166 167
166 166 167
166 166 167
166 166 167
166 166 167
166 166 167
166 166 167
166 166 167
166 166 167
166 166 167
166 166 167
166 166 167
166 166 167
166 166 167
166 166 167
166 166 167
166 166 167
166 166 167
166 166 167
166 166 167
166 166 167
166 166 167
166 166 167
166 166 167
166 166 167
166 166 167
166 166 167
166 166 167
166 166 167
166 166 167
166 166 167
166 166 167
166 166 167
166 166 167
166 166 167
166 166 167
166 166 167
166 166 167
166 166 167
166 166 167
166 166 167
166 166 167
166 166 167
166 166 167
166 166 167
166 166 167
166 166 167
166 166 167
166 166 167
166 166 167
166 166 167
166 166 167
166 166 167
166 166 167
166 166 167
166 166 167
166 166 167
166 166 167
166 166 167
166 166 167
166 166 167
166 166 167
166 166 167
166 166 167
166 166 167
166 166 167
166 166 167
166 166 167
166 166 167
166 166 167
166 166 167
166 166 167
166 166 167
166 166 167
166 166 167
166 166 167
166 166 167
166 166 167
166 166 167
166 166 167
166 166 167
166 166 167
166 166 167
166 166 167
166 166 167
166 166 167
166 166 167
166 166 167
166 166 167
166 166 167
166 166 167
166 166 167
166 166 167
166 166 167
166 166 167
166 166 167
166 166 167
166 166 167
166 166 167
166 166 167
166 166 167
166 166 167
166 166 167
166 166 167
166 166 167
166 166 167
166 166 167
166 166 167
166 166 167
166 166 167
166 166 167
166 166 167
166 166 167
166 166 167
166 166 167
166 166 167
166 166 167
166 166 167
166 166 167
166 166 167
166 166 167
166 166 167
166 166 167
166 166 167
166 166 167
166 166 167
166 166 167
166 166 167
166 166 167
166 166 167
166 166 167
166 166 167
166 166 167
166 167 167
166 166 167
166 166 167
166 166 167
166 166 167
166 166 167
166 166 167
166 166 167
166 166 167
166 166 167
166 166 167
166 166 167
166 166 167
166 166 167
166 166 167
166 166 167
166 166 167
166 166 167
166 166 167
166 166 167
166 166 167
166 166 167
166 166 167
166 166 167
166 166 167
166 166 167
166 166 167
166 166 167
166 166 167
166 166 167
166 166 167
166 166 167
166 166 167
166 166 167
166 166 167
166 166 167
166 166 167
166 166 167
166 166 167
166 166 167
166 166 167
166 166 167
166 166 167
166 166 167
166 166 167
166 166 167
166 166 167
166 166 167
166 166 167
166 166 167
166 166 167
166 166 167
166 166 167
166 166 167
166 166 167
166 166 167
166 166 167
166 166 167
166 166 167
166 166 167
166 166 167
166 166 167
166 166 167
166 166 167
166 166 167
166 166 167
166 166 167
166 166 167
166 166 167
166 166 167
166 166 167
166 166 167
166 166 167
166 166 167
166 166 167
166 166 167
166 166 167
166 166 167
166 166 167
166 166 167
166 166 167
166 166 167
166 166 167
166 166 167
166 166 167
166 166 167
166 166 167
166 166 167
166 166 167
166 166 167
166 166 167
166 166 167
166 166 167
166 166 167
166 166 167
166 166 167
166 166 167
166 166 167
166 166 167
166 166 167
166 166 167
166 166 167
166 166 167
166 166 167
166 166 167
166 166 167
166 166 167
166 166 167
166 166 167
166 166 167
166 166 167
166 166 167
166 166 167
166 166 167
166 166 167
166 166 167
166 166 167
166 166 167
166 166 167
166 166 167
166 166 167
166 166 167
166 166 167
166 166 167
166 166 167
166 166 167
166 166 167
166 166 167
166 166 167
166 166 167
166 166 167
166 166 167
166 166 167
166 166 167
166 166 167
166 166 167
166 166 167
166 166 167
166 166 167
166 166 167
166 166 167
166 166 167
166 166 167
166 166 167
166 166 167
166 166 167
166 166 167
166 166 167
166 166 167
166 166 167
166 166 167
166 166 167
166 166 167
166 166 167
166 166 167
166 166 167
166 166 167
166 166 167
166 166 167
166 166 167
166 166 167
166 166 167
166 166 167
166 166 167
166 166 167
166 166 167
166 166 167
166 166 167
166 166 167
166 166 167
166 166 167
166 166 167
166 166 167
166 166 167
166 166 167
166 166 167
166 166 167
166 166 167
166 166 167
166 166 167
166 166 167
166 166 167
166 166 167
166 166 167
166 166 167
166 166 167
166 166 167
166 166 167
166 166 167
166 166 167
166 166 167
166 166 167
166 166 167
166 166 167
166 166 167
166 166 167
166 166 167
166 166 167
166 166 167
166 166 167
166 166 167
166 166 167
166 166 167
166 166 167
166 166 167
166 166 167
166 166 167
166 166 167
166 166 167
166 166 167
166 166 167
166 166 167
166 166 167
166 166 167
166 166 167
166 166 167
166 166 167
166 166 167
166 166 167
166 166 167
166 166 167
166 166 167
166 166 167
166 166 167
166 166 167
166 166 167
166 166 167
166 166 167
166 166 167
166 166 167
166 166 167
166 166 167
166 166 167
166 166 167
166 166 167
166 166 167
166 166 167
166 166 167
166 166 167
166 166 167
166 166 167
166 166 167
166 166 167
166 166 167
166 166 167
166 166 167
166 166 167
166 166 167
166 166 167
166 166 167
166 166 167
166 166 167
166 166 167
166 166 167
166 166 167
166 166 167
166 167 167
166 167 167
166 167 167
166 166 167
166 166 167
166 166 167
166 166 167
166 166 167
166 166 167
166 166 167
166 166 167
166 166 167
166 166 167
166 166 167
166 166 167
166 166 167
166 166 167
166 166 167
166 166 167
166 166 167
166 166 167
166 166 167
166 166 167
166 166 167
166 166 167
166 166 167
166 166 167
166 166 167
166 166 167
166 166 167
166 166 167
166 166 167
166 166 167
166 166 167
166 166 167
166 166 167
166 166 167
166 166 167
166 166 167
166 166 167
166 166 167
166 166 167
166 166 167
166 166 167
166 166 167
166 166 167
166 166 167
166 166 167
166 166 167
166 166 167
166 166 167
166 166 167
166 166 167
166 166 167
166 166 167
166 166 167
166 166 167
166 166 167
166 166 167
166 166 167
166 166 167
166 166 167
166 166 167
166 166 167
166 166 167
166 166 167
166 166 167
166 166 167
166 166 167
166 166 167
166 166 167
166 166 167
166 166 167
166 166 167
166 166 167
166 166 167
166 166 167
166 166 167
166 166 167
166 166 167
166 166 167
166 166 167
166 166 167
166 166 167
166 166 167
166 166 167
166 166 167
166 166 167
166 166 167
166 166 167
166 166 167
166 166 167
166 166 167
166 166 167
166 166 167
166 166 167
166 166 167
166 166 167
166 166 167
166 166 167
166 166 167
166 166 167
166 166 167
166 166 167
166 166 167
166 166 167
166 166 167
166 166 167
166 166 167
166 166 167
166 166 167
166 166 167
166 166 167
166 166 167
166 166 167
166 166 167
166 166 167
166 166 167
166 166 167
166 166 167
166 166 167
166 166 167
166 166 167
166 166 167
166 166 167
166 166 167
166 166 167
166 166 167
166 166 167
166 166 167
166 166 167
166 166 167
166 166 167
166 166 167
166 166 167
166 166 167
166 166 167
166 166 167
166 166 167
166 166 167
166 166 167
166 166 167
166 166 167
166 166 167
166 166 167
166 166 167
166 166 167
166 166 167
166 166 167
166 166 167
166 166 167
166 166 167
166 166 167
166 166 167
166 166 167
166 166 167
166 166 167
166 166 167
166 166 167
166 166 167
166 166 167
166 166 167
166 166 167
166 166 167
166 166 167
166 166 167
166 166 167
166 166 167
166 166 167
166 166 167
166 166 167
166 166 167
166 166 167
166 166 167
166 166 167
166 166 167
166 166 167
166 166 167
166 166 167
166 166 167
166 166 167
166 166 167
166 166 167
166 166 167
166 166 167
166 166 167
166 166 167
166 166 167
166 166 167
166 166 167
166 166 167
166 166 167
166 166 167
166 166 167
166 166 167
166 166 167
166 166 167
166 166 167
166 166 167
166 166 167
166 166 167
166 166 167
166 166 167
166 166 167
166 166 167
166 166 167
166 166 167
166 166 167
166 166 167
166 166 167
166 166 167
166 166 167
166 166 167
166 166 167
166 166 167
166 166 167
166 166 167
166 166 167
166 166 167
166 166 167
166 166 167
166 166 167
166 166 167
166 166 167
166 166 167
166 166 167
166 166 167
166 166 167
166 166 167
166 166 167
166 166 167
166 166 167
166 166 167
166 166 167
166 166 167
166 166 167
166 166 167
166 166 167
166 166 167
166 166 167
166 166 167
166 166 167
166 166 167
166 166 167
166 166 167
166 166 167
166 166 167
166 166 167
166 166 167
166 166 167
166 166 167
166 166 167
166 166 167
166 166 167
166 166 167
166 166 167
166 167 167
166 167 167
166 167 167
166 167 167
166 166 167
166 166 167
166 166 167
166 166 167
166 166 167
166 166 167
166 166 167
166 166 167
166 166 167
166 166 167
166 166 167
166 166 167
166 166 167
166 166 167
166 166 167
166 166 167
166 166 167
166 166 167
166 166 167
166 166 167
166 166 167
166 166 167
166 166 167
166 166 167
166 166 167
166 166 167
166 166 167
166 166 167
166 166 167
166 166 167
166 166 167
166 166 167
166 166 167
166 166 167
166 166 167
166 166 167
166 166 167
166 166 167
166 166 167
166 166 167
166 166 167
166 166 167
166 166 167
166 166 167
166 166 167
166 166 167
166 166 167
166 166 167
166 166 167
166 166 167
166 166 167
166 166 167
166 166 167
166 166 167
166 166 167
166 166 167
166 166 167
166 166 167
166 166 167
166 166 167
166 166 167
166 166 167
166 166 167
166 166 167
166 166 167
166 166 167
166 166 167
166 166 167
166 166 167
166 166 167
166 166 167
166 166 167
166 166 167
166 166 167
166 166 167
166 166 167
166 166 167
166 166 167
166 166 167
166 166 167
166 166 167
166 166 167
166 166 167
166 166 167
166 166 167
166 166 167
166 166 167
166 166 167
166 166 167
166 166 167
166 166 167
166 166 167
166 166 167
166 166 167
166 166 167
166 166 167
166 166 167
166 166 167
166 166 167
166 166 167
166 166 167
166 166 167
166 166 167
166 166 167
166 166 167
166 166 167
166 166 167
166 166 167
166 166 167
166 166 167
166 166 167
166 166 167
166 166 167
166 166 167
166 166 167
166 166 167
166 166 167
166 166 167
166 166 167
166 166 167
166 166 167
166 166 167
166 166 167
166 166 167
166 166 167
166 166 167
166 166 167
166 166 167
166 166 167
166 166 167
166 166 167
166 166 167
166 166 167
166 166 167
166 166 167
166 166 167
166 166 167
166 166 167
166 166 167
166 166 167
166 166 167
166 166 167
166 166 167
166 166 167
166 166 167
166 166 167
166 166 167
166 166 167
166 166 167
166 166 167
166 166 167
166 166 167
166 166 167
166 166 167
166 166 167
166 166 167
166 166 167
166 166 167
166 166 167
166 166 167
166 166 167
166 166 167
166 166 167
166 166 167
166 166 167
166 166 167
166 166 167
166 166 167
166 166 167
166 166 167
166 166 167
166 166 167
166 166 167
166 166 167
166 166 167
166 166 167
166 166 167
166 166 167
166 166 167
166 166 167
166 166 167
166 166 167
166 166 167
166 166 167
166 166 167
166 166 167
166 166 167
166 166 167
166 166 167
166 166 167
166 166 167
166 166 167
166 166 167
166 166 167
166 166 167
166 166 167
166 166 167
166 166 167
166 166 167
166 166 167
166 166 167
166 166 167
166 166 167
166 166 167
166 166 167
166 166 167
166 166 167
166 166 167
166 166 167
166 166 167
166 166 167
166 166 167
166 166 167
166 166 167
166 166 167
166 166 167
166 166 167
166 166 167
166 166 167
166 166 167
166 166 167
166 166 167
166 166 167
166 166 167
166 166 167
166 166 167
166 166 167
166 166 167
166 166 167
166 166 167
166 166 167
166 166 167
166 166 167
166 166 167
166 166 167
166 166 167
166 166 167
166 166 167
166 166 167
166 166 167
166 166 167
166 166 167
166 166 167
166 166 167
166 166 167
166 166 167
166 166 167
166 166 167
166 166 167
166 166 167
166 166 167
166 166 167
166 167 167
166 167 167
166 167 167
166 167 167
166 167 167
166 167 167
166 167 167
166 167 167
166 166 167
166 166 167
166 166 167
166 166 167
166 166 167
166 166 167
166 166 167
166 166 167
166 166 167
166 166 167
166 166 167
166 166 167
166 166 167
166 166 167
166 166 167
166 166 167
166 166 167
166 166 167
166 166 167
166 166 167
166 166 167
166 166 167
166 166 167
166 166 167
166 166 167
166 166 167
166 166 167
166 166 167
166 166 167
166 166 167
166 166 167
166 166 167
166 166 167
166 166 167
166 166 167
166 166 167
166 166 167
166 166 167
166 166 167
166 166 167
166 166 167
166 166 167
166 166 167
166 166 167
166 166 167
166 166 167
166 166 167
166 166 167
166 166 167
166 166 167
166 166 167
166 166 167
166 166 167
166 166 167
166 166 167
166 166 167
166 166 167
166 166 167
166 166 167
166 166 167
166 166 167
166 166 167
166 166 167
166 166 167
166 166 167
166 166 167
166 166 167
166 166 167
166 166 167
166 166 167
166 166 167
166 166 167
166 166 167
166 166 167
166 166 167
166 166 167
166 166 167
166 166 167
166 166 167
166 166 167
166 166 167
166 166 167
166 166 167
166 166 167
166 166 167
166 166 167
166 166 167
166 166 167
166 166 167
166 166 167
166 166 167
166 166 167
166 166 167
166 166 167
166 166 167
166 166 167
166 166 167
166 166 167
166 166 167
166 166 167
166 166 167
166 166 167
166 166 167
166 166 167
166 166 167
166 166 167
166 166 167
166 166 167
166 166 167
166 166 167
166 166 167
166 166 167
166 166 167
166 166 167
166 166 167
166 166 167
166 166 167
166 166 167
166 166 167
166 166 167
166 166 167
166 166 167
166 166 167
166 166 167
166 166 167
166 166 167
166 166 167
166 166 167
166 166 167
166 166 167
166 166 167
166 166 167
166 166 167
166 166 167
166 166 167
166 166 167
166 166 167
166 166 167
166 166 167
166 166 167
166 166 167
166 166 167
166 166 167
166 166 167
166 166 167
166 166 167
166 166 167
166 166 167
166 166 167
166 166 167
166 166 167
166 166 167
166 166 167
166 166 167
166 166 167
166 166 167
166 166 167
166 166 167
166 166 167
166 166 167
166 166 167
166 166 167
166 166 167
166 166 167
166 166 167
166 166 167
166 166 167
166 166 167
166 166 167
166 166 167
166 166 167
166 166 167
166 166 167
166 166 167
166 166 167
166 166 167
166 166 167
166 166 167
166 166 167
166 166 167
166 166 167
166 166 167
166 166 167
166 166 167
166 166 167
166 166 167
166 166 167
166 166 167
166 166 167
166 166 167
166 166 167
166 166 167
166 166 167
166 166 167
166 166 167
166 166 167
166 166 167
166 166 167
166 166 167
166 166 167
166 166 167
166 166 167
166 166 167
166 166 167
166 166 167
166 166 167
166 166 167
166 166 167
166 166 167
166 166 167
166 166 167
166 166 167
166 166 167
166 166 167
166 166 167
166 166 167
166 166 167
166 166 167
166 166 167
166 166 167
166 166 167
166 166 167
166 166 167
166 166 167
166 166 167
166 166 167
166 166 167
166 166 167
166 166 167
166 166 167
166 166 167
166 166 167
166 166 167
166 166 167
166 166 167
166 166 167
166 166 167
166 166 167
166 166 167
166 166 167
166 166 167
166 166 167
166 166 167
166 166 167
166 166 167
166 166 167
166 167 167
166 167 167
166 167 167
166 167 167
166 167 167
166 167 167
166 167 167
166 167 167
166 167 167
166 167 167
166 167 167
166 167 167
166 167 167
166 166 167
166 166 167
166 166 167
166 166 167
166 166 167
166 166 167
166 166 167
166 166 167
166 166 167
166 166 167
166 166 167
166 166 167
166 166 167
166 166 167
166 166 167
166 166 167
166 166 167
166 166 167
166 166 167
166 166 167
166 166 167
166 166 167
166 166 167
166 166 167
166 166 167
166 166 167
166 166 167
166 166 167
166 166 167
166 166 167
166 166 167
166 166 167
166 166 167
166 166 167
166 166 167
166 166 167
166 166 167
166 166 167
166 166 167
166 166 167
166 166 167
166 166 167
166 166 167
166 166 167
166 166 167
166 166 167
166 166 167
166 166 167
166 166 167
166 166 167
166 166 167
166 166 167
166 166 167
166 166 167
166 166 167
166 166 167
166 166 167
166 166 167
166 166 167
166 166 167
166 166 167
166 166 167
166 166 167
166 166 167
166 166 167
166 166 167
166 166 167
166 166 167
166 166 167
166 166 167
166 166 167
166 166 167
166 166 167
166 166 167
166 166 167
166 166 167
166 166 167
166 166 167
166 166 167
166 166 167
166 166 167
166 166 167
166 166 167
166 166 167
166 166 167
166 166 167
166 166 167
166 166 167
166 166 167
166 166 167
166 166 167
166 166 167
166 166 167
166 166 167
166 166 167
166 166 167
166 166 167
166 166 167
166 166 167
166 166 167
166 166 167
166 166 167
166 166 167
166 166 167
166 166 167
166 166 167
166 166 167
166 166 167
166 166 167
166 166 167
166 166 167
166 166 167
166 166 167
166 166 167
166 166 167
166 166 167
166 166 167
166 166 167
166 166 167
166 166 167
166 166 167
166 166 167
166 166 167
166 166 167
166 166 167
166 166 167
166 166 167
166 166 167
166 166 167
166 166 167
166 166 167
166 166 167
166 166 167
166 166 167
166 166 167
166 166 167
166 166 167
166 166 167
166 166 167
166 166 167
166 166 167
166 166 167
166 166 167
166 166 167
166 166 167
166 166 167
166 166 167
166 166 167
166 166 167
166 166 167
166 166 167
166 166 167
166 166 167
166 166 167
166 166 167
166 166 167
166 166 167
166 166 167
166 166 167
166 166 167
166 166 167
166 166 167
166 166 167
166 166 167
166 166 167
166 166 167
166 166 167
166 166 167
166 166 167
166 166 167
166 166 167
166 166 167
166 166 167
166 166 167
166 166 167
166 166 167
166 166 167
166 166 167
166 166 167
166 166 167
166 166 167
166 166 167
166 166 167
166 166 167
166 166 167
166 166 167
166 166 167
166 166 167
166 166 167
166 166 167
166 166 167
166 166 167
166 166 167
166 166 167
166 166 167
166 166 167
166 166 167
166 166 167
166 166 167
166 166 167
166 166 167
166 166 167
166 166 167
166 166 167
166 166 167
166 166 167
166 166 167
166 166 167
166 166 167
166 166 167
166 166 167
166 166 167
166 166 167
166 166 167
166 166 167
166 166 167
166 166 167
166 166 167
166 166 167
166 166 167
166 166 167
166 166 167
166 166 167
166 166 167
166 166 167
166 166 167
166 166 167
166 166 167
166 166 167
166 166 167
166 166 167
166 166 167
166 166 167
166 166 167
166 166 167
166 166 167
166 166 167
166 166 167
166 166 167
166 166 167
166 167 167
166 167 167
166 167 167
166 167 167
166 167 167
166 167 167
166 167 167
166 167 167
166 167 167
166 167 167
166 167 167
166 167 167
166 167 167
166 167 167
166 167 167
166 167 167
166 167 167
166 167 167
166 167 167
166 166 167
166 166 167
166 166 167
166 166 167
166 166 167
166 166 167
166 166 167
166 166 167
166 166 167
166 166 167
166 166 167
166 166 167
166 166 167
166 166 167
166 166 167
166 166 167
166 166 167
166 166 167
166 166 167
166 166 167
166 166 167
166 166 167
166 166 167
166 166 167
166 166 167
166 166 167
166 166 167
166 166 167
166 166 167
166 166 167
166 166 167
166 166 167
166 166 167
166 166 167
166 166 167
166 166 167
166 166 167
166 166 167
166 166 167
166 166 167
166 166 167
166 166 167
166 166 167
166 166 167
166 166 167
166 166 167
166 166 167
166 166 167
166 166 167
166 166 167
166 166 167
166 166 167
166 166 167
166 166 167
166 166 167
166 166 167
166 166 167
166 166 167
166 166 167
166 166 167
166 166 167
166 166 167
166 166 167
166 166 167
166 166 167
166 166 167
166 166 167
166 166 167
166 166 167
166 166 167
166 166 167
166 166 167
166 166 167
166 166 167
166 166 167
166 166 167
166 166 167
166 166 167
166 166 167
166 166 167
166 166 167
166 166 167
166 166 167
166 166 167
166 166 167
166 166 167
166 166 167
166 166 167
166 166 167
166 166 167
166 166 167
166 166 167
166 166 167
166 166 167
166 166 167
166 166 167
166 166 167
166 166 167
166 166 167
166 166 167
166 166 167
166 166 167
166 166 167
166 166 167
166 166 167
166 166 167
166 166 167
166 166 167
166 166 167
166 166 167
166 166 167
166 166 167
166 166 167
166 166 167
166 166 167
166 166 167
166 166 167
166 166 167
166 166 167
166 166 167
166 166 167
166 166 167
166 166 167
166 166 167
166 166 167
166 166 167
166 166 167
166 166 167
166 166 167
166 166 167
166 166 167
166 166 167
166 166 167
166 166 167
166 166 167
166 166 167
166 166 167
166 166 167
166 166 167
166 166 167
166 166 167
166 166 167
166 166 167
166 166 167
166 166 167
166 166 167
166 166 167
166 166 167
166 166 167
166 166 167
166 166 167
166 166 167
166 166 167
166 166 167
166 166 167
166 166 167
166 166 167
166 166 167
166 166 167
166 166 167
166 166 167
166 166 167
166 166 167
166 166 167
166 166 167
166 166 167
166 166 167
166 166 167
166 166 167
166 166 167
166 166 167
166 166 167
166 166 167
166 166 167
166 166 167
166 166 167
166 166 167
166 166 167
166 166 167
166 166 167
166 166 167
166 166 167
166 166 167
166 166 167
166 166 167
166 166 167
166 166 167
166 166 167
166 166 167
166 166 167
166 166 167
166 166 167
166 166 167
166 166 167
166 166 167
166 166 167
166 166 167
166 166 167
166 166 167
166 166 167
166 166 167
166 166 167
166 166 167
166 166 167
166 166 167
166 166 167
166 166 167
166 166 167
166 166 167
166 166 167
166 166 167
166 166 167
166 166 167
166 166 167
166 166 167
166 166 167
166 166 167
166 166 167
166 166 167
166 166 167
166 166 167
166 166 167
166 166 167
166 166 167
166 166 167
166 166 167
166 166 167
166 166 167
166 166 167
166 166 167
166 166 167
166 166 167
166 166 167
166 166 167
166 166 167
166 167 167
166 166 167
166 167 167
166 167 167
166 167 167
166 167 167
166 167 167
166 167 167
166 167 167
166 167 167
166 167 167
166 167 167
166 167 167
166 167 167
166 167 167
166 167 167
166 167 167
166 167 167
166 167 167
166 167 167
166 167 167
166 167 167
166 167 167
166 167 167
166 167 167
166 166 167
166 166 167
166 166 167
166 166 167
166 166 167
166 166 167
166 166 167
166 166 167
166 166 167
166 166 167
166 166 167
166 166 167
166 166 167
166 166 167
166 166 167
166 166 167
166 166 167
166 166 167
166 166 167
166 166 167
166 166 167
166 166 167
166 166 167
166 166 167
166 166 167
166 166 167
166 166 167
166 166 167
166 166 167
166 166 167
166 166 167
166 166 167
166 166 167
166 166 167
166 166 167
166 166 167
166 166 167
166 166 167
166 166 167
166 166 167
166 166 167
166 166 167
166 166 167
166 166 167
166 166 167
166 166 167
166 166 167
166 166 167
166 166 167
166 166 167
166 166 167
166 166 167
166 166 167
166 166 167
166 166 167
166 166 167
166 166 167
166 166 167
166 166 167
166 166 167
166 166 167
166 166 167
166 166 167
166 166 167
166 166 167
166 166 167
166 166 167
166 166 167
166 166 167
166 166 167
166 166 167
166 166 167
166 166 167
166 166 167
166 166 167
166 166 167
166 166 167
166 166 167
166 166 167
166 166 167
166 166 167
166 166 167
166 166 167
166 166 167
166 166 167
166 166 167
166 166 167
166 166 167
166 166 167
166 166 167
166 166 167
166 166 167
166 166 167
166 166 167
166 166 167
166 166 167
166 166 167
166 166 167
166 166 167
166 166 167
166 166 167
166 166 167
166 166 167
166 166 167
166 166 167
166 166 167
166 166 167
166 166 167
166 166 167
166 166 167
166 166 167
166 166 167
166 166 167
166 166 167
166 166 167
166 166 167
166 166 167
166 166 167
166 166 167
166 166 167
166 166 167
166 166 167
166 166 167
166 166 167
166 166 167
166 166 167
166 166 167
166 166 167
166 166 167
166 166 167
166 166 167
166 166 167
166 166 167
166 166 167
166 166 167
166 166 167
166 166 167
166 166 167
166 166 167
166 166 167
166 166 167
166 166 167
166 166 167
166 166 167
166 166 167
166 166 167
166 166 167
166 166 167
166 166 167
166 166 167
166 166 167
166 166 167
166 166 167
166 166 167
166 166 167
166 166 167
166 166 167
166 166 167
166 166 167
166 166 167
166 166 167
166 166 167
166 166 167
166 166 167
166 166 167
166 166 167
166 166 167
166 166 167
166 166 167
166 166 167
166 166 167
166 166 167
166 166 167
166 166 167
166 166 167
166 166 167
166 166 167
166 166 167
166 166 167
166 166 167
166 166 167
166 166 167
166 166 167
166 166 167
166 166 167
166 166 167
166 166 167
166 166 167
166 166 167
166 166 167
166 166 167
166 166 167
166 166 167
166 166 167
166 166 167
166 166 167
166 166 167
166 166 167
166 166 167
166 166 167
166 166 167
166 166 167
166 166 167
166 166 167
166 166 167
166 166 167
166 166 167
166 166 167
166 166 167
166 166 167
166 166 167
166 166 167
166 166 167
166 166 167
166 166 167
166 166 167
166 166 167
166 166 167
166 166 167
166 166 167
166 166 167
166 166 167
166 166 167
166 166 167
166 166 167
166 166 167
166 166 167
166 166 167
166 166 167
166 166 167
166 167 167
166 167 167
166 167 167
166 167 167
166 167 167
166 167 167
166 167 167
166 167 167
166 167 167
166 167 167
166 167 167
166 167 167
166 167 167
166 167 167
166 167 167
166 167 167
166 167 167
166 167 167
166 167 167
166 167 167
166 167 167
166 167 167
166 167 167
166 167 167
166 167 167
166 167 167
166 167 167
166 167 167
166 167 167
166 167 167
166 166 167
166 166 167
166 166 167
166 166 167
166 166 167
166 166 167
166 166 167
166 166 167
166 166 167
166 166 167
166 166 167
166 166 167
166 166 167
166 166 167
166 166 167
166 166 167
166 166 167
166 166 167
166 166 167
166 166 167
166 166 167
166 166 167
166 166 167
166 166 167
166 166 167
166 166 167
166 166 167
166 166 167
166 166 167
166 166 167
166 166 167
166 166 167
166 166 167
166 166 167
166 166 167
166 166 167
166 166 167
166 166 167
166 166 167
166 166 167
166 166 167
166 166 167
166 166 167
166 166 167
166 166 167
166 166 167
166 166 167
166 166 167
166 166 167
166 166 167
166 166 167
166 166 167
166 166 167
166 166 167
166 166 167
166 166 167
166 166 167
166 166 167
166 166 167
166 166 167
166 166 167
166 166 167
166 166 167
166 166 167
166 166 167
166 166 167
166 166 167
166 166 167
166 166 167
166 166 167
166 166 167
166 166 167
166 166 167
166 166 167
166 166 167
166 166 167
166 166 167
166 166 167
166 166 167
166 166 167
166 166 167
166 166 167
166 166 167
166 166 167
166 166 167
166 166 167
166 166 167
166 166 167
166 166 167
166 166 167
166 166 167
166 166 167
166 166 167
166 166 167
166 166 167
166 166 167
166 166 167
166 166 167
166 166 167
166 166 167
166 166 167
166 166 167
166 166 167
166 166 167
166 166 167
166 166 167
166 166 167
166 166 167
166 166 167
166 166 167
166 166 167
166 166 167
166 166 167
166 166 167
166 166 167
166 166 167
166 166 167
166 166 167
166 166 167
166 166 167
166 166 167
166 166 167
166 166 167
166 166 167
166 166 167
166 166 167
166 166 167
166 166 167
166 166 167
166 166 167
166 166 167
166 166 167
166 166 167
166 166 167
166 166 167
166 166 167
166 166 167
166 166 167
166 166 167
166 166 167
166 166 167
166 166 167
166 166 167
166 166 167
166 166 167
166 166 167
166 166 167
166 166 167
166 166 167
166 166 167
166 166 167
166 166 167
166 166 167
166 166 167
166 166 167
166 166 167
166 166 167
166 166 167
166 166 167
166 166 167
166 166 167
166 166 167
166 166 167
166 166 167
166 166 167
166 166 167
166 166 167
166 166 167
166 166 167
166 166 167
166 166 167
166 166 167
166 166 167
166 166 167
166 166 167
166 166 167
166 166 167
166 166 167
166 166 167
166 166 167
166 166 167
166 166 167
166 166 167
166 166 167
166 166 167
166 166 167
166 166 167
166 166 167
166 166 167
166 166 167
166 166 167
166 166 167
166 166 167
166 166 167
166 166 167
166 166 167
166 166 167
166 166 167
166 166 167
166 166 167
166 166 167
166 166 167
166 166 167
166 166 167
166 166 167
166 166 167
166 166 167
166 166 167
166 166 167
166 166 167
166 166 167
166 166 167
166 166 167
166 166 167
166 166 167
166 166 167
166 166 167
166 166 167
166 166 167
166 167 167
166 166 167
166 166 167
166 166 167
166 167 167
166 167 167
166 167 167
166 167 167
166 167 167
166 167 167
166 167 167
166 167 167
166 167 167
166 167 167
166 167 167
166 167 167
166 167 167
166 167 167
166 167 167
166 167 167
166 167 167
166 167 167
166 167 167
166 167 167
166 167 167
166 167 167
166 167 167
166 167 167
166 167 167
166 167 167
166 167 167
166 167 167
166 167 167
166 167 167
166 167 167
166 167 167
166 167 167
166 167 167
166 167 167
166 167 167
166 167 167
166 167 167
166 167 167
166 167 167
166 166 167
166 166 167
166 166 167
166 166 167
166 166 167
166 166 167
166 166 167
166 166 167
166 166 167
166 166 167
166 166 167
166 166 167
166 166 167
166 166 167
166 166 167
166 166 167
166 166 167
166 166 167
166 166 167
166 166 167
166 166 167
166 166 167
166 166 167
166 166 167
166 166 167
166 166 167
166 166 167
166 166 167
166 166 167
166 166 167
166 166 167
166 166 167
166 166 167
166 166 167
166 166 167
166 166 167
166 166 167
166 166 167
166 166 167
166 166 167
166 166 167
166 166 167
166 166 167
166 166 167
166 166 167
166 166 167
166 166 167
166 166 167
166 166 167
166 166 167
166 166 167
166 166 167
166 166 167
166 166 167
166 166 167
166 166 167
166 166 167
166 166 167
166 166 167
166 166 167
166 166 167
166 166 167
166 166 167
166 166 167
166 166 167
166 166 167
166 166 167
166 166 167
166 166 167
166 166 167
166 166 167
166 166 167
166 166 167
166 166 167
166 166 167
166 166 167
166 166 167
166 166 167
166 166 167
166 166 167
166 166 167
166 166 167
166 166 167
166 166 167
166 166 167
166 166 167
166 166 167
166 166 167
166 166 167
166 166 167
166 166 167
166 166 167
166 166 167
166 166 167
166 166 167
166 166 167
166 166 167
166 166 167
166 166 167
166 166 167
166 166 167
166 166 167
166 166 167
166 166 167
166 166 167
166 166 167
166 166 167
166 166 167
166 166 167
166 166 167
166 166 167
166 166 167
166 166 167
166 166 167
166 166 167
166 166 167
166 166 167
166 166 167
166 166 167
166 166 167
166 166 167
166 166 167
166 166 167
166 166 167
166 166 167
166 166 167
166 166 167
166 166 167
166 166 167
166 166 167
166 166 167
166 166 167
166 166 167
166 166 167
166 166 167
166 166 167
166 166 167
166 166 167
166 166 167
166 166 167
166 166 167
166 166 167
166 166 167
166 166 167
166 166 167
166 166 167
166 166 167
166 166 167
166 166 167
166 166 167
166 166 167
166 166 167
166 166 167
166 166 167
166 166 167
166 166 167
166 166 167
166 166 167
166 166 167
166 166 167
166 166 167
166 166 167
166 166 167
166 166 167
166 166 167
166 166 167
166 166 167
166 166 167
166 166 167
166 166 167
166 166 167
166 166 167
166 166 167
166 166 167
166 166 167
166 166 167
166 166 167
166 166 167
166 166 167
166 166 167
166 166 167
166 166 167
166 166 167
166 166 167
166 166 167
166 166 167
166 166 167
166 166 167
166 166 167
166 166 167
166 166 167
166 166 167
166 166 167
166 166 167
166 166 167
166 166 167
166 166 167
166 166 167
166 166 167
166 166 167
166 166 167
166 166 167
166 166 167
166 166 167
166 166 167
166 166 167
166 166 167
166 166 167
166 166 167
166 167 167
166 167 167
166 166 167
166 167 167
166 167 167
166 167 167
166 167 167
166 167 167
166 167 167
166 167 167
166 167 167
166 167 167
166 167 167
166 167 167
166 167 167
166 167 167
166 167 167
166 167 167
166 167 167
166 167 167
166 167 167
166 167 167
166 167 167
166 167 167
166 167 167
166 167 167
166 167 167
166 167 167
166 167 167
166 167 167
166 167 167
166 167 167
166 167 167
166 167 167
166 167 167
166 167 167
166 167 167
166 167 167
166 167 167
166 167 167
166 167 167
166 167 167
166 167 167
166 167 167
166 167 167
166 167 167
166 167 167
166 167 167
166 167 167
166 167 167
166 167 167
166 167 167
166 166 167
166 167 167
166 166 167
166 166 167
166 166 167
166 166 167
166 166 167
166 166 167
166 166 167
166 166 167
166 166 167
166 166 167
166 166 167
166 166 167
166 166 167
166 166 167
166 166 167
166 166 167
166 166 167
166 166 167
166 166 167
166 166 167
166 166 167
166 166 167
166 166 167
166 166 167
166 166 167
166 166 167
166 166 167
166 166 167
166 166 167
166 166 167
166 166 167
166 166 167
166 166 167
166 166 167
166 166 167
166 166 167
166 166 167
166 166 167
166 166 167
166 166 167
166 166 167
166 166 167
166 166 167
166 166 167
166 166 167
166 166 167
166 166 167
166 166 167
166 166 167
166 166 167
166 166 167
166 166 167
166 166 167
166 166 167
166 166 167
166 166 167
166 166 167
166 166 167
166 166 167
166 166 167
166 166 167
166 166 167
166 166 167
166 166 167
166 166 167
166 166 167
166 166 167
166 166 167
166 166 167
166 166 167
166 166 167
166 166 167
166 166 167
166 166 167
166 166 167
166 166 167
166 166 167
166 166 167
166 166 167
166 166 167
166 166 167
166 166 167
166 166 167
166 166 167
166 166 167
166 166 167
166 166 167
166 166 167
166 166 167
166 166 167
166 166 167
166 166 167
166 166 167
166 166 167
166 166 167
166 166 167
166 166 167
166 166 167
166 166 167
166 166 167
166 166 167
166 166 167
166 166 167
166 166 167
166 166 167
166 166 167
166 166 167
166 166 167
166 166 167
166 166 167
166 166 167
166 166 167
166 166 167
166 166 167
166 166 167
166 166 167
166 166 167
166 166 167
166 166 167
166 166 167
166 166 167
166 166 167
166 166 167
166 166 167
166 166 167
166 166 167
166 166 167
166 166 167
166 166 167
166 166 167
166 166 167
166 166 167
166 166 167
166 166 167
166 166 167
166 166 167
166 166 167
166 166 167
166 166 167
166 166 167
166 166 167
166 166 167
166 166 167
166 166 167
166 166 167
166 166 167
166 166 167
166 166 167
166 166 167
166 166 167
166 166 167
166 166 167
166 166 167
166 166 167
166 166 167
166 166 167
166 166 167
166 166 167
166 166 167
166 166 167
166 166 167
166 166 167
166 166 167
166 166 167
166 166 167
166 166 167
166 166 167
166 166 167
166 166 167
166 166 167
166 166 167
166 166 167
166 166 167
166 166 167
166 166 167
166 166 167
166 166 167
166 166 167
166 166 167
166 166 167
166 166 167
166 166 167
166 166 167
166 166 167
166 166 167
166 166 167
166 166 167
166 166 167
166 166 167
166 166 167
166 166 167
166 166 167
166 166 167
166 166 167
166 166 167
166 166 167
166 166 167
166 166 167
166 166 167
166 167 167
166 167 167
166 167 167
166 167 167
166 167 167
166 167 167
166 167 167
166 167 167
166 167 167
166 167 167
166 167 167
166 167 167
166 167 167
166 167 167
166 167 167
166 167 167
166 167 167
166 167 167
166 167 167
166 167 167
166 167 167
166 167 167
166 167 167
166 167 167
166 167 167
166 167 167
166 167 167
166 167 167
166 167 167
166 167 167
166 167 167
166 167 167
166 167 167
166 167 167
166 167 167
166 167 167
166 167 167
166 167 167
166 167 167
166 167 167
166 167 167
166 167 167
166 167 167
166 167 167
166 167 167
166 167 167
166 167 167
166 167 167
166 167 167
166 167 167
166 167 167
166 167 167
166 167 167
166 167 167
166 167 167
166 167 167
166 167 167
166 167 167
166 167 167
166 167 167
166 167 167
166 166 167
166 167 167
166 166 167
166 167 167
166 166 167
166 166 167
166 166 167
166 166 167
166 166 167
166 166 167
166 166 167
166 166 167
166 166 167
166 166 167
166 166 167
166 166 167
166 166 167
166 166 167
166 166 167
166 166 167
166 166 167
166 166 167
166 166 167
166 166 167
166 166 167
166 166 167
166 166 167
166 166 167
166 166 167
166 166 167
166 166 167
166 166 167
166 166 167
166 166 167
166 166 167
166 166 167
166 166 167
166 166 167
166 166 167
166 166 167
166 166 167
166 166 167
166 166 167
166 166 167
166 166 167
166 166 167
166 166 167
166 166 167
166 166 167
166 166 167
166 166 167
166 166 167
166 166 167
166 166 167
166 166 167
166 166 167
166 166 167
166 166 167
166 166 167
166 166 167
166 166 167
166 166 167
166 166 167
166 166 167
166 166 167
166 166 167
166 166 167
166 166 167
166 166 167
166 166 167
166 166 167
166 166 167
166 166 167
166 166 167
166 166 167
166 166 167
166 166 167
166 166 167
166 166 167
166 166 167
166 166 167
166 166 167
166 166 167
166 166 167
166 166 167
166 166 167
166 166 167
166 166 167
166 166 167
166 166 167
166 166 167
166 166 167
166 166 167
166 166 167
166 166 167
166 166 167
166 166 167
166 166 167
166 166 167
166 166 167
166 166 167
166 166 167
166 166 167
166 166 167
166 166 167
166 166 167
166 166 167
166 166 167
166 166 167
166 166 167
166 166 167
166 166 167
166 166 167
166 166 167
166 166 167
166 166 167
166 166 167
166 166 167
166 166 167
166 166 167
166 166 167
166 166 167
166 166 167
166 166 167
166 166 167
166 166 167
166 166 167
166 166 167
166 166 167
166 166 167
166 166 167
166 166 167
166 166 167
166 166 167
166 166 167
166 166 167
166 166 167
166 166 167
166 166 167
166 166 167
166 166 167
166 166 167
166 166 167
166 166 167
166 166 167
166 166 167
166 166 167
166 166 167
166 166 167
166 166 167
166 166 167
166 166 167
166 166 167
166 166 167
166 166 167
166 166 167
166 166 167
166 166 167
166 166 167
166 166 167
166 166 167
166 166 167
166 166 167
166 166 167
166 166 167
166 166 167
166 166 167
166 166 167
166 166 167
166 166 167
166 166 167
166 166 167
166 166 167
166 166 167
166 166 167
166 166 167
166 166 167
166 166 167
166 166 167
166 166 167
166 166 167
166 166 167
166 166 167
166 166 167
166 166 167
166 166 167
166 166 167
166 166 167
166 166 167
166 166 167
166 167 167
166 166 167
166 167 167
166 166 167
166 167 167
166 167 167
166 167 167
166 167 167
166 167 167
166 167 167
166 167 167
166 167 167
166 167 167
166 167 167
166 167 167
166 167 167
166 167 167
166 167 167
166 167 167
166 167 167
166 167 167
166 167 167
166 167 167
166 167 167
166 167 167
166 167 167
166 167 167
166 167 167
166 167 167
166 167 167
166 167 167
166 167 167
166 167 167
166 167 167
166 167 167
166 167 167
166 167 167
166 167 167
166 167 167
166 167 167
166 167 167
166 167 167
166 167 167
166 167 167
166 167 167
166 167 167
166 167 167
166 167 167
166 167 167
166 167 167
166 167 167
166 167 167
166 167 167
166 167 167
166 167 167
166 167 167
166 167 167
166 167 167
166 167 167
166 167 167
166 167 167
166 167 167
166 167 167
166 167 167
166 167 167
166 167 167
166 167 167
166 167 167
166 167 167
166 167 167
166 166 167
166 167 167
166 167 167
166 167 167
166 167 167
166 167 167
166 166 167
166 166 167
166 166 167
166 166 167
166 166 167
166 166 167
166 166 167
166 166 167
166 166 167
166 166 167
166 166 167
166 166 167
166 166 167
166 166 167
166 166 167
166 166 167
166 166 167
166 166 167
166 166 167
166 166 167
166 166 167
166 166 167
166 166 167
166 166 167
166 166 167
166 166 167
166 166 167
166 166 167
166 166 167
166 166 167
166 166 167
166 166 167
166 166 167
166 166 167
166 166 167
166 166 167
166 166 167
166 166 167
166 166 167
166 166 167
166 166 167
166 166 167
166 166 167
166 166 167
166 166 167
166 166 167
166 166 167
166 166 167
166 166 167
166 166 167
166 166 167
166 166 167
166 166 167
166 166 167
166 166 167
166 166 167
166 166 167
166 166 167
166 166 167
166 166 167
166 166 167
166 166 167
166 166 167
166 166 167
166 166 167
166 166 167
166 166 167
166 166 167
166 166 167
166 166 167
166 166 167
166 166 167
166 166 167
166 166 167
166 166 167
166 166 167
166 166 167
166 166 167
166 166 167
166 166 167
166 166 167
166 166 167
166 166 167
166 166 167
166 166 167
166 166 167
166 166 167
166 166 167
166 166 167
166 166 167
166 166 167
166 166 167
166 166 167
166 166 167
166 166 167
166 166 167
166 166 167
166 166 167
166 166 167
166 166 167
166 166 167
166 166 167
166 166 167
166 166 167
166 166 167
166 166 167
166 166 167
166 166 167
166 166 167
166 166 167
166 166 167
166 166 167
166 166 167
166 166 167
166 166 167
166 166 167
166 166 167
166 166 167
166 166 167
166 166 167
166 166 167
166 166 167
166 166 167
166 166 167
166 166 167
166 166 167
166 166 167
166 166 167
166 166 167
166 166 167
166 166 167
166 166 167
166 166 167
166 166 167
166 166 167
166 166 167
166 166 167
166 166 167
166 166 167
166 166 167
166 166 167
166 166 167
166 166 167
166 166 167
166 166 167
166 166 167
166 166 167
166 166 167
166 166 167
166 166 167
166 166 167
166 166 167
166 166 167
166 166 167
166 166 167
166 166 167
166 166 167
166 166 167
166 166 167
166 166 167
166 166 167
166 166 167
166 166 167
166 166 167
166 166 167
166 166 167
166 166 167
166 166 167
166 166 167
166 166 167
166 166 167
166 166 167
166 166 167
166 166 167
166 166 167
166 166 167
166 166 167
166 167 167
166 167 167
166 167 167
166 167 167
166 167 167
166 167 167
166 167 167
166 167 167
166 167 167
166 167 167
166 167 167
166 167 167
166 167 167
166 167 167
166 167 167
166 167 167
166 167 167
166 167 167
166 167 167
166 167 167
166 167 167
166 167 167
166 167 167
166 167 167
166 167 167
166 167 167
166 167 167
166 167 167
166 167 167
