P3
# Max error: 1
256 256
255
0 0 0
0 0 0
0 0 0
0 0 0
0 0 0
0 0 0
0 0 0
0 0 0
0 0 0
0 0 0
0 0 0
0 0 0
0 0 0
0 0 0
0 0 0
0 0 0
0 0 0
0 0 0
0 0 0
0 0 0
0 0 0
0 0 0
0 0 0
0 0 0
0 0 0
0 0 0
0 0 0
0 0 0
0 0 0
0 0 0
0 0 0
0 0 0
0 0 0
0 0 0
0 0 0
0 0 0
0 0 0
0 0 0
0 0 0
0 0 0
0 0 0
0 0 0
0 0 0
0 0 0
0 0 0
0 0 0
0 0 0
0 0 0
0 0 0
0 0 0
0 0 0
0 0 0
0 0 0
0 0 0
0 0 0
0 0 0
0 0 0
0 0 0
0 0 0
0 0 0
0 0 0
0 0 0
0 0 0
0 0 0
0 0 0
0 0 0
0 0 0
0 0 0
0 0 0
0 0 0
0 0 0
0 0 0
0 0 0
0 0 0
0 0 0
0 0 0
0 0 0
0 0 0
0 0 0
0 0 0
0 0 0
0 0 0
0 0 0
0 0 0
0 0 0
0 0 0
0 0 0
0 0 0
0 0 0
0 0 0
0 0 0
0 0 0
0 0 0
0 0 0
0 0 0
0 0 0
0 0 0
0 0 0
0 0 0
0 0 0
0 0 0
0 0 0
0 0 0
0 0 0
0 0 0
0 0 0
0 0 0
0 0 0
0 0 0
0 0 0
0 0 0
0 0 0
0 0 0
0 0 0
0 0 0
0 0 0
0 0 0
0 0 0
0 0 0
0 0 0
0 0 0
0 0 0
0 0 0
0 0 0
0 0 0
0 0 0
0 0 0
0 0 0
0 0 0
0 0 0
0 0 0
0 0 0
0 0 0
0 0 0
0 0 0
0 0 0
0 0 0
0 0 0
0 0 0
0 0 0
0 0 0
0 0 0
0 0 0
0 0 0
0 0 0
0 0 0
0 0 0
0 0 0
0 0 0
0 0 0
0 0 0
0 0 0
0 0 0
0 0 0
0 0 0
0 0 0
0 0 0
0 0 0
0 0 0
0 0 0
0 0 0
0 0 0
0 0 0
0 0 0
0 0 0
0 0 0
0 0 0
0 0 0
0 0 0
0 0 0
0 0 0
0 0 0
0 0 0
0 0 0
0 0 0
0 0 0
0 0 0
0 0 0
0 0 0
0 0 0
0 0 0
0 0 0
0 0 0
0 0 0
0 0 0
0 0 0
0 0 0
0 0 0
0 0 0
0 0 0
0 0 0
0 0 0
0 0 0
0 0 0
0 0 0
0 0 0
0 0 0
0 0 0
0 0 0
0 0 0
0 0 0
0 0 0
0 0 0
0 0 0
0 0 0
0 0 0
0 0 0
0 0 0
0 0 0
0 0 0
0 0 0
0 0 0
0 0 0
0 0 0
0 0 0
0 0 0
0 0 0
0 0 0
0 0 0
0 0 0
0 0 0
0 0 0
0 0 0
0 0 0
0 0 0
0 0 0
0 0 0
0 0 0
0 0 0
0 0 0
0 0 0
0 0 0
0 0 0
0 0 0
0 0 0
0 0 0
0 0 0
0 0 0
0 0 0
0 0 0
0 0 0
0 0 0
0 0 0
0 0 0
0 0 0
0 0 0
0 0 0
0 0 0
0 0 0
0 0 0
0 0 0
0 0 0
0 0 0
0 0 0
0 0 0
0 0 0
0 0 0
0 0 0
0 0 0
0 0 0
0 0 0
0 0 0
0 0 0
0 0 0
0 0 0
0 0 0
0 0 0
0 0 0
0 0 0
0 0 0
0 0 0
0 0 0
0 0 0
0 0 0
0 0 0
0 0 0
0 0 0
0 0 0
0 0 0
0 0 0
0 0 0
0 0 0
0 0 0
0 0 0
0 0 0
0 0 0
0 0 0
0 0 0
0 0 0
0 0 0
0 0 0
0 0 0
0 0 0
0 0 0
0 0 0
0 0 0
0 0 0
0 0 0
0 0 0
0 0 0
0 0 0
0 0 0
0 0 0
0 0 0
0 0 0
0 0 0
0 0 0
0 0 0
0 0 0
0 0 0
0 0 0
0 0 0
0 0 0
0 0 0
0 0 0
0 0 0
0 0 0
0 0 0
0 0 0
0 0 0
0 0 0
0 0 0
0 0 0
0 0 0
0 0 0
0 0 0
0 0 0
0 0 0
0 0 0
0 0 0
0 0 0
0 0 0
0 0 0
0 0 0
0 0 0
0 0 0
0 0 0
0 0 0
0 0 0
0 0 0
0 0 0
0 0 0
0 0 0
0 0 0
0 0 0
0 0 0
0 0 0
0 0 0
0 0 0
0 0 0
0 0 0
0 0 0
0 0 0
0 0 0
0 0 0
0 0 0
0 0 0
0 0 0
0 0 0
0 0 0
0 0 0
0 0 0
0 0 0
0 0 0
0 0 0
0 0 0
0 0 0
0 0 0
0 0 0
0 0 0
0 0 0
0 0 0
0 0 0
0 0 0
0 0 0
0 0 0
0 0 0
0 0 0
0 0 0
0 0 0
0 0 0
0 0 0
0 0 0
0 0 0
0 0 0
0 0 0
0 0 0
0 0 0
0 0 0
0 0 0
0 0 0
0 0 0
0 0 0
0 0 0
0 0 0
0 0 0
0 0 0
0 0 0
0 0 0
0 0 0
0 0 0
0 0 0
0 0 0
0 0 0
0 0 0
0 0 0
0 0 0
0 0 0
0 0 0
0 0 0
0 0 0
0 0 0
0 0 0
0 0 0
0 0 0
0 0 0
0 0 0
0 0 0
0 0 0
0 0 0
0 0 0
0 0 0
0 0 0
0 0 0
0 0 0
0 0 0
0 0 0
0 0 0
0 0 0
0 0 0
0 0 0
0 0 0
0 0 0
0 0 0
0 0 0
0 0 0
0 0 0
0 0 0
0 0 0
0 0 0
0 0 0
0 0 0
0 0 0
0 0 0
0 0 0
0 0 0
0 0 0
0 0 0
0 0 0
0 0 0
0 0 0
0 0 0
0 0 0
0 0 0
0 0 0
0 0 0
0 0 0
0 0 0
0 0 0
0 0 0
0 0 0
0 0 0
0 0 0
0 0 0
0 0 0
0 0 0
0 0 0
0 0 0
0 0 0
0 0 0
0 0 0
0 0 0
0 0 0
0 0 0
0 0 0
0 0 0
0 0 0
0 0 0
0 0 0
0 0 0
0 0 0
0 0 0
0 0 0
0 0 0
0 0 0
0 0 0
0 0 0
0 0 0
0 0 0
0 0 0
0 0 0
0 0 0
0 0 0
0 0 0
0 0 0
0 0 0
0 0 0
0 0 0
0 0 0
0 0 0
0 0 0
0 0 0
0 0 0
0 0 0
0 0 0
0 0 0
0 0 0
0 0 0
0 0 0
0 0 0
0 0 0
0 0 0
0 0 0
0 0 0
0 0 0
0 0 0
0 0 0
0 0 0
0 0 0
0 0 0
0 0 0
0 0 0
0 0 0
0 0 0
0 0 0
0 0 0
0 0 0
0 0 0
0 0 0
0 0 0
0 0 0
0 0 0
0 0 0
0 0 0
0 0 0
0 0 0
0 0 0
0 0 0
0 0 0
0 0 0
0 0 0
0 0 0
0 0 0
0 0 0
0 0 0
0 0 0
0 0 0
0 0 0
0 0 0
0 0 0
0 0 0
0 0 0
0 0 0
0 0 0
0 0 0
0 0 0
0 0 0
0 0 0
0 0 0
0 0 0
0 0 0
0 0 0
0 0 0
0 0 0
0 0 0
0 0 0
0 0 0
0 0 0
0 0 0
0 0 0
0 0 0
0 0 0
0 0 0
0 0 0
0 0 0
0 0 0
0 0 0
0 0 0
0 0 0
0 0 0
0 0 0
0 0 0
0 0 0
0 0 0
0 0 0
0 0 0
0 0 0
0 0 0
0 0 0
0 0 0
0 0 0
0 0 0
0 0 0
0 0 0
0 0 0
0 0 0
0 0 0
0 0 0
0 0 0
0 0 0
0 0 0
0 0 0
0 0 0
0 0 0
0 0 0
0 0 0
0 0 0
0 0 0
0 0 0
0 0 0
0 0 0
0 0 0
0 0 0
0 0 0
0 0 0
0 0 0
0 0 0
0 0 0
0 0 0
0 0 0
0 0 0
0 0 0
0 0 0
0 0 0
0 0 0
0 0 0
0 0 0
0 0 0
0 0 0
0 0 0
0 0 0
0 0 0
0 0 0
0 0 0
0 0 0
0 0 0
0 0 0
0 0 0
0 0 0
0 0 0
0 0 0
0 0 0
0 0 0
0 0 0
0 0 0
0 0 0
0 0 0
0 0 0
0 0 0
0 0 0
0 0 0
0 0 0
0 0 0
0 0 0
0 0 0
0 0 0
0 0 0
0 0 0
0 0 0
0 0 0
0 0 0
0 0 0
0 0 0
0 0 0
0 0 0
0 0 0
0 0 0
0 0 0
0 0 0
0 0 0
0 0 0
0 0 0
0 0 0
0 0 0
0 0 0
0 0 0
0 0 0
0 0 0
0 0 0
0 0 0
0 0 0
0 0 0
0 0 0
0 0 0
0 0 0
0 0 0
0 0 0
0 0 0
0 0 0
0 0 0
0 0 0
0 0 0
0 0 0
0 0 0
0 0 0
0 0 0
0 0 0
0 0 0
0 0 0
0 0 0
0 0 0
0 0 0
0 0 0
0 0 0
0 0 0
0 0 0
0 0 0
0 0 0
0 0 0
0 0 0
0 0 0
0 0 0
0 0 0
0 0 0
0 0 0
0 0 0
0 0 0
0 0 0
0 0 0
0 0 0
0 0 0
0 0 0
0 0 0
0 0 0
0 0 0
0 0 0
0 0 0
0 0 0
0 0 0
0 0 0
0 0 0
0 0 0
0 0 0
0 0 0
0 0 0
0 0 0
0 0 0
0 0 0
0 0 0
0 0 0
0 0 0
0 0 0
0 0 0
0 0 0
0 0 0
0 0 0
0 0 0
0 0 0
0 0 0
0 0 0
0 0 0
0 0 0
0 0 0
0 0 0
0 0 0
0 0 0
0 0 0
0 0 0
0 0 0
0 0 0
0 0 0
0 0 0
0 0 0
0 0 0
0 0 0
0 0 0
0 0 0
0 0 0
0 0 0
0 0 0
0 0 0
0 0 0
0 0 0
0 0 0
0 0 0
0 0 0
0 0 0
0 0 0
0 0 0
0 0 0
0 0 0
0 0 0
0 0 0
0 0 0
0 0 0
0 0 0
0 0 0
0 0 0
0 0 0
0 0 0
0 0 0
0 0 0
0 0 0
0 0 0
0 0 0
0 0 0
0 0 0
0 0 0
0 0 0
0 0 0
0 0 0
0 0 0
0 0 0
0 0 0
0 0 0
0 0 0
0 0 0
0 0 0
0 0 0
0 0 0
0 0 0
0 0 0
0 0 0
0 0 0
0 0 0
0 0 0
0 0 0
0 0 0
0 0 0
0 0 0
0 0 0
0 0 0
0 0 0
0 0 0
0 0 0
0 0 0
0 0 0
0 0 0
0 0 0
0 0 0
0 0 0
0 0 0
0 0 0
0 0 0
0 0 0
0 0 0
0 0 0
0 0 0
0 0 0
0 0 0
0 0 0
0 0 0
0 0 0
0 0 0
0 0 0
0 0 0
0 0 0
0 0 0
0 0 0
0 0 0
0 0 0
0 0 0
0 0 0
0 0 0
0 0 0
0 0 0
0 0 0
0 0 0
0 0 0
0 0 0
0 0 0
0 0 0
0 0 0
0 0 0
0 0 0
0 0 0
0 0 0
0 0 0
0 0 0
0 0 0
0 0 0
0 0 0
0 0 0
0 0 0
0 0 0
0 0 0
0 0 0
0 0 0
0 0 0
0 0 0
0 0 0
0 0 0
0 0 0
0 0 0
0 0 0
0 0 0
0 0 0
0 0 0
0 0 0
0 0 0
0 0 0
0 0 0
0 0 0
0 0 0
0 0 0
0 0 0
0 0 0
0 0 0
0 0 0
0 0 0
0 0 0
0 0 0
0 0 0
0 0 0
0 0 0
0 0 0
0 0 0
0 0 0
0 0 0
0 0 0
0 0 0
0 0 0
0 0 0
0 0 0
0 0 0
0 0 0
0 0 0
0 0 0
0 0 0
0 0 0
0 0 0
0 0 0
0 0 0
0 0 0
0 0 0
0 0 0
0 0 0
0 0 0
0 0 0
0 0 0
0 0 0
0 0 0
0 0 0
0 0 0
0 0 0
0 0 0
0 0 0
0 0 0
0 0 0
0 0 0
0 0 0
0 0 0
0 0 0
0 0 0
0 0 0
0 0 0
0 0 0
0 0 0
0 0 0
0 0 0
0 0 0
0 0 0
0 0 0
0 0 0
0 0 0
0 0 0
0 0 0
0 0 0
0 0 0
0 0 0
0 0 0
0 0 0
0 0 0
0 0 0
0 0 0
0 0 0
0 0 0
0 0 0
0 0 0
0 0 0
0 0 0
0 0 0
0 0 0
0 0 0
0 0 0
0 0 0
0 0 0
0 0 0
0 0 0
0 0 0
0 0 0
0 0 0
0 0 0
0 0 0
0 0 0
0 0 0
0 0 0
0 0 0
0 0 0
0 0 0
0 0 0
0 0 0
0 0 0
0 0 0
0 0 0
0 0 0
0 0 0
0 0 0
0 0 0
0 0 0
0 0 0
0 0 0
0 0 0
0 0 0
0 0 0
0 0 0
0 0 0
0 0 0
0 0 0
0 0 0
0 0 0
0 0 0
0 0 0
0 0 0
0 0 0
0 0 0
0 0 0
0 0 0
0 0 0
0 0 0
0 0 0
0 0 0
0 0 0
0 0 0
0 0 0
0 0 0
0 0 0
0 0 0
0 0 0
0 0 0
0 0 0
0 0 0
0 0 0
0 0 0
0 0 0
0 0 0
0 0 0
0 0 0
0 0 0
0 0 0
0 0 0
0 0 0
0 0 0
0 0 0
0 0 0
0 0 0
0 0 0
0 0 0
0 0 0
0 0 0
0 0 0
0 0 0
0 0 0
0 0 0
0 0 0
0 0 0
0 0 0
0 0 0
0 0 0
0 0 0
0 0 0
0 0 0
0 0 0
0 0 0
0 0 0
0 0 0
0 0 0
0 0 0
0 0 0
0 0 0
0 0 0
0 0 0
0 0 0
0 0 0
0 0 0
0 0 0
0 0 0
0 0 0
0 0 0
0 0 0
0 0 0
0 0 0
0 0 0
0 0 0
0 0 0
0 0 0
0 0 0
0 0 0
0 0 0
0 0 0
0 0 0
0 0 0
0 0 0
0 0 0
0 0 0
0 0 0
0 0 0
0 0 0
0 0 0
0 0 0
0 0 0
0 0 0
0 0 0
0 0 0
0 0 0
0 0 0
0 0 0
0 0 0
0 0 0
0 0 0
0 0 0
0 0 0
0 0 0
0 0 0
0 0 0
0 0 0
0 0 0
0 0 0
0 0 0
0 0 0
0 0 0
0 0 0
0 0 0
0 0 0
0 0 0
0 0 0
0 0 0
0 0 0
0 0 0
0 0 0
0 0 0
0 0 0
0 0 0
0 0 0
0 0 0
0 0 0
0 0 0
0 0 0
0 0 0
0 0 0
0 0 0
0 0 0
0 0 0
0 0 0
0 0 0
0 0 0
0 0 0
0 0 0
0 0 0
0 0 0
0 0 0
0 0 0
0 0 0
0 0 0
0 0 0
0 0 0
0 0 0
0 0 0
0 0 0
0 0 0
0 0 0
0 0 0
0 0 0
0 0 0
0 0 0
0 0 0
0 0 0
0 0 0
0 0 0
0 0 0
0 0 0
0 0 0
0 0 0
0 0 0
0 0 0
0 0 0
0 0 0
0 0 0
0 0 0
0 0 0
0 0 0
0 0 0
0 0 0
0 0 0
0 0 0
0 0 0
0 0 0
0 0 0
0 0 0
0 0 0
0 0 0
0 0 0
0 0 0
0 0 0
0 0 0
0 0 0
0 0 0
0 0 0
0 0 0
0 0 0
0 0 0
0 0 0
0 0 0
0 0 0
0 0 0
0 0 0
0 0 0
0 0 0
0 0 0
0 0 0
0 0 0
0 0 0
0 0 0
0 0 0
0 0 0
0 0 0
0 0 0
0 0 0
0 0 0
0 0 0
0 0 0
0 0 0
0 0 0
0 0 0
0 0 0
0 0 0
0 0 0
0 0 0
0 0 0
0 0 0
0 0 0
0 0 0
0 0 0
0 0 0
0 0 0
0 0 0
0 0 0
0 0 0
0 0 0
0 0 0
0 0 0
0 0 0
0 0 0
0 0 0
0 0 0
0 0 0
0 0 0
0 0 0
0 0 0
0 0 0
0 0 0
0 0 0
0 0 0
0 0 0
0 0 0
0 0 0
0 0 0
0 0 0
0 0 0
0 0 0
0 0 0
0 0 0
0 0 0
0 0 0
0 0 0
0 0 0
0 0 0
0 0 0
0 0 0
0 0 0
0 0 0
0 0 0
0 0 0
0 0 0
0 0 0
0 0 0
0 0 0
0 0 0
0 0 0
0 0 0
0 0 0
0 0 0
0 0 0
0 0 0
0 0 0
0 0 0
0 0 0
0 0 0
0 0 0
0 0 0
0 0 0
0 0 0
0 0 0
0 0 0
0 0 0
0 0 0
0 0 0
0 0 0
0 0 0
0 0 0
0 0 0
0 0 0
0 0 0
0 0 0
0 0 0
0 0 0
0 0 0
0 0 0
0 0 0
0 0 0
0 0 0
0 0 0
0 0 0
0 0 0
0 0 0
0 0 0
0 0 0
0 0 0
0 0 0
0 0 0
0 0 0
0 0 0
0 0 0
0 0 0
0 0 0
0 0 0
0 0 0
0 0 0
0 0 0
0 0 0
0 0 0
0 0 0
0 0 0
0 0 0
0 0 0
0 0 0
0 0 0
0 0 0
0 0 0
0 0 0
0 0 0
0 0 0
0 0 0
0 0 0
0 0 0
0 0 0
0 0 0
0 0 0
0 0 0
0 0 0
0 0 0
0 0 0
0 0 0
0 0 0
0 0 0
0 0 0
0 0 0
0 0 0
0 0 0
0 0 0
0 0 0
0 0 0
0 0 0
0 0 0
0 0 0
0 0 0
0 0 0
0 0 0
0 0 0
0 0 0
0 0 0
0 0 0
0 0 0
0 0 0
0 0 0
0 0 0
0 0 0
0 0 0
0 0 0
0 0 0
0 0 0
0 0 0
0 0 0
0 0 0
0 0 0
0 0 0
0 0 0
0 0 0
0 0 0
0 0 0
0 0 0
0 0 0
0 0 0
0 0 0
0 0 0
0 0 0
0 0 0
0 0 0
0 0 0
0 0 0
0 0 0
0 0 0
0 0 0
0 0 0
0 0 0
0 0 0
0 0 0
0 0 0
0 0 0
0 0 0
0 0 0
0 0 0
0 0 0
0 0 0
0 0 0
0 0 0
0 0 0
0 0 0
0 0 0
0 0 0
0 0 0
0 0 0
0 0 0
0 0 0
0 0 0
0 0 0
0 0 0
0 0 0
0 0 0
0 0 0
0 0 0
0 0 0
0 0 0
0 0 0
0 0 0
0 0 0
0 0 0
0 0 0
0 0 0
0 0 0
0 0 0
0 0 0
0 0 0
0 0 0
0 0 0
0 0 0
0 0 0
0 0 0
0 0 0
0 0 0
0 0 0
0 0 0
0 0 0
0 0 0
0 0 0
0 0 0
0 0 0
0 0 0
0 0 0
0 0 0
0 0 0
0 0 0
0 0 0
0 0 0
0 0 0
0 0 0
0 0 0
0 0 0
0 0 0
0 0 0
0 0 0
0 0 0
0 0 0
0 0 0
0 0 0
0 0 0
0 0 0
0 0 0
0 0 0
0 0 0
0 0 0
0 0 0
0 0 0
0 0 0
0 0 0
0 0 0
0 0 0
0 0 0
0 0 0
0 0 0
0 0 0
0 0 0
0 0 0
0 0 0
0 0 0
0 0 0
0 0 0
0 0 0
0 0 0
0 0 0
0 0 0
0 0 0
0 0 0
0 0 0
0 0 0
0 0 0
0 0 0
0 0 0
0 0 0
0 0 0
0 0 0
0 0 0
0 0 0
0 0 0
0 0 0
0 0 0
0 0 0
0 0 0
0 0 0
0 0 0
0 0 0
0 0 0
0 0 0
0 0 0
0 0 0
0 0 0
0 0 0
0 0 0
0 0 0
0 0 0
0 0 0
0 0 0
0 0 0
0 0 0
0 0 0
0 0 0
0 0 0
0 0 0
0 0 0
0 0 0
0 0 0
0 0 0
0 0 0
0 0 0
0 0 0
0 0 0
0 0 0
0 0 0
0 0 0
0 0 0
0 0 0
0 0 0
0 0 0
0 0 0
0 0 0
0 0 0
0 0 0
0 0 0
0 0 0
0 0 0
0 0 0
0 0 0
0 0 0
0 0 0
0 0 0
0 0 0
0 0 0
0 0 0
0 0 0
0 0 0
0 0 0
0 0 0
0 0 0
0 0 0
0 0 0
0 0 0
0 0 0
0 0 0
0 0 0
0 0 0
0 0 0
0 0 0
0 0 0
0 0 0
0 0 0
0 0 0
0 0 0
0 0 0
0 0 0
0 0 0
0 0 0
0 0 0
0 0 0
0 0 0
0 0 0
0 0 0
0 0 0
0 0 0
0 0 0
0 0 0
0 0 0
0 0 0
0 0 0
0 0 0
0 0 0
0 0 0
0 0 0
0 0 0
0 0 0
0 0 0
0 0 0
0 0 0
0 0 0
0 0 0
0 0 0
0 0 0
0 0 0
0 0 0
0 0 0
0 0 0
0 0 0
0 0 0
0 0 0
0 0 0
0 0 0
0 0 0
0 0 0
0 0 0
0 0 0
0 0 0
0 0 0
0 0 0
0 0 0
0 0 0
0 0 0
0 0 0
0 0 0
0 0 0
0 0 0
0 0 0
0 0 0
0 0 0
0 0 0
0 0 0
0 0 0
0 0 0
0 0 0
0 0 0
0 0 0
0 0 0
0 0 0
0 0 0
0 0 0
0 0 0
0 0 0
0 0 0
0 0 0
0 0 0
0 0 0
0 0 0
0 0 0
0 0 0
0 0 0
0 0 0
0 0 0
0 0 0
0 0 0
0 0 0
0 0 0
0 0 0
0 0 0
0 0 0
0 0 0
0 0 0
0 0 0
0 0 0
0 0 0
0 0 0
0 0 0
0 0 0
0 0 0
0 0 0
0 0 0
0 0 0
0 0 0
0 0 0
0 0 0
0 0 0
0 0 0
0 0 0
0 0 0
0 0 0
0 0 0
0 0 0
0 0 0
0 0 0
0 0 0
0 0 0
0 0 0
0 0 0
0 0 0
0 0 0
0 0 0
0 0 0
0 0 0
0 0 0
0 0 0
0 0 0
0 0 0
0 0 0
0 0 0
0 0 0
0 0 0
0 0 0
0 0 0
0 0 0
0 0 0
0 0 0
0 0 0
0 0 0
0 0 0
0 0 0
0 0 0
0 0 0
0 0 0
0 0 0
0 0 0
0 0 0
0 0 0
0 0 0
0 0 0
0 0 0
0 0 0
0 0 0
0 0 0
0 0 0
0 0 0
0 0 0
0 0 0
0 0 0
0 0 0
0 0 0
0 0 0
0 0 0
0 0 0
0 0 0
0 0 0
0 0 0
0 0 0
0 0 0
0 0 0
0 0 0
0 0 0
0 0 0
0 0 0
0 0 0
0 0 0
0 0 0
0 0 0
0 0 0
0 0 0
0 0 0
0 0 0
0 0 0
0 0 0
0 0 0
0 0 0
0 0 0
0 0 0
0 0 0
0 0 0
0 0 0
0 0 0
0 0 0
0 0 0
0 0 0
0 0 0
0 0 0
0 0 0
0 0 0
0 0 0
0 0 0
0 0 0
0 0 0
0 0 0
0 0 0
0 0 0
0 0 0
0 0 0
0 0 0
0 0 0
0 0 0
0 0 0
0 0 0
0 0 0
0 0 0
0 0 0
0 0 0
0 0 0
0 0 0
0 0 0
0 0 0
0 0 0
0 0 0
0 0 0
0 0 0
0 0 0
0 0 0
0 0 0
0 0 0
0 0 0
0 0 0
0 0 0
0 0 0
0 0 0
0 0 0
0 0 0
0 0 0
0 0 0
0 0 0
0 0 0
0 0 0
0 0 0
0 0 0
0 0 0
0 0 0
0 0 0
0 0 0
0 0 0
0 0 0
0 0 0
0 0 0
0 0 0
0 0 0
0 0 0
0 0 0
0 0 0
0 0 0
0 0 0
0 0 0
0 0 0
0 0 0
0 0 0
0 0 0
0 0 0
0 0 0
0 0 0
0 0 0
0 0 0
0 0 0
0 0 0
0 0 0
0 0 0
0 0 0
0 0 0
0 0 0
0 0 0
0 0 0
0 0 0
0 0 0
0 0 0
0 0 0
0 0 0
0 0 0
0 0 0
0 0 0
0 0 0
0 0 0
0 0 0
0 0 0
0 0 0
0 0 0
0 0 0
0 0 0
0 0 0
0 0 0
0 0 0
0 0 0
0 0 0
0 0 0
0 0 0
0 0 0
0 0 0
0 0 0
0 0 0
0 0 0
0 0 0
0 0 0
0 0 0
0 0 0
0 0 0
0 0 0
0 0 0
0 0 0
0 0 0
0 0 0
0 0 0
0 0 0
0 0 0
0 0 0
0 0 0
0 0 0
0 0 0
0 0 0
0 0 0
0 0 0
0 0 0
0 0 0
0 0 0
0 0 0
0 0 0
0 0 0
0 0 0
0 0 0
0 0 0
0 0 0
0 0 0
0 0 0
0 0 0
0 0 0
0 0 0
0 0 0
0 0 0
0 0 0
0 0 0
0 0 0
0 0 0
0 0 0
0 0 0
0 0 0
0 0 0
0 0 0
0 0 0
0 0 0
0 0 0
0 0 0
0 0 0
0 0 0
0 0 0
0 0 0
0 0 0
0 0 0
0 0 0
0 0 0
0 0 0
0 0 0
0 0 0
0 0 0
0 0 0
0 0 0
0 0 0
0 0 0
0 0 0
0 0 0
0 0 0
0 0 0
0 0 0
0 0 0
0 0 0
0 0 0
0 0 0
0 0 0
0 0 0
0 0 0
0 0 0
0 0 0
0 0 0
0 0 0
0 0 0
0 0 0
0 0 0
0 0 0
0 0 0
0 0 0
0 0 0
0 0 0
0 0 0
0 0 0
0 0 0
0 0 0
0 0 0
0 0 0
0 0 0
0 0 0
0 0 0
0 0 0
0 0 0
0 0 0
0 0 0
0 0 0
0 0 0
0 0 0
0 0 0
0 0 0
0 0 0
0 0 0
0 0 0
0 0 0
0 0 0
0 0 0
0 0 0
0 0 0
0 0 0
0 0 0
0 0 0
0 0 0
0 0 0
0 0 0
0 0 0
0 0 0
0 0 0
0 0 0
0 0 0
0 0 0
0 0 0
0 0 0
0 0 0
0 0 0
0 0 0
0 0 0
0 0 0
0 0 0
0 0 0
0 0 0
0 0 0
0 0 0
0 0 0
0 0 0
0 0 0
0 0 0
0 0 0
0 0 0
0 0 0
0 0 0
0 0 0
0 0 0
0 0 0
0 0 0
0 0 0
0 0 0
0 0 0
0 0 0
0 0 0
0 0 0
0 0 0
0 0 0
0 0 0
0 0 0
0 0 0
0 0 0
0 0 0
0 0 0
0 0 0
0 0 0
0 0 0
0 0 0
0 0 0
0 0 0
0 0 0
0 0 0
0 0 0
0 0 0
0 0 0
0 0 0
0 0 0
0 0 0
0 0 0
0 0 0
0 0 0
0 0 0
0 0 0
0 0 0
0 0 0
0 0 0
0 0 0
0 0 0
0 0 0
0 0 0
0 0 0
0 0 0
0 0 0
0 0 0
0 0 0
0 0 0
0 0 0
0 0 0
0 0 0
0 0 0
0 0 0
0 0 0
0 0 0
0 0 0
0 0 0
0 0 0
0 0 0
0 0 0
0 0 0
0 0 0
0 0 0
0 0 0
0 0 0
0 0 0
0 0 0
0 0 0
0 0 0
0 0 0
0 0 0
0 0 0
0 0 0
0 0 0
0 0 0
0 0 0
0 0 0
0 0 0
0 0 0
0 0 0
0 0 0
0 0 0
0 0 0
0 0 0
0 0 0
0 0 0
0 0 0
0 0 0
0 0 0
0 0 0
0 0 0
0 0 0
0 0 0
0 0 0
0 0 0
0 0 0
0 0 0
0 0 0
0 0 0
0 0 0
0 0 0
0 0 0
0 0 0
0 0 0
0 0 0
0 0 0
0 0 0
0 0 0
0 0 0
0 0 0
0 0 0
0 0 0
0 0 0
0 0 0
0 0 0
0 0 0
0 0 0
0 0 0
0 0 0
0 0 0
0 0 0
0 0 0
0 0 0
0 0 0
0 0 0
0 0 0
0 0 0
0 0 0
0 0 0
0 0 0
0 0 0
0 0 0
0 0 0
0 0 0
0 0 0
0 0 0
0 0 0
0 0 0
0 0 0
0 0 0
0 0 0
0 0 0
0 0 0
0 0 0
0 0 0
0 0 0
0 0 0
0 0 0
0 0 0
0 0 0
0 0 0
0 0 0
0 0 0
0 0 0
0 0 0
0 0 0
0 0 0
0 0 0
0 0 0
0 0 0
0 0 0
0 0 0
0 0 0
0 0 0
0 0 0
0 0 0
0 0 0
0 0 0
0 0 0
0 0 0
0 0 0
0 0 0
0 0 0
0 0 0
0 0 0
0 0 0
0 0 0
0 0 0
0 0 0
0 0 0
0 0 0
0 0 0
0 0 0
0 0 0
0 0 0
0 0 0
0 0 0
0 0 0
0 0 0
0 0 0
0 0 0
0 0 0
0 0 0
0 0 0
0 0 0
0 0 0
0 0 0
0 0 0
0 0 0
0 0 0
0 0 0
0 0 0
0 0 0
0 0 0
0 0 0
0 0 0
0 0 0
0 0 0
0 0 0
0 0 0
0 0 0
0 0 0
0 0 0
0 0 0
0 0 0
0 0 0
0 0 0
0 0 0
0 0 0
0 0 0
0 0 0
0 0 0
0 0 0
0 0 0
0 0 0
0 0 0
0 0 0
0 0 0
0 0 0
0 0 0
0 0 0
0 0 0
0 0 0
0 0 0
0 0 0
0 0 0
0 0 0
0 0 0
0 0 0
0 0 0
0 0 0
0 0 0
0 0 0
0 0 0
0 0 0
0 0 0
0 0 0
0 0 0
0 0 0
0 0 0
0 0 0
0 0 0
0 0 0
0 0 0
0 0 0
0 0 0
0 0 0
0 0 0
0 0 0
0 0 0
0 0 0
0 0 0
0 0 0
0 0 0
0 0 0
0 0 0
0 0 0
0 0 0
0 0 0
0 0 0
0 0 0
0 0 0
0 0 0
0 0 0
0 0 0
0 0 0
0 0 0
0 0 0
0 0 0
0 0 0
0 0 0
0 0 0
0 0 0
0 0 0
0 0 0
0 0 0
0 0 0
0 0 0
0 0 0
0 0 0
0 0 0
0 0 0
0 0 0
0 0 0
0 0 0
0 0 0
0 0 0
0 0 0
0 0 0
0 0 0
0 0 0
0 0 0
0 0 0
0 0 0
0 0 0
0 0 0
0 0 0
0 0 0
0 0 0
0 0 0
0 0 0
0 0 0
0 0 0
0 0 0
0 0 0
0 0 0
0 0 0
0 0 0
0 0 0
0 0 0
0 0 0
0 0 0
0 0 0
0 0 0
0 0 0
0 0 0
0 0 0
0 0 0
0 0 0
0 0 0
0 0 0
0 0 0
0 0 0
0 0 0
0 0 0
0 0 0
0 0 0
0 0 0
0 0 0
0 0 0
0 0 0
0 0 0
0 0 0
0 0 0
0 0 0
0 0 0
0 0 0
0 0 0
0 0 0
0 0 0
0 0 0
0 0 0
0 0 0
0 0 0
0 0 0
0 0 0
0 0 0
0 0 0
0 0 0
0 0 0
0 0 0
0 0 0
0 0 0
0 0 0
0 0 0
0 0 0
0 0 0
0 0 0
0 0 0
0 0 0
0 0 0
0 0 0
0 0 0
0 0 0
0 0 0
0 0 0
0 0 0
0 0 0
0 0 0
0 0 0
0 0 0
0 0 0
0 0 0
0 0 0
0 0 0
0 0 0
0 0 0
0 0 0
0 0 0
0 0 0
0 0 0
0 0 0
0 0 0
0 0 0
0 0 0
0 0 0
0 0 0
0 0 0
0 0 0
0 0 0
0 0 0
0 0 0
0 0 0
0 0 0
0 0 0
0 0 0
0 0 0
0 0 0
0 0 0
0 0 0
0 0 0
0 0 0
0 0 0
0 0 0
0 0 0
0 0 0
0 0 0
0 0 0
0 0 0
0 0 0
0 0 0
0 0 0
0 0 0
0 0 0
0 0 0
0 0 0
0 0 0
0 0 0
0 0 0
0 0 0
0 0 0
0 0 0
0 0 0
0 0 0
0 0 0
0 0 0
0 0 0
0 0 0
0 0 0
0 0 0
0 0 0
0 0 0
0 0 0
0 0 0
0 0 0
0 0 0
0 0 0
0 0 0
0 0 0
0 0 0
0 0 0
0 0 0
0 0 0
0 0 0
0 0 0
0 0 0
0 0 0
0 0 0
0 0 0
0 0 0
0 0 0
0 0 0
0 0 0
0 0 0
0 0 0
0 0 0
0 0 0
0 0 0
0 0 0
0 0 0
0 0 0
0 0 0
0 0 0
0 0 0
0 0 0
0 0 0
0 0 0
0 0 0
0 0 0
0 0 0
0 0 0
0 0 0
0 0 0
0 0 0
0 0 0
0 0 0
0 0 0
0 0 0
0 0 0
0 0 0
0 0 0
0 0 0
0 0 0
0 0 0
0 0 0
0 0 0
0 0 0
0 0 0
0 0 0
0 0 0
0 0 0
0 0 0
0 0 0
0 0 0
0 0 0
0 0 0
0 0 0
0 0 0
0 0 0
0 0 0
0 0 0
0 0 0
0 0 0
0 0 0
0 0 0
0 0 0
0 0 0
0 0 0
0 0 0
0 0 0
0 0 0
0 0 0
0 0 0
0 0 0
0 0 0
0 0 0
0 0 0
0 0 0
0 0 0
0 0 0
0 0 0
0 0 0
0 0 0
0 0 0
0 0 0
0 0 0
0 0 0
0 0 0
0 0 0
0 0 0
0 0 0
0 0 0
0 0 0
0 0 0
0 0 0
0 0 0
0 0 0
0 0 0
0 0 0
0 0 0
0 0 0
0 0 0
0 0 0
0 0 0
0 0 0
0 0 0
0 0 0
0 0 0
0 0 0
0 0 0
0 0 0
0 0 0
0 0 0
0 0 0
0 0 0
0 0 0
0 0 0
0 0 0
0 0 0
0 0 0
0 0 0
0 0 0
0 0 0
0 0 0
0 0 0
0 0 0
0 0 0
0 0 0
0 0 0
0 0 0
0 0 0
0 0 0
0 0 0
0 0 0
0 0 0
0 0 0
0 0 0
0 0 0
0 0 0
0 0 0
0 0 0
0 0 0
0 0 0
0 0 0
0 0 0
0 0 0
0 0 0
0 0 0
0 0 0
0 0 0
0 0 0
0 0 0
0 0 0
0 0 0
0 0 0
0 0 0
0 0 0
0 0 0
0 0 0
0 0 0
0 0 0
0 0 0
0 0 0
0 0 0
0 0 0
0 0 0
0 0 0
0 0 0
0 0 0
0 0 0
0 0 0
0 0 0
0 0 0
0 0 0
0 0 0
0 0 0
0 0 0
0 0 0
0 0 0
0 0 0
0 0 0
0 0 0
0 0 0
0 0 0
0 0 0
0 0 0
0 0 0
0 0 0
0 0 0
0 0 0
0 0 0
0 0 0
0 0 0
0 0 0
0 0 0
0 0 0
0 0 0
0 0 0
0 0 0
0 0 0
0 0 0
0 0 0
0 0 0
0 0 0
0 0 0
0 0 0
0 0 0
0 0 0
0 0 0
0 0 0
0 0 0
0 0 0
0 0 0
0 0 0
0 0 0
0 0 0
0 0 0
0 0 0
0 0 0
0 0 0
0 0 0
0 0 0
0 0 0
0 0 0
0 0 0
0 0 0
0 0 0
0 0 0
0 0 0
0 0 0
0 0 0
0 0 0
0 0 0
0 0 0
0 0 0
0 0 0
0 0 0
0 0 0
0 0 0
0 0 0
0 0 0
0 0 0
0 0 0
0 0 0
0 0 0
0 0 0
0 0 0
0 0 0
0 0 0
0 0 0
0 0 0
0 0 0
0 0 0
0 0 0
0 0 0
0 0 0
0 0 0
0 0 0
0 0 0
0 0 0
0 0 0
0 0 0
0 0 0
0 0 0
0 0 0
0 0 0
0 0 0
0 0 0
0 0 0
0 0 0
0 0 0
0 0 0
0 0 0
0 0 0
0 0 0
0 0 0
0 0 0
0 0 0
0 0 0
0 0 0
0 0 0
0 0 0
0 0 0
0 0 0
0 0 0
0 0 0
0 0 0
0 0 0
0 0 0
0 0 0
0 0 0
0 0 0
0 0 0
0 0 0
0 0 0
0 0 0
0 0 0
0 0 0
0 0 0
0 0 0
0 0 0
0 0 0
0 0 0
0 0 0
0 0 0
0 0 0
0 0 0
0 0 0
0 0 0
0 0 0
0 0 0
0 0 0
0 0 0
0 0 0
0 0 0
0 0 0
0 0 0
0 0 0
0 0 0
0 0 0
0 0 0
0 0 0
0 0 0
0 0 0
0 0 0
0 0 0
0 0 0
0 0 0
0 0 0
0 0 0
0 0 0
0 0 0
0 0 0
0 0 0
0 0 0
0 0 0
0 0 0
0 0 0
0 0 0
0 0 0
0 0 0
0 0 0
0 0 0
0 0 0
0 0 0
0 0 0
0 0 0
0 0 0
0 0 0
0 0 0
0 0 0
0 0 0
0 0 0
0 0 0
0 0 0
0 0 0
0 0 0
0 0 0
0 0 0
0 0 0
0 0 0
0 0 0
0 0 0
0 0 0
0 0 0
0 0 0
0 0 0
0 0 0
0 0 0
0 0 0
0 0 0
0 0 0
0 0 0
0 0 0
0 0 0
0 0 0
0 0 0
0 0 0
0 0 0
0 0 0
0 0 0
0 0 0
0 0 0
0 0 0
0 0 0
0 0 0
0 0 0
0 0 0
0 0 0
0 0 0
0 0 0
0 0 0
0 0 0
0 0 0
0 0 0
0 0 0
0 0 0
0 0 0
0 0 0
0 0 0
0 0 0
0 0 0
0 0 0
0 0 0
0 0 0
0 0 0
0 0 0
0 0 0
0 0 0
0 0 0
0 0 0
0 0 0
0 0 0
0 0 0
0 0 0
0 0 0
0 0 0
0 0 0
0 0 0
0 0 0
0 0 0
0 0 0
0 0 0
0 0 0
0 0 0
0 0 0
0 0 0
0 0 0
0 0 0
0 0 0
0 0 0
0 0 0
0 0 0
0 0 0
0 0 0
0 0 0
0 0 0
0 0 0
0 0 0
0 0 0
0 0 0
0 0 0
0 0 0
0 0 0
0 0 0
0 0 0
0 0 0
0 0 0
0 0 0
0 0 0
0 0 0
0 0 0
0 0 0
0 0 0
0 0 0
0 0 0
0 0 0
0 0 0
0 0 0
0 0 0
0 0 0
0 0 0
0 0 0
0 0 0
0 0 0
0 0 0
0 0 0
0 0 0
0 0 0
0 0 0
0 0 0
0 0 0
0 0 0
0 0 0
0 0 0
0 0 0
0 0 0
0 0 0
0 0 0
0 0 0
0 0 0
0 0 0
0 0 0
0 0 0
0 0 0
0 0 0
0 0 0
0 0 0
0 0 0
0 0 0
0 0 0
0 0 0
0 0 0
0 0 0
0 0 0
0 0 0
0 0 0
0 0 0
0 0 0
0 0 0
0 0 0
0 0 0
0 0 0
0 0 0
0 0 0
0 0 0
0 0 0
0 0 0
0 0 0
0 0 0
0 0 0
0 0 0
0 0 0
0 0 0
0 0 0
0 0 0
0 0 0
0 0 0
0 0 0
0 0 0
0 0 0
0 0 0
0 0 0
0 0 0
0 0 0
0 0 0
0 0 0
0 0 0
0 0 0
0 0 0
0 0 0
0 0 0
0 0 0
0 0 0
0 0 0
0 0 0
0 0 0
0 0 0
0 0 0
0 0 0
0 0 0
0 0 0
0 0 0
0 0 0
0 0 0
0 0 0
0 0 0
0 0 0
0 0 0
0 0 0
0 0 0
0 0 0
0 0 0
0 0 0
0 0 0
0 0 0
0 0 0
0 0 0
0 0 0
0 0 0
0 0 0
0 0 0
0 0 0
0 0 0
0 0 0
0 0 0
0 0 0
0 0 0
0 0 0
0 0 0
0 0 0
0 0 0
0 0 0
0 0 0
0 0 0
0 0 0
0 0 0
0 0 0
0 0 0
0 0 0
0 0 0
0 0 0
0 0 0
0 0 0
0 0 0
0 0 0
0 0 0
0 0 0
0 0 0
0 0 0
0 0 0
0 0 0
0 0 0
0 0 0
0 0 0
0 0 0
0 0 0
0 0 0
0 0 0
0 0 0
0 0 0
0 0 0
0 0 0
0 0 0
0 0 0
0 0 0
0 0 0
0 0 0
0 0 0
0 0 0
0 0 0
0 0 0
0 0 0
0 0 0
0 0 0
0 0 0
0 0 0
0 0 0
0 0 0
0 0 0
0 0 0
0 0 0
0 0 0
0 0 0
0 0 0
0 0 0
0 0 0
0 0 0
0 0 0
0 0 0
0 0 0
0 0 0
0 0 0
0 0 0
0 0 0
0 0 0
0 0 0
0 0 0
0 0 0
0 0 0
0 0 0
0 0 0
0 0 0
0 0 0
0 0 0
0 0 0
0 0 0
0 0 0
0 0 0
0 0 0
0 0 0
0 0 0
0 0 0
0 0 0
0 0 0
0 0 0
0 0 0
0 0 0
0 0 0
0 0 0
0 0 0
0 0 0
0 0 0
0 0 0
0 0 0
0 0 0
0 0 0
0 0 0
0 0 0
0 0 0
0 0 0
0 0 0
0 0 0
0 0 0
0 0 0
0 0 0
0 0 0
0 0 0
0 0 0
0 0 0
0 0 0
0 0 0
0 0 0
0 0 0
0 0 0
0 0 0
0 0 0
0 0 0
0 0 0
0 0 0
0 0 0
0 0 0
0 0 0
0 0 0
0 0 0
0 0 0
0 0 0
0 0 0
0 0 0
0 0 0
0 0 0
0 0 0
0 0 0
0 0 0
0 0 0
0 0 0
0 0 0
0 0 0
0 0 0
0 0 0
0 0 0
0 0 0
0 0 0
0 0 0
0 0 0
0 0 0
0 0 0
0 0 0
0 0 0
0 0 0
0 0 0
0 0 0
0 0 0
0 0 0
0 0 0
0 0 0
0 0 0
0 0 0
0 0 0
0 0 0
0 0 0
0 0 0
0 0 0
0 0 0
0 0 0
0 0 0
0 0 0
0 0 0
0 0 0
0 0 0
0 0 0
0 0 0
0 0 0
0 0 0
0 0 0
0 0 0
0 0 0
0 0 0
0 0 0
0 0 0
0 0 0
0 0 0
0 0 0
0 0 0
0 0 0
0 0 0
0 0 0
0 0 0
0 0 0
0 0 0
0 0 0
0 0 0
0 0 0
0 0 0
0 0 0
0 0 0
0 0 0
0 0 0
0 0 0
0 0 0
0 0 0
0 0 0
0 0 0
0 0 0
0 0 0
0 0 0
0 0 0
0 0 0
0 0 0
0 0 0
0 0 0
0 0 0
0 0 0
0 0 0
0 0 0
0 0 0
0 0 0
0 0 0
0 0 0
0 0 0
0 0 0
0 0 0
0 0 0
0 0 0
0 0 0
0 0 0
0 0 0
0 0 0
0 0 0
0 0 0
0 0 0
0 0 0
0 0 0
0 0 0
0 0 0
0 0 0
0 0 0
0 0 0
0 0 0
0 0 0
0 0 0
0 0 0
0 0 0
0 0 0
0 0 0
0 0 0
0 0 0
0 0 0
0 0 0
0 0 0
0 0 0
0 0 0
0 0 0
0 0 0
0 0 0
0 0 0
0 0 0
0 0 0
0 0 0
0 0 0
0 0 0
0 0 0
0 0 0
0 0 0
0 0 0
0 0 0
0 0 0
0 0 0
0 0 0
0 0 0
0 0 0
0 0 0
0 0 0
0 0 0
0 0 0
0 0 0
0 0 0
0 0 0
0 0 0
0 0 0
0 0 0
0 0 0
0 0 0
0 0 0
0 0 0
0 0 0
0 0 0
0 0 0
0 0 0
0 0 0
0 0 0
0 0 0
0 0 0
0 0 0
0 0 0
0 0 0
0 0 0
0 0 0
0 0 0
0 0 0
0 0 0
0 0 0
0 0 0
0 0 0
0 0 0
0 0 0
0 0 0
0 0 0
0 0 0
0 0 0
0 0 0
0 0 0
0 0 0
0 0 0
0 0 0
0 0 0
0 0 0
0 0 0
0 0 0
0 0 0
0 0 0
0 0 0
0 0 0
0 0 0
0 0 0
0 0 0
0 0 0
0 0 0
0 0 0
0 0 0
0 0 0
0 0 0
0 0 0
0 0 0
0 0 0
0 0 0
0 0 0
0 0 0
0 0 0
0 0 0
0 0 0
0 0 0
0 0 0
0 0 0
0 0 0
0 0 0
0 0 0
0 0 0
0 0 0
0 0 0
0 0 0
0 0 0
0 0 0
0 0 0
0 0 0
0 0 0
0 0 0
0 0 0
0 0 0
0 0 0
0 0 0
0 0 0
0 0 0
0 0 0
0 0 0
0 0 0
0 0 0
0 0 0
0 0 0
0 0 0
0 0 0
0 0 0
0 0 0
0 0 0
0 0 0
0 0 0
0 0 0
0 0 0
0 0 0
0 0 0
0 0 0
0 0 0
0 0 0
0 0 0
0 0 0
0 0 0
0 0 0
0 0 0
0 0 0
0 0 0
0 0 0
0 0 0
0 0 0
0 0 0
0 0 0
0 0 0
0 0 0
0 0 0
0 0 0
0 0 0
0 0 0
0 0 0
0 0 0
0 0 0
0 0 0
0 0 0
0 0 0
0 0 0
0 0 0
0 0 0
0 0 0
0 0 0
0 0 0
0 0 0
0 0 0
0 0 0
0 0 0
0 0 0
0 0 0
0 0 0
0 0 0
0 0 0
0 0 0
0 0 0
0 0 0
0 0 0
0 0 0
0 0 0
0 0 0
0 0 0
0 0 0
0 0 0
0 0 0
0 0 0
0 0 0
0 0 0
0 0 0
0 0 0
0 0 0
0 0 0
0 0 0
0 0 0
0 0 0
0 0 0
0 0 0
0 0 0
0 0 0
0 0 0
0 0 0
0 0 0
0 0 0
0 0 0
0 0 0
0 0 0
0 0 0
0 0 0
0 0 0
0 0 0
0 0 0
0 0 0
0 0 0
0 0 0
0 0 0
0 0 0
0 0 0
0 0 0
0 0 0
0 0 0
0 0 0
0 0 0
0 0 0
0 0 0
0 0 0
0 0 0
0 0 0
0 0 0
0 0 0
0 0 0
0 0 0
0 0 0
0 0 0
0 0 0
0 0 0
0 0 0
0 0 0
0 0 0
0 0 0
0 0 0
0 0 0
0 0 0
0 0 0
0 0 0
0 0 0
0 0 0
0 0 0
0 0 0
0 0 0
0 0 0
0 0 0
0 0 0
0 0 0
0 0 0
0 0 0
0 0 0
0 0 0
0 0 0
0 0 0
0 0 0
0 0 0
0 0 0
0 0 0
0 0 0
0 0 0
0 0 0
0 0 0
0 0 0
0 0 0
0 0 0
0 0 0
0 0 0
0 0 0
0 0 0
0 0 0
0 0 0
0 0 0
0 0 0
0 0 0
0 0 0
0 0 0
0 0 0
0 0 0
0 0 0
0 0 0
0 0 0
0 0 0
0 0 0
0 0 0
0 0 0
0 0 0
0 0 0
0 0 0
0 0 0
0 0 0
0 0 0
0 0 0
0 0 0
0 0 0
0 0 0
0 0 0
0 0 0
0 0 0
0 0 0
0 0 0
0 0 0
0 0 0
0 0 0
0 0 0
0 0 0
0 0 0
0 0 0
0 0 0
0 0 0
0 0 0
0 0 0
0 0 0
0 0 0
0 0 0
0 0 0
0 0 0
0 0 0
0 0 0
0 0 0
0 0 0
0 0 0
0 0 0
0 0 0
0 0 0
0 0 0
0 0 0
0 0 0
0 0 0
0 0 0
0 0 0
0 0 0
0 0 0
0 0 0
0 0 0
0 0 0
0 0 0
0 0 0
0 0 0
0 0 0
0 0 0
0 0 0
0 0 0
0 0 0
0 0 0
0 0 0
0 0 0
0 0 0
0 0 0
0 0 0
0 0 0
0 0 0
0 0 0
0 0 0
0 0 0
0 0 0
0 0 0
0 0 0
0 0 0
0 0 0
0 0 0
0 0 0
0 0 0
0 0 0
0 0 0
0 0 0
0 0 0
0 0 0
0 0 0
0 0 0
0 0 0
0 0 0
0 0 0
0 0 0
0 0 0
0 0 0
0 0 0
0 0 0
0 0 0
0 0 0
0 0 0
0 0 0
0 0 0
0 0 0
0 0 0
0 0 0
0 0 0
0 0 0
0 0 0
0 0 0
0 0 0
0 0 0
0 0 0
0 0 0
0 0 0
0 0 0
0 0 0
0 0 0
0 0 0
0 0 0
0 0 0
0 0 0
0 0 0
0 0 0
0 0 0
0 0 0
0 0 0
0 0 0
0 0 0
0 0 0
0 0 0
0 0 0
0 0 0
0 0 0
0 0 0
0 0 0
0 0 0
0 0 0
0 0 0
0 0 0
0 0 0
0 0 0
0 0 0
0 0 0
0 0 0
0 0 0
0 0 0
0 0 0
0 0 0
0 0 0
0 0 0
0 0 0
0 0 0
0 0 0
0 0 0
0 0 0
0 0 0
0 0 0
0 0 0
0 0 0
0 0 0
0 0 0
0 0 0
0 0 0
0 0 0
0 0 0
0 0 0
0 0 0
0 0 0
0 0 0
0 0 0
0 0 0
0 0 0
0 0 0
0 0 0
0 0 0
0 0 0
0 0 0
0 0 0
0 0 0
0 0 0
0 0 0
0 0 0
0 0 0
0 0 0
0 0 0
0 0 0
0 0 0
0 0 0
0 0 0
0 0 0
0 0 0
0 0 0
0 0 0
0 0 0
0 0 0
0 0 0
0 0 0
0 0 0
0 0 0
0 0 0
0 0 0
0 0 0
0 0 0
0 0 0
0 0 0
0 0 0
0 0 0
0 0 0
0 0 0
0 0 0
0 0 0
0 0 0
0 0 0
0 0 0
0 0 0
0 0 0
0 0 0
0 0 0
0 0 0
0 0 0
0 0 0
0 0 0
0 0 0
0 0 0
0 0 0
0 0 0
0 0 0
0 0 0
0 0 0
0 0 0
0 0 0
0 0 0
0 0 0
0 0 0
0 0 0
0 0 0
0 0 0
0 0 0
0 0 0
0 0 0
0 0 0
0 0 0
0 0 0
0 0 0
0 0 0
0 0 0
0 0 0
0 0 0
0 0 0
0 0 0
0 0 0
0 0 0
0 0 0
0 0 0
0 0 0
0 0 0
0 0 0
0 0 0
0 0 0
0 0 0
0 0 0
0 0 0
0 0 0
0 0 0
0 0 0
0 0 0
0 0 0
0 0 0
0 0 0
0 0 0
0 0 0
0 0 0
0 0 0
0 0 0
0 0 0
0 0 0
0 0 0
0 0 0
0 0 0
0 0 0
0 0 0
0 0 0
0 0 0
0 0 0
0 0 0
0 0 0
0 0 0
0 0 0
0 0 0
0 0 0
0 0 0
0 0 0
0 0 0
0 0 0
0 0 0
0 0 0
0 0 0
0 0 0
0 0 0
0 0 0
0 0 0
0 0 0
0 0 0
0 0 0
0 0 0
0 0 0
0 0 0
0 0 0
0 0 0
0 0 0
0 0 0
0 0 0
0 0 0
0 0 0
0 0 0
0 0 0
0 0 0
0 0 0
0 0 0
0 0 0
0 0 0
0 0 0
0 0 0
0 0 0
0 0 0
0 0 0
0 0 0
0 0 0
0 0 0
0 0 0
0 0 0
0 0 0
0 0 0
0 0 0
0 0 0
0 0 0
0 0 0
0 0 0
0 0 0
0 0 0
0 0 0
0 0 0
0 0 0
0 0 0
0 0 0
0 0 0
0 0 0
0 0 0
0 0 0
0 0 0
0 0 0
0 0 0
0 0 0
0 0 0
0 0 0
0 0 0
0 0 0
0 0 0
0 0 0
0 0 0
0 0 0
0 0 0
0 0 0
0 0 0
0 0 0
0 0 0
0 0 0
0 0 0
0 0 0
0 0 0
0 0 0
0 0 0
0 0 0
0 0 0
0 0 0
0 0 0
0 0 0
0 0 0
0 0 0
0 0 0
0 0 0
0 0 0
0 0 0
0 0 0
0 0 0
0 0 0
0 0 0
0 0 0
0 0 0
0 0 0
0 0 0
0 0 0
0 0 0
0 0 0
0 0 0
0 0 0
0 0 0
0 0 0
0 0 0
0 0 0
0 0 0
0 0 0
0 0 0
0 0 0
0 0 0
0 0 0
0 0 0
0 0 0
0 0 0
0 0 0
0 0 0
0 0 0
0 0 0
0 0 0
0 0 0
0 0 0
0 0 0
0 0 0
0 0 0
0 0 0
0 0 0
0 0 0
0 0 0
0 0 0
0 0 0
0 0 0
0 0 0
0 0 0
0 0 0
0 0 0
0 0 0
0 0 0
0 0 0
0 0 0
0 0 0
0 0 0
0 0 0
0 0 0
0 0 0
0 0 0
0 0 0
0 0 0
0 0 0
0 0 0
0 0 0
0 0 0
0 0 0
0 0 0
0 0 0
0 0 0
0 0 0
0 0 0
0 0 0
0 0 0
0 0 0
0 0 0
0 0 0
0 0 0
0 0 0
0 0 0
0 0 0
0 0 0
0 0 0
0 0 0
0 0 0
0 0 0
0 0 0
0 0 0
0 0 0
0 0 0
0 0 0
0 0 0
0 0 0
0 0 0
0 0 0
0 0 0
0 0 0
0 0 0
0 0 0
0 0 0
0 0 0
0 0 0
0 0 0
0 0 0
0 0 0
0 0 0
0 0 0
0 0 0
0 0 0
0 0 0
0 0 0
0 0 0
0 0 0
0 0 0
0 0 0
0 0 0
0 0 0
0 0 0
0 0 0
0 0 0
0 0 0
0 0 0
0 0 0
0 0 0
0 0 0
0 0 0
0 0 0
0 0 0
0 0 0
0 0 0
0 0 0
0 0 0
0 0 0
0 0 0
0 0 0
0 0 0
0 0 0
0 0 0
0 0 0
0 0 0
0 0 0
0 0 0
0 0 0
0 0 0
0 0 0
0 0 0
0 0 0
0 0 0
0 0 0
0 0 0
0 0 0
0 0 0
0 0 0
0 0 0
0 0 0
0 0 0
0 0 0
0 0 0
0 0 0
0 0 0
0 0 0
0 0 0
0 0 0
0 0 0
0 0 0
0 0 0
0 0 0
0 0 0
0 0 0
0 0 0
0 0 0
0 0 0
0 0 0
0 0 0
0 0 0
0 0 0
0 0 0
0 0 0
0 0 0
0 0 0
0 0 0
0 0 0
0 0 0
0 0 0
0 0 0
0 0 0
0 0 0
0 0 0
0 0 0
0 0 0
0 0 0
0 0 0
0 0 0
0 0 0
0 0 0
0 0 0
0 0 0
0 0 0
0 0 0
0 0 0
0 0 0
0 0 0
0 0 0
0 0 0
0 0 0
0 0 0
0 0 0
0 0 0
0 0 0
0 0 0
0 0 0
0 0 0
0 0 0
0 0 0
0 0 0
0 0 0
0 0 0
0 0 0
0 0 0
0 0 0
0 0 0
0 0 0
0 0 0
0 0 0
0 0 0
0 0 0
0 0 0
0 0 0
0 0 0
0 0 0
0 0 0
0 0 0
0 0 0
0 0 0
0 0 0
0 0 0
0 0 0
0 0 0
0 0 0
0 0 0
0 0 0
0 0 0
0 0 0
0 0 0
0 0 0
0 0 0
0 0 0
0 0 0
0 0 0
0 0 0
0 0 0
0 0 0
0 0 0
0 0 0
0 0 0
0 0 0
0 0 0
0 0 0
0 0 0
0 0 0
0 0 0
0 0 0
0 0 0
0 0 0
0 0 0
0 0 0
0 0 0
0 0 0
0 0 0
0 0 0
0 0 0
0 0 0
0 0 0
0 0 0
0 0 0
0 0 0
0 0 0
0 0 0
0 0 0
0 0 0
0 0 0
0 0 0
0 0 0
0 0 0
0 0 0
0 0 0
0 0 0
0 0 0
0 0 0
0 0 0
0 0 0
0 0 0
0 0 0
0 0 0
0 0 0
0 0 0
0 0 0
0 0 0
0 0 0
0 0 0
0 0 0
0 0 0
0 0 0
0 0 0
0 0 0
0 0 0
0 0 0
0 0 0
0 0 0
0 0 0
0 0 0
0 0 0
0 0 0
0 0 0
0 0 0
0 0 0
0 0 0
0 0 0
0 0 0
0 0 0
0 0 0
0 0 0
0 0 0
0 0 0
0 0 0
0 0 0
0 0 0
0 0 0
0 0 0
0 0 0
0 0 0
0 0 0
0 0 0
0 0 0
0 0 0
0 0 0
0 0 0
0 0 0
0 0 0
0 0 0
0 0 0
0 0 0
0 0 0
0 0 0
0 0 0
0 0 0
0 0 0
0 0 0
0 0 0
0 0 0
0 0 0
0 0 0
0 0 0
0 0 0
0 0 0
0 0 0
0 0 0
0 0 0
0 0 0
0 0 0
0 0 0
0 0 0
0 0 0
0 0 0
0 0 0
0 0 0
0 0 0
0 0 0
0 0 0
0 0 0
0 0 0
0 0 0
0 0 0
0 0 0
0 0 0
0 0 0
0 0 0
0 0 0
0 0 0
0 0 0
0 0 0
0 0 0
0 0 0
0 0 0
0 0 0
0 0 0
0 0 0
0 0 0
0 0 0
0 0 0
0 0 0
0 0 0
0 0 0
0 0 0
0 0 0
0 0 0
0 0 0
0 0 0
0 0 0
0 0 0
0 0 0
0 0 0
0 0 0
0 0 0
0 0 0
0 0 0
0 0 0
0 0 0
0 0 0
0 0 0
0 0 0
0 0 0
0 0 0
0 0 0
0 0 0
0 0 0
0 0 0
0 0 0
0 0 0
0 0 0
0 0 0
0 0 0
0 0 0
0 0 0
0 0 0
0 0 0
0 0 0
0 0 0
0 0 0
0 0 0
0 0 0
0 0 0
0 0 0
0 0 0
0 0 0
0 0 0
0 0 0
0 0 0
0 0 0
0 0 0
0 0 0
0 0 0
0 0 0
0 0 0
0 0 0
0 0 0
0 0 0
0 0 0
0 0 0
0 0 0
0 0 0
0 0 0
0 0 0
0 0 0
0 0 0
0 0 0
0 0 0
0 0 0
0 0 0
0 0 0
0 0 0
0 0 0
0 0 0
0 0 0
0 0 0
0 0 0
0 0 0
0 0 0
0 0 0
0 0 0
0 0 0
0 0 0
0 0 0
0 0 0
0 0 0
0 0 0
0 0 0
0 0 0
0 0 0
0 0 0
0 0 0
0 0 0
0 0 0
0 0 0
0 0 0
0 0 0
0 0 0
0 0 0
0 0 0
0 0 0
0 0 0
0 0 0
0 0 0
0 0 0
0 0 0
0 0 0
0 0 0
0 0 0
0 0 0
0 0 0
0 0 0
0 0 0
0 0 0
0 0 0
0 0 0
0 0 0
0 0 0
0 0 0
0 0 0
0 0 0
0 0 0
0 0 0
0 0 0
0 0 0
0 0 0
0 0 0
0 0 0
0 0 0
0 0 0
0 0 0
0 0 0
0 0 0
0 0 0
0 0 0
0 0 0
0 0 0
0 0 0
0 0 0
0 0 0
0 0 0
0 0 0
0 0 0
0 0 0
0 0 0
0 0 0
0 0 0
0 0 0
0 0 0
0 0 0
0 0 0
0 0 0
0 0 0
0 0 0
0 0 0
0 0 0
0 0 0
0 0 0
0 0 0
0 0 0
0 0 0
0 0 0
0 0 0
0 0 0
0 0 0
0 0 0
0 0 0
0 0 0
0 0 0
0 0 0
0 0 0
0 0 0
0 0 0
0 0 0
0 0 0
0 0 0
0 0 0
0 0 0
0 0 0
0 0 0
0 0 0
0 0 0
0 0 0
0 0 0
0 0 0
0 0 0
0 0 0
0 0 0
0 0 0
0 0 0
0 0 0
0 0 0
0 0 0
0 0 0
0 0 0
0 0 0
0 0 0
0 0 0
0 0 0
0 0 0
0 0 0
0 0 0
0 0 0
0 0 0
0 0 0
0 0 0
0 0 0
0 0 0
0 0 0
0 0 0
0 0 0
0 0 0
0 0 0
0 0 0
0 0 0
0 0 0
0 0 0
0 0 0
0 0 0
0 0 0
0 0 0
0 0 0
0 0 0
0 0 0
0 0 0
0 0 0
0 0 0
0 0 0
0 0 0
0 0 0
0 0 0
0 0 0
0 0 0
0 0 0
0 0 0
0 0 0
0 0 0
0 0 0
0 0 0
0 0 0
0 0 0
0 0 0
0 0 0
0 0 0
0 0 0
0 0 0
0 0 0
0 0 0
0 0 0
0 0 0
0 0 0
0 0 0
0 0 0
0 0 0
0 0 0
0 0 0
0 0 0
0 0 0
0 0 0
0 0 0
0 0 0
0 0 0
0 0 0
0 0 0
0 0 0
0 0 0
0 0 0
0 0 0
0 0 0
0 0 0
0 0 0
0 0 0
0 0 0
0 0 0
0 0 0
0 0 0
0 0 0
0 0 0
0 0 0
0 0 0
0 0 0
0 0 0
0 0 0
0 0 0
0 0 0
0 0 0
0 0 0
0 0 0
0 0 0
0 0 0
0 0 0
0 0 0
0 0 0
0 0 0
0 0 0
0 0 0
0 0 0
0 0 0
0 0 0
0 0 0
0 0 0
0 0 0
0 0 0
0 0 0
0 0 0
0 0 0
0 0 0
0 0 0
0 0 0
0 0 0
0 0 0
0 0 0
0 0 0
0 0 0
0 0 0
0 0 0
0 0 0
0 0 0
0 0 0
0 0 0
0 0 0
0 0 0
0 0 0
0 0 0
0 0 0
0 0 0
0 0 0
0 0 0
0 0 0
0 0 0
0 0 0
0 0 0
0 0 0
0 0 0
0 0 0
0 0 0
0 0 0
0 0 0
0 0 0
0 0 0
0 0 0
0 0 0
0 0 0
0 0 0
0 0 0
0 0 0
0 0 0
0 0 0
0 0 0
0 0 0
0 0 0
0 0 0
0 0 0
0 0 0
0 0 0
0 0 0
0 0 0
0 0 0
0 0 0
0 0 0
0 0 0
0 0 0
0 0 0
0 0 0
0 0 0
0 0 0
0 0 0
0 0 0
0 0 0
0 0 0
0 0 0
0 0 0
0 0 0
0 0 0
0 0 0
0 0 0
0 0 0
0 0 0
0 0 0
0 0 0
0 0 0
0 0 0
0 0 0
0 0 0
0 0 0
0 0 0
0 0 0
0 0 0
0 0 0
0 0 0
0 0 0
0 0 0
0 0 0
0 0 0
0 0 0
0 0 0
0 0 0
0 0 0
0 0 0
0 0 0
0 0 0
0 0 0
0 0 0
0 0 0
0 0 0
0 0 0
0 0 0
0 0 0
0 0 0
0 0 0
0 0 0
0 0 0
0 0 0
0 0 0
0 0 0
0 0 0
0 0 0
0 0 0
0 0 0
0 0 0
0 0 0
0 0 0
0 0 0
0 0 0
0 0 0
0 0 0
0 0 0
0 0 0
0 0 0
0 0 0
0 0 0
0 0 0
0 0 0
0 0 0
0 0 0
0 0 0
0 0 0
0 0 0
0 0 0
0 0 0
0 0 0
0 0 0
0 0 0
0 0 0
0 0 0
0 0 0
0 0 0
0 0 0
0 0 0
0 0 0
0 0 0
0 0 0
0 0 0
0 0 0
0 0 0
0 0 0
0 0 0
0 0 0
0 0 0
0 0 0
0 0 0
0 0 0
0 0 0
0 0 0
0 0 0
0 0 0
0 0 0
0 0 0
0 0 0
0 0 0
0 0 0
0 0 0
0 0 0
0 0 0
0 0 0
0 0 0
0 0 0
0 0 0
0 0 0
0 0 0
0 0 0
0 0 0
0 0 0
0 0 0
0 0 0
0 0 0
0 0 0
0 0 0
0 0 0
0 0 0
0 0 0
0 0 0
0 0 0
0 0 0
0 0 0
0 0 0
0 0 0
0 0 0
0 0 0
0 0 0
0 0 0
0 0 0
0 0 0
0 0 0
0 0 0
0 0 0
0 0 0
0 0 0
0 0 0
0 0 0
0 0 0
0 0 0
0 0 0
0 0 0
0 0 0
0 0 0
0 0 0
0 0 0
0 0 0
0 0 0
0 0 0
0 0 0
0 0 0
0 0 0
0 0 0
0 0 0
0 0 0
0 0 0
0 0 0
0 0 0
0 0 0
0 0 0
0 0 0
0 0 0
0 0 0
0 0 0
0 0 0
0 0 0
0 0 0
0 0 0
0 0 0
0 0 0
0 0 0
0 0 0
0 0 0
0 0 0
0 0 0
0 0 0
0 0 0
0 0 0
0 0 0
0 0 0
0 0 0
0 0 0
0 0 0
0 0 0
0 0 0
0 0 0
0 0 0
0 0 0
0 0 0
0 0 0
0 0 0
0 0 0
0 0 0
0 0 0
0 0 0
0 0 0
0 0 0
0 0 0
0 0 0
0 0 0
0 0 0
0 0 0
0 0 0
0 0 0
0 0 0
0 0 0
0 0 0
0 0 0
0 0 0
0 0 0
0 0 0
0 0 0
0 0 0
0 0 0
0 0 0
0 0 0
0 0 0
0 0 0
0 0 0
0 0 0
0 0 0
0 0 0
0 0 0
0 0 0
0 0 0
0 0 0
0 0 0
0 0 0
0 0 0
0 0 0
0 0 0
0 0 0
0 0 0
0 0 0
0 0 0
0 0 0
0 0 0
0 0 0
0 0 0
0 0 0
0 0 0
0 0 0
0 0 0
0 0 0
0 0 0
0 0 0
0 0 0
0 0 0
0 0 0
0 0 0
0 0 0
0 0 0
0 0 0
0 0 0
0 0 0
0 0 0
0 0 0
0 0 0
0 0 0
0 0 0
0 0 0
0 0 0
0 0 0
0 0 0
0 0 0
0 0 0
0 0 0
0 0 0
0 0 0
0 0 0
0 0 0
0 0 0
0 0 0
0 0 0
0 0 0
0 0 0
0 0 0
0 0 0
0 0 0
0 0 0
0 0 0
0 0 0
0 0 0
0 0 0
0 0 0
0 0 0
0 0 0
0 0 0
0 0 0
0 0 0
0 0 0
0 0 0
0 0 0
0 0 0
0 0 0
0 0 0
0 0 0
0 0 0
0 0 0
0 0 0
0 0 0
0 0 0
0 0 0
0 0 0
0 0 0
0 0 0
0 0 0
0 0 0
0 0 0
0 0 0
0 0 0
0 0 0
0 0 0
0 0 0
0 0 0
0 0 0
0 0 0
0 0 0
0 0 0
0 0 0
0 0 0
0 0 0
0 0 0
0 0 0
0 0 0
0 0 0
0 0 0
0 0 0
0 0 0
0 0 0
0 0 0
0 0 0
0 0 0
0 0 0
0 0 0
0 0 0
0 0 0
0 0 0
0 0 0
0 0 0
0 0 0
0 0 0
0 0 0
0 0 0
0 0 0
0 0 0
0 0 0
0 0 0
0 0 0
0 0 0
0 0 0
0 0 0
0 0 0
0 0 0
0 0 0
0 0 0
0 0 0
0 0 0
0 0 0
0 0 0
0 0 0
0 0 0
0 0 0
0 0 0
0 0 0
0 0 0
0 0 0
0 0 0
0 0 0
0 0 0
0 0 0
0 0 0
0 0 0
0 0 0
0 0 0
0 0 0
0 0 0
0 0 0
0 0 0
0 0 0
0 0 0
0 0 0
0 0 0
0 0 0
0 0 0
0 0 0
0 0 0
0 0 0
0 0 0
0 0 0
0 0 0
0 0 0
0 0 0
0 0 0
0 0 0
0 0 0
0 0 0
0 0 0
0 0 0
0 0 0
0 0 0
0 0 0
0 0 0
0 0 0
0 0 0
0 0 0
0 0 0
0 0 0
0 0 0
0 0 0
0 0 0
0 0 0
0 0 0
0 0 0
0 0 0
0 0 0
0 0 0
0 0 0
0 0 0
0 0 0
0 0 0
0 0 0
0 0 0
0 0 0
0 0 0
0 0 0
0 0 0
0 0 0
0 0 0
0 0 0
0 0 0
0 0 0
0 0 0
0 0 0
0 0 0
0 0 0
0 0 0
0 0 0
0 0 0
0 0 0
0 0 0
0 0 0
0 0 0
0 0 0
0 0 0
0 0 0
0 0 0
0 0 0
0 0 0
0 0 0
0 0 0
0 0 0
0 0 0
0 0 0
0 0 0
0 0 0
0 0 0
0 0 0
0 0 0
0 0 0
0 0 0
0 0 0
0 0 0
0 0 0
0 0 0
0 0 0
0 0 0
0 0 0
0 0 0
0 0 0
0 0 0
0 0 0
0 0 0
0 0 0
0 0 0
0 0 0
0 0 0
0 0 0
0 0 0
0 0 0
0 0 0
0 0 0
0 0 0
0 0 0
0 0 0
0 0 0
0 0 0
0 0 0
0 0 0
0 0 0
0 0 0
0 0 0
0 0 0
0 0 0
0 0 0
0 0 0
0 0 0
0 0 0
0 0 0
0 0 0
0 0 0
0 0 0
0 0 0
0 0 0
0 0 0
0 0 0
0 0 0
0 0 0
0 0 0
0 0 0
0 0 0
0 0 0
0 0 0
0 0 0
0 0 0
0 0 0
0 0 0
0 0 0
0 0 0
0 0 0
0 0 0
0 0 0
0 0 0
0 0 0
0 0 0
0 0 0
0 0 0
0 0 0
0 0 0
0 0 0
0 0 0
0 0 0
0 0 0
0 0 0
0 0 0
0 0 0
0 0 0
0 0 0
0 0 0
0 0 0
0 0 0
0 0 0
0 0 0
0 0 0
0 0 0
0 0 0
0 0 0
0 0 0
0 0 0
0 0 0
0 0 0
0 0 0
0 0 0
0 0 0
0 0 0
0 0 0
0 0 0
0 0 0
0 0 0
0 0 0
0 0 0
0 0 0
0 0 0
0 0 0
0 0 0
0 0 0
0 0 0
0 0 0
0 0 0
0 0 0
0 0 0
0 0 0
0 0 0
0 0 0
0 0 0
0 0 0
0 0 0
0 0 0
0 0 0
0 0 0
0 0 0
0 0 0
0 0 0
0 0 0
0 0 0
0 0 0
0 0 0
0 0 0
0 0 0
0 0 0
0 0 0
0 0 0
0 0 0
0 0 0
0 0 0
0 0 0
0 0 0
0 0 0
0 0 0
0 0 0
0 0 0
0 0 0
0 0 0
0 0 0
0 0 0
0 0 0
0 0 0
0 0 0
0 0 0
0 0 0
0 0 0
0 0 0
0 0 0
0 0 0
0 0 0
0 0 0
0 0 0
0 0 0
0 0 0
0 0 0
0 0 0
0 0 0
0 0 0
0 0 0
0 0 0
0 0 0
0 0 0
0 0 0
0 0 0
0 0 0
0 0 0
0 0 0
0 0 0
0 0 0
0 0 0
0 0 0
0 0 0
0 0 0
0 0 0
0 0 0
0 0 0
0 0 0
0 0 0
0 0 0
0 0 0
0 0 0
0 0 0
0 0 0
0 0 0
0 0 0
0 0 0
0 0 0
0 0 0
0 0 0
0 0 0
0 0 0
0 0 0
0 0 0
0 0 0
0 0 0
0 0 0
0 0 0
0 0 0
0 0 0
0 0 0
0 0 0
0 0 0
0 0 0
0 0 0
0 0 0
0 0 0
0 0 0
0 0 0
0 0 0
0 0 0
0 0 0
0 0 0
0 0 0
0 0 0
0 0 0
0 0 0
0 0 0
0 0 0
0 0 0
0 0 0
0 0 0
0 0 0
0 0 0
0 0 0
0 0 0
0 0 0
0 0 0
0 0 0
0 0 0
0 0 0
0 0 0
0 0 0
0 0 0
0 0 0
0 0 0
0 0 0
0 0 0
0 0 0
0 0 0
0 0 0
0 0 0
0 0 0
0 0 0
0 0 0
0 0 0
0 0 0
0 0 0
0 0 0
0 0 0
0 0 0
0 0 0
0 0 0
0 0 0
0 0 0
0 0 0
0 0 0
0 0 0
0 0 0
0 0 0
0 0 0
0 0 0
0 0 0
0 0 0
0 0 0
0 0 0
0 0 0
0 0 0
0 0 0
0 0 0
0 0 0
0 0 0
0 0 0
0 0 0
0 0 0
0 0 0
0 0 0
0 0 0
0 0 0
0 0 0
0 0 0
0 0 0
0 0 0
0 0 0
0 0 0
0 0 0
0 0 0
0 0 0
0 0 0
0 0 0
0 0 0
0 0 0
0 0 0
0 0 0
0 0 0
0 0 0
0 0 0
0 0 0
0 0 0
0 0 0
0 0 0
0 0 0
0 0 0
0 0 0
0 0 0
0 0 0
0 0 0
0 0 0
0 0 0
0 0 0
0 0 0
0 0 0
0 0 0
0 0 0
0 0 0
0 0 0
0 0 0
0 0 0
0 0 0
0 0 0
0 0 0
0 0 0
0 0 0
0 0 0
0 0 0
0 0 0
0 0 0
0 0 0
0 0 0
0 0 0
0 0 0
0 0 0
0 0 0
0 0 0
0 0 0
0 0 0
0 0 0
0 0 0
0 0 0
0 0 0
0 0 0
0 0 0
0 0 0
0 0 0
0 0 0
0 0 0
0 0 0
0 0 0
0 0 0
0 0 0
0 0 0
0 0 0
0 0 0
0 0 0
0 0 0
0 0 0
0 0 0
0 0 0
0 0 0
0 0 0
0 0 0
0 0 0
0 0 0
0 0 0
0 0 0
0 0 0
0 0 0
0 0 0
0 0 0
0 0 0
0 0 0
0 0 0
0 0 0
0 0 0
0 0 0
0 0 0
0 0 0
0 0 0
0 0 0
0 0 0
0 0 0
0 0 0
0 0 0
0 0 0
0 0 0
0 0 0
0 0 0
0 0 0
0 0 0
0 0 0
0 0 0
0 0 0
0 0 0
0 0 0
0 0 0
0 0 0
0 0 0
0 0 0
0 0 0
0 0 0
0 0 0
0 0 0
0 0 0
0 0 0
0 0 0
0 0 0
0 0 0
0 0 0
0 0 0
0 0 0
0 0 0
0 0 0
0 0 0
0 0 0
0 0 0
0 0 0
0 0 0
0 0 0
0 0 0
0 0 0
0 0 0
0 0 0
0 0 0
0 0 0
0 0 0
0 0 0
0 0 0
0 0 0
0 0 0
0 0 0
0 0 0
0 0 0
0 0 0
0 0 0
0 0 0
0 0 0
0 0 0
0 0 0
0 0 0
0 0 0
0 0 0
0 0 0
0 0 0
0 0 0
0 0 0
0 0 0
0 0 0
0 0 0
0 0 0
0 0 0
0 0 0
0 0 0
0 0 0
0 0 0
0 0 0
0 0 0
0 0 0
0 0 0
0 0 0
0 0 0
0 0 0
0 0 0
0 0 0
0 0 0
0 0 0
0 0 0
0 0 0
0 0 0
0 0 0
0 0 0
0 0 0
0 0 0
0 0 0
0 0 0
0 0 0
0 0 0
0 0 0
0 0 0
0 0 0
0 0 0
0 0 0
0 0 0
0 0 0
0 0 0
0 0 0
0 0 0
0 0 0
0 0 0
0 0 0
0 0 0
0 0 0
0 0 0
0 0 0
0 0 0
0 0 0
0 0 0
0 0 0
0 0 0
0 0 0
0 0 0
0 0 0
0 0 0
0 0 0
0 0 0
0 0 0
0 0 0
0 0 0
0 0 0
0 0 0
0 0 0
0 0 0
0 0 0
0 0 0
0 0 0
0 0 0
0 0 0
0 0 0
0 0 0
0 0 0
0 0 0
0 0 0
0 0 0
0 0 0
0 0 0
0 0 0
0 0 0
0 0 0
0 0 0
0 0 0
0 0 0
0 0 0
0 0 0
0 0 0
0 0 0
0 0 0
0 0 0
0 0 0
0 0 0
0 0 0
0 0 0
0 0 0
0 0 0
0 0 0
0 0 0
0 0 0
0 0 0
0 0 0
0 0 0
0 0 0
0 0 0
0 0 0
0 0 0
0 0 0
0 0 0
0 0 0
0 0 0
0 0 0
0 0 0
0 0 0
0 0 0
0 0 0
0 0 0
0 0 0
0 0 0
0 0 0
0 0 0
0 0 0
0 0 0
0 0 0
0 0 0
0 0 0
0 0 0
0 0 0
0 0 0
0 0 0
0 0 0
0 0 0
0 0 0
0 0 0
0 0 0
0 0 0
0 0 0
0 0 0
0 0 0
0 0 0
0 0 0
0 0 0
0 0 0
0 0 0
0 0 0
0 0 0
0 0 0
0 0 0
0 0 0
0 0 0
0 0 0
0 0 0
0 0 0
0 0 0
0 0 0
0 0 0
0 0 0
0 0 0
0 0 0
0 0 0
0 0 0
0 0 0
0 0 0
0 0 0
0 0 0
0 0 0
0 0 0
0 0 0
0 0 0
0 0 0
0 0 0
0 0 0
0 0 0
0 0 0
0 0 0
0 0 0
0 0 0
0 0 0
0 0 0
0 0 0
0 0 0
0 0 0
0 0 0
0 0 0
0 0 0
0 0 0
0 0 0
0 0 0
0 0 0
0 0 0
0 0 0
0 0 0
0 0 0
0 0 0
0 0 0
0 0 0
0 0 0
0 0 0
0 0 0
0 0 0
0 0 0
0 0 0
0 0 0
0 0 0
0 0 0
0 0 0
0 0 0
0 0 0
0 0 0
0 0 0
0 0 0
0 0 0
0 0 0
0 0 0
0 0 0
0 0 0
0 0 0
0 0 0
0 0 0
0 0 0
0 0 0
0 0 0
0 0 0
0 0 0
0 0 0
0 0 0
0 0 0
0 0 0
0 0 0
0 0 0
0 0 0
0 0 0
0 0 0
0 0 0
0 0 0
0 0 0
0 0 0
0 0 0
0 0 0
0 0 0
0 0 0
0 0 0
0 0 0
0 0 0
0 0 0
0 0 0
0 0 0
0 0 0
0 0 0
0 0 0
0 0 0
0 0 0
0 0 0
0 0 0
0 0 0
0 0 0
0 0 0
0 0 0
0 0 0
0 0 0
0 0 0
0 0 0
0 0 0
0 0 0
0 0 0
0 0 0
0 0 0
0 0 0
0 0 0
0 0 0
0 0 0
0 0 0
0 0 0
0 0 0
0 0 0
0 0 0
0 0 0
0 0 0
0 0 0
0 0 0
0 0 0
0 0 0
0 0 0
0 0 0
0 0 0
0 0 0
0 0 0
0 0 0
0 0 0
0 0 0
0 0 0
0 0 0
0 0 0
0 0 0
0 0 0
0 0 0
0 0 0
0 0 0
0 0 0
0 0 0
0 0 0
0 0 0
0 0 0
0 0 0
0 0 0
0 0 0
0 0 0
0 0 0
0 0 0
0 0 0
0 0 0
0 0 0
0 0 0
0 0 0
0 0 0
0 0 0
0 0 0
0 0 0
0 0 0
0 0 0
0 0 0
0 0 0
0 0 0
0 0 0
0 0 0
0 0 0
0 0 0
0 0 0
0 0 0
0 0 0
0 0 0
0 0 0
0 0 0
0 0 0
0 0 0
0 0 0
0 0 0
0 0 0
0 0 0
0 0 0
0 0 0
0 0 0
0 0 0
0 0 0
0 0 0
0 0 0
0 0 0
0 0 0
0 0 0
0 0 0
0 0 0
0 0 0
0 0 0
0 0 0
0 0 0
0 0 0
0 0 0
0 0 0
0 0 0
0 0 0
0 0 0
0 0 0
0 0 0
0 0 0
0 0 0
0 0 0
0 0 0
0 0 0
0 0 0
0 0 0
0 0 0
0 0 0
0 0 0
0 0 0
0 0 0
0 0 0
0 0 0
0 0 0
0 0 0
0 0 0
0 0 0
0 0 0
0 0 0
0 0 0
0 0 0
0 0 0
0 0 0
0 0 0
0 0 0
0 0 0
0 0 0
0 0 0
0 0 0
0 0 0
0 0 0
0 0 0
0 0 0
0 0 0
0 0 0
0 0 0
0 0 0
0 0 0
0 0 0
0 0 0
0 0 0
0 0 0
0 0 0
0 0 0
0 0 0
0 0 0
0 0 0
0 0 0
0 0 0
0 0 0
0 0 0
0 0 0
0 0 0
0 0 0
0 0 0
0 0 0
0 0 0
0 0 0
0 0 0
0 0 0
0 0 0
0 0 0
0 0 0
0 0 0
0 0 0
0 0 0
0 0 0
0 0 0
0 0 0
0 0 0
0 0 0
0 0 0
0 0 0
0 0 0
0 0 0
0 0 0
0 0 0
0 0 0
0 0 0
0 0 0
0 0 0
0 0 0
0 0 0
0 0 0
0 0 0
0 0 0
0 0 0
0 0 0
0 0 0
0 0 0
0 0 0
0 0 0
0 0 0
0 0 0
0 0 0
0 0 0
0 0 0
0 0 0
0 0 0
0 0 0
0 0 0
0 0 0
0 0 0
0 0 0
0 0 0
0 0 0
0 0 0
0 0 0
0 0 0
0 0 0
0 0 0
0 0 0
0 0 0
0 0 0
0 0 0
0 0 0
0 0 0
0 0 0
0 0 0
0 0 0
0 0 0
0 0 0
0 0 0
0 0 0
0 0 0
0 0 0
0 0 0
0 0 0
0 0 0
0 0 0
0 0 0
0 0 0
0 0 0
0 0 0
0 0 0
0 0 0
0 0 0
0 0 0
0 0 0
0 0 0
0 0 0
0 0 0
0 0 0
0 0 0
0 0 0
0 0 0
0 0 0
0 0 0
0 0 0
0 0 0
0 0 0
0 0 0
0 0 0
0 0 0
0 0 0
0 0 0
0 0 0
0 0 0
0 0 0
0 0 0
0 0 0
0 0 0
0 0 0
0 0 0
0 0 0
186 86 86
186 86 86
186 86 86
186 86 86
186 86 86
186 86 86
186 86 86
186 86 86
186 86 86
186 86 86
186 86 86
186 86 86
186 86 86
186 86 86
186 86 86
186 86 86
186 86 86
186 86 86
186 86 86
186 86 86
186 86 86
186 86 86
186 86 86
186 86 86
186 86 86
186 86 86
186 86 86
186 86 86
186 86 86
186 86 86
186 86 86
186 86 86
186 86 86
186 86 86
186 86 86
186 86 86
186 86 86
186 86 86
186 86 86
186 86 86
186 86 86
186 86 86
186 86 86
186 86 86
186 86 86
186 86 86
186 86 86
186 86 86
186 86 86
186 86 86
186 86 86
186 86 86
186 86 86
186 86 86
186 86 86
186 86 86
186 86 86
186 86 86
186 86 86
186 86 86
186 86 86
186 86 86
186 86 86
186 86 86
186 86 86
186 86 86
186 86 86
186 86 86
186 86 86
186 86 86
186 86 86
186 86 86
186 86 86
186 86 86
186 86 86
186 86 86
186 86 86
186 86 86
186 86 86
186 86 86
186 86 86
186 86 86
186 86 86
186 86 86
186 86 86
186 86 86
186 86 86
186 86 86
186 86 86
186 86 86
186 86 86
186 86 86
186 86 86
186 86 86
186 86 86
186 86 86
0 0 0
0 0 0
0 0 0
0 0 0
0 0 0
0 0 0
0 0 0
0 0 0
0 0 0
0 0 0
0 0 0
0 0 0
0 0 0
0 0 0
0 0 0
0 0 0
86 186 86
86 186 86
86 186 86
86 186 86
86 186 86
86 186 86
86 186 86
86 186 86
86 186 86
86 186 86
86 186 86
86 186 86
86 186 86
86 186 86
86 186 86
86 186 86
86 186 86
86 186 86
86 186 86
86 186 86
86 186 86
86 186 86
86 186 86
86 186 86
86 186 86
86 186 86
86 186 86
86 186 86
86 186 86
86 186 86
86 186 86
86 186 86
86 186 86
86 186 86
86 186 86
86 186 86
86 186 86
86 186 86
86 186 86
86 186 86
86 186 86
86 186 86
86 186 86
86 186 86
86 186 86
86 186 86
86 186 86
86 186 86
86 186 86
86 186 86
86 186 86
86 186 86
86 186 86
86 186 86
86 186 86
86 186 86
86 186 86
86 186 86
86 186 86
86 186 86
86 186 86
86 186 86
86 186 86
86 186 86
86 186 86
86 186 86
86 186 86
86 186 86
86 186 86
86 186 86
86 186 86
86 186 86
86 186 86
86 186 86
86 186 86
86 186 86
86 186 86
86 186 86
86 186 86
86 186 86
86 186 86
86 186 86
86 186 86
86 186 86
86 186 86
86 186 86
86 186 86
86 186 86
86 186 86
86 186 86
86 186 86
86 186 86
86 186 86
86 186 86
86 186 86
86 186 86
0 0 0
0 0 0
0 0 0
0 0 0
0 0 0
0 0 0
0 0 0
0 0 0
0 0 0
0 0 0
0 0 0
0 0 0
0 0 0
0 0 0
0 0 0
0 0 0
0 0 0
0 0 0
0 0 0
0 0 0
0 0 0
0 0 0
0 0 0
0 0 0
0 0 0
0 0 0
0 0 0
0 0 0
0 0 0
0 0 0
0 0 0
0 0 0
0 0 0
0 0 0
0 0 0
0 0 0
0 0 0
0 0 0
0 0 0
0 0 0
0 0 0
0 0 0
0 0 0
0 0 0
0 0 0
0 0 0
0 0 0
0 0 0
186 86 86
186 86 86
186 86 86
186 86 86
186 86 86
186 86 86
186 86 86
186 86 86
186 86 86
186 86 86
186 86 86
186 86 86
186 86 86
186 86 86
186 86 86
186 86 86
186 86 86
186 86 86
186 86 86
186 86 86
186 86 86
186 86 86
186 86 86
186 86 86
186 86 86
186 86 86
186 86 86
186 86 86
186 86 86
186 86 86
186 86 86
186 86 86
186 86 86
186 86 86
186 86 86
186 86 86
186 86 86
186 86 86
186 86 86
186 86 86
186 86 86
186 86 86
186 86 86
186 86 86
186 86 86
186 86 86
186 86 86
186 86 86
186 86 86
186 86 86
186 86 86
186 86 86
186 86 86
186 86 86
186 86 86
186 86 86
186 86 86
186 86 86
186 86 86
186 86 86
186 86 86
186 86 86
186 86 86
186 86 86
186 86 86
186 86 86
186 86 86
186 86 86
186 86 86
186 86 86
186 86 86
186 86 86
186 86 86
186 86 86
186 86 86
186 86 86
186 86 86
186 86 86
186 86 86
186 86 86
186 86 86
186 86 86
186 86 86
186 86 86
186 86 86
186 86 86
186 86 86
186 86 86
186 86 86
186 86 86
186 86 86
186 86 86
186 86 86
186 86 86
186 86 86
186 86 86
0 0 0
0 0 0
0 0 0
0 0 0
0 0 0
0 0 0
0 0 0
0 0 0
0 0 0
0 0 0
0 0 0
0 0 0
0 0 0
0 0 0
0 0 0
0 0 0
86 186 86
86 186 86
86 186 86
86 186 86
86 186 86
86 186 86
86 186 86
86 186 86
86 186 86
86 186 86
86 186 86
86 186 86
86 186 86
86 186 86
86 186 86
86 186 86
86 186 86
86 186 86
86 186 86
86 186 86
86 186 86
86 186 86
86 186 86
86 186 86
86 186 86
86 186 86
86 186 86
86 186 86
86 186 86
86 186 86
86 186 86
86 186 86
86 186 86
86 186 86
86 186 86
86 186 86
86 186 86
86 186 86
86 186 86
86 186 86
86 186 86
86 186 86
86 186 86
86 186 86
86 186 86
86 186 86
86 186 86
86 186 86
86 186 86
86 186 86
86 186 86
86 186 86
86 186 86
86 186 86
86 186 86
86 186 86
86 186 86
86 186 86
86 186 86
86 186 86
86 186 86
86 186 86
86 186 86
86 186 86
86 186 86
86 186 86
86 186 86
86 186 86
86 186 86
86 186 86
86 186 86
86 186 86
86 186 86
86 186 86
86 186 86
86 186 86
86 186 86
86 186 86
86 186 86
86 186 86
86 186 86
86 186 86
86 186 86
86 186 86
86 186 86
86 186 86
86 186 86
86 186 86
86 186 86
86 186 86
86 186 86
86 186 86
86 186 86
86 186 86
86 186 86
86 186 86
0 0 0
0 0 0
0 0 0
0 0 0
0 0 0
0 0 0
0 0 0
0 0 0
0 0 0
0 0 0
0 0 0
0 0 0
0 0 0
0 0 0
0 0 0
0 0 0
0 0 0
0 0 0
0 0 0
0 0 0
0 0 0
0 0 0
0 0 0
0 0 0
0 0 0
0 0 0
0 0 0
0 0 0
0 0 0
0 0 0
0 0 0
0 0 0
0 0 0
0 0 0
0 0 0
0 0 0
0 0 0
0 0 0
0 0 0
0 0 0
0 0 0
0 0 0
0 0 0
0 0 0
0 0 0
0 0 0
0 0 0
0 0 0
186 86 86
186 86 86
186 86 86
186 86 86
186 86 86
186 86 86
186 86 86
186 86 86
186 86 86
186 86 86
186 86 86
186 86 86
186 86 86
186 86 86
186 86 86
186 86 86
186 86 86
186 86 86
186 86 86
186 86 86
186 86 86
186 86 86
186 86 86
186 86 86
186 86 86
186 86 86
186 86 86
186 86 86
186 86 86
186 86 86
186 86 86
186 86 86
186 86 86
186 86 86
186 86 86
186 86 86
186 86 86
186 86 86
186 86 86
186 86 86
186 86 86
186 86 86
186 86 86
186 86 86
186 86 86
186 86 86
186 86 86
186 86 86
186 86 86
186 86 86
186 86 86
186 86 86
186 86 86
186 86 86
186 86 86
186 86 86
186 86 86
186 86 86
186 86 86
186 86 86
186 86 86
186 86 86
186 86 86
186 86 86
186 86 86
186 86 86
186 86 86
186 86 86
186 86 86
186 86 86
186 86 86
186 86 86
186 86 86
186 86 86
186 86 86
186 86 86
186 86 86
186 86 86
186 86 86
186 86 86
186 86 86
186 86 86
186 86 86
186 86 86
186 86 86
186 86 86
186 86 86
186 86 86
186 86 86
186 86 86
186 86 86
186 86 86
186 86 86
186 86 86
186 86 86
186 86 86
0 0 0
0 0 0
0 0 0
0 0 0
0 0 0
0 0 0
0 0 0
0 0 0
0 0 0
0 0 0
0 0 0
0 0 0
0 0 0
0 0 0
0 0 0
0 0 0
86 186 86
86 186 86
86 186 86
86 186 86
86 186 86
86 186 86
86 186 86
86 186 86
86 186 86
86 186 86
86 186 86
86 186 86
86 186 86
86 186 86
86 186 86
86 186 86
86 186 86
86 186 86
86 186 86
86 186 86
86 186 86
86 186 86
86 186 86
86 186 86
86 186 86
86 186 86
86 186 86
86 186 86
86 186 86
86 186 86
86 186 86
86 186 86
86 186 86
86 186 86
86 186 86
86 186 86
86 186 86
86 186 86
86 186 86
86 186 86
86 186 86
86 186 86
86 186 86
86 186 86
86 186 86
86 186 86
86 186 86
86 186 86
86 186 86
86 186 86
86 186 86
86 186 86
86 186 86
86 186 86
86 186 86
86 186 86
86 186 86
86 186 86
86 186 86
86 186 86
86 186 86
86 186 86
86 186 86
86 186 86
86 186 86
86 186 86
86 186 86
86 186 86
86 186 86
86 186 86
86 186 86
86 186 86
86 186 86
86 186 86
86 186 86
86 186 86
86 186 86
86 186 86
86 186 86
86 186 86
86 186 86
86 186 86
86 186 86
86 186 86
86 186 86
86 186 86
86 186 86
86 186 86
86 186 86
86 186 86
86 186 86
86 186 86
86 186 86
86 186 86
86 186 86
86 186 86
0 0 0
0 0 0
0 0 0
0 0 0
0 0 0
0 0 0
0 0 0
0 0 0
0 0 0
0 0 0
0 0 0
0 0 0
0 0 0
0 0 0
0 0 0
0 0 0
0 0 0
0 0 0
0 0 0
0 0 0
0 0 0
0 0 0
0 0 0
0 0 0
0 0 0
0 0 0
0 0 0
0 0 0
0 0 0
0 0 0
0 0 0
0 0 0
0 0 0
0 0 0
0 0 0
0 0 0
0 0 0
0 0 0
0 0 0
0 0 0
0 0 0
0 0 0
0 0 0
0 0 0
0 0 0
0 0 0
0 0 0
0 0 0
186 86 86
186 86 86
186 86 86
186 86 86
186 86 86
186 86 86
186 86 86
186 86 86
186 86 86
186 86 86
186 86 86
186 86 86
186 86 86
186 86 86
186 86 86
186 86 86
186 86 86
186 86 86
186 86 86
186 86 86
186 86 86
186 86 86
186 86 86
186 86 86
186 86 86
186 86 86
186 86 86
186 86 86
186 86 86
186 86 86
186 86 86
186 86 86
186 86 86
186 86 86
186 86 86
186 86 86
186 86 86
186 86 86
186 86 86
186 86 86
186 86 86
186 86 86
186 86 86
186 86 86
186 86 86
186 86 86
186 86 86
186 86 86
186 86 86
186 86 86
186 86 86
186 86 86
186 86 86
186 86 86
186 86 86
186 86 86
186 86 86
186 86 86
186 86 86
186 86 86
186 86 86
186 86 86
186 86 86
186 86 86
186 86 86
186 86 86
186 86 86
186 86 86
186 86 86
186 86 86
186 86 86
186 86 86
186 86 86
186 86 86
186 86 86
186 86 86
186 86 86
186 86 86
186 86 86
186 86 86
186 86 86
186 86 86
186 86 86
186 86 86
186 86 86
186 86 86
186 86 86
186 86 86
186 86 86
186 86 86
186 86 86
186 86 86
186 86 86
186 86 86
186 86 86
186 86 86
0 0 0
0 0 0
0 0 0
0 0 0
0 0 0
0 0 0
0 0 0
0 0 0
0 0 0
0 0 0
0 0 0
0 0 0
0 0 0
0 0 0
0 0 0
0 0 0
86 186 86
86 186 86
86 186 86
86 186 86
86 186 86
86 186 86
86 186 86
86 186 86
86 186 86
86 186 86
86 186 86
86 186 86
86 186 86
86 186 86
86 186 86
86 186 86
86 186 86
86 186 86
86 186 86
86 186 86
86 186 86
86 186 86
86 186 86
86 186 86
86 186 86
86 186 86
86 186 86
86 186 86
86 186 86
86 186 86
86 186 86
86 186 86
86 186 86
86 186 86
86 186 86
86 186 86
86 186 86
86 186 86
86 186 86
86 186 86
86 186 86
86 186 86
86 186 86
86 186 86
86 186 86
86 186 86
86 186 86
86 186 86
86 186 86
86 186 86
86 186 86
86 186 86
86 186 86
86 186 86
86 186 86
86 186 86
86 186 86
86 186 86
86 186 86
86 186 86
86 186 86
86 186 86
86 186 86
86 186 86
86 186 86
86 186 86
86 186 86
86 186 86
86 186 86
86 186 86
86 186 86
86 186 86
86 186 86
86 186 86
86 186 86
86 186 86
86 186 86
86 186 86
86 186 86
86 186 86
86 186 86
86 186 86
86 186 86
86 186 86
86 186 86
86 186 86
86 186 86
86 186 86
86 186 86
86 186 86
86 186 86
86 186 86
86 186 86
86 186 86
86 186 86
86 186 86
0 0 0
0 0 0
0 0 0
0 0 0
0 0 0
0 0 0
0 0 0
0 0 0
0 0 0
0 0 0
0 0 0
0 0 0
0 0 0
0 0 0
0 0 0
0 0 0
0 0 0
0 0 0
0 0 0
0 0 0
0 0 0
0 0 0
0 0 0
0 0 0
0 0 0
0 0 0
0 0 0
0 0 0
0 0 0
0 0 0
0 0 0
0 0 0
0 0 0
0 0 0
0 0 0
0 0 0
0 0 0
0 0 0
0 0 0
0 0 0
0 0 0
0 0 0
0 0 0
0 0 0
0 0 0
0 0 0
0 0 0
0 0 0
186 86 86
186 86 86
186 86 86
186 86 86
186 86 86
186 86 86
186 86 86
186 86 86
186 86 86
186 86 86
186 86 86
186 86 86
186 86 86
186 86 86
186 86 86
186 86 86
186 86 86
186 86 86
186 86 86
186 86 86
186 86 86
186 86 86
186 86 86
186 86 86
186 86 86
186 86 86
186 86 86
186 86 86
186 86 86
186 86 86
186 86 86
186 86 86
186 86 86
186 86 86
186 86 86
186 86 86
186 86 86
186 86 86
186 86 86
186 86 86
186 86 86
186 86 86
186 86 86
186 86 86
186 86 86
186 86 86
186 86 86
186 86 86
186 86 86
186 86 86
186 86 86
186 86 86
186 86 86
186 86 86
186 86 86
186 86 86
186 86 86
186 86 86
186 86 86
186 86 86
186 86 86
186 86 86
186 86 86
186 86 86
186 86 86
186 86 86
186 86 86
186 86 86
186 86 86
186 86 86
186 86 86
186 86 86
186 86 86
186 86 86
186 86 86
186 86 86
186 86 86
186 86 86
186 86 86
186 86 86
186 86 86
186 86 86
186 86 86
186 86 86
186 86 86
186 86 86
186 86 86
186 86 86
186 86 86
186 86 86
186 86 86
186 86 86
186 86 86
186 86 86
186 86 86
186 86 86
0 0 0
0 0 0
0 0 0
0 0 0
0 0 0
0 0 0
0 0 0
0 0 0
0 0 0
0 0 0
0 0 0
0 0 0
0 0 0
0 0 0
0 0 0
0 0 0
86 186 86
86 186 86
86 186 86
86 186 86
86 186 86
86 186 86
86 186 86
86 186 86
86 186 86
86 186 86
86 186 86
86 186 86
86 186 86
86 186 86
86 186 86
86 186 86
86 186 86
86 186 86
86 186 86
86 186 86
86 186 86
86 186 86
86 186 86
86 186 86
86 186 86
86 186 86
86 186 86
86 186 86
86 186 86
86 186 86
86 186 86
86 186 86
86 186 86
86 186 86
86 186 86
86 186 86
86 186 86
86 186 86
86 186 86
86 186 86
86 186 86
86 186 86
86 186 86
86 186 86
86 186 86
86 186 86
86 186 86
86 186 86
86 186 86
86 186 86
86 186 86
86 186 86
86 186 86
86 186 86
86 186 86
86 186 86
86 186 86
86 186 86
86 186 86
86 186 86
86 186 86
86 186 86
86 186 86
86 186 86
86 186 86
86 186 86
86 186 86
86 186 86
86 186 86
86 186 86
86 186 86
86 186 86
86 186 86
86 186 86
86 186 86
86 186 86
86 186 86
86 186 86
86 186 86
86 186 86
86 186 86
86 186 86
86 186 86
86 186 86
86 186 86
86 186 86
86 186 86
86 186 86
86 186 86
86 186 86
86 186 86
86 186 86
86 186 86
86 186 86
86 186 86
86 186 86
0 0 0
0 0 0
0 0 0
0 0 0
0 0 0
0 0 0
0 0 0
0 0 0
0 0 0
0 0 0
0 0 0
0 0 0
0 0 0
0 0 0
0 0 0
0 0 0
0 0 0
0 0 0
0 0 0
0 0 0
0 0 0
0 0 0
0 0 0
0 0 0
0 0 0
0 0 0
0 0 0
0 0 0
0 0 0
0 0 0
0 0 0
0 0 0
0 0 0
0 0 0
0 0 0
0 0 0
0 0 0
0 0 0
0 0 0
0 0 0
0 0 0
0 0 0
0 0 0
0 0 0
0 0 0
0 0 0
0 0 0
0 0 0
186 86 86
186 86 86
186 86 86
186 86 86
186 86 86
186 86 86
186 86 86
186 86 86
186 86 86
186 86 86
186 86 86
186 86 86
186 86 86
186 86 86
186 86 86
186 86 86
186 86 86
186 86 86
186 86 86
186 86 86
186 86 86
186 86 86
186 86 86
186 86 86
186 86 86
186 86 86
186 86 86
186 86 86
186 86 86
186 86 86
186 86 86
186 86 86
186 86 86
186 86 86
186 86 86
186 86 86
186 86 86
186 86 86
186 86 86
186 86 86
186 86 86
186 86 86
186 86 86
186 86 86
186 86 86
186 86 86
186 86 86
186 86 86
186 86 86
186 86 86
186 86 86
186 86 86
186 86 86
186 86 86
186 86 86
186 86 86
186 86 86
186 86 86
186 86 86
186 86 86
186 86 86
186 86 86
186 86 86
186 86 86
186 86 86
186 86 86
186 86 86
186 86 86
186 86 86
186 86 86
186 86 86
186 86 86
186 86 86
186 86 86
186 86 86
186 86 86
186 86 86
186 86 86
186 86 86
186 86 86
186 86 86
186 86 86
186 86 86
186 86 86
186 86 86
186 86 86
186 86 86
186 86 86
186 86 86
186 86 86
186 86 86
186 86 86
186 86 86
186 86 86
186 86 86
186 86 86
0 0 0
0 0 0
0 0 0
0 0 0
0 0 0
0 0 0
0 0 0
0 0 0
0 0 0
0 0 0
0 0 0
0 0 0
0 0 0
0 0 0
0 0 0
0 0 0
86 186 86
86 186 86
86 186 86
86 186 86
86 186 86
86 186 86
86 186 86
86 186 86
86 186 86
86 186 86
86 186 86
86 186 86
86 186 86
86 186 86
86 186 86
86 186 86
86 186 86
86 186 86
86 186 86
86 186 86
86 186 86
86 186 86
86 186 86
86 186 86
86 186 86
86 186 86
86 186 86
86 186 86
86 186 86
86 186 86
86 186 86
86 186 86
86 186 86
86 186 86
86 186 86
86 186 86
86 186 86
86 186 86
86 186 86
86 186 86
86 186 86
86 186 86
86 186 86
86 186 86
86 186 86
86 186 86
86 186 86
86 186 86
86 186 86
86 186 86
86 186 86
86 186 86
86 186 86
86 186 86
86 186 86
86 186 86
86 186 86
86 186 86
86 186 86
86 186 86
86 186 86
86 186 86
86 186 86
86 186 86
86 186 86
86 186 86
86 186 86
86 186 86
86 186 86
86 186 86
86 186 86
86 186 86
86 186 86
86 186 86
86 186 86
86 186 86
86 186 86
86 186 86
86 186 86
86 186 86
86 186 86
86 186 86
86 186 86
86 186 86
86 186 86
86 186 86
86 186 86
86 186 86
86 186 86
86 186 86
86 186 86
86 186 86
86 186 86
86 186 86
86 186 86
86 186 86
0 0 0
0 0 0
0 0 0
0 0 0
0 0 0
0 0 0
0 0 0
0 0 0
0 0 0
0 0 0
0 0 0
0 0 0
0 0 0
0 0 0
0 0 0
0 0 0
0 0 0
0 0 0
0 0 0
0 0 0
0 0 0
0 0 0
0 0 0
0 0 0
0 0 0
0 0 0
0 0 0
0 0 0
0 0 0
0 0 0
0 0 0
0 0 0
0 0 0
0 0 0
0 0 0
0 0 0
0 0 0
0 0 0
0 0 0
0 0 0
0 0 0
0 0 0
0 0 0
0 0 0
0 0 0
0 0 0
0 0 0
0 0 0
186 86 86
186 86 86
186 86 86
186 86 86
186 86 86
186 86 86
186 86 86
186 86 86
186 86 86
186 86 86
186 86 86
186 86 86
186 86 86
186 86 86
186 86 86
186 86 86
186 86 86
186 86 86
186 86 86
186 86 86
186 86 86
186 86 86
186 86 86
186 86 86
186 86 86
186 86 86
186 86 86
186 86 86
186 86 86
186 86 86
186 86 86
186 86 86
186 86 86
186 86 86
186 86 86
186 86 86
186 86 86
186 86 86
186 86 86
186 86 86
186 86 86
186 86 86
186 86 86
186 86 86
186 86 86
186 86 86
186 86 86
186 86 86
186 86 86
186 86 86
186 86 86
186 86 86
186 86 86
186 86 86
186 86 86
186 86 86
186 86 86
186 86 86
186 86 86
186 86 86
186 86 86
186 86 86
186 86 86
186 86 86
186 86 86
186 86 86
186 86 86
186 86 86
186 86 86
186 86 86
186 86 86
186 86 86
186 86 86
186 86 86
186 86 86
186 86 86
186 86 86
186 86 86
186 86 86
186 86 86
186 86 86
186 86 86
186 86 86
186 86 86
186 86 86
186 86 86
186 86 86
186 86 86
186 86 86
186 86 86
186 86 86
186 86 86
186 86 86
186 86 86
186 86 86
186 86 86
0 0 0
0 0 0
0 0 0
0 0 0
0 0 0
0 0 0
0 0 0
0 0 0
0 0 0
0 0 0
0 0 0
0 0 0
0 0 0
0 0 0
0 0 0
0 0 0
86 186 86
86 186 86
86 186 86
86 186 86
86 186 86
86 186 86
86 186 86
86 186 86
86 186 86
86 186 86
86 186 86
86 186 86
86 186 86
86 186 86
86 186 86
86 186 86
86 186 86
86 186 86
86 186 86
86 186 86
86 186 86
86 186 86
86 186 86
86 186 86
86 186 86
86 186 86
86 186 86
86 186 86
86 186 86
86 186 86
86 186 86
86 186 86
86 186 86
86 186 86
86 186 86
86 186 86
86 186 86
86 186 86
86 186 86
86 186 86
86 186 86
86 186 86
86 186 86
86 186 86
86 186 86
86 186 86
86 186 86
86 186 86
86 186 86
86 186 86
86 186 86
86 186 86
86 186 86
86 186 86
86 186 86
86 186 86
86 186 86
86 186 86
86 186 86
86 186 86
86 186 86
86 186 86
86 186 86
86 186 86
86 186 86
86 186 86
86 186 86
86 186 86
86 186 86
86 186 86
86 186 86
86 186 86
86 186 86
86 186 86
86 186 86
86 186 86
86 186 86
86 186 86
86 186 86
86 186 86
86 186 86
86 186 86
86 186 86
86 186 86
86 186 86
86 186 86
86 186 86
86 186 86
86 186 86
86 186 86
86 186 86
86 186 86
86 186 86
86 186 86
86 186 86
86 186 86
0 0 0
0 0 0
0 0 0
0 0 0
0 0 0
0 0 0
0 0 0
0 0 0
0 0 0
0 0 0
0 0 0
0 0 0
0 0 0
0 0 0
0 0 0
0 0 0
0 0 0
0 0 0
0 0 0
0 0 0
0 0 0
0 0 0
0 0 0
0 0 0
0 0 0
0 0 0
0 0 0
0 0 0
0 0 0
0 0 0
0 0 0
0 0 0
0 0 0
0 0 0
0 0 0
0 0 0
0 0 0
0 0 0
0 0 0
0 0 0
0 0 0
0 0 0
0 0 0
0 0 0
0 0 0
0 0 0
0 0 0
0 0 0
186 86 86
186 86 86
186 86 86
186 86 86
186 86 86
186 86 86
186 86 86
186 86 86
186 86 86
186 86 86
186 86 86
186 86 86
186 86 86
186 86 86
186 86 86
186 86 86
186 86 86
186 86 86
186 86 86
186 86 86
186 86 86
186 86 86
186 86 86
186 86 86
186 86 86
186 86 86
186 86 86
186 86 86
186 86 86
186 86 86
186 86 86
186 86 86
186 86 86
186 86 86
186 86 86
186 86 86
186 86 86
186 86 86
186 86 86
186 86 86
186 86 86
186 86 86
186 86 86
186 86 86
186 86 86
186 86 86
186 86 86
186 86 86
186 86 86
186 86 86
186 86 86
186 86 86
186 86 86
186 86 86
186 86 86
186 86 86
186 86 86
186 86 86
186 86 86
186 86 86
186 86 86
186 86 86
186 86 86
186 86 86
186 86 86
186 86 86
186 86 86
186 86 86
186 86 86
186 86 86
186 86 86
186 86 86
186 86 86
186 86 86
186 86 86
186 86 86
186 86 86
186 86 86
186 86 86
186 86 86
186 86 86
186 86 86
186 86 86
186 86 86
186 86 86
186 86 86
186 86 86
186 86 86
186 86 86
186 86 86
186 86 86
186 86 86
186 86 86
186 86 86
186 86 86
186 86 86
0 0 0
0 0 0
0 0 0
0 0 0
0 0 0
0 0 0
0 0 0
0 0 0
0 0 0
0 0 0
0 0 0
0 0 0
0 0 0
0 0 0
0 0 0
0 0 0
86 186 86
86 186 86
86 186 86
86 186 86
86 186 86
86 186 86
86 186 86
86 186 86
86 186 86
86 186 86
86 186 86
86 186 86
86 186 86
86 186 86
86 186 86
86 186 86
86 186 86
86 186 86
86 186 86
86 186 86
86 186 86
86 186 86
86 186 86
86 186 86
86 186 86
86 186 86
86 186 86
86 186 86
86 186 86
86 186 86
86 186 86
86 186 86
86 186 86
86 186 86
86 186 86
86 186 86
86 186 86
86 186 86
86 186 86
86 186 86
86 186 86
86 186 86
86 186 86
86 186 86
86 186 86
86 186 86
86 186 86
86 186 86
86 186 86
86 186 86
86 186 86
86 186 86
86 186 86
86 186 86
86 186 86
86 186 86
86 186 86
86 186 86
86 186 86
86 186 86
86 186 86
86 186 86
86 186 86
86 186 86
86 186 86
86 186 86
86 186 86
86 186 86
86 186 86
86 186 86
86 186 86
86 186 86
86 186 86
86 186 86
86 186 86
86 186 86
86 186 86
86 186 86
86 186 86
86 186 86
86 186 86
86 186 86
86 186 86
86 186 86
86 186 86
86 186 86
86 186 86
86 186 86
86 186 86
86 186 86
86 186 86
86 186 86
86 186 86
86 186 86
86 186 86
86 186 86
0 0 0
0 0 0
0 0 0
0 0 0
0 0 0
0 0 0
0 0 0
0 0 0
0 0 0
0 0 0
0 0 0
0 0 0
0 0 0
0 0 0
0 0 0
0 0 0
0 0 0
0 0 0
0 0 0
0 0 0
0 0 0
0 0 0
0 0 0
0 0 0
0 0 0
0 0 0
0 0 0
0 0 0
0 0 0
0 0 0
0 0 0
0 0 0
0 0 0
0 0 0
0 0 0
0 0 0
0 0 0
0 0 0
0 0 0
0 0 0
0 0 0
0 0 0
0 0 0
0 0 0
0 0 0
0 0 0
0 0 0
0 0 0
186 86 86
186 86 86
186 86 86
186 86 86
186 86 86
186 86 86
186 86 86
186 86 86
186 86 86
186 86 86
186 86 86
186 86 86
186 86 86
186 86 86
186 86 86
186 86 86
186 86 86
186 86 86
186 86 86
186 86 86
186 86 86
186 86 86
186 86 86
186 86 86
186 86 86
186 86 86
186 86 86
186 86 86
186 86 86
186 86 86
186 86 86
186 86 86
186 86 86
186 86 86
186 86 86
186 86 86
186 86 86
186 86 86
186 86 86
186 86 86
186 86 86
186 86 86
186 86 86
186 86 86
186 86 86
186 86 86
186 86 86
186 86 86
186 86 86
186 86 86
186 86 86
186 86 86
186 86 86
186 86 86
186 86 86
186 86 86
186 86 86
186 86 86
186 86 86
186 86 86
186 86 86
186 86 86
186 86 86
186 86 86
186 86 86
186 86 86
186 86 86
186 86 86
186 86 86
186 86 86
186 86 86
186 86 86
186 86 86
186 86 86
186 86 86
186 86 86
186 86 86
186 86 86
186 86 86
186 86 86
186 86 86
186 86 86
186 86 86
186 86 86
186 86 86
186 86 86
186 86 86
186 86 86
186 86 86
186 86 86
186 86 86
186 86 86
186 86 86
186 86 86
186 86 86
186 86 86
0 0 0
0 0 0
0 0 0
0 0 0
0 0 0
0 0 0
0 0 0
0 0 0
0 0 0
0 0 0
0 0 0
0 0 0
0 0 0
0 0 0
0 0 0
0 0 0
86 186 86
86 186 86
86 186 86
86 186 86
86 186 86
86 186 86
86 186 86
86 186 86
86 186 86
86 186 86
86 186 86
86 186 86
86 186 86
86 186 86
86 186 86
86 186 86
86 186 86
86 186 86
86 186 86
86 186 86
86 186 86
86 186 86
86 186 86
86 186 86
86 186 86
86 186 86
86 186 86
86 186 86
86 186 86
86 186 86
86 186 86
86 186 86
86 186 86
86 186 86
86 186 86
86 186 86
86 186 86
86 186 86
86 186 86
86 186 86
86 186 86
86 186 86
86 186 86
86 186 86
86 186 86
86 186 86
86 186 86
86 186 86
86 186 86
86 186 86
86 186 86
86 186 86
86 186 86
86 186 86
86 186 86
86 186 86
86 186 86
86 186 86
86 186 86
86 186 86
86 186 86
86 186 86
86 186 86
86 186 86
86 186 86
86 186 86
86 186 86
86 186 86
86 186 86
86 186 86
86 186 86
86 186 86
86 186 86
86 186 86
86 186 86
86 186 86
86 186 86
86 186 86
86 186 86
86 186 86
86 186 86
86 186 86
86 186 86
86 186 86
86 186 86
86 186 86
86 186 86
86 186 86
86 186 86
86 186 86
86 186 86
86 186 86
86 186 86
86 186 86
86 186 86
86 186 86
0 0 0
0 0 0
0 0 0
0 0 0
0 0 0
0 0 0
0 0 0
0 0 0
0 0 0
0 0 0
0 0 0
0 0 0
0 0 0
0 0 0
0 0 0
0 0 0
0 0 0
0 0 0
0 0 0
0 0 0
0 0 0
0 0 0
0 0 0
0 0 0
0 0 0
0 0 0
0 0 0
0 0 0
0 0 0
0 0 0
0 0 0
0 0 0
0 0 0
0 0 0
0 0 0
0 0 0
0 0 0
0 0 0
0 0 0
0 0 0
0 0 0
0 0 0
0 0 0
0 0 0
0 0 0
0 0 0
0 0 0
0 0 0
186 86 86
186 86 86
186 86 86
186 86 86
186 86 86
186 86 86
186 86 86
186 86 86
186 86 86
186 86 86
186 86 86
186 86 86
186 86 86
186 86 86
186 86 86
186 86 86
186 86 86
186 86 86
186 86 86
186 86 86
186 86 86
186 86 86
186 86 86
186 86 86
186 86 86
186 86 86
186 86 86
186 86 86
186 86 86
186 86 86
186 86 86
186 86 86
186 86 86
186 86 86
186 86 86
186 86 86
186 86 86
186 86 86
186 86 86
186 86 86
186 86 86
186 86 86
186 86 86
186 86 86
186 86 86
186 86 86
186 86 86
186 86 86
186 86 86
186 86 86
186 86 86
186 86 86
186 86 86
186 86 86
186 86 86
186 86 86
186 86 86
186 86 86
186 86 86
186 86 86
186 86 86
186 86 86
186 86 86
186 86 86
186 86 86
186 86 86
186 86 86
186 86 86
186 86 86
186 86 86
186 86 86
186 86 86
186 86 86
186 86 86
186 86 86
186 86 86
186 86 86
186 86 86
186 86 86
186 86 86
186 86 86
186 86 86
186 86 86
186 86 86
186 86 86
186 86 86
186 86 86
186 86 86
186 86 86
186 86 86
186 86 86
186 86 86
186 86 86
186 86 86
186 86 86
186 86 86
0 0 0
0 0 0
0 0 0
0 0 0
0 0 0
0 0 0
0 0 0
0 0 0
0 0 0
0 0 0
0 0 0
0 0 0
0 0 0
0 0 0
0 0 0
0 0 0
86 186 86
86 186 86
86 186 86
86 186 86
86 186 86
86 186 86
86 186 86
86 186 86
86 186 86
86 186 86
86 186 86
86 186 86
86 186 86
86 186 86
86 186 86
86 186 86
86 186 86
86 186 86
86 186 86
86 186 86
86 186 86
86 186 86
86 186 86
86 186 86
86 186 86
86 186 86
86 186 86
86 186 86
86 186 86
86 186 86
86 186 86
86 186 86
86 186 86
86 186 86
86 186 86
86 186 86
86 186 86
86 186 86
86 186 86
86 186 86
86 186 86
86 186 86
86 186 86
86 186 86
86 186 86
86 186 86
86 186 86
86 186 86
86 186 86
86 186 86
86 186 86
86 186 86
86 186 86
86 186 86
86 186 86
86 186 86
86 186 86
86 186 86
86 186 86
86 186 86
86 186 86
86 186 86
86 186 86
86 186 86
86 186 86
86 186 86
86 186 86
86 186 86
86 186 86
86 186 86
86 186 86
86 186 86
86 186 86
86 186 86
86 186 86
86 186 86
86 186 86
86 186 86
86 186 86
86 186 86
86 186 86
86 186 86
86 186 86
86 186 86
86 186 86
86 186 86
86 186 86
86 186 86
86 186 86
86 186 86
86 186 86
86 186 86
86 186 86
86 186 86
86 186 86
86 186 86
0 0 0
0 0 0
0 0 0
0 0 0
0 0 0
0 0 0
0 0 0
0 0 0
0 0 0
0 0 0
0 0 0
0 0 0
0 0 0
0 0 0
0 0 0
0 0 0
0 0 0
0 0 0
0 0 0
0 0 0
0 0 0
0 0 0
0 0 0
0 0 0
0 0 0
0 0 0
0 0 0
0 0 0
0 0 0
0 0 0
0 0 0
0 0 0
0 0 0
0 0 0
0 0 0
0 0 0
0 0 0
0 0 0
0 0 0
0 0 0
0 0 0
0 0 0
0 0 0
0 0 0
0 0 0
0 0 0
0 0 0
0 0 0
186 86 86
186 86 86
186 86 86
186 86 86
186 86 86
186 86 86
186 86 86
186 86 86
186 86 86
186 86 86
186 86 86
186 86 86
186 86 86
186 86 86
186 86 86
186 86 86
186 86 86
186 86 86
186 86 86
186 86 86
186 86 86
186 86 86
186 86 86
186 86 86
186 86 86
186 86 86
186 86 86
186 86 86
186 86 86
186 86 86
186 86 86
186 86 86
186 86 86
186 86 86
186 86 86
186 86 86
186 86 86
186 86 86
186 86 86
186 86 86
186 86 86
186 86 86
186 86 86
186 86 86
186 86 86
186 86 86
186 86 86
186 86 86
186 86 86
186 86 86
186 86 86
186 86 86
186 86 86
186 86 86
186 86 86
186 86 86
186 86 86
186 86 86
186 86 86
186 86 86
186 86 86
186 86 86
186 86 86
186 86 86
186 86 86
186 86 86
186 86 86
186 86 86
186 86 86
186 86 86
186 86 86
186 86 86
186 86 86
186 86 86
186 86 86
186 86 86
186 86 86
186 86 86
186 86 86
186 86 86
186 86 86
186 86 86
186 86 86
186 86 86
186 86 86
186 86 86
186 86 86
186 86 86
186 86 86
186 86 86
186 86 86
186 86 86
186 86 86
186 86 86
186 86 86
186 86 86
0 0 0
0 0 0
0 0 0
0 0 0
0 0 0
0 0 0
0 0 0
0 0 0
0 0 0
0 0 0
0 0 0
0 0 0
0 0 0
0 0 0
0 0 0
0 0 0
86 186 86
86 186 86
86 186 86
86 186 86
86 186 86
86 186 86
86 186 86
86 186 86
86 186 86
86 186 86
86 186 86
86 186 86
86 186 86
86 186 86
86 186 86
86 186 86
86 186 86
86 186 86
86 186 86
86 186 86
86 186 86
86 186 86
86 186 86
86 186 86
86 186 86
86 186 86
86 186 86
86 186 86
86 186 86
86 186 86
86 186 86
86 186 86
86 186 86
86 186 86
86 186 86
86 186 86
86 186 86
86 186 86
86 186 86
86 186 86
86 186 86
86 186 86
86 186 86
86 186 86
86 186 86
86 186 86
86 186 86
86 186 86
86 186 86
86 186 86
86 186 86
86 186 86
86 186 86
86 186 86
86 186 86
86 186 86
86 186 86
86 186 86
86 186 86
86 186 86
86 186 86
86 186 86
86 186 86
86 186 86
86 186 86
86 186 86
86 186 86
86 186 86
86 186 86
86 186 86
86 186 86
86 186 86
86 186 86
86 186 86
86 186 86
86 186 86
86 186 86
86 186 86
86 186 86
86 186 86
86 186 86
86 186 86
86 186 86
86 186 86
86 186 86
86 186 86
86 186 86
86 186 86
86 186 86
86 186 86
86 186 86
86 186 86
86 186 86
86 186 86
86 186 86
86 186 86
0 0 0
0 0 0
0 0 0
0 0 0
0 0 0
0 0 0
0 0 0
0 0 0
0 0 0
0 0 0
0 0 0
0 0 0
0 0 0
0 0 0
0 0 0
0 0 0
0 0 0
0 0 0
0 0 0
0 0 0
0 0 0
0 0 0
0 0 0
0 0 0
0 0 0
0 0 0
0 0 0
0 0 0
0 0 0
0 0 0
0 0 0
0 0 0
0 0 0
0 0 0
0 0 0
0 0 0
0 0 0
0 0 0
0 0 0
0 0 0
0 0 0
0 0 0
0 0 0
0 0 0
0 0 0
0 0 0
0 0 0
0 0 0
186 86 86
186 86 86
186 86 86
186 86 86
186 86 86
186 86 86
186 86 86
186 86 86
186 86 86
186 86 86
186 86 86
186 86 86
186 86 86
186 86 86
186 86 86
186 86 86
186 86 86
186 86 86
186 86 86
186 86 86
186 86 86
186 86 86
186 86 86
186 86 86
186 86 86
186 86 86
186 86 86
186 86 86
186 86 86
186 86 86
186 86 86
186 86 86
186 86 86
186 86 86
186 86 86
186 86 86
186 86 86
186 86 86
186 86 86
186 86 86
186 86 86
186 86 86
186 86 86
186 86 86
186 86 86
186 86 86
186 86 86
186 86 86
186 86 86
186 86 86
186 86 86
186 86 86
186 86 86
186 86 86
186 86 86
186 86 86
186 86 86
186 86 86
186 86 86
186 86 86
186 86 86
186 86 86
186 86 86
186 86 86
186 86 86
186 86 86
186 86 86
186 86 86
186 86 86
186 86 86
186 86 86
186 86 86
186 86 86
186 86 86
186 86 86
186 86 86
186 86 86
186 86 86
186 86 86
186 86 86
186 86 86
186 86 86
186 86 86
186 86 86
186 86 86
186 86 86
186 86 86
186 86 86
186 86 86
186 86 86
186 86 86
186 86 86
186 86 86
186 86 86
186 86 86
186 86 86
0 0 0
0 0 0
0 0 0
0 0 0
0 0 0
0 0 0
0 0 0
0 0 0
0 0 0
0 0 0
0 0 0
0 0 0
0 0 0
0 0 0
0 0 0
0 0 0
86 186 86
86 186 86
86 186 86
86 186 86
86 186 86
86 186 86
86 186 86
86 186 86
86 186 86
86 186 86
86 186 86
86 186 86
86 186 86
86 186 86
86 186 86
86 186 86
86 186 86
86 186 86
86 186 86
86 186 86
86 186 86
86 186 86
86 186 86
86 186 86
86 186 86
86 186 86
86 186 86
86 186 86
86 186 86
86 186 86
86 186 86
86 186 86
86 186 86
86 186 86
86 186 86
86 186 86
86 186 86
86 186 86
86 186 86
86 186 86
86 186 86
86 186 86
86 186 86
86 186 86
86 186 86
86 186 86
86 186 86
86 186 86
86 186 86
86 186 86
86 186 86
86 186 86
86 186 86
86 186 86
86 186 86
86 186 86
86 186 86
86 186 86
86 186 86
86 186 86
86 186 86
86 186 86
86 186 86
86 186 86
86 186 86
86 186 86
86 186 86
86 186 86
86 186 86
86 186 86
86 186 86
86 186 86
86 186 86
86 186 86
86 186 86
86 186 86
86 186 86
86 186 86
86 186 86
86 186 86
86 186 86
86 186 86
86 186 86
86 186 86
86 186 86
86 186 86
86 186 86
86 186 86
86 186 86
86 186 86
86 186 86
86 186 86
86 186 86
86 186 86
86 186 86
86 186 86
0 0 0
0 0 0
0 0 0
0 0 0
0 0 0
0 0 0
0 0 0
0 0 0
0 0 0
0 0 0
0 0 0
0 0 0
0 0 0
0 0 0
0 0 0
0 0 0
0 0 0
0 0 0
0 0 0
0 0 0
0 0 0
0 0 0
0 0 0
0 0 0
0 0 0
0 0 0
0 0 0
0 0 0
0 0 0
0 0 0
0 0 0
0 0 0
0 0 0
0 0 0
0 0 0
0 0 0
0 0 0
0 0 0
0 0 0
0 0 0
0 0 0
0 0 0
0 0 0
0 0 0
0 0 0
0 0 0
0 0 0
0 0 0
186 86 86
186 86 86
186 86 86
186 86 86
186 86 86
186 86 86
186 86 86
186 86 86
186 86 86
186 86 86
186 86 86
186 86 86
186 86 86
186 86 86
186 86 86
186 86 86
186 86 86
186 86 86
186 86 86
186 86 86
186 86 86
186 86 86
186 86 86
186 86 86
186 86 86
186 86 86
186 86 86
186 86 86
186 86 86
186 86 86
186 86 86
186 86 86
186 86 86
186 86 86
186 86 86
186 86 86
186 86 86
186 86 86
186 86 86
186 86 86
186 86 86
186 86 86
186 86 86
186 86 86
186 86 86
186 86 86
186 86 86
186 86 86
186 86 86
186 86 86
186 86 86
186 86 86
186 86 86
186 86 86
186 86 86
186 86 86
186 86 86
186 86 86
186 86 86
186 86 86
186 86 86
186 86 86
186 86 86
186 86 86
186 86 86
186 86 86
186 86 86
186 86 86
186 86 86
186 86 86
186 86 86
186 86 86
186 86 86
186 86 86
186 86 86
186 86 86
186 86 86
186 86 86
186 86 86
186 86 86
186 86 86
186 86 86
186 86 86
186 86 86
186 86 86
186 86 86
186 86 86
186 86 86
186 86 86
186 86 86
186 86 86
186 86 86
186 86 86
186 86 86
186 86 86
186 86 86
0 0 0
0 0 0
0 0 0
0 0 0
0 0 0
0 0 0
0 0 0
0 0 0
0 0 0
0 0 0
0 0 0
0 0 0
0 0 0
0 0 0
0 0 0
0 0 0
86 186 86
86 186 86
86 186 86
86 186 86
86 186 86
86 186 86
86 186 86
86 186 86
86 186 86
86 186 86
86 186 86
86 186 86
86 186 86
86 186 86
86 186 86
86 186 86
86 186 86
86 186 86
86 186 86
86 186 86
86 186 86
86 186 86
86 186 86
86 186 86
86 186 86
86 186 86
86 186 86
86 186 86
86 186 86
86 186 86
86 186 86
86 186 86
86 186 86
86 186 86
86 186 86
86 186 86
86 186 86
86 186 86
86 186 86
86 186 86
86 186 86
86 186 86
86 186 86
86 186 86
86 186 86
86 186 86
86 186 86
86 186 86
86 186 86
86 186 86
86 186 86
86 186 86
86 186 86
86 186 86
86 186 86
86 186 86
86 186 86
86 186 86
86 186 86
86 186 86
86 186 86
86 186 86
86 186 86
86 186 86
86 186 86
86 186 86
86 186 86
86 186 86
86 186 86
86 186 86
86 186 86
86 186 86
86 186 86
86 186 86
86 186 86
86 186 86
86 186 86
86 186 86
86 186 86
86 186 86
86 186 86
86 186 86
86 186 86
86 186 86
86 186 86
86 186 86
86 186 86
86 186 86
86 186 86
86 186 86
86 186 86
86 186 86
86 186 86
86 186 86
86 186 86
86 186 86
0 0 0
0 0 0
0 0 0
0 0 0
0 0 0
0 0 0
0 0 0
0 0 0
0 0 0
0 0 0
0 0 0
0 0 0
0 0 0
0 0 0
0 0 0
0 0 0
0 0 0
0 0 0
0 0 0
0 0 0
0 0 0
0 0 0
0 0 0
0 0 0
0 0 0
0 0 0
0 0 0
0 0 0
0 0 0
0 0 0
0 0 0
0 0 0
0 0 0
0 0 0
0 0 0
0 0 0
0 0 0
0 0 0
0 0 0
0 0 0
0 0 0
0 0 0
0 0 0
0 0 0
0 0 0
0 0 0
0 0 0
0 0 0
186 86 86
186 86 86
186 86 86
186 86 86
186 86 86
186 86 86
186 86 86
186 86 86
186 86 86
186 86 86
186 86 86
186 86 86
186 86 86
186 86 86
186 86 86
186 86 86
186 86 86
186 86 86
186 86 86
186 86 86
186 86 86
186 86 86
186 86 86
186 86 86
186 86 86
186 86 86
186 86 86
186 86 86
186 86 86
186 86 86
186 86 86
186 86 86
186 86 86
186 86 86
186 86 86
186 86 86
186 86 86
186 86 86
186 86 86
186 86 86
186 86 86
186 86 86
186 86 86
186 86 86
186 86 86
186 86 86
186 86 86
186 86 86
186 86 86
186 86 86
186 86 86
186 86 86
186 86 86
186 86 86
186 86 86
186 86 86
186 86 86
186 86 86
186 86 86
186 86 86
186 86 86
186 86 86
186 86 86
186 86 86
186 86 86
186 86 86
186 86 86
186 86 86
186 86 86
186 86 86
186 86 86
186 86 86
186 86 86
186 86 86
186 86 86
186 86 86
186 86 86
186 86 86
186 86 86
186 86 86
186 86 86
186 86 86
186 86 86
186 86 86
186 86 86
186 86 86
186 86 86
186 86 86
186 86 86
186 86 86
186 86 86
186 86 86
186 86 86
186 86 86
186 86 86
186 86 86
0 0 0
0 0 0
0 0 0
0 0 0
0 0 0
0 0 0
0 0 0
0 0 0
0 0 0
0 0 0
0 0 0
0 0 0
0 0 0
0 0 0
0 0 0
0 0 0
86 186 86
86 186 86
86 186 86
86 186 86
86 186 86
86 186 86
86 186 86
86 186 86
86 186 86
86 186 86
86 186 86
86 186 86
86 186 86
86 186 86
86 186 86
86 186 86
86 186 86
86 186 86
86 186 86
86 186 86
86 186 86
86 186 86
86 186 86
86 186 86
86 186 86
86 186 86
86 186 86
86 186 86
86 186 86
86 186 86
86 186 86
86 186 86
86 186 86
86 186 86
86 186 86
86 186 86
86 186 86
86 186 86
86 186 86
86 186 86
86 186 86
86 186 86
86 186 86
86 186 86
86 186 86
86 186 86
86 186 86
86 186 86
86 186 86
86 186 86
86 186 86
86 186 86
86 186 86
86 186 86
86 186 86
86 186 86
86 186 86
86 186 86
86 186 86
86 186 86
86 186 86
86 186 86
86 186 86
86 186 86
86 186 86
86 186 86
86 186 86
86 186 86
86 186 86
86 186 86
86 186 86
86 186 86
86 186 86
86 186 86
86 186 86
86 186 86
86 186 86
86 186 86
86 186 86
86 186 86
86 186 86
86 186 86
86 186 86
86 186 86
86 186 86
86 186 86
86 186 86
86 186 86
86 186 86
86 186 86
86 186 86
86 186 86
86 186 86
86 186 86
86 186 86
86 186 86
0 0 0
0 0 0
0 0 0
0 0 0
0 0 0
0 0 0
0 0 0
0 0 0
0 0 0
0 0 0
0 0 0
0 0 0
0 0 0
0 0 0
0 0 0
0 0 0
0 0 0
0 0 0
0 0 0
0 0 0
0 0 0
0 0 0
0 0 0
0 0 0
0 0 0
0 0 0
0 0 0
0 0 0
0 0 0
0 0 0
0 0 0
0 0 0
0 0 0
0 0 0
0 0 0
0 0 0
0 0 0
0 0 0
0 0 0
0 0 0
0 0 0
0 0 0
0 0 0
0 0 0
0 0 0
0 0 0
0 0 0
0 0 0
186 86 86
186 86 86
186 86 86
186 86 86
186 86 86
186 86 86
186 86 86
186 86 86
186 86 86
186 86 86
186 86 86
186 86 86
186 86 86
186 86 86
186 86 86
186 86 86
186 86 86
186 86 86
186 86 86
186 86 86
186 86 86
186 86 86
186 86 86
186 86 86
186 86 86
186 86 86
186 86 86
186 86 86
186 86 86
186 86 86
186 86 86
186 86 86
186 86 86
186 86 86
186 86 86
186 86 86
186 86 86
186 86 86
186 86 86
186 86 86
186 86 86
186 86 86
186 86 86
186 86 86
186 86 86
186 86 86
186 86 86
186 86 86
186 86 86
186 86 86
186 86 86
186 86 86
186 86 86
186 86 86
186 86 86
186 86 86
186 86 86
186 86 86
186 86 86
186 86 86
186 86 86
186 86 86
186 86 86
186 86 86
186 86 86
186 86 86
186 86 86
186 86 86
186 86 86
186 86 86
186 86 86
186 86 86
186 86 86
186 86 86
186 86 86
186 86 86
186 86 86
186 86 86
186 86 86
186 86 86
186 86 86
186 86 86
186 86 86
186 86 86
186 86 86
186 86 86
186 86 86
186 86 86
186 86 86
186 86 86
186 86 86
186 86 86
186 86 86
186 86 86
186 86 86
186 86 86
0 0 0
0 0 0
0 0 0
0 0 0
0 0 0
0 0 0
0 0 0
0 0 0
0 0 0
0 0 0
0 0 0
0 0 0
0 0 0
0 0 0
0 0 0
0 0 0
86 186 86
86 186 86
86 186 86
86 186 86
86 186 86
86 186 86
86 186 86
86 186 86
86 186 86
86 186 86
86 186 86
86 186 86
86 186 86
86 186 86
86 186 86
86 186 86
86 186 86
86 186 86
86 186 86
86 186 86
86 186 86
86 186 86
86 186 86
86 186 86
86 186 86
86 186 86
86 186 86
86 186 86
86 186 86
86 186 86
86 186 86
86 186 86
86 186 86
86 186 86
86 186 86
86 186 86
86 186 86
86 186 86
86 186 86
86 186 86
86 186 86
86 186 86
86 186 86
86 186 86
86 186 86
86 186 86
86 186 86
86 186 86
86 186 86
86 186 86
86 186 86
86 186 86
86 186 86
86 186 86
86 186 86
86 186 86
86 186 86
86 186 86
86 186 86
86 186 86
86 186 86
86 186 86
86 186 86
86 186 86
86 186 86
86 186 86
86 186 86
86 186 86
86 186 86
86 186 86
86 186 86
86 186 86
86 186 86
86 186 86
86 186 86
86 186 86
86 186 86
86 186 86
86 186 86
86 186 86
86 186 86
86 186 86
86 186 86
86 186 86
86 186 86
86 186 86
86 186 86
86 186 86
86 186 86
86 186 86
86 186 86
86 186 86
86 186 86
86 186 86
86 186 86
86 186 86
0 0 0
0 0 0
0 0 0
0 0 0
0 0 0
0 0 0
0 0 0
0 0 0
0 0 0
0 0 0
0 0 0
0 0 0
0 0 0
0 0 0
0 0 0
0 0 0
0 0 0
0 0 0
0 0 0
0 0 0
0 0 0
0 0 0
0 0 0
0 0 0
0 0 0
0 0 0
0 0 0
0 0 0
0 0 0
0 0 0
0 0 0
0 0 0
0 0 0
0 0 0
0 0 0
0 0 0
0 0 0
0 0 0
0 0 0
0 0 0
0 0 0
0 0 0
0 0 0
0 0 0
0 0 0
0 0 0
0 0 0
0 0 0
186 86 86
186 86 86
186 86 86
186 86 86
186 86 86
186 86 86
186 86 86
186 86 86
186 86 86
186 86 86
186 86 86
186 86 86
186 86 86
186 86 86
186 86 86
186 86 86
186 86 86
186 86 86
186 86 86
186 86 86
186 86 86
186 86 86
186 86 86
186 86 86
186 86 86
186 86 86
186 86 86
186 86 86
186 86 86
186 86 86
186 86 86
186 86 86
186 86 86
186 86 86
186 86 86
186 86 86
186 86 86
186 86 86
186 86 86
186 86 86
186 86 86
186 86 86
186 86 86
186 86 86
186 86 86
186 86 86
186 86 86
186 86 86
186 86 86
186 86 86
186 86 86
186 86 86
186 86 86
186 86 86
186 86 86
186 86 86
186 86 86
186 86 86
186 86 86
186 86 86
186 86 86
186 86 86
186 86 86
186 86 86
186 86 86
186 86 86
186 86 86
186 86 86
186 86 86
186 86 86
186 86 86
186 86 86
186 86 86
186 86 86
186 86 86
186 86 86
186 86 86
186 86 86
186 86 86
186 86 86
186 86 86
186 86 86
186 86 86
186 86 86
186 86 86
186 86 86
186 86 86
186 86 86
186 86 86
186 86 86
186 86 86
186 86 86
186 86 86
186 86 86
186 86 86
186 86 86
0 0 0
0 0 0
0 0 0
0 0 0
0 0 0
0 0 0
0 0 0
0 0 0
0 0 0
0 0 0
0 0 0
0 0 0
0 0 0
0 0 0
0 0 0
0 0 0
86 186 86
86 186 86
86 186 86
86 186 86
86 186 86
86 186 86
86 186 86
86 186 86
86 186 86
86 186 86
86 186 86
86 186 86
86 186 86
86 186 86
86 186 86
86 186 86
86 186 86
86 186 86
86 186 86
86 186 86
86 186 86
86 186 86
86 186 86
86 186 86
86 186 86
86 186 86
86 186 86
86 186 86
86 186 86
86 186 86
86 186 86
86 186 86
86 186 86
86 186 86
86 186 86
86 186 86
86 186 86
86 186 86
86 186 86
86 186 86
86 186 86
86 186 86
86 186 86
86 186 86
86 186 86
86 186 86
86 186 86
86 186 86
86 186 86
86 186 86
86 186 86
86 186 86
86 186 86
86 186 86
86 186 86
86 186 86
86 186 86
86 186 86
86 186 86
86 186 86
86 186 86
86 186 86
86 186 86
86 186 86
86 186 86
86 186 86
86 186 86
86 186 86
86 186 86
86 186 86
86 186 86
86 186 86
86 186 86
86 186 86
86 186 86
86 186 86
86 186 86
86 186 86
86 186 86
86 186 86
86 186 86
86 186 86
86 186 86
86 186 86
86 186 86
86 186 86
86 186 86
86 186 86
86 186 86
86 186 86
86 186 86
86 186 86
86 186 86
86 186 86
86 186 86
86 186 86
0 0 0
0 0 0
0 0 0
0 0 0
0 0 0
0 0 0
0 0 0
0 0 0
0 0 0
0 0 0
0 0 0
0 0 0
0 0 0
0 0 0
0 0 0
0 0 0
0 0 0
0 0 0
0 0 0
0 0 0
0 0 0
0 0 0
0 0 0
0 0 0
0 0 0
0 0 0
0 0 0
0 0 0
0 0 0
0 0 0
0 0 0
0 0 0
0 0 0
0 0 0
0 0 0
0 0 0
0 0 0
0 0 0
0 0 0
0 0 0
0 0 0
0 0 0
0 0 0
0 0 0
0 0 0
0 0 0
0 0 0
0 0 0
186 86 86
186 86 86
186 86 86
186 86 86
186 86 86
186 86 86
186 86 86
186 86 86
186 86 86
186 86 86
186 86 86
186 86 86
186 86 86
186 86 86
186 86 86
186 86 86
186 86 86
186 86 86
186 86 86
186 86 86
186 86 86
186 86 86
186 86 86
186 86 86
186 86 86
186 86 86
186 86 86
186 86 86
186 86 86
186 86 86
186 86 86
186 86 86
186 86 86
186 86 86
186 86 86
186 86 86
186 86 86
186 86 86
186 86 86
186 86 86
186 86 86
186 86 86
186 86 86
186 86 86
186 86 86
186 86 86
186 86 86
186 86 86
186 86 86
186 86 86
186 86 86
186 86 86
186 86 86
186 86 86
186 86 86
186 86 86
186 86 86
186 86 86
186 86 86
186 86 86
186 86 86
186 86 86
186 86 86
186 86 86
186 86 86
186 86 86
186 86 86
186 86 86
186 86 86
186 86 86
186 86 86
186 86 86
186 86 86
186 86 86
186 86 86
186 86 86
186 86 86
186 86 86
186 86 86
186 86 86
186 86 86
186 86 86
186 86 86
186 86 86
186 86 86
186 86 86
186 86 86
186 86 86
186 86 86
186 86 86
186 86 86
186 86 86
186 86 86
186 86 86
186 86 86
186 86 86
0 0 0
0 0 0
0 0 0
0 0 0
0 0 0
0 0 0
0 0 0
0 0 0
0 0 0
0 0 0
0 0 0
0 0 0
0 0 0
0 0 0
0 0 0
0 0 0
86 186 86
86 186 86
86 186 86
86 186 86
86 186 86
86 186 86
86 186 86
86 186 86
86 186 86
86 186 86
86 186 86
86 186 86
86 186 86
86 186 86
86 186 86
86 186 86
86 186 86
86 186 86
86 186 86
86 186 86
86 186 86
86 186 86
86 186 86
86 186 86
86 186 86
86 186 86
86 186 86
86 186 86
86 186 86
86 186 86
86 186 86
86 186 86
86 186 86
86 186 86
86 186 86
86 186 86
86 186 86
86 186 86
86 186 86
86 186 86
86 186 86
86 186 86
86 186 86
86 186 86
86 186 86
86 186 86
86 186 86
86 186 86
86 186 86
86 186 86
86 186 86
86 186 86
86 186 86
86 186 86
86 186 86
86 186 86
86 186 86
86 186 86
86 186 86
86 186 86
86 186 86
86 186 86
86 186 86
86 186 86
86 186 86
86 186 86
86 186 86
86 186 86
86 186 86
86 186 86
86 186 86
86 186 86
86 186 86
86 186 86
86 186 86
86 186 86
86 186 86
86 186 86
86 186 86
86 186 86
86 186 86
86 186 86
86 186 86
86 186 86
86 186 86
86 186 86
86 186 86
86 186 86
86 186 86
86 186 86
86 186 86
86 186 86
86 186 86
86 186 86
86 186 86
86 186 86
0 0 0
0 0 0
0 0 0
0 0 0
0 0 0
0 0 0
0 0 0
0 0 0
0 0 0
0 0 0
0 0 0
0 0 0
0 0 0
0 0 0
0 0 0
0 0 0
0 0 0
0 0 0
0 0 0
0 0 0
0 0 0
0 0 0
0 0 0
0 0 0
0 0 0
0 0 0
0 0 0
0 0 0
0 0 0
0 0 0
0 0 0
0 0 0
0 0 0
0 0 0
0 0 0
0 0 0
0 0 0
0 0 0
0 0 0
0 0 0
0 0 0
0 0 0
0 0 0
0 0 0
0 0 0
0 0 0
0 0 0
0 0 0
186 86 86
186 86 86
186 86 86
186 86 86
186 86 86
186 86 86
186 86 86
186 86 86
186 86 86
186 86 86
186 86 86
186 86 86
186 86 86
186 86 86
186 86 86
186 86 86
186 86 86
186 86 86
186 86 86
186 86 86
186 86 86
186 86 86
186 86 86
186 86 86
186 86 86
186 86 86
186 86 86
186 86 86
186 86 86
186 86 86
186 86 86
186 86 86
186 86 86
186 86 86
186 86 86
186 86 86
186 86 86
186 86 86
186 86 86
186 86 86
186 86 86
186 86 86
186 86 86
186 86 86
186 86 86
186 86 86
186 86 86
186 86 86
186 86 86
186 86 86
186 86 86
186 86 86
186 86 86
186 86 86
186 86 86
186 86 86
186 86 86
186 86 86
186 86 86
186 86 86
186 86 86
186 86 86
186 86 86
186 86 86
186 86 86
186 86 86
186 86 86
186 86 86
186 86 86
186 86 86
186 86 86
186 86 86
186 86 86
186 86 86
186 86 86
186 86 86
186 86 86
186 86 86
186 86 86
186 86 86
186 86 86
186 86 86
186 86 86
186 86 86
186 86 86
186 86 86
186 86 86
186 86 86
186 86 86
186 86 86
186 86 86
186 86 86
186 86 86
186 86 86
186 86 86
186 86 86
0 0 0
0 0 0
0 0 0
0 0 0
0 0 0
0 0 0
0 0 0
0 0 0
0 0 0
0 0 0
0 0 0
0 0 0
0 0 0
0 0 0
0 0 0
0 0 0
86 186 86
86 186 86
86 186 86
86 186 86
86 186 86
86 186 86
86 186 86
86 186 86
86 186 86
86 186 86
86 186 86
86 186 86
86 186 86
86 186 86
86 186 86
86 186 86
86 186 86
86 186 86
86 186 86
86 186 86
86 186 86
86 186 86
86 186 86
86 186 86
86 186 86
86 186 86
86 186 86
86 186 86
86 186 86
86 186 86
86 186 86
86 186 86
86 186 86
86 186 86
86 186 86
86 186 86
86 186 86
86 186 86
86 186 86
86 186 86
86 186 86
86 186 86
86 186 86
86 186 86
86 186 86
86 186 86
86 186 86
86 186 86
86 186 86
86 186 86
86 186 86
86 186 86
86 186 86
86 186 86
86 186 86
86 186 86
86 186 86
86 186 86
86 186 86
86 186 86
86 186 86
86 186 86
86 186 86
86 186 86
86 186 86
86 186 86
86 186 86
86 186 86
86 186 86
86 186 86
86 186 86
86 186 86
86 186 86
86 186 86
86 186 86
86 186 86
86 186 86
86 186 86
86 186 86
86 186 86
86 186 86
86 186 86
86 186 86
86 186 86
86 186 86
86 186 86
86 186 86
86 186 86
86 186 86
86 186 86
86 186 86
86 186 86
86 186 86
86 186 86
86 186 86
86 186 86
0 0 0
0 0 0
0 0 0
0 0 0
0 0 0
0 0 0
0 0 0
0 0 0
0 0 0
0 0 0
0 0 0
0 0 0
0 0 0
0 0 0
0 0 0
0 0 0
0 0 0
0 0 0
0 0 0
0 0 0
0 0 0
0 0 0
0 0 0
0 0 0
0 0 0
0 0 0
0 0 0
0 0 0
0 0 0
0 0 0
0 0 0
0 0 0
0 0 0
0 0 0
0 0 0
0 0 0
0 0 0
0 0 0
0 0 0
0 0 0
0 0 0
0 0 0
0 0 0
0 0 0
0 0 0
0 0 0
0 0 0
0 0 0
186 86 86
186 86 86
186 86 86
186 86 86
186 86 86
186 86 86
186 86 86
186 86 86
186 86 86
186 86 86
186 86 86
186 86 86
186 86 86
186 86 86
186 86 86
186 86 86
186 86 86
186 86 86
186 86 86
186 86 86
186 86 86
186 86 86
186 86 86
186 86 86
186 86 86
186 86 86
186 86 86
186 86 86
186 86 86
186 86 86
186 86 86
186 86 86
186 86 86
186 86 86
186 86 86
186 86 86
186 86 86
186 86 86
186 86 86
186 86 86
186 86 86
186 86 86
186 86 86
186 86 86
186 86 86
186 86 86
186 86 86
186 86 86
186 86 86
186 86 86
186 86 86
186 86 86
186 86 86
186 86 86
186 86 86
186 86 86
186 86 86
186 86 86
186 86 86
186 86 86
186 86 86
186 86 86
186 86 86
186 86 86
186 86 86
186 86 86
186 86 86
186 86 86
186 86 86
186 86 86
186 86 86
186 86 86
186 86 86
186 86 86
186 86 86
186 86 86
186 86 86
186 86 86
186 86 86
186 86 86
186 86 86
186 86 86
186 86 86
186 86 86
186 86 86
186 86 86
186 86 86
186 86 86
186 86 86
186 86 86
186 86 86
186 86 86
186 86 86
186 86 86
186 86 86
186 86 86
0 0 0
0 0 0
0 0 0
0 0 0
0 0 0
0 0 0
0 0 0
0 0 0
0 0 0
0 0 0
0 0 0
0 0 0
0 0 0
0 0 0
0 0 0
0 0 0
86 186 86
86 186 86
86 186 86
86 186 86
86 186 86
86 186 86
86 186 86
86 186 86
86 186 86
86 186 86
86 186 86
86 186 86
86 186 86
86 186 86
86 186 86
86 186 86
86 186 86
86 186 86
86 186 86
86 186 86
86 186 86
86 186 86
86 186 86
86 186 86
86 186 86
86 186 86
86 186 86
86 186 86
86 186 86
86 186 86
86 186 86
86 186 86
86 186 86
86 186 86
86 186 86
86 186 86
86 186 86
86 186 86
86 186 86
86 186 86
86 186 86
86 186 86
86 186 86
86 186 86
86 186 86
86 186 86
86 186 86
86 186 86
86 186 86
86 186 86
86 186 86
86 186 86
86 186 86
86 186 86
86 186 86
86 186 86
86 186 86
86 186 86
86 186 86
86 186 86
86 186 86
86 186 86
86 186 86
86 186 86
86 186 86
86 186 86
86 186 86
86 186 86
86 186 86
86 186 86
86 186 86
86 186 86
86 186 86
86 186 86
86 186 86
86 186 86
86 186 86
86 186 86
86 186 86
86 186 86
86 186 86
86 186 86
86 186 86
86 186 86
86 186 86
86 186 86
86 186 86
86 186 86
86 186 86
86 186 86
86 186 86
86 186 86
86 186 86
86 186 86
86 186 86
86 186 86
0 0 0
0 0 0
0 0 0
0 0 0
0 0 0
0 0 0
0 0 0
0 0 0
0 0 0
0 0 0
0 0 0
0 0 0
0 0 0
0 0 0
0 0 0
0 0 0
0 0 0
0 0 0
0 0 0
0 0 0
0 0 0
0 0 0
0 0 0
0 0 0
0 0 0
0 0 0
0 0 0
0 0 0
0 0 0
0 0 0
0 0 0
0 0 0
0 0 0
0 0 0
0 0 0
0 0 0
0 0 0
0 0 0
0 0 0
0 0 0
0 0 0
0 0 0
0 0 0
0 0 0
0 0 0
0 0 0
0 0 0
0 0 0
186 86 86
186 86 86
186 86 86
186 86 86
186 86 86
186 86 86
186 86 86
186 86 86
186 86 86
186 86 86
186 86 86
186 86 86
186 86 86
186 86 86
186 86 86
186 86 86
186 86 86
186 86 86
186 86 86
186 86 86
186 86 86
186 86 86
186 86 86
186 86 86
186 86 86
186 86 86
186 86 86
186 86 86
186 86 86
186 86 86
186 86 86
186 86 86
186 86 86
186 86 86
186 86 86
186 86 86
186 86 86
186 86 86
186 86 86
186 86 86
186 86 86
186 86 86
186 86 86
186 86 86
186 86 86
186 86 86
186 86 86
186 86 86
186 86 86
186 86 86
186 86 86
186 86 86
186 86 86
186 86 86
186 86 86
186 86 86
186 86 86
186 86 86
186 86 86
186 86 86
186 86 86
186 86 86
186 86 86
186 86 86
186 86 86
186 86 86
186 86 86
186 86 86
186 86 86
186 86 86
186 86 86
186 86 86
186 86 86
186 86 86
186 86 86
186 86 86
186 86 86
186 86 86
186 86 86
186 86 86
186 86 86
186 86 86
186 86 86
186 86 86
186 86 86
186 86 86
186 86 86
186 86 86
186 86 86
186 86 86
186 86 86
186 86 86
186 86 86
186 86 86
186 86 86
186 86 86
0 0 0
0 0 0
0 0 0
0 0 0
0 0 0
0 0 0
0 0 0
0 0 0
0 0 0
0 0 0
0 0 0
0 0 0
0 0 0
0 0 0
0 0 0
0 0 0
86 186 86
86 186 86
86 186 86
86 186 86
86 186 86
86 186 86
86 186 86
86 186 86
86 186 86
86 186 86
86 186 86
86 186 86
86 186 86
86 186 86
86 186 86
86 186 86
86 186 86
86 186 86
86 186 86
86 186 86
86 186 86
86 186 86
86 186 86
86 186 86
86 186 86
86 186 86
86 186 86
86 186 86
86 186 86
86 186 86
86 186 86
86 186 86
86 186 86
86 186 86
86 186 86
86 186 86
86 186 86
86 186 86
86 186 86
86 186 86
86 186 86
86 186 86
86 186 86
86 186 86
86 186 86
86 186 86
86 186 86
86 186 86
86 186 86
86 186 86
86 186 86
86 186 86
86 186 86
86 186 86
86 186 86
86 186 86
86 186 86
86 186 86
86 186 86
86 186 86
86 186 86
86 186 86
86 186 86
86 186 86
86 186 86
86 186 86
86 186 86
86 186 86
86 186 86
86 186 86
86 186 86
86 186 86
86 186 86
86 186 86
86 186 86
86 186 86
86 186 86
86 186 86
86 186 86
86 186 86
86 186 86
86 186 86
86 186 86
86 186 86
86 186 86
86 186 86
86 186 86
86 186 86
86 186 86
86 186 86
86 186 86
86 186 86
86 186 86
86 186 86
86 186 86
86 186 86
0 0 0
0 0 0
0 0 0
0 0 0
0 0 0
0 0 0
0 0 0
0 0 0
0 0 0
0 0 0
0 0 0
0 0 0
0 0 0
0 0 0
0 0 0
0 0 0
0 0 0
0 0 0
0 0 0
0 0 0
0 0 0
0 0 0
0 0 0
0 0 0
0 0 0
0 0 0
0 0 0
0 0 0
0 0 0
0 0 0
0 0 0
0 0 0
0 0 0
0 0 0
0 0 0
0 0 0
0 0 0
0 0 0
0 0 0
0 0 0
0 0 0
0 0 0
0 0 0
0 0 0
0 0 0
0 0 0
0 0 0
0 0 0
186 86 86
186 86 86
186 86 86
186 86 86
186 86 86
186 86 86
186 86 86
186 86 86
186 86 86
186 86 86
186 86 86
186 86 86
186 86 86
186 86 86
186 86 86
186 86 86
186 86 86
186 86 86
186 86 86
186 86 86
186 86 86
186 86 86
186 86 86
186 86 86
186 86 86
186 86 86
186 86 86
186 86 86
186 86 86
186 86 86
186 86 86
186 86 86
186 86 86
186 86 86
186 86 86
186 86 86
186 86 86
186 86 86
186 86 86
186 86 86
186 86 86
186 86 86
186 86 86
186 86 86
186 86 86
186 86 86
186 86 86
186 86 86
186 86 86
186 86 86
186 86 86
186 86 86
186 86 86
186 86 86
186 86 86
186 86 86
186 86 86
186 86 86
186 86 86
186 86 86
186 86 86
186 86 86
186 86 86
186 86 86
186 86 86
186 86 86
186 86 86
186 86 86
186 86 86
186 86 86
186 86 86
186 86 86
186 86 86
186 86 86
186 86 86
186 86 86
186 86 86
186 86 86
186 86 86
186 86 86
186 86 86
186 86 86
186 86 86
186 86 86
186 86 86
186 86 86
186 86 86
186 86 86
186 86 86
186 86 86
186 86 86
186 86 86
186 86 86
186 86 86
186 86 86
186 86 86
0 0 0
0 0 0
0 0 0
0 0 0
0 0 0
0 0 0
0 0 0
0 0 0
0 0 0
0 0 0
0 0 0
0 0 0
0 0 0
0 0 0
0 0 0
0 0 0
86 186 86
86 186 86
86 186 86
86 186 86
86 186 86
86 186 86
86 186 86
86 186 86
86 186 86
86 186 86
86 186 86
86 186 86
86 186 86
86 186 86
86 186 86
86 186 86
86 186 86
86 186 86
86 186 86
86 186 86
86 186 86
86 186 86
86 186 86
86 186 86
86 186 86
86 186 86
86 186 86
86 186 86
86 186 86
86 186 86
86 186 86
86 186 86
86 186 86
86 186 86
86 186 86
86 186 86
86 186 86
86 186 86
86 186 86
86 186 86
86 186 86
86 186 86
86 186 86
86 186 86
86 186 86
86 186 86
86 186 86
86 186 86
86 186 86
86 186 86
86 186 86
86 186 86
86 186 86
86 186 86
86 186 86
86 186 86
86 186 86
86 186 86
86 186 86
86 186 86
86 186 86
86 186 86
86 186 86
86 186 86
86 186 86
86 186 86
86 186 86
86 186 86
86 186 86
86 186 86
86 186 86
86 186 86
86 186 86
86 186 86
86 186 86
86 186 86
86 186 86
86 186 86
86 186 86
86 186 86
86 186 86
86 186 86
86 186 86
86 186 86
86 186 86
86 186 86
86 186 86
86 186 86
86 186 86
86 186 86
86 186 86
86 186 86
86 186 86
86 186 86
86 186 86
86 186 86
0 0 0
0 0 0
0 0 0
0 0 0
0 0 0
0 0 0
0 0 0
0 0 0
0 0 0
0 0 0
0 0 0
0 0 0
0 0 0
0 0 0
0 0 0
0 0 0
0 0 0
0 0 0
0 0 0
0 0 0
0 0 0
0 0 0
0 0 0
0 0 0
0 0 0
0 0 0
0 0 0
0 0 0
0 0 0
0 0 0
0 0 0
0 0 0
0 0 0
0 0 0
0 0 0
0 0 0
0 0 0
0 0 0
0 0 0
0 0 0
0 0 0
0 0 0
0 0 0
0 0 0
0 0 0
0 0 0
0 0 0
0 0 0
186 86 86
186 86 86
186 86 86
186 86 86
186 86 86
186 86 86
186 86 86
186 86 86
186 86 86
186 86 86
186 86 86
186 86 86
186 86 86
186 86 86
186 86 86
186 86 86
186 86 86
186 86 86
186 86 86
186 86 86
186 86 86
186 86 86
186 86 86
186 86 86
186 86 86
186 86 86
186 86 86
186 86 86
186 86 86
186 86 86
186 86 86
186 86 86
186 86 86
186 86 86
186 86 86
186 86 86
186 86 86
186 86 86
186 86 86
186 86 86
186 86 86
186 86 86
186 86 86
186 86 86
186 86 86
186 86 86
186 86 86
186 86 86
186 86 86
186 86 86
186 86 86
186 86 86
186 86 86
186 86 86
186 86 86
186 86 86
186 86 86
186 86 86
186 86 86
186 86 86
186 86 86
186 86 86
186 86 86
186 86 86
186 86 86
186 86 86
186 86 86
186 86 86
186 86 86
186 86 86
186 86 86
186 86 86
186 86 86
186 86 86
186 86 86
186 86 86
186 86 86
186 86 86
186 86 86
186 86 86
186 86 86
186 86 86
186 86 86
186 86 86
186 86 86
186 86 86
186 86 86
186 86 86
186 86 86
186 86 86
186 86 86
186 86 86
186 86 86
186 86 86
186 86 86
186 86 86
0 0 0
0 0 0
0 0 0
0 0 0
0 0 0
0 0 0
0 0 0
0 0 0
0 0 0
0 0 0
0 0 0
0 0 0
0 0 0
0 0 0
0 0 0
0 0 0
86 186 86
86 186 86
86 186 86
86 186 86
86 186 86
86 186 86
86 186 86
86 186 86
86 186 86
86 186 86
86 186 86
86 186 86
86 186 86
86 186 86
86 186 86
86 186 86
86 186 86
86 186 86
86 186 86
86 186 86
86 186 86
86 186 86
86 186 86
86 186 86
86 186 86
86 186 86
86 186 86
86 186 86
86 186 86
86 186 86
86 186 86
86 186 86
86 186 86
86 186 86
86 186 86
86 186 86
86 186 86
86 186 86
86 186 86
86 186 86
86 186 86
86 186 86
86 186 86
86 186 86
86 186 86
86 186 86
86 186 86
86 186 86
86 186 86
86 186 86
86 186 86
86 186 86
86 186 86
86 186 86
86 186 86
86 186 86
86 186 86
86 186 86
86 186 86
86 186 86
86 186 86
86 186 86
86 186 86
86 186 86
86 186 86
86 186 86
86 186 86
86 186 86
86 186 86
86 186 86
86 186 86
86 186 86
86 186 86
86 186 86
86 186 86
86 186 86
86 186 86
86 186 86
86 186 86
86 186 86
86 186 86
86 186 86
86 186 86
86 186 86
86 186 86
86 186 86
86 186 86
86 186 86
86 186 86
86 186 86
86 186 86
86 186 86
86 186 86
86 186 86
86 186 86
86 186 86
0 0 0
0 0 0
0 0 0
0 0 0
0 0 0
0 0 0
0 0 0
0 0 0
0 0 0
0 0 0
0 0 0
0 0 0
0 0 0
0 0 0
0 0 0
0 0 0
0 0 0
0 0 0
0 0 0
0 0 0
0 0 0
0 0 0
0 0 0
0 0 0
0 0 0
0 0 0
0 0 0
0 0 0
0 0 0
0 0 0
0 0 0
0 0 0
0 0 0
0 0 0
0 0 0
0 0 0
0 0 0
0 0 0
0 0 0
0 0 0
0 0 0
0 0 0
0 0 0
0 0 0
0 0 0
0 0 0
0 0 0
0 0 0
186 86 86
186 86 86
186 86 86
186 86 86
186 86 86
186 86 86
186 86 86
186 86 86
186 86 86
186 86 86
186 86 86
186 86 86
186 86 86
186 86 86
186 86 86
186 86 86
186 86 86
186 86 86
186 86 86
186 86 86
186 86 86
186 86 86
186 86 86
186 86 86
186 86 86
186 86 86
186 86 86
186 86 86
186 86 86
186 86 86
186 86 86
186 86 86
186 86 86
186 86 86
186 86 86
186 86 86
186 86 86
186 86 86
186 86 86
186 86 86
186 86 86
186 86 86
186 86 86
186 86 86
186 86 86
186 86 86
186 86 86
186 86 86
186 86 86
186 86 86
186 86 86
186 86 86
186 86 86
186 86 86
186 86 86
186 86 86
186 86 86
186 86 86
186 86 86
186 86 86
186 86 86
186 86 86
186 86 86
186 86 86
186 86 86
186 86 86
186 86 86
186 86 86
186 86 86
186 86 86
186 86 86
186 86 86
186 86 86
186 86 86
186 86 86
186 86 86
186 86 86
186 86 86
186 86 86
186 86 86
186 86 86
186 86 86
186 86 86
186 86 86
186 86 86
186 86 86
186 86 86
186 86 86
186 86 86
186 86 86
186 86 86
186 86 86
186 86 86
186 86 86
186 86 86
186 86 86
0 0 0
0 0 0
0 0 0
0 0 0
0 0 0
0 0 0
0 0 0
0 0 0
0 0 0
0 0 0
0 0 0
0 0 0
0 0 0
0 0 0
0 0 0
0 0 0
86 186 86
86 186 86
86 186 86
86 186 86
86 186 86
86 186 86
86 186 86
86 186 86
86 186 86
86 186 86
86 186 86
86 186 86
86 186 86
86 186 86
86 186 86
86 186 86
86 186 86
86 186 86
86 186 86
86 186 86
86 186 86
86 186 86
86 186 86
86 186 86
86 186 86
86 186 86
86 186 86
86 186 86
86 186 86
86 186 86
86 186 86
86 186 86
86 186 86
86 186 86
86 186 86
86 186 86
86 186 86
86 186 86
86 186 86
86 186 86
86 186 86
86 186 86
86 186 86
86 186 86
86 186 86
86 186 86
86 186 86
86 186 86
86 186 86
86 186 86
86 186 86
86 186 86
86 186 86
86 186 86
86 186 86
86 186 86
86 186 86
86 186 86
86 186 86
86 186 86
86 186 86
86 186 86
86 186 86
86 186 86
86 186 86
86 186 86
86 186 86
86 186 86
86 186 86
86 186 86
86 186 86
86 186 86
86 186 86
86 186 86
86 186 86
86 186 86
86 186 86
86 186 86
86 186 86
86 186 86
86 186 86
86 186 86
86 186 86
86 186 86
86 186 86
86 186 86
86 186 86
86 186 86
86 186 86
86 186 86
86 186 86
86 186 86
86 186 86
86 186 86
86 186 86
86 186 86
0 0 0
0 0 0
0 0 0
0 0 0
0 0 0
0 0 0
0 0 0
0 0 0
0 0 0
0 0 0
0 0 0
0 0 0
0 0 0
0 0 0
0 0 0
0 0 0
0 0 0
0 0 0
0 0 0
0 0 0
0 0 0
0 0 0
0 0 0
0 0 0
0 0 0
0 0 0
0 0 0
0 0 0
0 0 0
0 0 0
0 0 0
0 0 0
0 0 0
0 0 0
0 0 0
0 0 0
0 0 0
0 0 0
0 0 0
0 0 0
0 0 0
0 0 0
0 0 0
0 0 0
0 0 0
0 0 0
0 0 0
0 0 0
186 86 86
186 86 86
186 86 86
186 86 86
186 86 86
186 86 86
186 86 86
186 86 86
186 86 86
186 86 86
186 86 86
186 86 86
186 86 86
186 86 86
186 86 86
186 86 86
186 86 86
186 86 86
186 86 86
186 86 86
186 86 86
186 86 86
186 86 86
186 86 86
186 86 86
186 86 86
186 86 86
186 86 86
186 86 86
186 86 86
186 86 86
186 86 86
186 86 86
186 86 86
186 86 86
186 86 86
186 86 86
186 86 86
186 86 86
186 86 86
186 86 86
186 86 86
186 86 86
186 86 86
186 86 86
186 86 86
186 86 86
186 86 86
186 86 86
186 86 86
186 86 86
186 86 86
186 86 86
186 86 86
186 86 86
186 86 86
186 86 86
186 86 86
186 86 86
186 86 86
186 86 86
186 86 86
186 86 86
186 86 86
186 86 86
186 86 86
186 86 86
186 86 86
186 86 86
186 86 86
186 86 86
186 86 86
186 86 86
186 86 86
186 86 86
186 86 86
186 86 86
186 86 86
186 86 86
186 86 86
186 86 86
186 86 86
186 86 86
186 86 86
186 86 86
186 86 86
186 86 86
186 86 86
186 86 86
186 86 86
186 86 86
186 86 86
186 86 86
186 86 86
186 86 86
186 86 86
0 0 0
0 0 0
0 0 0
0 0 0
0 0 0
0 0 0
0 0 0
0 0 0
0 0 0
0 0 0
0 0 0
0 0 0
0 0 0
0 0 0
0 0 0
0 0 0
86 186 86
86 186 86
86 186 86
86 186 86
86 186 86
86 186 86
86 186 86
86 186 86
86 186 86
86 186 86
86 186 86
86 186 86
86 186 86
86 186 86
86 186 86
86 186 86
86 186 86
86 186 86
86 186 86
86 186 86
86 186 86
86 186 86
86 186 86
86 186 86
86 186 86
86 186 86
86 186 86
86 186 86
86 186 86
86 186 86
86 186 86
86 186 86
86 186 86
86 186 86
86 186 86
86 186 86
86 186 86
86 186 86
86 186 86
86 186 86
86 186 86
86 186 86
86 186 86
86 186 86
86 186 86
86 186 86
86 186 86
86 186 86
86 186 86
86 186 86
86 186 86
86 186 86
86 186 86
86 186 86
86 186 86
86 186 86
86 186 86
86 186 86
86 186 86
86 186 86
86 186 86
86 186 86
86 186 86
86 186 86
86 186 86
86 186 86
86 186 86
86 186 86
86 186 86
86 186 86
86 186 86
86 186 86
86 186 86
86 186 86
86 186 86
86 186 86
86 186 86
86 186 86
86 186 86
86 186 86
86 186 86
86 186 86
86 186 86
86 186 86
86 186 86
86 186 86
86 186 86
86 186 86
86 186 86
86 186 86
86 186 86
86 186 86
86 186 86
86 186 86
86 186 86
86 186 86
0 0 0
0 0 0
0 0 0
0 0 0
0 0 0
0 0 0
0 0 0
0 0 0
0 0 0
0 0 0
0 0 0
0 0 0
0 0 0
0 0 0
0 0 0
0 0 0
0 0 0
0 0 0
0 0 0
0 0 0
0 0 0
0 0 0
0 0 0
0 0 0
0 0 0
0 0 0
0 0 0
0 0 0
0 0 0
0 0 0
0 0 0
0 0 0
0 0 0
0 0 0
0 0 0
0 0 0
0 0 0
0 0 0
0 0 0
0 0 0
0 0 0
0 0 0
0 0 0
0 0 0
0 0 0
0 0 0
0 0 0
0 0 0
186 86 86
186 86 86
186 86 86
186 86 86
186 86 86
186 86 86
186 86 86
186 86 86
186 86 86
186 86 86
186 86 86
186 86 86
186 86 86
186 86 86
186 86 86
186 86 86
186 86 86
186 86 86
186 86 86
186 86 86
186 86 86
186 86 86
186 86 86
186 86 86
186 86 86
186 86 86
186 86 86
186 86 86
186 86 86
186 86 86
186 86 86
186 86 86
186 86 86
186 86 86
186 86 86
186 86 86
186 86 86
186 86 86
186 86 86
186 86 86
186 86 86
186 86 86
186 86 86
186 86 86
186 86 86
186 86 86
186 86 86
186 86 86
186 86 86
186 86 86
186 86 86
186 86 86
186 86 86
186 86 86
186 86 86
186 86 86
186 86 86
186 86 86
186 86 86
186 86 86
186 86 86
186 86 86
186 86 86
186 86 86
186 86 86
186 86 86
186 86 86
186 86 86
186 86 86
186 86 86
186 86 86
186 86 86
186 86 86
186 86 86
186 86 86
186 86 86
186 86 86
186 86 86
186 86 86
186 86 86
186 86 86
186 86 86
186 86 86
186 86 86
186 86 86
186 86 86
186 86 86
186 86 86
186 86 86
186 86 86
186 86 86
186 86 86
186 86 86
186 86 86
186 86 86
186 86 86
0 0 0
0 0 0
0 0 0
0 0 0
0 0 0
0 0 0
0 0 0
0 0 0
0 0 0
0 0 0
0 0 0
0 0 0
0 0 0
0 0 0
0 0 0
0 0 0
86 186 86
86 186 86
86 186 86
86 186 86
86 186 86
86 186 86
86 186 86
86 186 86
86 186 86
86 186 86
86 186 86
86 186 86
86 186 86
86 186 86
86 186 86
86 186 86
86 186 86
86 186 86
86 186 86
86 186 86
86 186 86
86 186 86
86 186 86
86 186 86
86 186 86
86 186 86
86 186 86
86 186 86
86 186 86
86 186 86
86 186 86
86 186 86
86 186 86
86 186 86
86 186 86
86 186 86
86 186 86
86 186 86
86 186 86
86 186 86
86 186 86
86 186 86
86 186 86
86 186 86
86 186 86
86 186 86
86 186 86
86 186 86
86 186 86
86 186 86
86 186 86
86 186 86
86 186 86
86 186 86
86 186 86
86 186 86
86 186 86
86 186 86
86 186 86
86 186 86
86 186 86
86 186 86
86 186 86
86 186 86
86 186 86
86 186 86
86 186 86
86 186 86
86 186 86
86 186 86
86 186 86
86 186 86
86 186 86
86 186 86
86 186 86
86 186 86
86 186 86
86 186 86
86 186 86
86 186 86
86 186 86
86 186 86
86 186 86
86 186 86
86 186 86
86 186 86
86 186 86
86 186 86
86 186 86
86 186 86
86 186 86
86 186 86
86 186 86
86 186 86
86 186 86
86 186 86
0 0 0
0 0 0
0 0 0
0 0 0
0 0 0
0 0 0
0 0 0
0 0 0
0 0 0
0 0 0
0 0 0
0 0 0
0 0 0
0 0 0
0 0 0
0 0 0
0 0 0
0 0 0
0 0 0
0 0 0
0 0 0
0 0 0
0 0 0
0 0 0
0 0 0
0 0 0
0 0 0
0 0 0
0 0 0
0 0 0
0 0 0
0 0 0
0 0 0
0 0 0
0 0 0
0 0 0
0 0 0
0 0 0
0 0 0
0 0 0
0 0 0
0 0 0
0 0 0
0 0 0
0 0 0
0 0 0
0 0 0
0 0 0
186 86 86
186 86 86
186 86 86
186 86 86
186 86 86
186 86 86
186 86 86
186 86 86
186 86 86
186 86 86
186 86 86
186 86 86
186 86 86
186 86 86
186 86 86
186 86 86
186 86 86
186 86 86
186 86 86
186 86 86
186 86 86
186 86 86
186 86 86
186 86 86
186 86 86
186 86 86
186 86 86
186 86 86
186 86 86
186 86 86
186 86 86
186 86 86
186 86 86
186 86 86
186 86 86
186 86 86
186 86 86
186 86 86
186 86 86
186 86 86
186 86 86
186 86 86
186 86 86
186 86 86
186 86 86
186 86 86
186 86 86
186 86 86
186 86 86
186 86 86
186 86 86
186 86 86
186 86 86
186 86 86
186 86 86
186 86 86
186 86 86
186 86 86
186 86 86
186 86 86
186 86 86
186 86 86
186 86 86
186 86 86
186 86 86
186 86 86
186 86 86
186 86 86
186 86 86
186 86 86
186 86 86
186 86 86
186 86 86
186 86 86
186 86 86
186 86 86
186 86 86
186 86 86
186 86 86
186 86 86
186 86 86
186 86 86
186 86 86
186 86 86
186 86 86
186 86 86
186 86 86
186 86 86
186 86 86
186 86 86
186 86 86
186 86 86
186 86 86
186 86 86
186 86 86
186 86 86
0 0 0
0 0 0
0 0 0
0 0 0
0 0 0
0 0 0
0 0 0
0 0 0
0 0 0
0 0 0
0 0 0
0 0 0
0 0 0
0 0 0
0 0 0
0 0 0
86 186 86
86 186 86
86 186 86
86 186 86
86 186 86
86 186 86
86 186 86
86 186 86
86 186 86
86 186 86
86 186 86
86 186 86
86 186 86
86 186 86
86 186 86
86 186 86
86 186 86
86 186 86
86 186 86
86 186 86
86 186 86
86 186 86
86 186 86
86 186 86
86 186 86
86 186 86
86 186 86
86 186 86
86 186 86
86 186 86
86 186 86
86 186 86
86 186 86
86 186 86
86 186 86
86 186 86
86 186 86
86 186 86
86 186 86
86 186 86
86 186 86
86 186 86
86 186 86
86 186 86
86 186 86
86 186 86
86 186 86
86 186 86
86 186 86
86 186 86
86 186 86
86 186 86
86 186 86
86 186 86
86 186 86
86 186 86
86 186 86
86 186 86
86 186 86
86 186 86
86 186 86
86 186 86
86 186 86
86 186 86
86 186 86
86 186 86
86 186 86
86 186 86
86 186 86
86 186 86
86 186 86
86 186 86
86 186 86
86 186 86
86 186 86
86 186 86
86 186 86
86 186 86
86 186 86
86 186 86
86 186 86
86 186 86
86 186 86
86 186 86
86 186 86
86 186 86
86 186 86
86 186 86
86 186 86
86 186 86
86 186 86
86 186 86
86 186 86
86 186 86
86 186 86
86 186 86
0 0 0
0 0 0
0 0 0
0 0 0
0 0 0
0 0 0
0 0 0
0 0 0
0 0 0
0 0 0
0 0 0
0 0 0
0 0 0
0 0 0
0 0 0
0 0 0
0 0 0
0 0 0
0 0 0
0 0 0
0 0 0
0 0 0
0 0 0
0 0 0
0 0 0
0 0 0
0 0 0
0 0 0
0 0 0
0 0 0
0 0 0
0 0 0
0 0 0
0 0 0
0 0 0
0 0 0
0 0 0
0 0 0
0 0 0
0 0 0
0 0 0
0 0 0
0 0 0
0 0 0
0 0 0
0 0 0
0 0 0
0 0 0
186 86 86
186 86 86
186 86 86
186 86 86
186 86 86
186 86 86
186 86 86
186 86 86
186 86 86
186 86 86
186 86 86
186 86 86
186 86 86
186 86 86
186 86 86
186 86 86
186 86 86
186 86 86
186 86 86
186 86 86
186 86 86
186 86 86
186 86 86
186 86 86
186 86 86
186 86 86
186 86 86
186 86 86
186 86 86
186 86 86
186 86 86
186 86 86
186 86 86
186 86 86
186 86 86
186 86 86
186 86 86
186 86 86
186 86 86
186 86 86
186 86 86
186 86 86
186 86 86
186 86 86
186 86 86
186 86 86
186 86 86
186 86 86
186 86 86
186 86 86
186 86 86
186 86 86
186 86 86
186 86 86
186 86 86
186 86 86
186 86 86
186 86 86
186 86 86
186 86 86
186 86 86
186 86 86
186 86 86
186 86 86
186 86 86
186 86 86
186 86 86
186 86 86
186 86 86
186 86 86
186 86 86
186 86 86
186 86 86
186 86 86
186 86 86
186 86 86
186 86 86
186 86 86
186 86 86
186 86 86
186 86 86
186 86 86
186 86 86
186 86 86
186 86 86
186 86 86
186 86 86
186 86 86
186 86 86
186 86 86
186 86 86
186 86 86
186 86 86
186 86 86
186 86 86
186 86 86
0 0 0
0 0 0
0 0 0
0 0 0
0 0 0
0 0 0
0 0 0
0 0 0
0 0 0
0 0 0
0 0 0
0 0 0
0 0 0
0 0 0
0 0 0
0 0 0
86 186 86
86 186 86
86 186 86
86 186 86
86 186 86
86 186 86
86 186 86
86 186 86
86 186 86
86 186 86
86 186 86
86 186 86
86 186 86
86 186 86
86 186 86
86 186 86
86 186 86
86 186 86
86 186 86
86 186 86
86 186 86
86 186 86
86 186 86
86 186 86
86 186 86
86 186 86
86 186 86
86 186 86
86 186 86
86 186 86
86 186 86
86 186 86
86 186 86
86 186 86
86 186 86
86 186 86
86 186 86
86 186 86
86 186 86
86 186 86
86 186 86
86 186 86
86 186 86
86 186 86
86 186 86
86 186 86
86 186 86
86 186 86
86 186 86
86 186 86
86 186 86
86 186 86
86 186 86
86 186 86
86 186 86
86 186 86
86 186 86
86 186 86
86 186 86
86 186 86
86 186 86
86 186 86
86 186 86
86 186 86
86 186 86
86 186 86
86 186 86
86 186 86
86 186 86
86 186 86
86 186 86
86 186 86
86 186 86
86 186 86
86 186 86
86 186 86
86 186 86
86 186 86
86 186 86
86 186 86
86 186 86
86 186 86
86 186 86
86 186 86
86 186 86
86 186 86
86 186 86
86 186 86
86 186 86
86 186 86
86 186 86
86 186 86
86 186 86
86 186 86
86 186 86
86 186 86
0 0 0
0 0 0
0 0 0
0 0 0
0 0 0
0 0 0
0 0 0
0 0 0
0 0 0
0 0 0
0 0 0
0 0 0
0 0 0
0 0 0
0 0 0
0 0 0
0 0 0
0 0 0
0 0 0
0 0 0
0 0 0
0 0 0
0 0 0
0 0 0
0 0 0
0 0 0
0 0 0
0 0 0
0 0 0
0 0 0
0 0 0
0 0 0
0 0 0
0 0 0
0 0 0
0 0 0
0 0 0
0 0 0
0 0 0
0 0 0
0 0 0
0 0 0
0 0 0
0 0 0
0 0 0
0 0 0
0 0 0
0 0 0
186 86 86
186 86 86
186 86 86
186 86 86
186 86 86
186 86 86
186 86 86
186 86 86
186 86 86
186 86 86
186 86 86
186 86 86
186 86 86
186 86 86
186 86 86
186 86 86
186 86 86
186 86 86
186 86 86
186 86 86
186 86 86
186 86 86
186 86 86
186 86 86
186 86 86
186 86 86
186 86 86
186 86 86
186 86 86
186 86 86
186 86 86
186 86 86
186 86 86
186 86 86
186 86 86
186 86 86
186 86 86
186 86 86
186 86 86
186 86 86
186 86 86
186 86 86
186 86 86
186 86 86
186 86 86
186 86 86
186 86 86
186 86 86
186 86 86
186 86 86
186 86 86
186 86 86
186 86 86
186 86 86
186 86 86
186 86 86
186 86 86
186 86 86
186 86 86
186 86 86
186 86 86
186 86 86
186 86 86
186 86 86
186 86 86
186 86 86
186 86 86
186 86 86
186 86 86
186 86 86
186 86 86
186 86 86
186 86 86
186 86 86
186 86 86
186 86 86
186 86 86
186 86 86
186 86 86
186 86 86
186 86 86
186 86 86
186 86 86
186 86 86
186 86 86
186 86 86
186 86 86
186 86 86
186 86 86
186 86 86
186 86 86
186 86 86
186 86 86
186 86 86
186 86 86
186 86 86
0 0 0
0 0 0
0 0 0
0 0 0
0 0 0
0 0 0
0 0 0
0 0 0
0 0 0
0 0 0
0 0 0
0 0 0
0 0 0
0 0 0
0 0 0
0 0 0
86 186 86
86 186 86
86 186 86
86 186 86
86 186 86
86 186 86
86 186 86
86 186 86
86 186 86
86 186 86
86 186 86
86 186 86
86 186 86
86 186 86
86 186 86
86 186 86
86 186 86
86 186 86
86 186 86
86 186 86
86 186 86
86 186 86
86 186 86
86 186 86
86 186 86
86 186 86
86 186 86
86 186 86
86 186 86
86 186 86
86 186 86
86 186 86
86 186 86
86 186 86
86 186 86
86 186 86
86 186 86
86 186 86
86 186 86
86 186 86
86 186 86
86 186 86
86 186 86
86 186 86
86 186 86
86 186 86
86 186 86
86 186 86
86 186 86
86 186 86
86 186 86
86 186 86
86 186 86
86 186 86
86 186 86
86 186 86
86 186 86
86 186 86
86 186 86
86 186 86
86 186 86
86 186 86
86 186 86
86 186 86
86 186 86
86 186 86
86 186 86
86 186 86
86 186 86
86 186 86
86 186 86
86 186 86
86 186 86
86 186 86
86 186 86
86 186 86
86 186 86
86 186 86
86 186 86
86 186 86
86 186 86
86 186 86
86 186 86
86 186 86
86 186 86
86 186 86
86 186 86
86 186 86
86 186 86
86 186 86
86 186 86
86 186 86
86 186 86
86 186 86
86 186 86
86 186 86
0 0 0
0 0 0
0 0 0
0 0 0
0 0 0
0 0 0
0 0 0
0 0 0
0 0 0
0 0 0
0 0 0
0 0 0
0 0 0
0 0 0
0 0 0
0 0 0
0 0 0
0 0 0
0 0 0
0 0 0
0 0 0
0 0 0
0 0 0
0 0 0
0 0 0
0 0 0
0 0 0
0 0 0
0 0 0
0 0 0
0 0 0
0 0 0
0 0 0
0 0 0
0 0 0
0 0 0
0 0 0
0 0 0
0 0 0
0 0 0
0 0 0
0 0 0
0 0 0
0 0 0
0 0 0
0 0 0
0 0 0
0 0 0
186 86 86
186 86 86
186 86 86
186 86 86
186 86 86
186 86 86
186 86 86
186 86 86
186 86 86
186 86 86
186 86 86
186 86 86
186 86 86
186 86 86
186 86 86
186 86 86
186 86 86
186 86 86
186 86 86
186 86 86
186 86 86
186 86 86
186 86 86
186 86 86
186 86 86
186 86 86
186 86 86
186 86 86
186 86 86
186 86 86
186 86 86
186 86 86
186 86 86
186 86 86
186 86 86
186 86 86
186 86 86
186 86 86
186 86 86
186 86 86
186 86 86
186 86 86
186 86 86
186 86 86
186 86 86
186 86 86
186 86 86
186 86 86
186 86 86
186 86 86
186 86 86
186 86 86
186 86 86
186 86 86
186 86 86
186 86 86
186 86 86
186 86 86
186 86 86
186 86 86
186 86 86
186 86 86
186 86 86
186 86 86
186 86 86
186 86 86
186 86 86
186 86 86
186 86 86
186 86 86
186 86 86
186 86 86
186 86 86
186 86 86
186 86 86
186 86 86
186 86 86
186 86 86
186 86 86
186 86 86
186 86 86
186 86 86
186 86 86
186 86 86
186 86 86
186 86 86
186 86 86
186 86 86
186 86 86
186 86 86
186 86 86
186 86 86
186 86 86
186 86 86
186 86 86
186 86 86
0 0 0
0 0 0
0 0 0
0 0 0
0 0 0
0 0 0
0 0 0
0 0 0
0 0 0
0 0 0
0 0 0
0 0 0
0 0 0
0 0 0
0 0 0
0 0 0
86 186 86
86 186 86
86 186 86
86 186 86
86 186 86
86 186 86
86 186 86
86 186 86
86 186 86
86 186 86
86 186 86
86 186 86
86 186 86
86 186 86
86 186 86
86 186 86
86 186 86
86 186 86
86 186 86
86 186 86
86 186 86
86 186 86
86 186 86
86 186 86
86 186 86
86 186 86
86 186 86
86 186 86
86 186 86
86 186 86
86 186 86
86 186 86
86 186 86
86 186 86
86 186 86
86 186 86
86 186 86
86 186 86
86 186 86
86 186 86
86 186 86
86 186 86
86 186 86
86 186 86
86 186 86
86 186 86
86 186 86
86 186 86
86 186 86
86 186 86
86 186 86
86 186 86
86 186 86
86 186 86
86 186 86
86 186 86
86 186 86
86 186 86
86 186 86
86 186 86
86 186 86
86 186 86
86 186 86
86 186 86
86 186 86
86 186 86
86 186 86
86 186 86
86 186 86
86 186 86
86 186 86
86 186 86
86 186 86
86 186 86
86 186 86
86 186 86
86 186 86
86 186 86
86 186 86
86 186 86
86 186 86
86 186 86
86 186 86
86 186 86
86 186 86
86 186 86
86 186 86
86 186 86
86 186 86
86 186 86
86 186 86
86 186 86
86 186 86
86 186 86
86 186 86
86 186 86
0 0 0
0 0 0
0 0 0
0 0 0
0 0 0
0 0 0
0 0 0
0 0 0
0 0 0
0 0 0
0 0 0
0 0 0
0 0 0
0 0 0
0 0 0
0 0 0
0 0 0
0 0 0
0 0 0
0 0 0
0 0 0
0 0 0
0 0 0
0 0 0
0 0 0
0 0 0
0 0 0
0 0 0
0 0 0
0 0 0
0 0 0
0 0 0
0 0 0
0 0 0
0 0 0
0 0 0
0 0 0
0 0 0
0 0 0
0 0 0
0 0 0
0 0 0
0 0 0
0 0 0
0 0 0
0 0 0
0 0 0
0 0 0
186 86 86
186 86 86
186 86 86
186 86 86
186 86 86
186 86 86
186 86 86
186 86 86
186 86 86
186 86 86
186 86 86
186 86 86
186 86 86
186 86 86
186 86 86
186 86 86
186 86 86
186 86 86
186 86 86
186 86 86
186 86 86
186 86 86
186 86 86
186 86 86
186 86 86
186 86 86
186 86 86
186 86 86
186 86 86
186 86 86
186 86 86
186 86 86
186 86 86
186 86 86
186 86 86
186 86 86
186 86 86
186 86 86
186 86 86
186 86 86
186 86 86
186 86 86
186 86 86
186 86 86
186 86 86
186 86 86
186 86 86
186 86 86
186 86 86
186 86 86
186 86 86
186 86 86
186 86 86
186 86 86
186 86 86
186 86 86
186 86 86
186 86 86
186 86 86
186 86 86
186 86 86
186 86 86
186 86 86
186 86 86
186 86 86
186 86 86
186 86 86
186 86 86
186 86 86
186 86 86
186 86 86
186 86 86
186 86 86
186 86 86
186 86 86
186 86 86
186 86 86
186 86 86
186 86 86
186 86 86
186 86 86
186 86 86
186 86 86
186 86 86
186 86 86
186 86 86
186 86 86
186 86 86
186 86 86
186 86 86
186 86 86
186 86 86
186 86 86
186 86 86
186 86 86
186 86 86
0 0 0
0 0 0
0 0 0
0 0 0
0 0 0
0 0 0
0 0 0
0 0 0
0 0 0
0 0 0
0 0 0
0 0 0
0 0 0
0 0 0
0 0 0
0 0 0
86 186 86
86 186 86
86 186 86
86 186 86
86 186 86
86 186 86
86 186 86
86 186 86
86 186 86
86 186 86
86 186 86
86 186 86
86 186 86
86 186 86
86 186 86
86 186 86
86 186 86
86 186 86
86 186 86
86 186 86
86 186 86
86 186 86
86 186 86
86 186 86
86 186 86
86 186 86
86 186 86
86 186 86
86 186 86
86 186 86
86 186 86
86 186 86
86 186 86
86 186 86
86 186 86
86 186 86
86 186 86
86 186 86
86 186 86
86 186 86
86 186 86
86 186 86
86 186 86
86 186 86
86 186 86
86 186 86
86 186 86
86 186 86
86 186 86
86 186 86
86 186 86
86 186 86
86 186 86
86 186 86
86 186 86
86 186 86
86 186 86
86 186 86
86 186 86
86 186 86
86 186 86
86 186 86
86 186 86
86 186 86
86 186 86
86 186 86
86 186 86
86 186 86
86 186 86
86 186 86
86 186 86
86 186 86
86 186 86
86 186 86
86 186 86
86 186 86
86 186 86
86 186 86
86 186 86
86 186 86
86 186 86
86 186 86
86 186 86
86 186 86
86 186 86
86 186 86
86 186 86
86 186 86
86 186 86
86 186 86
86 186 86
86 186 86
86 186 86
86 186 86
86 186 86
86 186 86
0 0 0
0 0 0
0 0 0
0 0 0
0 0 0
0 0 0
0 0 0
0 0 0
0 0 0
0 0 0
0 0 0
0 0 0
0 0 0
0 0 0
0 0 0
0 0 0
0 0 0
0 0 0
0 0 0
0 0 0
0 0 0
0 0 0
0 0 0
0 0 0
0 0 0
0 0 0
0 0 0
0 0 0
0 0 0
0 0 0
0 0 0
0 0 0
0 0 0
0 0 0
0 0 0
0 0 0
0 0 0
0 0 0
0 0 0
0 0 0
0 0 0
0 0 0
0 0 0
0 0 0
0 0 0
0 0 0
0 0 0
0 0 0
186 86 86
186 86 86
186 86 86
186 86 86
186 86 86
186 86 86
186 86 86
186 86 86
186 86 86
186 86 86
186 86 86
186 86 86
186 86 86
186 86 86
186 86 86
186 86 86
186 86 86
186 86 86
186 86 86
186 86 86
186 86 86
186 86 86
186 86 86
186 86 86
186 86 86
186 86 86
186 86 86
186 86 86
186 86 86
186 86 86
186 86 86
186 86 86
186 86 86
186 86 86
186 86 86
186 86 86
186 86 86
186 86 86
186 86 86
186 86 86
186 86 86
186 86 86
186 86 86
186 86 86
186 86 86
186 86 86
186 86 86
186 86 86
186 86 86
186 86 86
186 86 86
186 86 86
186 86 86
186 86 86
186 86 86
186 86 86
186 86 86
186 86 86
186 86 86
186 86 86
186 86 86
186 86 86
186 86 86
186 86 86
186 86 86
186 86 86
186 86 86
186 86 86
186 86 86
186 86 86
186 86 86
186 86 86
186 86 86
186 86 86
186 86 86
186 86 86
186 86 86
186 86 86
186 86 86
186 86 86
186 86 86
186 86 86
186 86 86
186 86 86
186 86 86
186 86 86
186 86 86
186 86 86
186 86 86
186 86 86
186 86 86
186 86 86
186 86 86
186 86 86
186 86 86
186 86 86
0 0 0
0 0 0
0 0 0
0 0 0
0 0 0
0 0 0
0 0 0
0 0 0
0 0 0
0 0 0
0 0 0
0 0 0
0 0 0
0 0 0
0 0 0
0 0 0
86 186 86
86 186 86
86 186 86
86 186 86
86 186 86
86 186 86
86 186 86
86 186 86
86 186 86
86 186 86
86 186 86
86 186 86
86 186 86
86 186 86
86 186 86
86 186 86
86 186 86
86 186 86
86 186 86
86 186 86
86 186 86
86 186 86
86 186 86
86 186 86
86 186 86
86 186 86
86 186 86
86 186 86
86 186 86
86 186 86
86 186 86
86 186 86
86 186 86
86 186 86
86 186 86
86 186 86
86 186 86
86 186 86
86 186 86
86 186 86
86 186 86
86 186 86
86 186 86
86 186 86
86 186 86
86 186 86
86 186 86
86 186 86
86 186 86
86 186 86
86 186 86
86 186 86
86 186 86
86 186 86
86 186 86
86 186 86
86 186 86
86 186 86
86 186 86
86 186 86
86 186 86
86 186 86
86 186 86
86 186 86
86 186 86
86 186 86
86 186 86
86 186 86
86 186 86
86 186 86
86 186 86
86 186 86
86 186 86
86 186 86
86 186 86
86 186 86
86 186 86
86 186 86
86 186 86
86 186 86
86 186 86
86 186 86
86 186 86
86 186 86
86 186 86
86 186 86
86 186 86
86 186 86
86 186 86
86 186 86
86 186 86
86 186 86
86 186 86
86 186 86
86 186 86
86 186 86
0 0 0
0 0 0
0 0 0
0 0 0
0 0 0
0 0 0
0 0 0
0 0 0
0 0 0
0 0 0
0 0 0
0 0 0
0 0 0
0 0 0
0 0 0
0 0 0
0 0 0
0 0 0
0 0 0
0 0 0
0 0 0
0 0 0
0 0 0
0 0 0
0 0 0
0 0 0
0 0 0
0 0 0
0 0 0
0 0 0
0 0 0
0 0 0
0 0 0
0 0 0
0 0 0
0 0 0
0 0 0
0 0 0
0 0 0
0 0 0
0 0 0
0 0 0
0 0 0
0 0 0
0 0 0
0 0 0
0 0 0
0 0 0
186 86 86
186 86 86
186 86 86
186 86 86
186 86 86
186 86 86
186 86 86
186 86 86
186 86 86
186 86 86
186 86 86
186 86 86
186 86 86
186 86 86
186 86 86
186 86 86
186 86 86
186 86 86
186 86 86
186 86 86
186 86 86
186 86 86
186 86 86
186 86 86
186 86 86
186 86 86
186 86 86
186 86 86
186 86 86
186 86 86
186 86 86
186 86 86
186 86 86
186 86 86
186 86 86
186 86 86
186 86 86
186 86 86
186 86 86
186 86 86
186 86 86
186 86 86
186 86 86
186 86 86
186 86 86
186 86 86
186 86 86
186 86 86
186 86 86
186 86 86
186 86 86
186 86 86
186 86 86
186 86 86
186 86 86
186 86 86
186 86 86
186 86 86
186 86 86
186 86 86
186 86 86
186 86 86
186 86 86
186 86 86
186 86 86
186 86 86
186 86 86
186 86 86
186 86 86
186 86 86
186 86 86
186 86 86
186 86 86
186 86 86
186 86 86
186 86 86
186 86 86
186 86 86
186 86 86
186 86 86
186 86 86
186 86 86
186 86 86
186 86 86
186 86 86
186 86 86
186 86 86
186 86 86
186 86 86
186 86 86
186 86 86
186 86 86
186 86 86
186 86 86
186 86 86
186 86 86
0 0 0
0 0 0
0 0 0
0 0 0
0 0 0
0 0 0
0 0 0
0 0 0
0 0 0
0 0 0
0 0 0
0 0 0
0 0 0
0 0 0
0 0 0
0 0 0
86 186 86
86 186 86
86 186 86
86 186 86
86 186 86
86 186 86
86 186 86
86 186 86
86 186 86
86 186 86
86 186 86
86 186 86
86 186 86
86 186 86
86 186 86
86 186 86
86 186 86
86 186 86
86 186 86
86 186 86
86 186 86
86 186 86
86 186 86
86 186 86
86 186 86
86 186 86
86 186 86
86 186 86
86 186 86
86 186 86
86 186 86
86 186 86
86 186 86
86 186 86
86 186 86
86 186 86
86 186 86
86 186 86
86 186 86
86 186 86
86 186 86
86 186 86
86 186 86
86 186 86
86 186 86
86 186 86
86 186 86
86 186 86
86 186 86
86 186 86
86 186 86
86 186 86
86 186 86
86 186 86
86 186 86
86 186 86
86 186 86
86 186 86
86 186 86
86 186 86
86 186 86
86 186 86
86 186 86
86 186 86
86 186 86
86 186 86
86 186 86
86 186 86
86 186 86
86 186 86
86 186 86
86 186 86
86 186 86
86 186 86
86 186 86
86 186 86
86 186 86
86 186 86
86 186 86
86 186 86
86 186 86
86 186 86
86 186 86
86 186 86
86 186 86
86 186 86
86 186 86
86 186 86
86 186 86
86 186 86
86 186 86
86 186 86
86 186 86
86 186 86
86 186 86
86 186 86
0 0 0
0 0 0
0 0 0
0 0 0
0 0 0
0 0 0
0 0 0
0 0 0
0 0 0
0 0 0
0 0 0
0 0 0
0 0 0
0 0 0
0 0 0
0 0 0
0 0 0
0 0 0
0 0 0
0 0 0
0 0 0
0 0 0
0 0 0
0 0 0
0 0 0
0 0 0
0 0 0
0 0 0
0 0 0
0 0 0
0 0 0
0 0 0
0 0 0
0 0 0
0 0 0
0 0 0
0 0 0
0 0 0
0 0 0
0 0 0
0 0 0
0 0 0
0 0 0
0 0 0
0 0 0
0 0 0
0 0 0
0 0 0
186 86 86
186 86 86
186 86 86
186 86 86
186 86 86
186 86 86
186 86 86
186 86 86
186 86 86
186 86 86
186 86 86
186 86 86
186 86 86
186 86 86
186 86 86
186 86 86
186 86 86
186 86 86
186 86 86
186 86 86
186 86 86
186 86 86
186 86 86
186 86 86
186 86 86
186 86 86
186 86 86
186 86 86
186 86 86
186 86 86
186 86 86
186 86 86
186 86 86
186 86 86
186 86 86
186 86 86
186 86 86
186 86 86
186 86 86
186 86 86
186 86 86
186 86 86
186 86 86
186 86 86
186 86 86
186 86 86
186 86 86
186 86 86
186 86 86
186 86 86
186 86 86
186 86 86
186 86 86
186 86 86
186 86 86
186 86 86
186 86 86
186 86 86
186 86 86
186 86 86
186 86 86
186 86 86
186 86 86
186 86 86
186 86 86
186 86 86
186 86 86
186 86 86
186 86 86
186 86 86
186 86 86
186 86 86
186 86 86
186 86 86
186 86 86
186 86 86
186 86 86
186 86 86
186 86 86
186 86 86
186 86 86
186 86 86
186 86 86
186 86 86
186 86 86
186 86 86
186 86 86
186 86 86
186 86 86
186 86 86
186 86 86
186 86 86
186 86 86
186 86 86
186 86 86
186 86 86
0 0 0
0 0 0
0 0 0
0 0 0
0 0 0
0 0 0
0 0 0
0 0 0
0 0 0
0 0 0
0 0 0
0 0 0
0 0 0
0 0 0
0 0 0
0 0 0
86 186 86
86 186 86
86 186 86
86 186 86
86 186 86
86 186 86
86 186 86
86 186 86
86 186 86
86 186 86
86 186 86
86 186 86
86 186 86
86 186 86
86 186 86
86 186 86
86 186 86
86 186 86
86 186 86
86 186 86
86 186 86
86 186 86
86 186 86
86 186 86
86 186 86
86 186 86
86 186 86
86 186 86
86 186 86
86 186 86
86 186 86
86 186 86
86 186 86
86 186 86
86 186 86
86 186 86
86 186 86
86 186 86
86 186 86
86 186 86
86 186 86
86 186 86
86 186 86
86 186 86
86 186 86
86 186 86
86 186 86
86 186 86
86 186 86
86 186 86
86 186 86
86 186 86
86 186 86
86 186 86
86 186 86
86 186 86
86 186 86
86 186 86
86 186 86
86 186 86
86 186 86
86 186 86
86 186 86
86 186 86
86 186 86
86 186 86
86 186 86
86 186 86
86 186 86
86 186 86
86 186 86
86 186 86
86 186 86
86 186 86
86 186 86
86 186 86
86 186 86
86 186 86
86 186 86
86 186 86
86 186 86
86 186 86
86 186 86
86 186 86
86 186 86
86 186 86
86 186 86
86 186 86
86 186 86
86 186 86
86 186 86
86 186 86
86 186 86
86 186 86
86 186 86
86 186 86
0 0 0
0 0 0
0 0 0
0 0 0
0 0 0
0 0 0
0 0 0
0 0 0
0 0 0
0 0 0
0 0 0
0 0 0
0 0 0
0 0 0
0 0 0
0 0 0
0 0 0
0 0 0
0 0 0
0 0 0
0 0 0
0 0 0
0 0 0
0 0 0
0 0 0
0 0 0
0 0 0
0 0 0
0 0 0
0 0 0
0 0 0
0 0 0
0 0 0
0 0 0
0 0 0
0 0 0
0 0 0
0 0 0
0 0 0
0 0 0
0 0 0
0 0 0
0 0 0
0 0 0
0 0 0
0 0 0
0 0 0
0 0 0
186 86 86
186 86 86
186 86 86
186 86 86
186 86 86
186 86 86
186 86 86
186 86 86
186 86 86
186 86 86
186 86 86
186 86 86
186 86 86
186 86 86
186 86 86
186 86 86
186 86 86
186 86 86
186 86 86
186 86 86
186 86 86
186 86 86
186 86 86
186 86 86
186 86 86
186 86 86
186 86 86
186 86 86
186 86 86
186 86 86
186 86 86
186 86 86
186 86 86
186 86 86
186 86 86
186 86 86
186 86 86
186 86 86
186 86 86
186 86 86
186 86 86
186 86 86
186 86 86
186 86 86
186 86 86
186 86 86
186 86 86
186 86 86
186 86 86
186 86 86
186 86 86
186 86 86
186 86 86
186 86 86
186 86 86
186 86 86
186 86 86
186 86 86
186 86 86
186 86 86
186 86 86
186 86 86
186 86 86
186 86 86
186 86 86
186 86 86
186 86 86
186 86 86
186 86 86
186 86 86
186 86 86
186 86 86
186 86 86
186 86 86
186 86 86
186 86 86
186 86 86
186 86 86
186 86 86
186 86 86
186 86 86
186 86 86
186 86 86
186 86 86
186 86 86
186 86 86
186 86 86
186 86 86
186 86 86
186 86 86
186 86 86
186 86 86
186 86 86
186 86 86
186 86 86
186 86 86
0 0 0
0 0 0
0 0 0
0 0 0
0 0 0
0 0 0
0 0 0
0 0 0
0 0 0
0 0 0
0 0 0
0 0 0
0 0 0
0 0 0
0 0 0
0 0 0
86 186 86
86 186 86
86 186 86
86 186 86
86 186 86
86 186 86
86 186 86
86 186 86
86 186 86
86 186 86
86 186 86
86 186 86
86 186 86
86 186 86
86 186 86
86 186 86
86 186 86
86 186 86
86 186 86
86 186 86
86 186 86
86 186 86
86 186 86
86 186 86
86 186 86
86 186 86
86 186 86
86 186 86
86 186 86
86 186 86
86 186 86
86 186 86
86 186 86
86 186 86
86 186 86
86 186 86
86 186 86
86 186 86
86 186 86
86 186 86
86 186 86
86 186 86
86 186 86
86 186 86
86 186 86
86 186 86
86 186 86
86 186 86
86 186 86
86 186 86
86 186 86
86 186 86
86 186 86
86 186 86
86 186 86
86 186 86
86 186 86
86 186 86
86 186 86
86 186 86
86 186 86
86 186 86
86 186 86
86 186 86
86 186 86
86 186 86
86 186 86
86 186 86
86 186 86
86 186 86
86 186 86
86 186 86
86 186 86
86 186 86
86 186 86
86 186 86
86 186 86
86 186 86
86 186 86
86 186 86
86 186 86
86 186 86
86 186 86
86 186 86
86 186 86
86 186 86
86 186 86
86 186 86
86 186 86
86 186 86
86 186 86
86 186 86
86 186 86
86 186 86
86 186 86
86 186 86
0 0 0
0 0 0
0 0 0
0 0 0
0 0 0
0 0 0
0 0 0
0 0 0
0 0 0
0 0 0
0 0 0
0 0 0
0 0 0
0 0 0
0 0 0
0 0 0
0 0 0
0 0 0
0 0 0
0 0 0
0 0 0
0 0 0
0 0 0
0 0 0
0 0 0
0 0 0
0 0 0
0 0 0
0 0 0
0 0 0
0 0 0
0 0 0
0 0 0
0 0 0
0 0 0
0 0 0
0 0 0
0 0 0
0 0 0
0 0 0
0 0 0
0 0 0
0 0 0
0 0 0
0 0 0
0 0 0
0 0 0
0 0 0
186 86 86
186 86 86
186 86 86
186 86 86
186 86 86
186 86 86
186 86 86
186 86 86
186 86 86
186 86 86
186 86 86
186 86 86
186 86 86
186 86 86
186 86 86
186 86 86
186 86 86
186 86 86
186 86 86
186 86 86
186 86 86
186 86 86
186 86 86
186 86 86
186 86 86
186 86 86
186 86 86
186 86 86
186 86 86
186 86 86
186 86 86
186 86 86
186 86 86
186 86 86
186 86 86
186 86 86
186 86 86
186 86 86
186 86 86
186 86 86
186 86 86
186 86 86
186 86 86
186 86 86
186 86 86
186 86 86
186 86 86
186 86 86
186 86 86
186 86 86
186 86 86
186 86 86
186 86 86
186 86 86
186 86 86
186 86 86
186 86 86
186 86 86
186 86 86
186 86 86
186 86 86
186 86 86
186 86 86
186 86 86
186 86 86
186 86 86
186 86 86
186 86 86
186 86 86
186 86 86
186 86 86
186 86 86
186 86 86
186 86 86
186 86 86
186 86 86
186 86 86
186 86 86
186 86 86
186 86 86
186 86 86
186 86 86
186 86 86
186 86 86
186 86 86
186 86 86
186 86 86
186 86 86
186 86 86
186 86 86
186 86 86
186 86 86
186 86 86
186 86 86
186 86 86
186 86 86
0 0 0
0 0 0
0 0 0
0 0 0
0 0 0
0 0 0
0 0 0
0 0 0
0 0 0
0 0 0
0 0 0
0 0 0
0 0 0
0 0 0
0 0 0
0 0 0
86 186 86
86 186 86
86 186 86
86 186 86
86 186 86
86 186 86
86 186 86
86 186 86
86 186 86
86 186 86
86 186 86
86 186 86
86 186 86
86 186 86
86 186 86
86 186 86
86 186 86
86 186 86
86 186 86
86 186 86
86 186 86
86 186 86
86 186 86
86 186 86
86 186 86
86 186 86
86 186 86
86 186 86
86 186 86
86 186 86
86 186 86
86 186 86
86 186 86
86 186 86
86 186 86
86 186 86
86 186 86
86 186 86
86 186 86
86 186 86
86 186 86
86 186 86
86 186 86
86 186 86
86 186 86
86 186 86
86 186 86
86 186 86
86 186 86
86 186 86
86 186 86
86 186 86
86 186 86
86 186 86
86 186 86
86 186 86
86 186 86
86 186 86
86 186 86
86 186 86
86 186 86
86 186 86
86 186 86
86 186 86
86 186 86
86 186 86
86 186 86
86 186 86
86 186 86
86 186 86
86 186 86
86 186 86
86 186 86
86 186 86
86 186 86
86 186 86
86 186 86
86 186 86
86 186 86
86 186 86
86 186 86
86 186 86
86 186 86
86 186 86
86 186 86
86 186 86
86 186 86
86 186 86
86 186 86
86 186 86
86 186 86
86 186 86
86 186 86
86 186 86
86 186 86
86 186 86
0 0 0
0 0 0
0 0 0
0 0 0
0 0 0
0 0 0
0 0 0
0 0 0
0 0 0
0 0 0
0 0 0
0 0 0
0 0 0
0 0 0
0 0 0
0 0 0
0 0 0
0 0 0
0 0 0
0 0 0
0 0 0
0 0 0
0 0 0
0 0 0
0 0 0
0 0 0
0 0 0
0 0 0
0 0 0
0 0 0
0 0 0
0 0 0
0 0 0
0 0 0
0 0 0
0 0 0
0 0 0
0 0 0
0 0 0
0 0 0
0 0 0
0 0 0
0 0 0
0 0 0
0 0 0
0 0 0
0 0 0
0 0 0
186 86 86
186 86 86
186 86 86
186 86 86
186 86 86
186 86 86
186 86 86
186 86 86
186 86 86
186 86 86
186 86 86
186 86 86
186 86 86
186 86 86
186 86 86
186 86 86
186 86 86
186 86 86
186 86 86
186 86 86
186 86 86
186 86 86
186 86 86
186 86 86
186 86 86
186 86 86
186 86 86
186 86 86
186 86 86
186 86 86
186 86 86
186 86 86
186 86 86
186 86 86
186 86 86
186 86 86
186 86 86
186 86 86
186 86 86
186 86 86
186 86 86
186 86 86
186 86 86
186 86 86
186 86 86
186 86 86
186 86 86
186 86 86
186 86 86
186 86 86
186 86 86
186 86 86
186 86 86
186 86 86
186 86 86
186 86 86
186 86 86
186 86 86
186 86 86
186 86 86
186 86 86
186 86 86
186 86 86
186 86 86
186 86 86
186 86 86
186 86 86
186 86 86
186 86 86
186 86 86
186 86 86
186 86 86
186 86 86
186 86 86
186 86 86
186 86 86
186 86 86
186 86 86
186 86 86
186 86 86
186 86 86
186 86 86
186 86 86
186 86 86
186 86 86
186 86 86
186 86 86
186 86 86
186 86 86
186 86 86
186 86 86
186 86 86
186 86 86
186 86 86
186 86 86
186 86 86
0 0 0
0 0 0
0 0 0
0 0 0
0 0 0
0 0 0
0 0 0
0 0 0
0 0 0
0 0 0
0 0 0
0 0 0
0 0 0
0 0 0
0 0 0
0 0 0
86 186 86
86 186 86
86 186 86
86 186 86
86 186 86
86 186 86
86 186 86
86 186 86
86 186 86
86 186 86
86 186 86
86 186 86
86 186 86
86 186 86
86 186 86
86 186 86
86 186 86
86 186 86
86 186 86
86 186 86
86 186 86
86 186 86
86 186 86
86 186 86
86 186 86
86 186 86
86 186 86
86 186 86
86 186 86
86 186 86
86 186 86
86 186 86
86 186 86
86 186 86
86 186 86
86 186 86
86 186 86
86 186 86
86 186 86
86 186 86
86 186 86
86 186 86
86 186 86
86 186 86
86 186 86
86 186 86
86 186 86
86 186 86
86 186 86
86 186 86
86 186 86
86 186 86
86 186 86
86 186 86
86 186 86
86 186 86
86 186 86
86 186 86
86 186 86
86 186 86
86 186 86
86 186 86
86 186 86
86 186 86
86 186 86
86 186 86
86 186 86
86 186 86
86 186 86
86 186 86
86 186 86
86 186 86
86 186 86
86 186 86
86 186 86
86 186 86
86 186 86
86 186 86
86 186 86
86 186 86
86 186 86
86 186 86
86 186 86
86 186 86
86 186 86
86 186 86
86 186 86
86 186 86
86 186 86
86 186 86
86 186 86
86 186 86
86 186 86
86 186 86
86 186 86
86 186 86
0 0 0
0 0 0
0 0 0
0 0 0
0 0 0
0 0 0
0 0 0
0 0 0
0 0 0
0 0 0
0 0 0
0 0 0
0 0 0
0 0 0
0 0 0
0 0 0
0 0 0
0 0 0
0 0 0
0 0 0
0 0 0
0 0 0
0 0 0
0 0 0
0 0 0
0 0 0
0 0 0
0 0 0
0 0 0
0 0 0
0 0 0
0 0 0
0 0 0
0 0 0
0 0 0
0 0 0
0 0 0
0 0 0
0 0 0
0 0 0
0 0 0
0 0 0
0 0 0
0 0 0
0 0 0
0 0 0
0 0 0
0 0 0
186 86 86
186 86 86
186 86 86
186 86 86
186 86 86
186 86 86
186 86 86
186 86 86
186 86 86
186 86 86
186 86 86
186 86 86
186 86 86
186 86 86
186 86 86
186 86 86
186 86 86
186 86 86
186 86 86
186 86 86
186 86 86
186 86 86
186 86 86
186 86 86
186 86 86
186 86 86
186 86 86
186 86 86
186 86 86
186 86 86
186 86 86
186 86 86
186 86 86
186 86 86
186 86 86
186 86 86
186 86 86
186 86 86
186 86 86
186 86 86
186 86 86
186 86 86
186 86 86
186 86 86
186 86 86
186 86 86
186 86 86
186 86 86
186 86 86
186 86 86
186 86 86
186 86 86
186 86 86
186 86 86
186 86 86
186 86 86
186 86 86
186 86 86
186 86 86
186 86 86
186 86 86
186 86 86
186 86 86
186 86 86
186 86 86
186 86 86
186 86 86
186 86 86
186 86 86
186 86 86
186 86 86
186 86 86
186 86 86
186 86 86
186 86 86
186 86 86
186 86 86
186 86 86
186 86 86
186 86 86
186 86 86
186 86 86
186 86 86
186 86 86
186 86 86
186 86 86
186 86 86
186 86 86
186 86 86
186 86 86
186 86 86
186 86 86
186 86 86
186 86 86
186 86 86
186 86 86
0 0 0
0 0 0
0 0 0
0 0 0
0 0 0
0 0 0
0 0 0
0 0 0
0 0 0
0 0 0
0 0 0
0 0 0
0 0 0
0 0 0
0 0 0
0 0 0
86 186 86
86 186 86
86 186 86
86 186 86
86 186 86
86 186 86
86 186 86
86 186 86
86 186 86
86 186 86
86 186 86
86 186 86
86 186 86
86 186 86
86 186 86
86 186 86
86 186 86
86 186 86
86 186 86
86 186 86
86 186 86
86 186 86
86 186 86
86 186 86
86 186 86
86 186 86
86 186 86
86 186 86
86 186 86
86 186 86
86 186 86
86 186 86
86 186 86
86 186 86
86 186 86
86 186 86
86 186 86
86 186 86
86 186 86
86 186 86
86 186 86
86 186 86
86 186 86
86 186 86
86 186 86
86 186 86
86 186 86
86 186 86
86 186 86
86 186 86
86 186 86
86 186 86
86 186 86
86 186 86
86 186 86
86 186 86
86 186 86
86 186 86
86 186 86
86 186 86
86 186 86
86 186 86
86 186 86
86 186 86
86 186 86
86 186 86
86 186 86
86 186 86
86 186 86
86 186 86
86 186 86
86 186 86
86 186 86
86 186 86
86 186 86
86 186 86
86 186 86
86 186 86
86 186 86
86 186 86
86 186 86
86 186 86
86 186 86
86 186 86
86 186 86
86 186 86
86 186 86
86 186 86
86 186 86
86 186 86
86 186 86
86 186 86
86 186 86
86 186 86
86 186 86
86 186 86
0 0 0
0 0 0
0 0 0
0 0 0
0 0 0
0 0 0
0 0 0
0 0 0
0 0 0
0 0 0
0 0 0
0 0 0
0 0 0
0 0 0
0 0 0
0 0 0
0 0 0
0 0 0
0 0 0
0 0 0
0 0 0
0 0 0
0 0 0
0 0 0
0 0 0
0 0 0
0 0 0
0 0 0
0 0 0
0 0 0
0 0 0
0 0 0
0 0 0
0 0 0
0 0 0
0 0 0
0 0 0
0 0 0
0 0 0
0 0 0
0 0 0
0 0 0
0 0 0
0 0 0
0 0 0
0 0 0
0 0 0
0 0 0
186 86 86
186 86 86
186 86 86
186 86 86
186 86 86
186 86 86
186 86 86
186 86 86
186 86 86
186 86 86
186 86 86
186 86 86
186 86 86
186 86 86
186 86 86
186 86 86
186 86 86
186 86 86
186 86 86
186 86 86
186 86 86
186 86 86
186 86 86
186 86 86
186 86 86
186 86 86
186 86 86
186 86 86
186 86 86
186 86 86
186 86 86
186 86 86
186 86 86
186 86 86
186 86 86
186 86 86
186 86 86
186 86 86
186 86 86
186 86 86
186 86 86
186 86 86
186 86 86
186 86 86
186 86 86
186 86 86
186 86 86
186 86 86
186 86 86
186 86 86
186 86 86
186 86 86
186 86 86
186 86 86
186 86 86
186 86 86
186 86 86
186 86 86
186 86 86
186 86 86
186 86 86
186 86 86
186 86 86
186 86 86
186 86 86
186 86 86
186 86 86
186 86 86
186 86 86
186 86 86
186 86 86
186 86 86
186 86 86
186 86 86
186 86 86
186 86 86
186 86 86
186 86 86
186 86 86
186 86 86
186 86 86
186 86 86
186 86 86
186 86 86
186 86 86
186 86 86
186 86 86
186 86 86
186 86 86
186 86 86
186 86 86
186 86 86
186 86 86
186 86 86
186 86 86
186 86 86
0 0 0
0 0 0
0 0 0
0 0 0
0 0 0
0 0 0
0 0 0
0 0 0
0 0 0
0 0 0
0 0 0
0 0 0
0 0 0
0 0 0
0 0 0
0 0 0
86 186 86
86 186 86
86 186 86
86 186 86
86 186 86
86 186 86
86 186 86
86 186 86
86 186 86
86 186 86
86 186 86
86 186 86
86 186 86
86 186 86
86 186 86
86 186 86
86 186 86
86 186 86
86 186 86
86 186 86
86 186 86
86 186 86
86 186 86
86 186 86
86 186 86
86 186 86
86 186 86
86 186 86
86 186 86
86 186 86
86 186 86
86 186 86
86 186 86
86 186 86
86 186 86
86 186 86
86 186 86
86 186 86
86 186 86
86 186 86
86 186 86
86 186 86
86 186 86
86 186 86
86 186 86
86 186 86
86 186 86
86 186 86
86 186 86
86 186 86
86 186 86
86 186 86
86 186 86
86 186 86
86 186 86
86 186 86
86 186 86
86 186 86
86 186 86
86 186 86
86 186 86
86 186 86
86 186 86
86 186 86
86 186 86
86 186 86
86 186 86
86 186 86
86 186 86
86 186 86
86 186 86
86 186 86
86 186 86
86 186 86
86 186 86
86 186 86
86 186 86
86 186 86
86 186 86
86 186 86
86 186 86
86 186 86
86 186 86
86 186 86
86 186 86
86 186 86
86 186 86
86 186 86
86 186 86
86 186 86
86 186 86
86 186 86
86 186 86
86 186 86
86 186 86
86 186 86
0 0 0
0 0 0
0 0 0
0 0 0
0 0 0
0 0 0
0 0 0
0 0 0
0 0 0
0 0 0
0 0 0
0 0 0
0 0 0
0 0 0
0 0 0
0 0 0
0 0 0
0 0 0
0 0 0
0 0 0
0 0 0
0 0 0
0 0 0
0 0 0
0 0 0
0 0 0
0 0 0
0 0 0
0 0 0
0 0 0
0 0 0
0 0 0
0 0 0
0 0 0
0 0 0
0 0 0
0 0 0
0 0 0
0 0 0
0 0 0
0 0 0
0 0 0
0 0 0
0 0 0
0 0 0
0 0 0
0 0 0
0 0 0
186 86 86
186 86 86
186 86 86
186 86 86
186 86 86
186 86 86
186 86 86
186 86 86
186 86 86
186 86 86
186 86 86
186 86 86
186 86 86
186 86 86
186 86 86
186 86 86
186 86 86
186 86 86
186 86 86
186 86 86
186 86 86
186 86 86
186 86 86
186 86 86
186 86 86
186 86 86
186 86 86
186 86 86
186 86 86
186 86 86
186 86 86
186 86 86
186 86 86
186 86 86
186 86 86
186 86 86
186 86 86
186 86 86
186 86 86
186 86 86
186 86 86
186 86 86
186 86 86
186 86 86
186 86 86
186 86 86
186 86 86
186 86 86
186 86 86
186 86 86
186 86 86
186 86 86
186 86 86
186 86 86
186 86 86
186 86 86
186 86 86
186 86 86
186 86 86
186 86 86
186 86 86
186 86 86
186 86 86
186 86 86
186 86 86
186 86 86
186 86 86
186 86 86
186 86 86
186 86 86
186 86 86
186 86 86
186 86 86
186 86 86
186 86 86
186 86 86
186 86 86
186 86 86
186 86 86
186 86 86
186 86 86
186 86 86
186 86 86
186 86 86
186 86 86
186 86 86
186 86 86
186 86 86
186 86 86
186 86 86
186 86 86
186 86 86
186 86 86
186 86 86
186 86 86
186 86 86
0 0 0
0 0 0
0 0 0
0 0 0
0 0 0
0 0 0
0 0 0
0 0 0
0 0 0
0 0 0
0 0 0
0 0 0
0 0 0
0 0 0
0 0 0
0 0 0
86 186 86
86 186 86
86 186 86
86 186 86
86 186 86
86 186 86
86 186 86
86 186 86
86 186 86
86 186 86
86 186 86
86 186 86
86 186 86
86 186 86
86 186 86
86 186 86
86 186 86
86 186 86
86 186 86
86 186 86
86 186 86
86 186 86
86 186 86
86 186 86
86 186 86
86 186 86
86 186 86
86 186 86
86 186 86
86 186 86
86 186 86
86 186 86
86 186 86
86 186 86
86 186 86
86 186 86
86 186 86
86 186 86
86 186 86
86 186 86
86 186 86
86 186 86
86 186 86
86 186 86
86 186 86
86 186 86
86 186 86
86 186 86
86 186 86
86 186 86
86 186 86
86 186 86
86 186 86
86 186 86
86 186 86
86 186 86
86 186 86
86 186 86
86 186 86
86 186 86
86 186 86
86 186 86
86 186 86
86 186 86
86 186 86
86 186 86
86 186 86
86 186 86
86 186 86
86 186 86
86 186 86
86 186 86
86 186 86
86 186 86
86 186 86
86 186 86
86 186 86
86 186 86
86 186 86
86 186 86
86 186 86
86 186 86
86 186 86
86 186 86
86 186 86
86 186 86
86 186 86
86 186 86
86 186 86
86 186 86
86 186 86
86 186 86
86 186 86
86 186 86
86 186 86
86 186 86
0 0 0
0 0 0
0 0 0
0 0 0
0 0 0
0 0 0
0 0 0
0 0 0
0 0 0
0 0 0
0 0 0
0 0 0
0 0 0
0 0 0
0 0 0
0 0 0
0 0 0
0 0 0
0 0 0
0 0 0
0 0 0
0 0 0
0 0 0
0 0 0
0 0 0
0 0 0
0 0 0
0 0 0
0 0 0
0 0 0
0 0 0
0 0 0
0 0 0
0 0 0
0 0 0
0 0 0
0 0 0
0 0 0
0 0 0
0 0 0
0 0 0
0 0 0
0 0 0
0 0 0
0 0 0
0 0 0
0 0 0
0 0 0
186 86 86
186 86 86
186 86 86
186 86 86
186 86 86
186 86 86
186 86 86
186 86 86
186 86 86
186 86 86
186 86 86
186 86 86
186 86 86
186 86 86
186 86 86
186 86 86
186 86 86
186 86 86
186 86 86
186 86 86
186 86 86
186 86 86
186 86 86
186 86 86
186 86 86
186 86 86
186 86 86
186 86 86
186 86 86
186 86 86
186 86 86
186 86 86
186 86 86
186 86 86
186 86 86
186 86 86
186 86 86
186 86 86
186 86 86
186 86 86
186 86 86
186 86 86
186 86 86
186 86 86
186 86 86
186 86 86
186 86 86
186 86 86
186 86 86
186 86 86
186 86 86
186 86 86
186 86 86
186 86 86
186 86 86
186 86 86
186 86 86
186 86 86
186 86 86
186 86 86
186 86 86
186 86 86
186 86 86
186 86 86
186 86 86
186 86 86
186 86 86
186 86 86
186 86 86
186 86 86
186 86 86
186 86 86
186 86 86
186 86 86
186 86 86
186 86 86
186 86 86
186 86 86
186 86 86
186 86 86
186 86 86
186 86 86
186 86 86
186 86 86
186 86 86
186 86 86
186 86 86
186 86 86
186 86 86
186 86 86
186 86 86
186 86 86
186 86 86
186 86 86
186 86 86
186 86 86
0 0 0
0 0 0
0 0 0
0 0 0
0 0 0
0 0 0
0 0 0
0 0 0
0 0 0
0 0 0
0 0 0
0 0 0
0 0 0
0 0 0
0 0 0
0 0 0
86 186 86
86 186 86
86 186 86
86 186 86
86 186 86
86 186 86
86 186 86
86 186 86
86 186 86
86 186 86
86 186 86
86 186 86
86 186 86
86 186 86
86 186 86
86 186 86
86 186 86
86 186 86
86 186 86
86 186 86
86 186 86
86 186 86
86 186 86
86 186 86
86 186 86
86 186 86
86 186 86
86 186 86
86 186 86
86 186 86
86 186 86
86 186 86
86 186 86
86 186 86
86 186 86
86 186 86
86 186 86
86 186 86
86 186 86
86 186 86
86 186 86
86 186 86
86 186 86
86 186 86
86 186 86
86 186 86
86 186 86
86 186 86
86 186 86
86 186 86
86 186 86
86 186 86
86 186 86
86 186 86
86 186 86
86 186 86
86 186 86
86 186 86
86 186 86
86 186 86
86 186 86
86 186 86
86 186 86
86 186 86
86 186 86
86 186 86
86 186 86
86 186 86
86 186 86
86 186 86
86 186 86
86 186 86
86 186 86
86 186 86
86 186 86
86 186 86
86 186 86
86 186 86
86 186 86
86 186 86
86 186 86
86 186 86
86 186 86
86 186 86
86 186 86
86 186 86
86 186 86
86 186 86
86 186 86
86 186 86
86 186 86
86 186 86
86 186 86
86 186 86
86 186 86
86 186 86
0 0 0
0 0 0
0 0 0
0 0 0
0 0 0
0 0 0
0 0 0
0 0 0
0 0 0
0 0 0
0 0 0
0 0 0
0 0 0
0 0 0
0 0 0
0 0 0
0 0 0
0 0 0
0 0 0
0 0 0
0 0 0
0 0 0
0 0 0
0 0 0
0 0 0
0 0 0
0 0 0
0 0 0
0 0 0
0 0 0
0 0 0
0 0 0
0 0 0
0 0 0
0 0 0
0 0 0
0 0 0
0 0 0
0 0 0
0 0 0
0 0 0
0 0 0
0 0 0
0 0 0
0 0 0
0 0 0
0 0 0
0 0 0
186 86 86
186 86 86
186 86 86
186 86 86
186 86 86
186 86 86
186 86 86
186 86 86
186 86 86
186 86 86
186 86 86
186 86 86
186 86 86
186 86 86
186 86 86
186 86 86
186 86 86
186 86 86
186 86 86
186 86 86
186 86 86
186 86 86
186 86 86
186 86 86
186 86 86
186 86 86
186 86 86
186 86 86
186 86 86
186 86 86
186 86 86
186 86 86
186 86 86
186 86 86
186 86 86
186 86 86
186 86 86
186 86 86
186 86 86
186 86 86
186 86 86
186 86 86
186 86 86
186 86 86
186 86 86
186 86 86
186 86 86
186 86 86
186 86 86
186 86 86
186 86 86
186 86 86
186 86 86
186 86 86
186 86 86
186 86 86
186 86 86
186 86 86
186 86 86
186 86 86
186 86 86
186 86 86
186 86 86
186 86 86
186 86 86
186 86 86
186 86 86
186 86 86
186 86 86
186 86 86
186 86 86
186 86 86
186 86 86
186 86 86
186 86 86
186 86 86
186 86 86
186 86 86
186 86 86
186 86 86
186 86 86
186 86 86
186 86 86
186 86 86
186 86 86
186 86 86
186 86 86
186 86 86
186 86 86
186 86 86
186 86 86
186 86 86
186 86 86
186 86 86
186 86 86
186 86 86
0 0 0
0 0 0
0 0 0
0 0 0
0 0 0
0 0 0
0 0 0
0 0 0
0 0 0
0 0 0
0 0 0
0 0 0
0 0 0
0 0 0
0 0 0
0 0 0
86 186 86
86 186 86
86 186 86
86 186 86
86 186 86
86 186 86
86 186 86
86 186 86
86 186 86
86 186 86
86 186 86
86 186 86
86 186 86
86 186 86
86 186 86
86 186 86
86 186 86
86 186 86
86 186 86
86 186 86
86 186 86
86 186 86
86 186 86
86 186 86
86 186 86
86 186 86
86 186 86
86 186 86
86 186 86
86 186 86
86 186 86
86 186 86
86 186 86
86 186 86
86 186 86
86 186 86
86 186 86
86 186 86
86 186 86
86 186 86
86 186 86
86 186 86
86 186 86
86 186 86
86 186 86
86 186 86
86 186 86
86 186 86
86 186 86
86 186 86
86 186 86
86 186 86
86 186 86
86 186 86
86 186 86
86 186 86
86 186 86
86 186 86
86 186 86
86 186 86
86 186 86
86 186 86
86 186 86
86 186 86
86 186 86
86 186 86
86 186 86
86 186 86
86 186 86
86 186 86
86 186 86
86 186 86
86 186 86
86 186 86
86 186 86
86 186 86
86 186 86
86 186 86
86 186 86
86 186 86
86 186 86
86 186 86
86 186 86
86 186 86
86 186 86
86 186 86
86 186 86
86 186 86
86 186 86
86 186 86
86 186 86
86 186 86
86 186 86
86 186 86
86 186 86
86 186 86
0 0 0
0 0 0
0 0 0
0 0 0
0 0 0
0 0 0
0 0 0
0 0 0
0 0 0
0 0 0
0 0 0
0 0 0
0 0 0
0 0 0
0 0 0
0 0 0
0 0 0
0 0 0
0 0 0
0 0 0
0 0 0
0 0 0
0 0 0
0 0 0
0 0 0
0 0 0
0 0 0
0 0 0
0 0 0
0 0 0
0 0 0
0 0 0
0 0 0
0 0 0
0 0 0
0 0 0
0 0 0
0 0 0
0 0 0
0 0 0
0 0 0
0 0 0
0 0 0
0 0 0
0 0 0
0 0 0
0 0 0
0 0 0
186 86 86
186 86 86
186 86 86
186 86 86
186 86 86
186 86 86
186 86 86
186 86 86
186 86 86
186 86 86
186 86 86
186 86 86
186 86 86
186 86 86
186 86 86
186 86 86
186 86 86
186 86 86
186 86 86
186 86 86
186 86 86
186 86 86
186 86 86
186 86 86
186 86 86
186 86 86
186 86 86
186 86 86
186 86 86
186 86 86
186 86 86
186 86 86
186 86 86
186 86 86
186 86 86
186 86 86
186 86 86
186 86 86
186 86 86
186 86 86
186 86 86
186 86 86
186 86 86
186 86 86
186 86 86
186 86 86
186 86 86
186 86 86
186 86 86
186 86 86
186 86 86
186 86 86
186 86 86
186 86 86
186 86 86
186 86 86
186 86 86
186 86 86
186 86 86
186 86 86
186 86 86
186 86 86
186 86 86
186 86 86
186 86 86
186 86 86
186 86 86
186 86 86
186 86 86
186 86 86
186 86 86
186 86 86
186 86 86
186 86 86
186 86 86
186 86 86
186 86 86
186 86 86
186 86 86
186 86 86
186 86 86
186 86 86
186 86 86
186 86 86
186 86 86
186 86 86
186 86 86
186 86 86
186 86 86
186 86 86
186 86 86
186 86 86
186 86 86
186 86 86
186 86 86
186 86 86
0 0 0
0 0 0
0 0 0
0 0 0
0 0 0
0 0 0
0 0 0
0 0 0
0 0 0
0 0 0
0 0 0
0 0 0
0 0 0
0 0 0
0 0 0
0 0 0
86 186 86
86 186 86
86 186 86
86 186 86
86 186 86
86 186 86
86 186 86
86 186 86
86 186 86
86 186 86
86 186 86
86 186 86
86 186 86
86 186 86
86 186 86
86 186 86
86 186 86
86 186 86
86 186 86
86 186 86
86 186 86
86 186 86
86 186 86
86 186 86
86 186 86
86 186 86
86 186 86
86 186 86
86 186 86
86 186 86
86 186 86
86 186 86
86 186 86
86 186 86
86 186 86
86 186 86
86 186 86
86 186 86
86 186 86
86 186 86
86 186 86
86 186 86
86 186 86
86 186 86
86 186 86
86 186 86
86 186 86
86 186 86
86 186 86
86 186 86
86 186 86
86 186 86
86 186 86
86 186 86
86 186 86
86 186 86
86 186 86
86 186 86
86 186 86
86 186 86
86 186 86
86 186 86
86 186 86
86 186 86
86 186 86
86 186 86
86 186 86
86 186 86
86 186 86
86 186 86
86 186 86
86 186 86
86 186 86
86 186 86
86 186 86
86 186 86
86 186 86
86 186 86
86 186 86
86 186 86
86 186 86
86 186 86
86 186 86
86 186 86
86 186 86
86 186 86
86 186 86
86 186 86
86 186 86
86 186 86
86 186 86
86 186 86
86 186 86
86 186 86
86 186 86
86 186 86
0 0 0
0 0 0
0 0 0
0 0 0
0 0 0
0 0 0
0 0 0
0 0 0
0 0 0
0 0 0
0 0 0
0 0 0
0 0 0
0 0 0
0 0 0
0 0 0
0 0 0
0 0 0
0 0 0
0 0 0
0 0 0
0 0 0
0 0 0
0 0 0
0 0 0
0 0 0
0 0 0
0 0 0
0 0 0
0 0 0
0 0 0
0 0 0
0 0 0
0 0 0
0 0 0
0 0 0
0 0 0
0 0 0
0 0 0
0 0 0
0 0 0
0 0 0
0 0 0
0 0 0
0 0 0
0 0 0
0 0 0
0 0 0
186 86 86
186 86 86
186 86 86
186 86 86
186 86 86
186 86 86
186 86 86
186 86 86
186 86 86
186 86 86
186 86 86
186 86 86
186 86 86
186 86 86
186 86 86
186 86 86
186 86 86
186 86 86
186 86 86
186 86 86
186 86 86
186 86 86
186 86 86
186 86 86
186 86 86
186 86 86
186 86 86
186 86 86
186 86 86
186 86 86
186 86 86
186 86 86
186 86 86
186 86 86
186 86 86
186 86 86
186 86 86
186 86 86
186 86 86
186 86 86
186 86 86
186 86 86
186 86 86
186 86 86
186 86 86
186 86 86
186 86 86
186 86 86
186 86 86
186 86 86
186 86 86
186 86 86
186 86 86
186 86 86
186 86 86
186 86 86
186 86 86
186 86 86
186 86 86
186 86 86
186 86 86
186 86 86
186 86 86
186 86 86
186 86 86
186 86 86
186 86 86
186 86 86
186 86 86
186 86 86
186 86 86
186 86 86
186 86 86
186 86 86
186 86 86
186 86 86
186 86 86
186 86 86
186 86 86
186 86 86
186 86 86
186 86 86
186 86 86
186 86 86
186 86 86
186 86 86
186 86 86
186 86 86
186 86 86
186 86 86
186 86 86
186 86 86
186 86 86
186 86 86
186 86 86
186 86 86
0 0 0
0 0 0
0 0 0
0 0 0
0 0 0
0 0 0
0 0 0
0 0 0
0 0 0
0 0 0
0 0 0
0 0 0
0 0 0
0 0 0
0 0 0
0 0 0
86 186 86
86 186 86
86 186 86
86 186 86
86 186 86
86 186 86
86 186 86
86 186 86
86 186 86
86 186 86
86 186 86
86 186 86
86 186 86
86 186 86
86 186 86
86 186 86
86 186 86
86 186 86
86 186 86
86 186 86
86 186 86
86 186 86
86 186 86
86 186 86
86 186 86
86 186 86
86 186 86
86 186 86
86 186 86
86 186 86
86 186 86
86 186 86
86 186 86
86 186 86
86 186 86
86 186 86
86 186 86
86 186 86
86 186 86
86 186 86
86 186 86
86 186 86
86 186 86
86 186 86
86 186 86
86 186 86
86 186 86
86 186 86
86 186 86
86 186 86
86 186 86
86 186 86
86 186 86
86 186 86
86 186 86
86 186 86
86 186 86
86 186 86
86 186 86
86 186 86
86 186 86
86 186 86
86 186 86
86 186 86
86 186 86
86 186 86
86 186 86
86 186 86
86 186 86
86 186 86
86 186 86
86 186 86
86 186 86
86 186 86
86 186 86
86 186 86
86 186 86
86 186 86
86 186 86
86 186 86
86 186 86
86 186 86
86 186 86
86 186 86
86 186 86
86 186 86
86 186 86
86 186 86
86 186 86
86 186 86
86 186 86
86 186 86
86 186 86
86 186 86
86 186 86
86 186 86
0 0 0
0 0 0
0 0 0
0 0 0
0 0 0
0 0 0
0 0 0
0 0 0
0 0 0
0 0 0
0 0 0
0 0 0
0 0 0
0 0 0
0 0 0
0 0 0
0 0 0
0 0 0
0 0 0
0 0 0
0 0 0
0 0 0
0 0 0
0 0 0
0 0 0
0 0 0
0 0 0
0 0 0
0 0 0
0 0 0
0 0 0
0 0 0
0 0 0
0 0 0
0 0 0
0 0 0
0 0 0
0 0 0
0 0 0
0 0 0
0 0 0
0 0 0
0 0 0
0 0 0
0 0 0
0 0 0
0 0 0
0 0 0
186 86 86
186 86 86
186 86 86
186 86 86
186 86 86
186 86 86
186 86 86
186 86 86
186 86 86
186 86 86
186 86 86
186 86 86
186 86 86
186 86 86
186 86 86
186 86 86
186 86 86
186 86 86
186 86 86
186 86 86
186 86 86
186 86 86
186 86 86
186 86 86
186 86 86
186 86 86
186 86 86
186 86 86
186 86 86
186 86 86
186 86 86
186 86 86
186 86 86
186 86 86
186 86 86
186 86 86
186 86 86
186 86 86
186 86 86
186 86 86
186 86 86
186 86 86
186 86 86
186 86 86
186 86 86
186 86 86
186 86 86
186 86 86
186 86 86
186 86 86
186 86 86
186 86 86
186 86 86
186 86 86
186 86 86
186 86 86
186 86 86
186 86 86
186 86 86
186 86 86
186 86 86
186 86 86
186 86 86
186 86 86
186 86 86
186 86 86
186 86 86
186 86 86
186 86 86
186 86 86
186 86 86
186 86 86
186 86 86
186 86 86
186 86 86
186 86 86
186 86 86
186 86 86
186 86 86
186 86 86
186 86 86
186 86 86
186 86 86
186 86 86
186 86 86
186 86 86
186 86 86
186 86 86
186 86 86
186 86 86
186 86 86
186 86 86
186 86 86
186 86 86
186 86 86
186 86 86
0 0 0
0 0 0
0 0 0
0 0 0
0 0 0
0 0 0
0 0 0
0 0 0
0 0 0
0 0 0
0 0 0
0 0 0
0 0 0
0 0 0
0 0 0
0 0 0
86 186 86
86 186 86
86 186 86
86 186 86
86 186 86
86 186 86
86 186 86
86 186 86
86 186 86
86 186 86
86 186 86
86 186 86
86 186 86
86 186 86
86 186 86
86 186 86
86 186 86
86 186 86
86 186 86
86 186 86
86 186 86
86 186 86
86 186 86
86 186 86
86 186 86
86 186 86
86 186 86
86 186 86
86 186 86
86 186 86
86 186 86
86 186 86
86 186 86
86 186 86
86 186 86
86 186 86
86 186 86
86 186 86
86 186 86
86 186 86
86 186 86
86 186 86
86 186 86
86 186 86
86 186 86
86 186 86
86 186 86
86 186 86
86 186 86
86 186 86
86 186 86
86 186 86
86 186 86
86 186 86
86 186 86
86 186 86
86 186 86
86 186 86
86 186 86
86 186 86
86 186 86
86 186 86
86 186 86
86 186 86
86 186 86
86 186 86
86 186 86
86 186 86
86 186 86
86 186 86
86 186 86
86 186 86
86 186 86
86 186 86
86 186 86
86 186 86
86 186 86
86 186 86
86 186 86
86 186 86
86 186 86
86 186 86
86 186 86
86 186 86
86 186 86
86 186 86
86 186 86
86 186 86
86 186 86
86 186 86
86 186 86
86 186 86
86 186 86
86 186 86
86 186 86
86 186 86
0 0 0
0 0 0
0 0 0
0 0 0
0 0 0
0 0 0
0 0 0
0 0 0
0 0 0
0 0 0
0 0 0
0 0 0
0 0 0
0 0 0
0 0 0
0 0 0
0 0 0
0 0 0
0 0 0
0 0 0
0 0 0
0 0 0
0 0 0
0 0 0
0 0 0
0 0 0
0 0 0
0 0 0
0 0 0
0 0 0
0 0 0
0 0 0
0 0 0
0 0 0
0 0 0
0 0 0
0 0 0
0 0 0
0 0 0
0 0 0
0 0 0
0 0 0
0 0 0
0 0 0
0 0 0
0 0 0
0 0 0
0 0 0
186 86 86
186 86 86
186 86 86
186 86 86
186 86 86
186 86 86
186 86 86
186 86 86
186 86 86
186 86 86
186 86 86
186 86 86
186 86 86
186 86 86
186 86 86
186 86 86
186 86 86
186 86 86
186 86 86
186 86 86
186 86 86
186 86 86
186 86 86
186 86 86
186 86 86
186 86 86
186 86 86
186 86 86
186 86 86
186 86 86
186 86 86
186 86 86
186 86 86
186 86 86
186 86 86
186 86 86
186 86 86
186 86 86
186 86 86
186 86 86
186 86 86
186 86 86
186 86 86
186 86 86
186 86 86
186 86 86
186 86 86
186 86 86
186 86 86
186 86 86
186 86 86
186 86 86
186 86 86
186 86 86
186 86 86
186 86 86
186 86 86
186 86 86
186 86 86
186 86 86
186 86 86
186 86 86
186 86 86
186 86 86
186 86 86
186 86 86
186 86 86
186 86 86
186 86 86
186 86 86
186 86 86
186 86 86
186 86 86
186 86 86
186 86 86
186 86 86
186 86 86
186 86 86
186 86 86
186 86 86
186 86 86
186 86 86
186 86 86
186 86 86
186 86 86
186 86 86
186 86 86
186 86 86
186 86 86
186 86 86
186 86 86
186 86 86
186 86 86
186 86 86
186 86 86
186 86 86
0 0 0
0 0 0
0 0 0
0 0 0
0 0 0
0 0 0
0 0 0
0 0 0
0 0 0
0 0 0
0 0 0
0 0 0
0 0 0
0 0 0
0 0 0
0 0 0
86 186 86
86 186 86
86 186 86
86 186 86
86 186 86
86 186 86
86 186 86
86 186 86
86 186 86
86 186 86
86 186 86
86 186 86
86 186 86
86 186 86
86 186 86
86 186 86
86 186 86
86 186 86
86 186 86
86 186 86
86 186 86
86 186 86
86 186 86
86 186 86
86 186 86
86 186 86
86 186 86
86 186 86
86 186 86
86 186 86
86 186 86
86 186 86
86 186 86
86 186 86
86 186 86
86 186 86
86 186 86
86 186 86
86 186 86
86 186 86
86 186 86
86 186 86
86 186 86
86 186 86
86 186 86
86 186 86
86 186 86
86 186 86
86 186 86
86 186 86
86 186 86
86 186 86
86 186 86
86 186 86
86 186 86
86 186 86
86 186 86
86 186 86
86 186 86
86 186 86
86 186 86
86 186 86
86 186 86
86 186 86
86 186 86
86 186 86
86 186 86
86 186 86
86 186 86
86 186 86
86 186 86
86 186 86
86 186 86
86 186 86
86 186 86
86 186 86
86 186 86
86 186 86
86 186 86
86 186 86
86 186 86
86 186 86
86 186 86
86 186 86
86 186 86
86 186 86
86 186 86
86 186 86
86 186 86
86 186 86
86 186 86
86 186 86
86 186 86
86 186 86
86 186 86
86 186 86
0 0 0
0 0 0
0 0 0
0 0 0
0 0 0
0 0 0
0 0 0
0 0 0
0 0 0
0 0 0
0 0 0
0 0 0
0 0 0
0 0 0
0 0 0
0 0 0
0 0 0
0 0 0
0 0 0
0 0 0
0 0 0
0 0 0
0 0 0
0 0 0
0 0 0
0 0 0
0 0 0
0 0 0
0 0 0
0 0 0
0 0 0
0 0 0
0 0 0
0 0 0
0 0 0
0 0 0
0 0 0
0 0 0
0 0 0
0 0 0
0 0 0
0 0 0
0 0 0
0 0 0
0 0 0
0 0 0
0 0 0
0 0 0
186 86 86
186 86 86
186 86 86
186 86 86
186 86 86
186 86 86
186 86 86
186 86 86
186 86 86
186 86 86
186 86 86
186 86 86
186 86 86
186 86 86
186 86 86
186 86 86
186 86 86
186 86 86
186 86 86
186 86 86
186 86 86
186 86 86
186 86 86
186 86 86
186 86 86
186 86 86
186 86 86
186 86 86
186 86 86
186 86 86
186 86 86
186 86 86
186 86 86
186 86 86
186 86 86
186 86 86
186 86 86
186 86 86
186 86 86
186 86 86
186 86 86
186 86 86
186 86 86
186 86 86
186 86 86
186 86 86
186 86 86
186 86 86
186 86 86
186 86 86
186 86 86
186 86 86
186 86 86
186 86 86
186 86 86
186 86 86
186 86 86
186 86 86
186 86 86
186 86 86
186 86 86
186 86 86
186 86 86
186 86 86
186 86 86
186 86 86
186 86 86
186 86 86
186 86 86
186 86 86
186 86 86
186 86 86
186 86 86
186 86 86
186 86 86
186 86 86
186 86 86
186 86 86
186 86 86
186 86 86
186 86 86
186 86 86
186 86 86
186 86 86
186 86 86
186 86 86
186 86 86
186 86 86
186 86 86
186 86 86
186 86 86
186 86 86
186 86 86
186 86 86
186 86 86
186 86 86
0 0 0
0 0 0
0 0 0
0 0 0
0 0 0
0 0 0
0 0 0
0 0 0
0 0 0
0 0 0
0 0 0
0 0 0
0 0 0
0 0 0
0 0 0
0 0 0
86 186 86
86 186 86
86 186 86
86 186 86
86 186 86
86 186 86
86 186 86
86 186 86
86 186 86
86 186 86
86 186 86
86 186 86
86 186 86
86 186 86
86 186 86
86 186 86
86 186 86
86 186 86
86 186 86
86 186 86
86 186 86
86 186 86
86 186 86
86 186 86
86 186 86
86 186 86
86 186 86
86 186 86
86 186 86
86 186 86
86 186 86
86 186 86
86 186 86
86 186 86
86 186 86
86 186 86
86 186 86
86 186 86
86 186 86
86 186 86
86 186 86
86 186 86
86 186 86
86 186 86
86 186 86
86 186 86
86 186 86
86 186 86
86 186 86
86 186 86
86 186 86
86 186 86
86 186 86
86 186 86
86 186 86
86 186 86
86 186 86
86 186 86
86 186 86
86 186 86
86 186 86
86 186 86
86 186 86
86 186 86
86 186 86
86 186 86
86 186 86
86 186 86
86 186 86
86 186 86
86 186 86
86 186 86
86 186 86
86 186 86
86 186 86
86 186 86
86 186 86
86 186 86
86 186 86
86 186 86
86 186 86
86 186 86
86 186 86
86 186 86
86 186 86
86 186 86
86 186 86
86 186 86
86 186 86
86 186 86
86 186 86
86 186 86
86 186 86
86 186 86
86 186 86
86 186 86
0 0 0
0 0 0
0 0 0
0 0 0
0 0 0
0 0 0
0 0 0
0 0 0
0 0 0
0 0 0
0 0 0
0 0 0
0 0 0
0 0 0
0 0 0
0 0 0
0 0 0
0 0 0
0 0 0
0 0 0
0 0 0
0 0 0
0 0 0
0 0 0
0 0 0
0 0 0
0 0 0
0 0 0
0 0 0
0 0 0
0 0 0
0 0 0
0 0 0
0 0 0
0 0 0
0 0 0
0 0 0
0 0 0
0 0 0
0 0 0
0 0 0
0 0 0
0 0 0
0 0 0
0 0 0
0 0 0
0 0 0
0 0 0
186 86 86
186 86 86
186 86 86
186 86 86
186 86 86
186 86 86
186 86 86
186 86 86
186 86 86
186 86 86
186 86 86
186 86 86
186 86 86
186 86 86
186 86 86
186 86 86
186 86 86
186 86 86
186 86 86
186 86 86
186 86 86
186 86 86
186 86 86
186 86 86
186 86 86
186 86 86
186 86 86
186 86 86
186 86 86
186 86 86
186 86 86
186 86 86
186 86 86
186 86 86
186 86 86
186 86 86
186 86 86
186 86 86
186 86 86
186 86 86
186 86 86
186 86 86
186 86 86
186 86 86
186 86 86
186 86 86
186 86 86
186 86 86
186 86 86
186 86 86
186 86 86
186 86 86
186 86 86
186 86 86
186 86 86
186 86 86
186 86 86
186 86 86
186 86 86
186 86 86
186 86 86
186 86 86
186 86 86
186 86 86
186 86 86
186 86 86
186 86 86
186 86 86
186 86 86
186 86 86
186 86 86
186 86 86
186 86 86
186 86 86
186 86 86
186 86 86
186 86 86
186 86 86
186 86 86
186 86 86
186 86 86
186 86 86
186 86 86
186 86 86
186 86 86
186 86 86
186 86 86
186 86 86
186 86 86
186 86 86
186 86 86
186 86 86
186 86 86
186 86 86
186 86 86
186 86 86
0 0 0
0 0 0
0 0 0
0 0 0
0 0 0
0 0 0
0 0 0
0 0 0
0 0 0
0 0 0
0 0 0
0 0 0
0 0 0
0 0 0
0 0 0
0 0 0
86 186 86
86 186 86
86 186 86
86 186 86
86 186 86
86 186 86
86 186 86
86 186 86
86 186 86
86 186 86
86 186 86
86 186 86
86 186 86
86 186 86
86 186 86
86 186 86
86 186 86
86 186 86
86 186 86
86 186 86
86 186 86
86 186 86
86 186 86
86 186 86
86 186 86
86 186 86
86 186 86
86 186 86
86 186 86
86 186 86
86 186 86
86 186 86
86 186 86
86 186 86
86 186 86
86 186 86
86 186 86
86 186 86
86 186 86
86 186 86
86 186 86
86 186 86
86 186 86
86 186 86
86 186 86
86 186 86
86 186 86
86 186 86
86 186 86
86 186 86
86 186 86
86 186 86
86 186 86
86 186 86
86 186 86
86 186 86
86 186 86
86 186 86
86 186 86
86 186 86
86 186 86
86 186 86
86 186 86
86 186 86
86 186 86
86 186 86
86 186 86
86 186 86
86 186 86
86 186 86
86 186 86
86 186 86
86 186 86
86 186 86
86 186 86
86 186 86
86 186 86
86 186 86
86 186 86
86 186 86
86 186 86
86 186 86
86 186 86
86 186 86
86 186 86
86 186 86
86 186 86
86 186 86
86 186 86
86 186 86
86 186 86
86 186 86
86 186 86
86 186 86
86 186 86
86 186 86
0 0 0
0 0 0
0 0 0
0 0 0
0 0 0
0 0 0
0 0 0
0 0 0
0 0 0
0 0 0
0 0 0
0 0 0
0 0 0
0 0 0
0 0 0
0 0 0
0 0 0
0 0 0
0 0 0
0 0 0
0 0 0
0 0 0
0 0 0
0 0 0
0 0 0
0 0 0
0 0 0
0 0 0
0 0 0
0 0 0
0 0 0
0 0 0
0 0 0
0 0 0
0 0 0
0 0 0
0 0 0
0 0 0
0 0 0
0 0 0
0 0 0
0 0 0
0 0 0
0 0 0
0 0 0
0 0 0
0 0 0
0 0 0
186 86 86
186 86 86
186 86 86
186 86 86
186 86 86
186 86 86
186 86 86
186 86 86
186 86 86
186 86 86
186 86 86
186 86 86
186 86 86
186 86 86
186 86 86
186 86 86
186 86 86
186 86 86
186 86 86
186 86 86
186 86 86
186 86 86
186 86 86
186 86 86
186 86 86
186 86 86
186 86 86
186 86 86
186 86 86
186 86 86
186 86 86
186 86 86
186 86 86
186 86 86
186 86 86
186 86 86
186 86 86
186 86 86
186 86 86
186 86 86
186 86 86
186 86 86
186 86 86
186 86 86
186 86 86
186 86 86
186 86 86
186 86 86
186 86 86
186 86 86
186 86 86
186 86 86
186 86 86
186 86 86
186 86 86
186 86 86
186 86 86
186 86 86
186 86 86
186 86 86
186 86 86
186 86 86
186 86 86
186 86 86
186 86 86
186 86 86
186 86 86
186 86 86
186 86 86
186 86 86
186 86 86
186 86 86
186 86 86
186 86 86
186 86 86
186 86 86
186 86 86
186 86 86
186 86 86
186 86 86
186 86 86
186 86 86
186 86 86
186 86 86
186 86 86
186 86 86
186 86 86
186 86 86
186 86 86
186 86 86
186 86 86
186 86 86
186 86 86
186 86 86
186 86 86
186 86 86
0 0 0
0 0 0
0 0 0
0 0 0
0 0 0
0 0 0
0 0 0
0 0 0
0 0 0
0 0 0
0 0 0
0 0 0
0 0 0
0 0 0
0 0 0
0 0 0
86 186 86
86 186 86
86 186 86
86 186 86
86 186 86
86 186 86
86 186 86
86 186 86
86 186 86
86 186 86
86 186 86
86 186 86
86 186 86
86 186 86
86 186 86
86 186 86
86 186 86
86 186 86
86 186 86
86 186 86
86 186 86
86 186 86
86 186 86
86 186 86
86 186 86
86 186 86
86 186 86
86 186 86
86 186 86
86 186 86
86 186 86
86 186 86
86 186 86
86 186 86
86 186 86
86 186 86
86 186 86
86 186 86
86 186 86
86 186 86
86 186 86
86 186 86
86 186 86
86 186 86
86 186 86
86 186 86
86 186 86
86 186 86
86 186 86
86 186 86
86 186 86
86 186 86
86 186 86
86 186 86
86 186 86
86 186 86
86 186 86
86 186 86
86 186 86
86 186 86
86 186 86
86 186 86
86 186 86
86 186 86
86 186 86
86 186 86
86 186 86
86 186 86
86 186 86
86 186 86
86 186 86
86 186 86
86 186 86
86 186 86
86 186 86
86 186 86
86 186 86
86 186 86
86 186 86
86 186 86
86 186 86
86 186 86
86 186 86
86 186 86
86 186 86
86 186 86
86 186 86
86 186 86
86 186 86
86 186 86
86 186 86
86 186 86
86 186 86
86 186 86
86 186 86
86 186 86
0 0 0
0 0 0
0 0 0
0 0 0
0 0 0
0 0 0
0 0 0
0 0 0
0 0 0
0 0 0
0 0 0
0 0 0
0 0 0
0 0 0
0 0 0
0 0 0
0 0 0
0 0 0
0 0 0
0 0 0
0 0 0
0 0 0
0 0 0
0 0 0
0 0 0
0 0 0
0 0 0
0 0 0
0 0 0
0 0 0
0 0 0
0 0 0
0 0 0
0 0 0
0 0 0
0 0 0
0 0 0
0 0 0
0 0 0
0 0 0
0 0 0
0 0 0
0 0 0
0 0 0
0 0 0
0 0 0
0 0 0
0 0 0
186 86 86
186 86 86
186 86 86
186 86 86
186 86 86
186 86 86
186 86 86
186 86 86
186 86 86
186 86 86
186 86 86
186 86 86
186 86 86
186 86 86
186 86 86
186 86 86
186 86 86
186 86 86
186 86 86
186 86 86
186 86 86
186 86 86
186 86 86
186 86 86
186 86 86
186 86 86
186 86 86
186 86 86
186 86 86
186 86 86
186 86 86
186 86 86
186 86 86
186 86 86
186 86 86
186 86 86
186 86 86
186 86 86
186 86 86
186 86 86
186 86 86
186 86 86
186 86 86
186 86 86
186 86 86
186 86 86
186 86 86
186 86 86
186 86 86
186 86 86
186 86 86
186 86 86
186 86 86
186 86 86
186 86 86
186 86 86
186 86 86
186 86 86
186 86 86
186 86 86
186 86 86
186 86 86
186 86 86
186 86 86
186 86 86
186 86 86
186 86 86
186 86 86
186 86 86
186 86 86
186 86 86
186 86 86
186 86 86
186 86 86
186 86 86
186 86 86
186 86 86
186 86 86
186 86 86
186 86 86
186 86 86
186 86 86
186 86 86
186 86 86
186 86 86
186 86 86
186 86 86
186 86 86
186 86 86
186 86 86
186 86 86
186 86 86
186 86 86
186 86 86
186 86 86
186 86 86
0 0 0
0 0 0
0 0 0
0 0 0
0 0 0
0 0 0
0 0 0
0 0 0
0 0 0
0 0 0
0 0 0
0 0 0
0 0 0
0 0 0
0 0 0
0 0 0
86 186 86
86 186 86
86 186 86
86 186 86
86 186 86
86 186 86
86 186 86
86 186 86
86 186 86
86 186 86
86 186 86
86 186 86
86 186 86
86 186 86
86 186 86
86 186 86
86 186 86
86 186 86
86 186 86
86 186 86
86 186 86
86 186 86
86 186 86
86 186 86
86 186 86
86 186 86
86 186 86
86 186 86
86 186 86
86 186 86
86 186 86
86 186 86
86 186 86
86 186 86
86 186 86
86 186 86
86 186 86
86 186 86
86 186 86
86 186 86
86 186 86
86 186 86
86 186 86
86 186 86
86 186 86
86 186 86
86 186 86
86 186 86
86 186 86
86 186 86
86 186 86
86 186 86
86 186 86
86 186 86
86 186 86
86 186 86
86 186 86
86 186 86
86 186 86
86 186 86
86 186 86
86 186 86
86 186 86
86 186 86
86 186 86
86 186 86
86 186 86
86 186 86
86 186 86
86 186 86
86 186 86
86 186 86
86 186 86
86 186 86
86 186 86
86 186 86
86 186 86
86 186 86
86 186 86
86 186 86
86 186 86
86 186 86
86 186 86
86 186 86
86 186 86
86 186 86
86 186 86
86 186 86
86 186 86
86 186 86
86 186 86
86 186 86
86 186 86
86 186 86
86 186 86
86 186 86
0 0 0
0 0 0
0 0 0
0 0 0
0 0 0
0 0 0
0 0 0
0 0 0
0 0 0
0 0 0
0 0 0
0 0 0
0 0 0
0 0 0
0 0 0
0 0 0
0 0 0
0 0 0
0 0 0
0 0 0
0 0 0
0 0 0
0 0 0
0 0 0
0 0 0
0 0 0
0 0 0
0 0 0
0 0 0
0 0 0
0 0 0
0 0 0
0 0 0
0 0 0
0 0 0
0 0 0
0 0 0
0 0 0
0 0 0
0 0 0
0 0 0
0 0 0
0 0 0
0 0 0
0 0 0
0 0 0
0 0 0
0 0 0
186 86 86
186 86 86
186 86 86
186 86 86
186 86 86
186 86 86
186 86 86
186 86 86
186 86 86
186 86 86
186 86 86
186 86 86
186 86 86
186 86 86
186 86 86
186 86 86
186 86 86
186 86 86
186 86 86
186 86 86
186 86 86
186 86 86
186 86 86
186 86 86
186 86 86
186 86 86
186 86 86
186 86 86
186 86 86
186 86 86
186 86 86
186 86 86
186 86 86
186 86 86
186 86 86
186 86 86
186 86 86
186 86 86
186 86 86
186 86 86
186 86 86
186 86 86
186 86 86
186 86 86
186 86 86
186 86 86
186 86 86
186 86 86
186 86 86
186 86 86
186 86 86
186 86 86
186 86 86
186 86 86
186 86 86
186 86 86
186 86 86
186 86 86
186 86 86
186 86 86
186 86 86
186 86 86
186 86 86
186 86 86
186 86 86
186 86 86
186 86 86
186 86 86
186 86 86
186 86 86
186 86 86
186 86 86
186 86 86
186 86 86
186 86 86
186 86 86
186 86 86
186 86 86
186 86 86
186 86 86
186 86 86
186 86 86
186 86 86
186 86 86
186 86 86
186 86 86
186 86 86
186 86 86
186 86 86
186 86 86
186 86 86
186 86 86
186 86 86
186 86 86
186 86 86
186 86 86
0 0 0
0 0 0
0 0 0
0 0 0
0 0 0
0 0 0
0 0 0
0 0 0
0 0 0
0 0 0
0 0 0
0 0 0
0 0 0
0 0 0
0 0 0
0 0 0
86 186 86
86 186 86
86 186 86
86 186 86
86 186 86
86 186 86
86 186 86
86 186 86
86 186 86
86 186 86
86 186 86
86 186 86
86 186 86
86 186 86
86 186 86
86 186 86
86 186 86
86 186 86
86 186 86
86 186 86
86 186 86
86 186 86
86 186 86
86 186 86
86 186 86
86 186 86
86 186 86
86 186 86
86 186 86
86 186 86
86 186 86
86 186 86
86 186 86
86 186 86
86 186 86
86 186 86
86 186 86
86 186 86
86 186 86
86 186 86
86 186 86
86 186 86
86 186 86
86 186 86
86 186 86
86 186 86
86 186 86
86 186 86
86 186 86
86 186 86
86 186 86
86 186 86
86 186 86
86 186 86
86 186 86
86 186 86
86 186 86
86 186 86
86 186 86
86 186 86
86 186 86
86 186 86
86 186 86
86 186 86
86 186 86
86 186 86
86 186 86
86 186 86
86 186 86
86 186 86
86 186 86
86 186 86
86 186 86
86 186 86
86 186 86
86 186 86
86 186 86
86 186 86
86 186 86
86 186 86
86 186 86
86 186 86
86 186 86
86 186 86
86 186 86
86 186 86
86 186 86
86 186 86
86 186 86
86 186 86
86 186 86
86 186 86
86 186 86
86 186 86
86 186 86
86 186 86
0 0 0
0 0 0
0 0 0
0 0 0
0 0 0
0 0 0
0 0 0
0 0 0
0 0 0
0 0 0
0 0 0
0 0 0
0 0 0
0 0 0
0 0 0
0 0 0
0 0 0
0 0 0
0 0 0
0 0 0
0 0 0
0 0 0
0 0 0
0 0 0
0 0 0
0 0 0
0 0 0
0 0 0
0 0 0
0 0 0
0 0 0
0 0 0
0 0 0
0 0 0
0 0 0
0 0 0
0 0 0
0 0 0
0 0 0
0 0 0
0 0 0
0 0 0
0 0 0
0 0 0
0 0 0
0 0 0
0 0 0
0 0 0
186 86 86
186 86 86
186 86 86
186 86 86
186 86 86
186 86 86
186 86 86
186 86 86
186 86 86
186 86 86
186 86 86
186 86 86
186 86 86
186 86 86
186 86 86
186 86 86
186 86 86
186 86 86
186 86 86
186 86 86
186 86 86
186 86 86
186 86 86
186 86 86
186 86 86
186 86 86
186 86 86
186 86 86
186 86 86
186 86 86
186 86 86
186 86 86
186 86 86
186 86 86
186 86 86
186 86 86
186 86 86
186 86 86
186 86 86
186 86 86
186 86 86
186 86 86
186 86 86
186 86 86
186 86 86
186 86 86
186 86 86
186 86 86
186 86 86
186 86 86
186 86 86
186 86 86
186 86 86
186 86 86
186 86 86
186 86 86
186 86 86
186 86 86
186 86 86
186 86 86
186 86 86
186 86 86
186 86 86
186 86 86
186 86 86
186 86 86
186 86 86
186 86 86
186 86 86
186 86 86
186 86 86
186 86 86
186 86 86
186 86 86
186 86 86
186 86 86
186 86 86
186 86 86
186 86 86
186 86 86
186 86 86
186 86 86
186 86 86
186 86 86
186 86 86
186 86 86
186 86 86
186 86 86
186 86 86
186 86 86
186 86 86
186 86 86
186 86 86
186 86 86
186 86 86
186 86 86
0 0 0
0 0 0
0 0 0
0 0 0
0 0 0
0 0 0
0 0 0
0 0 0
0 0 0
0 0 0
0 0 0
0 0 0
0 0 0
0 0 0
0 0 0
0 0 0
86 186 86
86 186 86
86 186 86
86 186 86
86 186 86
86 186 86
86 186 86
86 186 86
86 186 86
86 186 86
86 186 86
86 186 86
86 186 86
86 186 86
86 186 86
86 186 86
86 186 86
86 186 86
86 186 86
86 186 86
86 186 86
86 186 86
86 186 86
86 186 86
86 186 86
86 186 86
86 186 86
86 186 86
86 186 86
86 186 86
86 186 86
86 186 86
86 186 86
86 186 86
86 186 86
86 186 86
86 186 86
86 186 86
86 186 86
86 186 86
86 186 86
86 186 86
86 186 86
86 186 86
86 186 86
86 186 86
86 186 86
86 186 86
86 186 86
86 186 86
86 186 86
86 186 86
86 186 86
86 186 86
86 186 86
86 186 86
86 186 86
86 186 86
86 186 86
86 186 86
86 186 86
86 186 86
86 186 86
86 186 86
86 186 86
86 186 86
86 186 86
86 186 86
86 186 86
86 186 86
86 186 86
86 186 86
86 186 86
86 186 86
86 186 86
86 186 86
86 186 86
86 186 86
86 186 86
86 186 86
86 186 86
86 186 86
86 186 86
86 186 86
86 186 86
86 186 86
86 186 86
86 186 86
86 186 86
86 186 86
86 186 86
86 186 86
86 186 86
86 186 86
86 186 86
86 186 86
0 0 0
0 0 0
0 0 0
0 0 0
0 0 0
0 0 0
0 0 0
0 0 0
0 0 0
0 0 0
0 0 0
0 0 0
0 0 0
0 0 0
0 0 0
0 0 0
0 0 0
0 0 0
0 0 0
0 0 0
0 0 0
0 0 0
0 0 0
0 0 0
0 0 0
0 0 0
0 0 0
0 0 0
0 0 0
0 0 0
0 0 0
0 0 0
0 0 0
0 0 0
0 0 0
0 0 0
0 0 0
0 0 0
0 0 0
0 0 0
0 0 0
0 0 0
0 0 0
0 0 0
0 0 0
0 0 0
0 0 0
0 0 0
186 86 86
186 86 86
186 86 86
186 86 86
186 86 86
186 86 86
186 86 86
186 86 86
186 86 86
186 86 86
186 86 86
186 86 86
186 86 86
186 86 86
186 86 86
186 86 86
186 86 86
186 86 86
186 86 86
186 86 86
186 86 86
186 86 86
186 86 86
186 86 86
186 86 86
186 86 86
186 86 86
186 86 86
186 86 86
186 86 86
186 86 86
186 86 86
186 86 86
186 86 86
186 86 86
186 86 86
186 86 86
186 86 86
186 86 86
186 86 86
186 86 86
186 86 86
186 86 86
186 86 86
186 86 86
186 86 86
186 86 86
186 86 86
186 86 86
186 86 86
186 86 86
186 86 86
186 86 86
186 86 86
186 86 86
186 86 86
186 86 86
186 86 86
186 86 86
186 86 86
186 86 86
186 86 86
186 86 86
186 86 86
186 86 86
186 86 86
186 86 86
186 86 86
186 86 86
186 86 86
186 86 86
186 86 86
186 86 86
186 86 86
186 86 86
186 86 86
186 86 86
186 86 86
186 86 86
186 86 86
186 86 86
186 86 86
186 86 86
186 86 86
186 86 86
186 86 86
186 86 86
186 86 86
186 86 86
186 86 86
186 86 86
186 86 86
186 86 86
186 86 86
186 86 86
186 86 86
0 0 0
0 0 0
0 0 0
0 0 0
0 0 0
0 0 0
0 0 0
0 0 0
0 0 0
0 0 0
0 0 0
0 0 0
0 0 0
0 0 0
0 0 0
0 0 0
86 186 86
86 186 86
86 186 86
86 186 86
86 186 86
86 186 86
86 186 86
86 186 86
86 186 86
86 186 86
86 186 86
86 186 86
86 186 86
86 186 86
86 186 86
86 186 86
86 186 86
86 186 86
86 186 86
86 186 86
86 186 86
86 186 86
86 186 86
86 186 86
86 186 86
86 186 86
86 186 86
86 186 86
86 186 86
86 186 86
86 186 86
86 186 86
86 186 86
86 186 86
86 186 86
86 186 86
86 186 86
86 186 86
86 186 86
86 186 86
86 186 86
86 186 86
86 186 86
86 186 86
86 186 86
86 186 86
86 186 86
86 186 86
86 186 86
86 186 86
86 186 86
86 186 86
86 186 86
86 186 86
86 186 86
86 186 86
86 186 86
86 186 86
86 186 86
86 186 86
86 186 86
86 186 86
86 186 86
86 186 86
86 186 86
86 186 86
86 186 86
86 186 86
86 186 86
86 186 86
86 186 86
86 186 86
86 186 86
86 186 86
86 186 86
86 186 86
86 186 86
86 186 86
86 186 86
86 186 86
86 186 86
86 186 86
86 186 86
86 186 86
86 186 86
86 186 86
86 186 86
86 186 86
86 186 86
86 186 86
86 186 86
86 186 86
86 186 86
86 186 86
86 186 86
86 186 86
0 0 0
0 0 0
0 0 0
0 0 0
0 0 0
0 0 0
0 0 0
0 0 0
0 0 0
0 0 0
0 0 0
0 0 0
0 0 0
0 0 0
0 0 0
0 0 0
0 0 0
0 0 0
0 0 0
0 0 0
0 0 0
0 0 0
0 0 0
0 0 0
0 0 0
0 0 0
0 0 0
0 0 0
0 0 0
0 0 0
0 0 0
0 0 0
0 0 0
0 0 0
0 0 0
0 0 0
0 0 0
0 0 0
0 0 0
0 0 0
0 0 0
0 0 0
0 0 0
0 0 0
0 0 0
0 0 0
0 0 0
0 0 0
186 86 86
186 86 86
186 86 86
186 86 86
186 86 86
186 86 86
186 86 86
186 86 86
186 86 86
186 86 86
186 86 86
186 86 86
186 86 86
186 86 86
186 86 86
186 86 86
186 86 86
186 86 86
186 86 86
186 86 86
186 86 86
186 86 86
186 86 86
186 86 86
186 86 86
186 86 86
186 86 86
186 86 86
186 86 86
186 86 86
186 86 86
186 86 86
186 86 86
186 86 86
186 86 86
186 86 86
186 86 86
186 86 86
186 86 86
186 86 86
186 86 86
186 86 86
186 86 86
186 86 86
186 86 86
186 86 86
186 86 86
186 86 86
186 86 86
186 86 86
186 86 86
186 86 86
186 86 86
186 86 86
186 86 86
186 86 86
186 86 86
186 86 86
186 86 86
186 86 86
186 86 86
186 86 86
186 86 86
186 86 86
186 86 86
186 86 86
186 86 86
186 86 86
186 86 86
186 86 86
186 86 86
186 86 86
186 86 86
186 86 86
186 86 86
186 86 86
186 86 86
186 86 86
186 86 86
186 86 86
186 86 86
186 86 86
186 86 86
186 86 86
186 86 86
186 86 86
186 86 86
186 86 86
186 86 86
186 86 86
186 86 86
186 86 86
186 86 86
186 86 86
186 86 86
186 86 86
0 0 0
0 0 0
0 0 0
0 0 0
0 0 0
0 0 0
0 0 0
0 0 0
0 0 0
0 0 0
0 0 0
0 0 0
0 0 0
0 0 0
0 0 0
0 0 0
86 186 86
86 186 86
86 186 86
86 186 86
86 186 86
86 186 86
86 186 86
86 186 86
86 186 86
86 186 86
86 186 86
86 186 86
86 186 86
86 186 86
86 186 86
86 186 86
86 186 86
86 186 86
86 186 86
86 186 86
86 186 86
86 186 86
86 186 86
86 186 86
86 186 86
86 186 86
86 186 86
86 186 86
86 186 86
86 186 86
86 186 86
86 186 86
86 186 86
86 186 86
86 186 86
86 186 86
86 186 86
86 186 86
86 186 86
86 186 86
86 186 86
86 186 86
86 186 86
86 186 86
86 186 86
86 186 86
86 186 86
86 186 86
86 186 86
86 186 86
86 186 86
86 186 86
86 186 86
86 186 86
86 186 86
86 186 86
86 186 86
86 186 86
86 186 86
86 186 86
86 186 86
86 186 86
86 186 86
86 186 86
86 186 86
86 186 86
86 186 86
86 186 86
86 186 86
86 186 86
86 186 86
86 186 86
86 186 86
86 186 86
86 186 86
86 186 86
86 186 86
86 186 86
86 186 86
86 186 86
86 186 86
86 186 86
86 186 86
86 186 86
86 186 86
86 186 86
86 186 86
86 186 86
86 186 86
86 186 86
86 186 86
86 186 86
86 186 86
86 186 86
86 186 86
86 186 86
0 0 0
0 0 0
0 0 0
0 0 0
0 0 0
0 0 0
0 0 0
0 0 0
0 0 0
0 0 0
0 0 0
0 0 0
0 0 0
0 0 0
0 0 0
0 0 0
0 0 0
0 0 0
0 0 0
0 0 0
0 0 0
0 0 0
0 0 0
0 0 0
0 0 0
0 0 0
0 0 0
0 0 0
0 0 0
0 0 0
0 0 0
0 0 0
0 0 0
0 0 0
0 0 0
0 0 0
0 0 0
0 0 0
0 0 0
0 0 0
0 0 0
0 0 0
0 0 0
0 0 0
0 0 0
0 0 0
0 0 0
0 0 0
186 86 86
186 86 86
186 86 86
186 86 86
186 86 86
186 86 86
186 86 86
186 86 86
186 86 86
186 86 86
186 86 86
186 86 86
186 86 86
186 86 86
186 86 86
186 86 86
186 86 86
186 86 86
186 86 86
186 86 86
186 86 86
186 86 86
186 86 86
186 86 86
186 86 86
186 86 86
186 86 86
186 86 86
186 86 86
186 86 86
186 86 86
186 86 86
186 86 86
186 86 86
186 86 86
186 86 86
186 86 86
186 86 86
186 86 86
186 86 86
186 86 86
186 86 86
186 86 86
186 86 86
186 86 86
186 86 86
186 86 86
186 86 86
186 86 86
186 86 86
186 86 86
186 86 86
186 86 86
186 86 86
186 86 86
186 86 86
186 86 86
186 86 86
186 86 86
186 86 86
186 86 86
186 86 86
186 86 86
186 86 86
186 86 86
186 86 86
186 86 86
186 86 86
186 86 86
186 86 86
186 86 86
186 86 86
186 86 86
186 86 86
186 86 86
186 86 86
186 86 86
186 86 86
186 86 86
186 86 86
186 86 86
186 86 86
186 86 86
186 86 86
186 86 86
186 86 86
186 86 86
186 86 86
186 86 86
186 86 86
186 86 86
186 86 86
186 86 86
186 86 86
186 86 86
186 86 86
0 0 0
0 0 0
0 0 0
0 0 0
0 0 0
0 0 0
0 0 0
0 0 0
0 0 0
0 0 0
0 0 0
0 0 0
0 0 0
0 0 0
0 0 0
0 0 0
86 186 86
86 186 86
86 186 86
86 186 86
86 186 86
86 186 86
86 186 86
86 186 86
86 186 86
86 186 86
86 186 86
86 186 86
86 186 86
86 186 86
86 186 86
86 186 86
86 186 86
86 186 86
86 186 86
86 186 86
86 186 86
86 186 86
86 186 86
86 186 86
86 186 86
86 186 86
86 186 86
86 186 86
86 186 86
86 186 86
86 186 86
86 186 86
86 186 86
86 186 86
86 186 86
86 186 86
86 186 86
86 186 86
86 186 86
86 186 86
86 186 86
86 186 86
86 186 86
86 186 86
86 186 86
86 186 86
86 186 86
86 186 86
86 186 86
86 186 86
86 186 86
86 186 86
86 186 86
86 186 86
86 186 86
86 186 86
86 186 86
86 186 86
86 186 86
86 186 86
86 186 86
86 186 86
86 186 86
86 186 86
86 186 86
86 186 86
86 186 86
86 186 86
86 186 86
86 186 86
86 186 86
86 186 86
86 186 86
86 186 86
86 186 86
86 186 86
86 186 86
86 186 86
86 186 86
86 186 86
86 186 86
86 186 86
86 186 86
86 186 86
86 186 86
86 186 86
86 186 86
86 186 86
86 186 86
86 186 86
86 186 86
86 186 86
86 186 86
86 186 86
86 186 86
86 186 86
0 0 0
0 0 0
0 0 0
0 0 0
0 0 0
0 0 0
0 0 0
0 0 0
0 0 0
0 0 0
0 0 0
0 0 0
0 0 0
0 0 0
0 0 0
0 0 0
0 0 0
0 0 0
0 0 0
0 0 0
0 0 0
0 0 0
0 0 0
0 0 0
0 0 0
0 0 0
0 0 0
0 0 0
0 0 0
0 0 0
0 0 0
0 0 0
0 0 0
0 0 0
0 0 0
0 0 0
0 0 0
0 0 0
0 0 0
0 0 0
0 0 0
0 0 0
0 0 0
0 0 0
0 0 0
0 0 0
0 0 0
0 0 0
186 86 86
186 86 86
186 86 86
186 86 86
186 86 86
186 86 86
186 86 86
186 86 86
186 86 86
186 86 86
186 86 86
186 86 86
186 86 86
186 86 86
186 86 86
186 86 86
186 86 86
186 86 86
186 86 86
186 86 86
186 86 86
186 86 86
186 86 86
186 86 86
186 86 86
186 86 86
186 86 86
186 86 86
186 86 86
186 86 86
186 86 86
186 86 86
186 86 86
186 86 86
186 86 86
186 86 86
186 86 86
186 86 86
186 86 86
186 86 86
186 86 86
186 86 86
186 86 86
186 86 86
186 86 86
186 86 86
186 86 86
186 86 86
186 86 86
186 86 86
186 86 86
186 86 86
186 86 86
186 86 86
186 86 86
186 86 86
186 86 86
186 86 86
186 86 86
186 86 86
186 86 86
186 86 86
186 86 86
186 86 86
186 86 86
186 86 86
186 86 86
186 86 86
186 86 86
186 86 86
186 86 86
186 86 86
186 86 86
186 86 86
186 86 86
186 86 86
186 86 86
186 86 86
186 86 86
186 86 86
186 86 86
186 86 86
186 86 86
186 86 86
186 86 86
186 86 86
186 86 86
186 86 86
186 86 86
186 86 86
186 86 86
186 86 86
186 86 86
186 86 86
186 86 86
186 86 86
0 0 0
0 0 0
0 0 0
0 0 0
0 0 0
0 0 0
0 0 0
0 0 0
0 0 0
0 0 0
0 0 0
0 0 0
0 0 0
0 0 0
0 0 0
0 0 0
86 186 86
86 186 86
86 186 86
86 186 86
86 186 86
86 186 86
86 186 86
86 186 86
86 186 86
86 186 86
86 186 86
86 186 86
86 186 86
86 186 86
86 186 86
86 186 86
86 186 86
86 186 86
86 186 86
86 186 86
86 186 86
86 186 86
86 186 86
86 186 86
86 186 86
86 186 86
86 186 86
86 186 86
86 186 86
86 186 86
86 186 86
86 186 86
86 186 86
86 186 86
86 186 86
86 186 86
86 186 86
86 186 86
86 186 86
86 186 86
86 186 86
86 186 86
86 186 86
86 186 86
86 186 86
86 186 86
86 186 86
86 186 86
86 186 86
86 186 86
86 186 86
86 186 86
86 186 86
86 186 86
86 186 86
86 186 86
86 186 86
86 186 86
86 186 86
86 186 86
86 186 86
86 186 86
86 186 86
86 186 86
86 186 86
86 186 86
86 186 86
86 186 86
86 186 86
86 186 86
86 186 86
86 186 86
86 186 86
86 186 86
86 186 86
86 186 86
86 186 86
86 186 86
86 186 86
86 186 86
86 186 86
86 186 86
86 186 86
86 186 86
86 186 86
86 186 86
86 186 86
86 186 86
86 186 86
86 186 86
86 186 86
86 186 86
86 186 86
86 186 86
86 186 86
86 186 86
0 0 0
0 0 0
0 0 0
0 0 0
0 0 0
0 0 0
0 0 0
0 0 0
0 0 0
0 0 0
0 0 0
0 0 0
0 0 0
0 0 0
0 0 0
0 0 0
0 0 0
0 0 0
0 0 0
0 0 0
0 0 0
0 0 0
0 0 0
0 0 0
0 0 0
0 0 0
0 0 0
0 0 0
0 0 0
0 0 0
0 0 0
0 0 0
0 0 0
0 0 0
0 0 0
0 0 0
0 0 0
0 0 0
0 0 0
0 0 0
0 0 0
0 0 0
0 0 0
0 0 0
0 0 0
0 0 0
0 0 0
0 0 0
186 86 86
186 86 86
186 86 86
186 86 86
186 86 86
186 86 86
186 86 86
186 86 86
186 86 86
186 86 86
186 86 86
186 86 86
186 86 86
186 86 86
186 86 86
186 86 86
186 86 86
186 86 86
186 86 86
186 86 86
186 86 86
186 86 86
186 86 86
186 86 86
186 86 86
186 86 86
186 86 86
186 86 86
186 86 86
186 86 86
186 86 86
186 86 86
186 86 86
186 86 86
186 86 86
186 86 86
186 86 86
186 86 86
186 86 86
186 86 86
186 86 86
186 86 86
186 86 86
186 86 86
186 86 86
186 86 86
186 86 86
186 86 86
186 86 86
186 86 86
186 86 86
186 86 86
186 86 86
186 86 86
186 86 86
186 86 86
186 86 86
186 86 86
186 86 86
186 86 86
186 86 86
186 86 86
186 86 86
186 86 86
186 86 86
186 86 86
186 86 86
186 86 86
186 86 86
186 86 86
186 86 86
186 86 86
186 86 86
186 86 86
186 86 86
186 86 86
186 86 86
186 86 86
186 86 86
186 86 86
186 86 86
186 86 86
186 86 86
186 86 86
186 86 86
186 86 86
186 86 86
186 86 86
186 86 86
186 86 86
186 86 86
186 86 86
186 86 86
186 86 86
186 86 86
186 86 86
0 0 0
0 0 0
0 0 0
0 0 0
0 0 0
0 0 0
0 0 0
0 0 0
0 0 0
0 0 0
0 0 0
0 0 0
0 0 0
0 0 0
0 0 0
0 0 0
86 186 86
86 186 86
86 186 86
86 186 86
86 186 86
86 186 86
86 186 86
86 186 86
86 186 86
86 186 86
86 186 86
86 186 86
86 186 86
86 186 86
86 186 86
86 186 86
86 186 86
86 186 86
86 186 86
86 186 86
86 186 86
86 186 86
86 186 86
86 186 86
86 186 86
86 186 86
86 186 86
86 186 86
86 186 86
86 186 86
86 186 86
86 186 86
86 186 86
86 186 86
86 186 86
86 186 86
86 186 86
86 186 86
86 186 86
86 186 86
86 186 86
86 186 86
86 186 86
86 186 86
86 186 86
86 186 86
86 186 86
86 186 86
86 186 86
86 186 86
86 186 86
86 186 86
86 186 86
86 186 86
86 186 86
86 186 86
86 186 86
86 186 86
86 186 86
86 186 86
86 186 86
86 186 86
86 186 86
86 186 86
86 186 86
86 186 86
86 186 86
86 186 86
86 186 86
86 186 86
86 186 86
86 186 86
86 186 86
86 186 86
86 186 86
86 186 86
86 186 86
86 186 86
86 186 86
86 186 86
86 186 86
86 186 86
86 186 86
86 186 86
86 186 86
86 186 86
86 186 86
86 186 86
86 186 86
86 186 86
86 186 86
86 186 86
86 186 86
86 186 86
86 186 86
86 186 86
0 0 0
0 0 0
0 0 0
0 0 0
0 0 0
0 0 0
0 0 0
0 0 0
0 0 0
0 0 0
0 0 0
0 0 0
0 0 0
0 0 0
0 0 0
0 0 0
0 0 0
0 0 0
0 0 0
0 0 0
0 0 0
0 0 0
0 0 0
0 0 0
0 0 0
0 0 0
0 0 0
0 0 0
0 0 0
0 0 0
0 0 0
0 0 0
0 0 0
0 0 0
0 0 0
0 0 0
0 0 0
0 0 0
0 0 0
0 0 0
0 0 0
0 0 0
0 0 0
0 0 0
0 0 0
0 0 0
0 0 0
0 0 0
186 86 86
186 86 86
186 86 86
186 86 86
186 86 86
186 86 86
186 86 86
186 86 86
186 86 86
186 86 86
186 86 86
186 86 86
186 86 86
186 86 86
186 86 86
186 86 86
186 86 86
186 86 86
186 86 86
186 86 86
186 86 86
186 86 86
186 86 86
186 86 86
186 86 86
186 86 86
186 86 86
186 86 86
186 86 86
186 86 86
186 86 86
186 86 86
186 86 86
186 86 86
186 86 86
186 86 86
186 86 86
186 86 86
186 86 86
186 86 86
186 86 86
186 86 86
186 86 86
186 86 86
186 86 86
186 86 86
186 86 86
186 86 86
186 86 86
186 86 86
186 86 86
186 86 86
186 86 86
186 86 86
186 86 86
186 86 86
186 86 86
186 86 86
186 86 86
186 86 86
186 86 86
186 86 86
186 86 86
186 86 86
186 86 86
186 86 86
186 86 86
186 86 86
186 86 86
186 86 86
186 86 86
186 86 86
186 86 86
186 86 86
186 86 86
186 86 86
186 86 86
186 86 86
186 86 86
186 86 86
186 86 86
186 86 86
186 86 86
186 86 86
186 86 86
186 86 86
186 86 86
186 86 86
186 86 86
186 86 86
186 86 86
186 86 86
186 86 86
186 86 86
186 86 86
186 86 86
0 0 0
0 0 0
0 0 0
0 0 0
0 0 0
0 0 0
0 0 0
0 0 0
0 0 0
0 0 0
0 0 0
0 0 0
0 0 0
0 0 0
0 0 0
0 0 0
86 186 86
86 186 86
86 186 86
86 186 86
86 186 86
86 186 86
86 186 86
86 186 86
86 186 86
86 186 86
86 186 86
86 186 86
86 186 86
86 186 86
86 186 86
86 186 86
86 186 86
86 186 86
86 186 86
86 186 86
86 186 86
86 186 86
86 186 86
86 186 86
86 186 86
86 186 86
86 186 86
86 186 86
86 186 86
86 186 86
86 186 86
86 186 86
86 186 86
86 186 86
86 186 86
86 186 86
86 186 86
86 186 86
86 186 86
86 186 86
86 186 86
86 186 86
86 186 86
86 186 86
86 186 86
86 186 86
86 186 86
86 186 86
86 186 86
86 186 86
86 186 86
86 186 86
86 186 86
86 186 86
86 186 86
86 186 86
86 186 86
86 186 86
86 186 86
86 186 86
86 186 86
86 186 86
86 186 86
86 186 86
86 186 86
86 186 86
86 186 86
86 186 86
86 186 86
86 186 86
86 186 86
86 186 86
86 186 86
86 186 86
86 186 86
86 186 86
86 186 86
86 186 86
86 186 86
86 186 86
86 186 86
86 186 86
86 186 86
86 186 86
86 186 86
86 186 86
86 186 86
86 186 86
86 186 86
86 186 86
86 186 86
86 186 86
86 186 86
86 186 86
86 186 86
86 186 86
0 0 0
0 0 0
0 0 0
0 0 0
0 0 0
0 0 0
0 0 0
0 0 0
0 0 0
0 0 0
0 0 0
0 0 0
0 0 0
0 0 0
0 0 0
0 0 0
0 0 0
0 0 0
0 0 0
0 0 0
0 0 0
0 0 0
0 0 0
0 0 0
0 0 0
0 0 0
0 0 0
0 0 0
0 0 0
0 0 0
0 0 0
0 0 0
0 0 0
0 0 0
0 0 0
0 0 0
0 0 0
0 0 0
0 0 0
0 0 0
0 0 0
0 0 0
0 0 0
0 0 0
0 0 0
0 0 0
0 0 0
0 0 0
186 86 86
186 86 86
186 86 86
186 86 86
186 86 86
186 86 86
186 86 86
186 86 86
186 86 86
186 86 86
186 86 86
186 86 86
186 86 86
186 86 86
186 86 86
186 86 86
186 86 86
186 86 86
186 86 86
186 86 86
186 86 86
186 86 86
186 86 86
186 86 86
186 86 86
186 86 86
186 86 86
186 86 86
186 86 86
186 86 86
186 86 86
186 86 86
186 86 86
186 86 86
186 86 86
186 86 86
186 86 86
186 86 86
186 86 86
186 86 86
186 86 86
186 86 86
186 86 86
186 86 86
186 86 86
186 86 86
186 86 86
186 86 86
186 86 86
186 86 86
186 86 86
186 86 86
186 86 86
186 86 86
186 86 86
186 86 86
186 86 86
186 86 86
186 86 86
186 86 86
186 86 86
186 86 86
186 86 86
186 86 86
186 86 86
186 86 86
186 86 86
186 86 86
186 86 86
186 86 86
186 86 86
186 86 86
186 86 86
186 86 86
186 86 86
186 86 86
186 86 86
186 86 86
186 86 86
186 86 86
186 86 86
186 86 86
186 86 86
186 86 86
186 86 86
186 86 86
186 86 86
186 86 86
186 86 86
186 86 86
186 86 86
186 86 86
186 86 86
186 86 86
186 86 86
186 86 86
0 0 0
0 0 0
0 0 0
0 0 0
0 0 0
0 0 0
0 0 0
0 0 0
0 0 0
0 0 0
0 0 0
0 0 0
0 0 0
0 0 0
0 0 0
0 0 0
86 186 86
86 186 86
86 186 86
86 186 86
86 186 86
86 186 86
86 186 86
86 186 86
86 186 86
86 186 86
86 186 86
86 186 86
86 186 86
86 186 86
86 186 86
86 186 86
86 186 86
86 186 86
86 186 86
86 186 86
86 186 86
86 186 86
86 186 86
86 186 86
86 186 86
86 186 86
86 186 86
86 186 86
86 186 86
86 186 86
86 186 86
86 186 86
86 186 86
86 186 86
86 186 86
86 186 86
86 186 86
86 186 86
86 186 86
86 186 86
86 186 86
86 186 86
86 186 86
86 186 86
86 186 86
86 186 86
86 186 86
86 186 86
86 186 86
86 186 86
86 186 86
86 186 86
86 186 86
86 186 86
86 186 86
86 186 86
86 186 86
86 186 86
86 186 86
86 186 86
86 186 86
86 186 86
86 186 86
86 186 86
86 186 86
86 186 86
86 186 86
86 186 86
86 186 86
86 186 86
86 186 86
86 186 86
86 186 86
86 186 86
86 186 86
86 186 86
86 186 86
86 186 86
86 186 86
86 186 86
86 186 86
86 186 86
86 186 86
86 186 86
86 186 86
86 186 86
86 186 86
86 186 86
86 186 86
86 186 86
86 186 86
86 186 86
86 186 86
86 186 86
86 186 86
86 186 86
0 0 0
0 0 0
0 0 0
0 0 0
0 0 0
0 0 0
0 0 0
0 0 0
0 0 0
0 0 0
0 0 0
0 0 0
0 0 0
0 0 0
0 0 0
0 0 0
0 0 0
0 0 0
0 0 0
0 0 0
0 0 0
0 0 0
0 0 0
0 0 0
0 0 0
0 0 0
0 0 0
0 0 0
0 0 0
0 0 0
0 0 0
0 0 0
0 0 0
0 0 0
0 0 0
0 0 0
0 0 0
0 0 0
0 0 0
0 0 0
0 0 0
0 0 0
0 0 0
0 0 0
0 0 0
0 0 0
0 0 0
0 0 0
186 86 86
186 86 86
186 86 86
186 86 86
186 86 86
186 86 86
186 86 86
186 86 86
186 86 86
186 86 86
186 86 86
186 86 86
186 86 86
186 86 86
186 86 86
186 86 86
186 86 86
186 86 86
186 86 86
186 86 86
186 86 86
186 86 86
186 86 86
186 86 86
186 86 86
186 86 86
186 86 86
186 86 86
186 86 86
186 86 86
186 86 86
186 86 86
186 86 86
186 86 86
186 86 86
186 86 86
186 86 86
186 86 86
186 86 86
186 86 86
186 86 86
186 86 86
186 86 86
186 86 86
186 86 86
186 86 86
186 86 86
186 86 86
186 86 86
186 86 86
186 86 86
186 86 86
186 86 86
186 86 86
186 86 86
186 86 86
186 86 86
186 86 86
186 86 86
186 86 86
186 86 86
186 86 86
186 86 86
186 86 86
186 86 86
186 86 86
186 86 86
186 86 86
186 86 86
186 86 86
186 86 86
186 86 86
186 86 86
186 86 86
186 86 86
186 86 86
186 86 86
186 86 86
186 86 86
186 86 86
186 86 86
186 86 86
186 86 86
186 86 86
186 86 86
186 86 86
186 86 86
186 86 86
186 86 86
186 86 86
186 86 86
186 86 86
186 86 86
186 86 86
186 86 86
186 86 86
0 0 0
0 0 0
0 0 0
0 0 0
0 0 0
0 0 0
0 0 0
0 0 0
0 0 0
0 0 0
0 0 0
0 0 0
0 0 0
0 0 0
0 0 0
0 0 0
86 186 86
86 186 86
86 186 86
86 186 86
86 186 86
86 186 86
86 186 86
86 186 86
86 186 86
86 186 86
86 186 86
86 186 86
86 186 86
86 186 86
86 186 86
86 186 86
86 186 86
86 186 86
86 186 86
86 186 86
86 186 86
86 186 86
86 186 86
86 186 86
86 186 86
86 186 86
86 186 86
86 186 86
86 186 86
86 186 86
86 186 86
86 186 86
86 186 86
86 186 86
86 186 86
86 186 86
86 186 86
86 186 86
86 186 86
86 186 86
86 186 86
86 186 86
86 186 86
86 186 86
86 186 86
86 186 86
86 186 86
86 186 86
86 186 86
86 186 86
86 186 86
86 186 86
86 186 86
86 186 86
86 186 86
86 186 86
86 186 86
86 186 86
86 186 86
86 186 86
86 186 86
86 186 86
86 186 86
86 186 86
86 186 86
86 186 86
86 186 86
86 186 86
86 186 86
86 186 86
86 186 86
86 186 86
86 186 86
86 186 86
86 186 86
86 186 86
86 186 86
86 186 86
86 186 86
86 186 86
86 186 86
86 186 86
86 186 86
86 186 86
86 186 86
86 186 86
86 186 86
86 186 86
86 186 86
86 186 86
86 186 86
86 186 86
86 186 86
86 186 86
86 186 86
86 186 86
0 0 0
0 0 0
0 0 0
0 0 0
0 0 0
0 0 0
0 0 0
0 0 0
0 0 0
0 0 0
0 0 0
0 0 0
0 0 0
0 0 0
0 0 0
0 0 0
0 0 0
0 0 0
0 0 0
0 0 0
0 0 0
0 0 0
0 0 0
0 0 0
0 0 0
0 0 0
0 0 0
0 0 0
0 0 0
0 0 0
0 0 0
0 0 0
0 0 0
0 0 0
0 0 0
0 0 0
0 0 0
0 0 0
0 0 0
0 0 0
0 0 0
0 0 0
0 0 0
0 0 0
0 0 0
0 0 0
0 0 0
0 0 0
186 86 86
186 86 86
186 86 86
186 86 86
186 86 86
186 86 86
186 86 86
186 86 86
186 86 86
186 86 86
186 86 86
186 86 86
186 86 86
186 86 86
186 86 86
186 86 86
186 86 86
186 86 86
186 86 86
186 86 86
186 86 86
186 86 86
186 86 86
186 86 86
186 86 86
186 86 86
186 86 86
186 86 86
186 86 86
186 86 86
186 86 86
186 86 86
186 86 86
186 86 86
186 86 86
186 86 86
186 86 86
186 86 86
186 86 86
186 86 86
186 86 86
186 86 86
186 86 86
186 86 86
186 86 86
186 86 86
186 86 86
186 86 86
186 86 86
186 86 86
186 86 86
186 86 86
186 86 86
186 86 86
186 86 86
186 86 86
186 86 86
186 86 86
186 86 86
186 86 86
186 86 86
186 86 86
186 86 86
186 86 86
186 86 86
186 86 86
186 86 86
186 86 86
186 86 86
186 86 86
186 86 86
186 86 86
186 86 86
186 86 86
186 86 86
186 86 86
186 86 86
186 86 86
186 86 86
186 86 86
186 86 86
186 86 86
186 86 86
186 86 86
186 86 86
186 86 86
186 86 86
186 86 86
186 86 86
186 86 86
186 86 86
186 86 86
186 86 86
186 86 86
186 86 86
186 86 86
0 0 0
0 0 0
0 0 0
0 0 0
0 0 0
0 0 0
0 0 0
0 0 0
0 0 0
0 0 0
0 0 0
0 0 0
0 0 0
0 0 0
0 0 0
0 0 0
86 186 86
86 186 86
86 186 86
86 186 86
86 186 86
86 186 86
86 186 86
86 186 86
86 186 86
86 186 86
86 186 86
86 186 86
86 186 86
86 186 86
86 186 86
86 186 86
86 186 86
86 186 86
86 186 86
86 186 86
86 186 86
86 186 86
86 186 86
86 186 86
86 186 86
86 186 86
86 186 86
86 186 86
86 186 86
86 186 86
86 186 86
86 186 86
86 186 86
86 186 86
86 186 86
86 186 86
86 186 86
86 186 86
86 186 86
86 186 86
86 186 86
86 186 86
86 186 86
86 186 86
86 186 86
86 186 86
86 186 86
86 186 86
86 186 86
86 186 86
86 186 86
86 186 86
86 186 86
86 186 86
86 186 86
86 186 86
86 186 86
86 186 86
86 186 86
86 186 86
86 186 86
86 186 86
86 186 86
86 186 86
86 186 86
86 186 86
86 186 86
86 186 86
86 186 86
86 186 86
86 186 86
86 186 86
86 186 86
86 186 86
86 186 86
86 186 86
86 186 86
86 186 86
86 186 86
86 186 86
86 186 86
86 186 86
86 186 86
86 186 86
86 186 86
86 186 86
86 186 86
86 186 86
86 186 86
86 186 86
86 186 86
86 186 86
86 186 86
86 186 86
86 186 86
86 186 86
0 0 0
0 0 0
0 0 0
0 0 0
0 0 0
0 0 0
0 0 0
0 0 0
0 0 0
0 0 0
0 0 0
0 0 0
0 0 0
0 0 0
0 0 0
0 0 0
0 0 0
0 0 0
0 0 0
0 0 0
0 0 0
0 0 0
0 0 0
0 0 0
0 0 0
0 0 0
0 0 0
0 0 0
0 0 0
0 0 0
0 0 0
0 0 0
0 0 0
0 0 0
0 0 0
0 0 0
0 0 0
0 0 0
0 0 0
0 0 0
0 0 0
0 0 0
0 0 0
0 0 0
0 0 0
0 0 0
0 0 0
0 0 0
186 86 86
186 86 86
186 86 86
186 86 86
186 86 86
186 86 86
186 86 86
186 86 86
186 86 86
186 86 86
186 86 86
186 86 86
186 86 86
186 86 86
186 86 86
186 86 86
186 86 86
186 86 86
186 86 86
186 86 86
186 86 86
186 86 86
186 86 86
186 86 86
186 86 86
186 86 86
186 86 86
186 86 86
186 86 86
186 86 86
186 86 86
186 86 86
186 86 86
186 86 86
186 86 86
186 86 86
186 86 86
186 86 86
186 86 86
186 86 86
186 86 86
186 86 86
186 86 86
186 86 86
186 86 86
186 86 86
186 86 86
186 86 86
186 86 86
186 86 86
186 86 86
186 86 86
186 86 86
186 86 86
186 86 86
186 86 86
186 86 86
186 86 86
186 86 86
186 86 86
186 86 86
186 86 86
186 86 86
186 86 86
186 86 86
186 86 86
186 86 86
186 86 86
186 86 86
186 86 86
186 86 86
186 86 86
186 86 86
186 86 86
186 86 86
186 86 86
186 86 86
186 86 86
186 86 86
186 86 86
186 86 86
186 86 86
186 86 86
186 86 86
186 86 86
186 86 86
186 86 86
186 86 86
186 86 86
186 86 86
186 86 86
186 86 86
186 86 86
186 86 86
186 86 86
186 86 86
0 0 0
0 0 0
0 0 0
0 0 0
0 0 0
0 0 0
0 0 0
0 0 0
0 0 0
0 0 0
0 0 0
0 0 0
0 0 0
0 0 0
0 0 0
0 0 0
86 186 86
86 186 86
86 186 86
86 186 86
86 186 86
86 186 86
86 186 86
86 186 86
86 186 86
86 186 86
86 186 86
86 186 86
86 186 86
86 186 86
86 186 86
86 186 86
86 186 86
86 186 86
86 186 86
86 186 86
86 186 86
86 186 86
86 186 86
86 186 86
86 186 86
86 186 86
86 186 86
86 186 86
86 186 86
86 186 86
86 186 86
86 186 86
86 186 86
86 186 86
86 186 86
86 186 86
86 186 86
86 186 86
86 186 86
86 186 86
86 186 86
86 186 86
86 186 86
86 186 86
86 186 86
86 186 86
86 186 86
86 186 86
86 186 86
86 186 86
86 186 86
86 186 86
86 186 86
86 186 86
86 186 86
86 186 86
86 186 86
86 186 86
86 186 86
86 186 86
86 186 86
86 186 86
86 186 86
86 186 86
86 186 86
86 186 86
86 186 86
86 186 86
86 186 86
86 186 86
86 186 86
86 186 86
86 186 86
86 186 86
86 186 86
86 186 86
86 186 86
86 186 86
86 186 86
86 186 86
86 186 86
86 186 86
86 186 86
86 186 86
86 186 86
86 186 86
86 186 86
86 186 86
86 186 86
86 186 86
86 186 86
86 186 86
86 186 86
86 186 86
86 186 86
86 186 86
0 0 0
0 0 0
0 0 0
0 0 0
0 0 0
0 0 0
0 0 0
0 0 0
0 0 0
0 0 0
0 0 0
0 0 0
0 0 0
0 0 0
0 0 0
0 0 0
0 0 0
0 0 0
0 0 0
0 0 0
0 0 0
0 0 0
0 0 0
0 0 0
0 0 0
0 0 0
0 0 0
0 0 0
0 0 0
0 0 0
0 0 0
0 0 0
0 0 0
0 0 0
0 0 0
0 0 0
0 0 0
0 0 0
0 0 0
0 0 0
0 0 0
0 0 0
0 0 0
0 0 0
0 0 0
0 0 0
0 0 0
0 0 0
186 86 86
186 86 86
186 86 86
186 86 86
186 86 86
186 86 86
186 86 86
186 86 86
186 86 86
186 86 86
186 86 86
186 86 86
186 86 86
186 86 86
186 86 86
186 86 86
186 86 86
186 86 86
186 86 86
186 86 86
186 86 86
186 86 86
186 86 86
186 86 86
186 86 86
186 86 86
186 86 86
186 86 86
186 86 86
186 86 86
186 86 86
186 86 86
186 86 86
186 86 86
186 86 86
186 86 86
186 86 86
186 86 86
186 86 86
186 86 86
186 86 86
186 86 86
186 86 86
186 86 86
186 86 86
186 86 86
186 86 86
186 86 86
186 86 86
186 86 86
186 86 86
186 86 86
186 86 86
186 86 86
186 86 86
186 86 86
186 86 86
186 86 86
186 86 86
186 86 86
186 86 86
186 86 86
186 86 86
186 86 86
186 86 86
186 86 86
186 86 86
186 86 86
186 86 86
186 86 86
186 86 86
186 86 86
186 86 86
186 86 86
186 86 86
186 86 86
186 86 86
186 86 86
186 86 86
186 86 86
186 86 86
186 86 86
186 86 86
186 86 86
186 86 86
186 86 86
186 86 86
186 86 86
186 86 86
186 86 86
186 86 86
186 86 86
186 86 86
186 86 86
186 86 86
186 86 86
0 0 0
0 0 0
0 0 0
0 0 0
0 0 0
0 0 0
0 0 0
0 0 0
0 0 0
0 0 0
0 0 0
0 0 0
0 0 0
0 0 0
0 0 0
0 0 0
86 186 86
86 186 86
86 186 86
86 186 86
86 186 86
86 186 86
86 186 86
86 186 86
86 186 86
86 186 86
86 186 86
86 186 86
86 186 86
86 186 86
86 186 86
86 186 86
86 186 86
86 186 86
86 186 86
86 186 86
86 186 86
86 186 86
86 186 86
86 186 86
86 186 86
86 186 86
86 186 86
86 186 86
86 186 86
86 186 86
86 186 86
86 186 86
86 186 86
86 186 86
86 186 86
86 186 86
86 186 86
86 186 86
86 186 86
86 186 86
86 186 86
86 186 86
86 186 86
86 186 86
86 186 86
86 186 86
86 186 86
86 186 86
86 186 86
86 186 86
86 186 86
86 186 86
86 186 86
86 186 86
86 186 86
86 186 86
86 186 86
86 186 86
86 186 86
86 186 86
86 186 86
86 186 86
86 186 86
86 186 86
86 186 86
86 186 86
86 186 86
86 186 86
86 186 86
86 186 86
86 186 86
86 186 86
86 186 86
86 186 86
86 186 86
86 186 86
86 186 86
86 186 86
86 186 86
86 186 86
86 186 86
86 186 86
86 186 86
86 186 86
86 186 86
86 186 86
86 186 86
86 186 86
86 186 86
86 186 86
86 186 86
86 186 86
86 186 86
86 186 86
86 186 86
86 186 86
0 0 0
0 0 0
0 0 0
0 0 0
0 0 0
0 0 0
0 0 0
0 0 0
0 0 0
0 0 0
0 0 0
0 0 0
0 0 0
0 0 0
0 0 0
0 0 0
0 0 0
0 0 0
0 0 0
0 0 0
0 0 0
0 0 0
0 0 0
0 0 0
0 0 0
0 0 0
0 0 0
0 0 0
0 0 0
0 0 0
0 0 0
0 0 0
0 0 0
0 0 0
0 0 0
0 0 0
0 0 0
0 0 0
0 0 0
0 0 0
0 0 0
0 0 0
0 0 0
0 0 0
0 0 0
0 0 0
0 0 0
0 0 0
186 86 86
186 86 86
186 86 86
186 86 86
186 86 86
186 86 86
186 86 86
186 86 86
186 86 86
186 86 86
186 86 86
186 86 86
186 86 86
186 86 86
186 86 86
186 86 86
186 86 86
186 86 86
186 86 86
186 86 86
186 86 86
186 86 86
186 86 86
186 86 86
186 86 86
186 86 86
186 86 86
186 86 86
186 86 86
186 86 86
186 86 86
186 86 86
186 86 86
186 86 86
186 86 86
186 86 86
186 86 86
186 86 86
186 86 86
186 86 86
186 86 86
186 86 86
186 86 86
186 86 86
186 86 86
186 86 86
186 86 86
186 86 86
186 86 86
186 86 86
186 86 86
186 86 86
186 86 86
186 86 86
186 86 86
186 86 86
186 86 86
186 86 86
186 86 86
186 86 86
186 86 86
186 86 86
186 86 86
186 86 86
186 86 86
186 86 86
186 86 86
186 86 86
186 86 86
186 86 86
186 86 86
186 86 86
186 86 86
186 86 86
186 86 86
186 86 86
186 86 86
186 86 86
186 86 86
186 86 86
186 86 86
186 86 86
186 86 86
186 86 86
186 86 86
186 86 86
186 86 86
186 86 86
186 86 86
186 86 86
186 86 86
186 86 86
186 86 86
186 86 86
186 86 86
186 86 86
0 0 0
0 0 0
0 0 0
0 0 0
0 0 0
0 0 0
0 0 0
0 0 0
0 0 0
0 0 0
0 0 0
0 0 0
0 0 0
0 0 0
0 0 0
0 0 0
86 186 86
86 186 86
86 186 86
86 186 86
86 186 86
86 186 86
86 186 86
86 186 86
86 186 86
86 186 86
86 186 86
86 186 86
86 186 86
86 186 86
86 186 86
86 186 86
86 186 86
86 186 86
86 186 86
86 186 86
86 186 86
86 186 86
86 186 86
86 186 86
86 186 86
86 186 86
86 186 86
86 186 86
86 186 86
86 186 86
86 186 86
86 186 86
86 186 86
86 186 86
86 186 86
86 186 86
86 186 86
86 186 86
86 186 86
86 186 86
86 186 86
86 186 86
86 186 86
86 186 86
86 186 86
86 186 86
86 186 86
86 186 86
86 186 86
86 186 86
86 186 86
86 186 86
86 186 86
86 186 86
86 186 86
86 186 86
86 186 86
86 186 86
86 186 86
86 186 86
86 186 86
86 186 86
86 186 86
86 186 86
86 186 86
86 186 86
86 186 86
86 186 86
86 186 86
86 186 86
86 186 86
86 186 86
86 186 86
86 186 86
86 186 86
86 186 86
86 186 86
86 186 86
86 186 86
86 186 86
86 186 86
86 186 86
86 186 86
86 186 86
86 186 86
86 186 86
86 186 86
86 186 86
86 186 86
86 186 86
86 186 86
86 186 86
86 186 86
86 186 86
86 186 86
86 186 86
0 0 0
0 0 0
0 0 0
0 0 0
0 0 0
0 0 0
0 0 0
0 0 0
0 0 0
0 0 0
0 0 0
0 0 0
0 0 0
0 0 0
0 0 0
0 0 0
0 0 0
0 0 0
0 0 0
0 0 0
0 0 0
0 0 0
0 0 0
0 0 0
0 0 0
0 0 0
0 0 0
0 0 0
0 0 0
0 0 0
0 0 0
0 0 0
0 0 0
0 0 0
0 0 0
0 0 0
0 0 0
0 0 0
0 0 0
0 0 0
0 0 0
0 0 0
0 0 0
0 0 0
0 0 0
0 0 0
0 0 0
0 0 0
186 86 86
186 86 86
186 86 86
186 86 86
186 86 86
186 86 86
186 86 86
186 86 86
186 86 86
186 86 86
186 86 86
186 86 86
186 86 86
186 86 86
186 86 86
186 86 86
186 86 86
186 86 86
186 86 86
186 86 86
186 86 86
186 86 86
186 86 86
186 86 86
186 86 86
186 86 86
186 86 86
186 86 86
186 86 86
186 86 86
186 86 86
186 86 86
186 86 86
186 86 86
186 86 86
186 86 86
186 86 86
186 86 86
186 86 86
186 86 86
186 86 86
186 86 86
186 86 86
186 86 86
186 86 86
186 86 86
186 86 86
186 86 86
186 86 86
186 86 86
186 86 86
186 86 86
186 86 86
186 86 86
186 86 86
186 86 86
186 86 86
186 86 86
186 86 86
186 86 86
186 86 86
186 86 86
186 86 86
186 86 86
186 86 86
186 86 86
186 86 86
186 86 86
186 86 86
186 86 86
186 86 86
186 86 86
186 86 86
186 86 86
186 86 86
186 86 86
186 86 86
186 86 86
186 86 86
186 86 86
186 86 86
186 86 86
186 86 86
186 86 86
186 86 86
186 86 86
186 86 86
186 86 86
186 86 86
186 86 86
186 86 86
186 86 86
186 86 86
186 86 86
186 86 86
186 86 86
0 0 0
0 0 0
0 0 0
0 0 0
0 0 0
0 0 0
0 0 0
0 0 0
0 0 0
0 0 0
0 0 0
0 0 0
0 0 0
0 0 0
0 0 0
0 0 0
86 186 86
86 186 86
86 186 86
86 186 86
86 186 86
86 186 86
86 186 86
86 186 86
86 186 86
86 186 86
86 186 86
86 186 86
86 186 86
86 186 86
86 186 86
86 186 86
86 186 86
86 186 86
86 186 86
86 186 86
86 186 86
86 186 86
86 186 86
86 186 86
86 186 86
86 186 86
86 186 86
86 186 86
86 186 86
86 186 86
86 186 86
86 186 86
86 186 86
86 186 86
86 186 86
86 186 86
86 186 86
86 186 86
86 186 86
86 186 86
86 186 86
86 186 86
86 186 86
86 186 86
86 186 86
86 186 86
86 186 86
86 186 86
86 186 86
86 186 86
86 186 86
86 186 86
86 186 86
86 186 86
86 186 86
86 186 86
86 186 86
86 186 86
86 186 86
86 186 86
86 186 86
86 186 86
86 186 86
86 186 86
86 186 86
86 186 86
86 186 86
86 186 86
86 186 86
86 186 86
86 186 86
86 186 86
86 186 86
86 186 86
86 186 86
86 186 86
86 186 86
86 186 86
86 186 86
86 186 86
86 186 86
86 186 86
86 186 86
86 186 86
86 186 86
86 186 86
86 186 86
86 186 86
86 186 86
86 186 86
86 186 86
86 186 86
86 186 86
86 186 86
86 186 86
86 186 86
0 0 0
0 0 0
0 0 0
0 0 0
0 0 0
0 0 0
0 0 0
0 0 0
0 0 0
0 0 0
0 0 0
0 0 0
0 0 0
0 0 0
0 0 0
0 0 0
0 0 0
0 0 0
0 0 0
0 0 0
0 0 0
0 0 0
0 0 0
0 0 0
0 0 0
0 0 0
0 0 0
0 0 0
0 0 0
0 0 0
0 0 0
0 0 0
0 0 0
0 0 0
0 0 0
0 0 0
0 0 0
0 0 0
0 0 0
0 0 0
0 0 0
0 0 0
0 0 0
0 0 0
0 0 0
0 0 0
0 0 0
0 0 0
186 86 86
186 86 86
186 86 86
186 86 86
186 86 86
186 86 86
186 86 86
186 86 86
186 86 86
186 86 86
186 86 86
186 86 86
186 86 86
186 86 86
186 86 86
186 86 86
186 86 86
186 86 86
186 86 86
186 86 86
186 86 86
186 86 86
186 86 86
186 86 86
186 86 86
186 86 86
186 86 86
186 86 86
186 86 86
186 86 86
186 86 86
186 86 86
186 86 86
186 86 86
186 86 86
186 86 86
186 86 86
186 86 86
186 86 86
186 86 86
186 86 86
186 86 86
186 86 86
186 86 86
186 86 86
186 86 86
186 86 86
186 86 86
186 86 86
186 86 86
186 86 86
186 86 86
186 86 86
186 86 86
186 86 86
186 86 86
186 86 86
186 86 86
186 86 86
186 86 86
186 86 86
186 86 86
186 86 86
186 86 86
186 86 86
186 86 86
186 86 86
186 86 86
186 86 86
186 86 86
186 86 86
186 86 86
186 86 86
186 86 86
186 86 86
186 86 86
186 86 86
186 86 86
186 86 86
186 86 86
186 86 86
186 86 86
186 86 86
186 86 86
186 86 86
186 86 86
186 86 86
186 86 86
186 86 86
186 86 86
186 86 86
186 86 86
186 86 86
186 86 86
186 86 86
186 86 86
0 0 0
0 0 0
0 0 0
0 0 0
0 0 0
0 0 0
0 0 0
0 0 0
0 0 0
0 0 0
0 0 0
0 0 0
0 0 0
0 0 0
0 0 0
0 0 0
86 186 86
86 186 86
86 186 86
86 186 86
86 186 86
86 186 86
86 186 86
86 186 86
86 186 86
86 186 86
86 186 86
86 186 86
86 186 86
86 186 86
86 186 86
86 186 86
86 186 86
86 186 86
86 186 86
86 186 86
86 186 86
86 186 86
86 186 86
86 186 86
86 186 86
86 186 86
86 186 86
86 186 86
86 186 86
86 186 86
86 186 86
86 186 86
86 186 86
86 186 86
86 186 86
86 186 86
86 186 86
86 186 86
86 186 86
86 186 86
86 186 86
86 186 86
86 186 86
86 186 86
86 186 86
86 186 86
86 186 86
86 186 86
86 186 86
86 186 86
86 186 86
86 186 86
86 186 86
86 186 86
86 186 86
86 186 86
86 186 86
86 186 86
86 186 86
86 186 86
86 186 86
86 186 86
86 186 86
86 186 86
86 186 86
86 186 86
86 186 86
86 186 86
86 186 86
86 186 86
86 186 86
86 186 86
86 186 86
86 186 86
86 186 86
86 186 86
86 186 86
86 186 86
86 186 86
86 186 86
86 186 86
86 186 86
86 186 86
86 186 86
86 186 86
86 186 86
86 186 86
86 186 86
86 186 86
86 186 86
86 186 86
86 186 86
86 186 86
86 186 86
86 186 86
86 186 86
0 0 0
0 0 0
0 0 0
0 0 0
0 0 0
0 0 0
0 0 0
0 0 0
0 0 0
0 0 0
0 0 0
0 0 0
0 0 0
0 0 0
0 0 0
0 0 0
0 0 0
0 0 0
0 0 0
0 0 0
0 0 0
0 0 0
0 0 0
0 0 0
0 0 0
0 0 0
0 0 0
0 0 0
0 0 0
0 0 0
0 0 0
0 0 0
0 0 0
0 0 0
0 0 0
0 0 0
0 0 0
0 0 0
0 0 0
0 0 0
0 0 0
0 0 0
0 0 0
0 0 0
0 0 0
0 0 0
0 0 0
0 0 0
186 86 86
186 86 86
186 86 86
186 86 86
186 86 86
186 86 86
186 86 86
186 86 86
186 86 86
186 86 86
186 86 86
186 86 86
186 86 86
186 86 86
186 86 86
186 86 86
186 86 86
186 86 86
186 86 86
186 86 86
186 86 86
186 86 86
186 86 86
186 86 86
186 86 86
186 86 86
186 86 86
186 86 86
186 86 86
186 86 86
186 86 86
186 86 86
186 86 86
186 86 86
186 86 86
186 86 86
186 86 86
186 86 86
186 86 86
186 86 86
186 86 86
186 86 86
186 86 86
186 86 86
186 86 86
186 86 86
186 86 86
186 86 86
186 86 86
186 86 86
186 86 86
186 86 86
186 86 86
186 86 86
186 86 86
186 86 86
186 86 86
186 86 86
186 86 86
186 86 86
186 86 86
186 86 86
186 86 86
186 86 86
186 86 86
186 86 86
186 86 86
186 86 86
186 86 86
186 86 86
186 86 86
186 86 86
186 86 86
186 86 86
186 86 86
186 86 86
186 86 86
186 86 86
186 86 86
186 86 86
186 86 86
186 86 86
186 86 86
186 86 86
186 86 86
186 86 86
186 86 86
186 86 86
186 86 86
186 86 86
186 86 86
186 86 86
186 86 86
186 86 86
186 86 86
186 86 86
0 0 0
0 0 0
0 0 0
0 0 0
0 0 0
0 0 0
0 0 0
0 0 0
0 0 0
0 0 0
0 0 0
0 0 0
0 0 0
0 0 0
0 0 0
0 0 0
86 186 86
86 186 86
86 186 86
86 186 86
86 186 86
86 186 86
86 186 86
86 186 86
86 186 86
86 186 86
86 186 86
86 186 86
86 186 86
86 186 86
86 186 86
86 186 86
86 186 86
86 186 86
86 186 86
86 186 86
86 186 86
86 186 86
86 186 86
86 186 86
86 186 86
86 186 86
86 186 86
86 186 86
86 186 86
86 186 86
86 186 86
86 186 86
86 186 86
86 186 86
86 186 86
86 186 86
86 186 86
86 186 86
86 186 86
86 186 86
86 186 86
86 186 86
86 186 86
86 186 86
86 186 86
86 186 86
86 186 86
86 186 86
86 186 86
86 186 86
86 186 86
86 186 86
86 186 86
86 186 86
86 186 86
86 186 86
86 186 86
86 186 86
86 186 86
86 186 86
86 186 86
86 186 86
86 186 86
86 186 86
86 186 86
86 186 86
86 186 86
86 186 86
86 186 86
86 186 86
86 186 86
86 186 86
86 186 86
86 186 86
86 186 86
86 186 86
86 186 86
86 186 86
86 186 86
86 186 86
86 186 86
86 186 86
86 186 86
86 186 86
86 186 86
86 186 86
86 186 86
86 186 86
86 186 86
86 186 86
86 186 86
86 186 86
86 186 86
86 186 86
86 186 86
86 186 86
0 0 0
0 0 0
0 0 0
0 0 0
0 0 0
0 0 0
0 0 0
0 0 0
0 0 0
0 0 0
0 0 0
0 0 0
0 0 0
0 0 0
0 0 0
0 0 0
0 0 0
0 0 0
0 0 0
0 0 0
0 0 0
0 0 0
0 0 0
0 0 0
0 0 0
0 0 0
0 0 0
0 0 0
0 0 0
0 0 0
0 0 0
0 0 0
0 0 0
0 0 0
0 0 0
0 0 0
0 0 0
0 0 0
0 0 0
0 0 0
0 0 0
0 0 0
0 0 0
0 0 0
0 0 0
0 0 0
0 0 0
0 0 0
186 86 86
186 86 86
186 86 86
186 86 86
186 86 86
186 86 86
186 86 86
186 86 86
186 86 86
186 86 86
186 86 86
186 86 86
186 86 86
186 86 86
186 86 86
186 86 86
186 86 86
186 86 86
186 86 86
186 86 86
186 86 86
186 86 86
186 86 86
186 86 86
186 86 86
186 86 86
186 86 86
186 86 86
186 86 86
186 86 86
186 86 86
186 86 86
186 86 86
186 86 86
186 86 86
186 86 86
186 86 86
186 86 86
186 86 86
186 86 86
186 86 86
186 86 86
186 86 86
186 86 86
186 86 86
186 86 86
186 86 86
186 86 86
186 86 86
186 86 86
186 86 86
186 86 86
186 86 86
186 86 86
186 86 86
186 86 86
186 86 86
186 86 86
186 86 86
186 86 86
186 86 86
186 86 86
186 86 86
186 86 86
186 86 86
186 86 86
186 86 86
186 86 86
186 86 86
186 86 86
186 86 86
186 86 86
186 86 86
186 86 86
186 86 86
186 86 86
186 86 86
186 86 86
186 86 86
186 86 86
186 86 86
186 86 86
186 86 86
186 86 86
186 86 86
186 86 86
186 86 86
186 86 86
186 86 86
186 86 86
186 86 86
186 86 86
186 86 86
186 86 86
186 86 86
186 86 86
0 0 0
0 0 0
0 0 0
0 0 0
0 0 0
0 0 0
0 0 0
0 0 0
0 0 0
0 0 0
0 0 0
0 0 0
0 0 0
0 0 0
0 0 0
0 0 0
86 186 86
86 186 86
86 186 86
86 186 86
86 186 86
86 186 86
86 186 86
86 186 86
86 186 86
86 186 86
86 186 86
86 186 86
86 186 86
86 186 86
86 186 86
86 186 86
86 186 86
86 186 86
86 186 86
86 186 86
86 186 86
86 186 86
86 186 86
86 186 86
86 186 86
86 186 86
86 186 86
86 186 86
86 186 86
86 186 86
86 186 86
86 186 86
86 186 86
86 186 86
86 186 86
86 186 86
86 186 86
86 186 86
86 186 86
86 186 86
86 186 86
86 186 86
86 186 86
86 186 86
86 186 86
86 186 86
86 186 86
86 186 86
86 186 86
86 186 86
86 186 86
86 186 86
86 186 86
86 186 86
86 186 86
86 186 86
86 186 86
86 186 86
86 186 86
86 186 86
86 186 86
86 186 86
86 186 86
86 186 86
86 186 86
86 186 86
86 186 86
86 186 86
86 186 86
86 186 86
86 186 86
86 186 86
86 186 86
86 186 86
86 186 86
86 186 86
86 186 86
86 186 86
86 186 86
86 186 86
86 186 86
86 186 86
86 186 86
86 186 86
86 186 86
86 186 86
86 186 86
86 186 86
86 186 86
86 186 86
86 186 86
86 186 86
86 186 86
86 186 86
86 186 86
86 186 86
0 0 0
0 0 0
0 0 0
0 0 0
0 0 0
0 0 0
0 0 0
0 0 0
0 0 0
0 0 0
0 0 0
0 0 0
0 0 0
0 0 0
0 0 0
0 0 0
0 0 0
0 0 0
0 0 0
0 0 0
0 0 0
0 0 0
0 0 0
0 0 0
0 0 0
0 0 0
0 0 0
0 0 0
0 0 0
0 0 0
0 0 0
0 0 0
0 0 0
0 0 0
0 0 0
0 0 0
0 0 0
0 0 0
0 0 0
0 0 0
0 0 0
0 0 0
0 0 0
0 0 0
0 0 0
0 0 0
0 0 0
0 0 0
186 86 86
186 86 86
186 86 86
186 86 86
186 86 86
186 86 86
186 86 86
186 86 86
186 86 86
186 86 86
186 86 86
186 86 86
186 86 86
186 86 86
186 86 86
186 86 86
186 86 86
186 86 86
186 86 86
186 86 86
186 86 86
186 86 86
186 86 86
186 86 86
186 86 86
186 86 86
186 86 86
186 86 86
186 86 86
186 86 86
186 86 86
186 86 86
186 86 86
186 86 86
186 86 86
186 86 86
186 86 86
186 86 86
186 86 86
186 86 86
186 86 86
186 86 86
186 86 86
186 86 86
186 86 86
186 86 86
186 86 86
186 86 86
186 86 86
186 86 86
186 86 86
186 86 86
186 86 86
186 86 86
186 86 86
186 86 86
186 86 86
186 86 86
186 86 86
186 86 86
186 86 86
186 86 86
186 86 86
186 86 86
186 86 86
186 86 86
186 86 86
186 86 86
186 86 86
186 86 86
186 86 86
186 86 86
186 86 86
186 86 86
186 86 86
186 86 86
186 86 86
186 86 86
186 86 86
186 86 86
186 86 86
186 86 86
186 86 86
186 86 86
186 86 86
186 86 86
186 86 86
186 86 86
186 86 86
186 86 86
186 86 86
186 86 86
186 86 86
186 86 86
186 86 86
186 86 86
0 0 0
0 0 0
0 0 0
0 0 0
0 0 0
0 0 0
0 0 0
0 0 0
0 0 0
0 0 0
0 0 0
0 0 0
0 0 0
0 0 0
0 0 0
0 0 0
86 186 86
86 186 86
86 186 86
86 186 86
86 186 86
86 186 86
86 186 86
86 186 86
86 186 86
86 186 86
86 186 86
86 186 86
86 186 86
86 186 86
86 186 86
86 186 86
86 186 86
86 186 86
86 186 86
86 186 86
86 186 86
86 186 86
86 186 86
86 186 86
86 186 86
86 186 86
86 186 86
86 186 86
86 186 86
86 186 86
86 186 86
86 186 86
86 186 86
86 186 86
86 186 86
86 186 86
86 186 86
86 186 86
86 186 86
86 186 86
86 186 86
86 186 86
86 186 86
86 186 86
86 186 86
86 186 86
86 186 86
86 186 86
86 186 86
86 186 86
86 186 86
86 186 86
86 186 86
86 186 86
86 186 86
86 186 86
86 186 86
86 186 86
86 186 86
86 186 86
86 186 86
86 186 86
86 186 86
86 186 86
86 186 86
86 186 86
86 186 86
86 186 86
86 186 86
86 186 86
86 186 86
86 186 86
86 186 86
86 186 86
86 186 86
86 186 86
86 186 86
86 186 86
86 186 86
86 186 86
86 186 86
86 186 86
86 186 86
86 186 86
86 186 86
86 186 86
86 186 86
86 186 86
86 186 86
86 186 86
86 186 86
86 186 86
86 186 86
86 186 86
86 186 86
86 186 86
0 0 0
0 0 0
0 0 0
0 0 0
0 0 0
0 0 0
0 0 0
0 0 0
0 0 0
0 0 0
0 0 0
0 0 0
0 0 0
0 0 0
0 0 0
0 0 0
0 0 0
0 0 0
0 0 0
0 0 0
0 0 0
0 0 0
0 0 0
0 0 0
0 0 0
0 0 0
0 0 0
0 0 0
0 0 0
0 0 0
0 0 0
0 0 0
0 0 0
0 0 0
0 0 0
0 0 0
0 0 0
0 0 0
0 0 0
0 0 0
0 0 0
0 0 0
0 0 0
0 0 0
0 0 0
0 0 0
0 0 0
0 0 0
186 86 86
186 86 86
186 86 86
186 86 86
186 86 86
186 86 86
186 86 86
186 86 86
186 86 86
186 86 86
186 86 86
186 86 86
186 86 86
186 86 86
186 86 86
186 86 86
186 86 86
186 86 86
186 86 86
186 86 86
186 86 86
186 86 86
186 86 86
186 86 86
186 86 86
186 86 86
186 86 86
186 86 86
186 86 86
186 86 86
186 86 86
186 86 86
186 86 86
186 86 86
186 86 86
186 86 86
186 86 86
186 86 86
186 86 86
186 86 86
186 86 86
186 86 86
186 86 86
186 86 86
186 86 86
186 86 86
186 86 86
186 86 86
186 86 86
186 86 86
186 86 86
186 86 86
186 86 86
186 86 86
186 86 86
186 86 86
186 86 86
186 86 86
186 86 86
186 86 86
186 86 86
186 86 86
186 86 86
186 86 86
186 86 86
186 86 86
186 86 86
186 86 86
186 86 86
186 86 86
186 86 86
186 86 86
186 86 86
186 86 86
186 86 86
186 86 86
186 86 86
186 86 86
186 86 86
186 86 86
186 86 86
186 86 86
186 86 86
186 86 86
186 86 86
186 86 86
186 86 86
186 86 86
186 86 86
186 86 86
186 86 86
186 86 86
186 86 86
186 86 86
186 86 86
186 86 86
0 0 0
0 0 0
0 0 0
0 0 0
0 0 0
0 0 0
0 0 0
0 0 0
0 0 0
0 0 0
0 0 0
0 0 0
0 0 0
0 0 0
0 0 0
0 0 0
86 186 86
86 186 86
86 186 86
86 186 86
86 186 86
86 186 86
86 186 86
86 186 86
86 186 86
86 186 86
86 186 86
86 186 86
86 186 86
86 186 86
86 186 86
86 186 86
86 186 86
86 186 86
86 186 86
86 186 86
86 186 86
86 186 86
86 186 86
86 186 86
86 186 86
86 186 86
86 186 86
86 186 86
86 186 86
86 186 86
86 186 86
86 186 86
86 186 86
86 186 86
86 186 86
86 186 86
86 186 86
86 186 86
86 186 86
86 186 86
86 186 86
86 186 86
86 186 86
86 186 86
86 186 86
86 186 86
86 186 86
86 186 86
86 186 86
86 186 86
86 186 86
86 186 86
86 186 86
86 186 86
86 186 86
86 186 86
86 186 86
86 186 86
86 186 86
86 186 86
86 186 86
86 186 86
86 186 86
86 186 86
86 186 86
86 186 86
86 186 86
86 186 86
86 186 86
86 186 86
86 186 86
86 186 86
86 186 86
86 186 86
86 186 86
86 186 86
86 186 86
86 186 86
86 186 86
86 186 86
86 186 86
86 186 86
86 186 86
86 186 86
86 186 86
86 186 86
86 186 86
86 186 86
86 186 86
86 186 86
86 186 86
86 186 86
86 186 86
86 186 86
86 186 86
86 186 86
0 0 0
0 0 0
0 0 0
0 0 0
0 0 0
0 0 0
0 0 0
0 0 0
0 0 0
0 0 0
0 0 0
0 0 0
0 0 0
0 0 0
0 0 0
0 0 0
0 0 0
0 0 0
0 0 0
0 0 0
0 0 0
0 0 0
0 0 0
0 0 0
0 0 0
0 0 0
0 0 0
0 0 0
0 0 0
0 0 0
0 0 0
0 0 0
0 0 0
0 0 0
0 0 0
0 0 0
0 0 0
0 0 0
0 0 0
0 0 0
0 0 0
0 0 0
0 0 0
0 0 0
0 0 0
0 0 0
0 0 0
0 0 0
186 86 86
186 86 86
186 86 86
186 86 86
186 86 86
186 86 86
186 86 86
186 86 86
186 86 86
186 86 86
186 86 86
186 86 86
186 86 86
186 86 86
186 86 86
186 86 86
186 86 86
186 86 86
186 86 86
186 86 86
186 86 86
186 86 86
186 86 86
186 86 86
186 86 86
186 86 86
186 86 86
186 86 86
186 86 86
186 86 86
186 86 86
186 86 86
186 86 86
186 86 86
186 86 86
186 86 86
186 86 86
186 86 86
186 86 86
186 86 86
186 86 86
186 86 86
186 86 86
186 86 86
186 86 86
186 86 86
186 86 86
186 86 86
186 86 86
186 86 86
186 86 86
186 86 86
186 86 86
186 86 86
186 86 86
186 86 86
186 86 86
186 86 86
186 86 86
186 86 86
186 86 86
186 86 86
186 86 86
186 86 86
186 86 86
186 86 86
186 86 86
186 86 86
186 86 86
186 86 86
186 86 86
186 86 86
186 86 86
186 86 86
186 86 86
186 86 86
186 86 86
186 86 86
186 86 86
186 86 86
186 86 86
186 86 86
186 86 86
186 86 86
186 86 86
186 86 86
186 86 86
186 86 86
186 86 86
186 86 86
186 86 86
186 86 86
186 86 86
186 86 86
186 86 86
186 86 86
0 0 0
0 0 0
0 0 0
0 0 0
0 0 0
0 0 0
0 0 0
0 0 0
0 0 0
0 0 0
0 0 0
0 0 0
0 0 0
0 0 0
0 0 0
0 0 0
86 186 86
86 186 86
86 186 86
86 186 86
86 186 86
86 186 86
86 186 86
86 186 86
86 186 86
86 186 86
86 186 86
86 186 86
86 186 86
86 186 86
86 186 86
86 186 86
86 186 86
86 186 86
86 186 86
86 186 86
86 186 86
86 186 86
86 186 86
86 186 86
86 186 86
86 186 86
86 186 86
86 186 86
86 186 86
86 186 86
86 186 86
86 186 86
86 186 86
86 186 86
86 186 86
86 186 86
86 186 86
86 186 86
86 186 86
86 186 86
86 186 86
86 186 86
86 186 86
86 186 86
86 186 86
86 186 86
86 186 86
86 186 86
86 186 86
86 186 86
86 186 86
86 186 86
86 186 86
86 186 86
86 186 86
86 186 86
86 186 86
86 186 86
86 186 86
86 186 86
86 186 86
86 186 86
86 186 86
86 186 86
86 186 86
86 186 86
86 186 86
86 186 86
86 186 86
86 186 86
86 186 86
86 186 86
86 186 86
86 186 86
86 186 86
86 186 86
86 186 86
86 186 86
86 186 86
86 186 86
86 186 86
86 186 86
86 186 86
86 186 86
86 186 86
86 186 86
86 186 86
86 186 86
86 186 86
86 186 86
86 186 86
86 186 86
86 186 86
86 186 86
86 186 86
86 186 86
0 0 0
0 0 0
0 0 0
0 0 0
0 0 0
0 0 0
0 0 0
0 0 0
0 0 0
0 0 0
0 0 0
0 0 0
0 0 0
0 0 0
0 0 0
0 0 0
0 0 0
0 0 0
0 0 0
0 0 0
0 0 0
0 0 0
0 0 0
0 0 0
0 0 0
0 0 0
0 0 0
0 0 0
0 0 0
0 0 0
0 0 0
0 0 0
0 0 0
0 0 0
0 0 0
0 0 0
0 0 0
0 0 0
0 0 0
0 0 0
0 0 0
0 0 0
0 0 0
0 0 0
0 0 0
0 0 0
0 0 0
0 0 0
186 86 86
186 86 86
186 86 86
186 86 86
186 86 86
186 86 86
186 86 86
186 86 86
186 86 86
186 86 86
186 86 86
186 86 86
186 86 86
186 86 86
186 86 86
186 86 86
186 86 86
186 86 86
186 86 86
186 86 86
186 86 86
186 86 86
186 86 86
186 86 86
186 86 86
186 86 86
186 86 86
186 86 86
186 86 86
186 86 86
186 86 86
186 86 86
186 86 86
186 86 86
186 86 86
186 86 86
186 86 86
186 86 86
186 86 86
186 86 86
186 86 86
186 86 86
186 86 86
186 86 86
186 86 86
186 86 86
186 86 86
186 86 86
186 86 86
186 86 86
186 86 86
186 86 86
186 86 86
186 86 86
186 86 86
186 86 86
186 86 86
186 86 86
186 86 86
186 86 86
186 86 86
186 86 86
186 86 86
186 86 86
186 86 86
186 86 86
186 86 86
186 86 86
186 86 86
186 86 86
186 86 86
186 86 86
186 86 86
186 86 86
186 86 86
186 86 86
186 86 86
186 86 86
186 86 86
186 86 86
186 86 86
186 86 86
186 86 86
186 86 86
186 86 86
186 86 86
186 86 86
186 86 86
186 86 86
186 86 86
186 86 86
186 86 86
186 86 86
186 86 86
186 86 86
186 86 86
0 0 0
0 0 0
0 0 0
0 0 0
0 0 0
0 0 0
0 0 0
0 0 0
0 0 0
0 0 0
0 0 0
0 0 0
0 0 0
0 0 0
0 0 0
0 0 0
86 186 86
86 186 86
86 186 86
86 186 86
86 186 86
86 186 86
86 186 86
86 186 86
86 186 86
86 186 86
86 186 86
86 186 86
86 186 86
86 186 86
86 186 86
86 186 86
86 186 86
86 186 86
86 186 86
86 186 86
86 186 86
86 186 86
86 186 86
86 186 86
86 186 86
86 186 86
86 186 86
86 186 86
86 186 86
86 186 86
86 186 86
86 186 86
86 186 86
86 186 86
86 186 86
86 186 86
86 186 86
86 186 86
86 186 86
86 186 86
86 186 86
86 186 86
86 186 86
86 186 86
86 186 86
86 186 86
86 186 86
86 186 86
86 186 86
86 186 86
86 186 86
86 186 86
86 186 86
86 186 86
86 186 86
86 186 86
86 186 86
86 186 86
86 186 86
86 186 86
86 186 86
86 186 86
86 186 86
86 186 86
86 186 86
86 186 86
86 186 86
86 186 86
86 186 86
86 186 86
86 186 86
86 186 86
86 186 86
86 186 86
86 186 86
86 186 86
86 186 86
86 186 86
86 186 86
86 186 86
86 186 86
86 186 86
86 186 86
86 186 86
86 186 86
86 186 86
86 186 86
86 186 86
86 186 86
86 186 86
86 186 86
86 186 86
86 186 86
86 186 86
86 186 86
86 186 86
0 0 0
0 0 0
0 0 0
0 0 0
0 0 0
0 0 0
0 0 0
0 0 0
0 0 0
0 0 0
0 0 0
0 0 0
0 0 0
0 0 0
0 0 0
0 0 0
0 0 0
0 0 0
0 0 0
0 0 0
0 0 0
0 0 0
0 0 0
0 0 0
0 0 0
0 0 0
0 0 0
0 0 0
0 0 0
0 0 0
0 0 0
0 0 0
0 0 0
0 0 0
0 0 0
0 0 0
0 0 0
0 0 0
0 0 0
0 0 0
0 0 0
0 0 0
0 0 0
0 0 0
0 0 0
0 0 0
0 0 0
0 0 0
186 86 86
186 86 86
186 86 86
186 86 86
186 86 86
186 86 86
186 86 86
186 86 86
186 86 86
186 86 86
186 86 86
186 86 86
186 86 86
186 86 86
186 86 86
186 86 86
186 86 86
186 86 86
186 86 86
186 86 86
186 86 86
186 86 86
186 86 86
186 86 86
186 86 86
186 86 86
186 86 86
186 86 86
186 86 86
186 86 86
186 86 86
186 86 86
186 86 86
186 86 86
186 86 86
186 86 86
186 86 86
186 86 86
186 86 86
186 86 86
186 86 86
186 86 86
186 86 86
186 86 86
186 86 86
186 86 86
186 86 86
186 86 86
186 86 86
186 86 86
186 86 86
186 86 86
186 86 86
186 86 86
186 86 86
186 86 86
186 86 86
186 86 86
186 86 86
186 86 86
186 86 86
186 86 86
186 86 86
186 86 86
186 86 86
186 86 86
186 86 86
186 86 86
186 86 86
186 86 86
186 86 86
186 86 86
186 86 86
186 86 86
186 86 86
186 86 86
186 86 86
186 86 86
186 86 86
186 86 86
186 86 86
186 86 86
186 86 86
186 86 86
186 86 86
186 86 86
186 86 86
186 86 86
186 86 86
186 86 86
186 86 86
186 86 86
186 86 86
186 86 86
186 86 86
186 86 86
0 0 0
0 0 0
0 0 0
0 0 0
0 0 0
0 0 0
0 0 0
0 0 0
0 0 0
0 0 0
0 0 0
0 0 0
0 0 0
0 0 0
0 0 0
0 0 0
86 186 86
86 186 86
86 186 86
86 186 86
86 186 86
86 186 86
86 186 86
86 186 86
86 186 86
86 186 86
86 186 86
86 186 86
86 186 86
86 186 86
86 186 86
86 186 86
86 186 86
86 186 86
86 186 86
86 186 86
86 186 86
86 186 86
86 186 86
86 186 86
86 186 86
86 186 86
86 186 86
86 186 86
86 186 86
86 186 86
86 186 86
86 186 86
86 186 86
86 186 86
86 186 86
86 186 86
86 186 86
86 186 86
86 186 86
86 186 86
86 186 86
86 186 86
86 186 86
86 186 86
86 186 86
86 186 86
86 186 86
86 186 86
86 186 86
86 186 86
86 186 86
86 186 86
86 186 86
86 186 86
86 186 86
86 186 86
86 186 86
86 186 86
86 186 86
86 186 86
86 186 86
86 186 86
86 186 86
86 186 86
86 186 86
86 186 86
86 186 86
86 186 86
86 186 86
86 186 86
86 186 86
86 186 86
86 186 86
86 186 86
86 186 86
86 186 86
86 186 86
86 186 86
86 186 86
86 186 86
86 186 86
86 186 86
86 186 86
86 186 86
86 186 86
86 186 86
86 186 86
86 186 86
86 186 86
86 186 86
86 186 86
86 186 86
86 186 86
86 186 86
86 186 86
86 186 86
0 0 0
0 0 0
0 0 0
0 0 0
0 0 0
0 0 0
0 0 0
0 0 0
0 0 0
0 0 0
0 0 0
0 0 0
0 0 0
0 0 0
0 0 0
0 0 0
0 0 0
0 0 0
0 0 0
0 0 0
0 0 0
0 0 0
0 0 0
0 0 0
0 0 0
0 0 0
0 0 0
0 0 0
0 0 0
0 0 0
0 0 0
0 0 0
0 0 0
0 0 0
0 0 0
0 0 0
0 0 0
0 0 0
0 0 0
0 0 0
0 0 0
0 0 0
0 0 0
0 0 0
0 0 0
0 0 0
0 0 0
0 0 0
186 86 86
186 86 86
186 86 86
186 86 86
186 86 86
186 86 86
186 86 86
186 86 86
186 86 86
186 86 86
186 86 86
186 86 86
186 86 86
186 86 86
186 86 86
186 86 86
186 86 86
186 86 86
186 86 86
186 86 86
186 86 86
186 86 86
186 86 86
186 86 86
186 86 86
186 86 86
186 86 86
186 86 86
186 86 86
186 86 86
186 86 86
186 86 86
186 86 86
186 86 86
186 86 86
186 86 86
186 86 86
186 86 86
186 86 86
186 86 86
186 86 86
186 86 86
186 86 86
186 86 86
186 86 86
186 86 86
186 86 86
186 86 86
186 86 86
186 86 86
186 86 86
186 86 86
186 86 86
186 86 86
186 86 86
186 86 86
186 86 86
186 86 86
186 86 86
186 86 86
186 86 86
186 86 86
186 86 86
186 86 86
186 86 86
186 86 86
186 86 86
186 86 86
186 86 86
186 86 86
186 86 86
186 86 86
186 86 86
186 86 86
186 86 86
186 86 86
186 86 86
186 86 86
186 86 86
186 86 86
186 86 86
186 86 86
186 86 86
186 86 86
186 86 86
186 86 86
186 86 86
186 86 86
186 86 86
186 86 86
186 86 86
186 86 86
186 86 86
186 86 86
186 86 86
186 86 86
0 0 0
0 0 0
0 0 0
0 0 0
0 0 0
0 0 0
0 0 0
0 0 0
0 0 0
0 0 0
0 0 0
0 0 0
0 0 0
0 0 0
0 0 0
0 0 0
86 186 86
86 186 86
86 186 86
86 186 86
86 186 86
86 186 86
86 186 86
86 186 86
86 186 86
86 186 86
86 186 86
86 186 86
86 186 86
86 186 86
86 186 86
86 186 86
86 186 86
86 186 86
86 186 86
86 186 86
86 186 86
86 186 86
86 186 86
86 186 86
86 186 86
86 186 86
86 186 86
86 186 86
86 186 86
86 186 86
86 186 86
86 186 86
86 186 86
86 186 86
86 186 86
86 186 86
86 186 86
86 186 86
86 186 86
86 186 86
86 186 86
86 186 86
86 186 86
86 186 86
86 186 86
86 186 86
86 186 86
86 186 86
86 186 86
86 186 86
86 186 86
86 186 86
86 186 86
86 186 86
86 186 86
86 186 86
86 186 86
86 186 86
86 186 86
86 186 86
86 186 86
86 186 86
86 186 86
86 186 86
86 186 86
86 186 86
86 186 86
86 186 86
86 186 86
86 186 86
86 186 86
86 186 86
86 186 86
86 186 86
86 186 86
86 186 86
86 186 86
86 186 86
86 186 86
86 186 86
86 186 86
86 186 86
86 186 86
86 186 86
86 186 86
86 186 86
86 186 86
86 186 86
86 186 86
86 186 86
86 186 86
86 186 86
86 186 86
86 186 86
86 186 86
86 186 86
0 0 0
0 0 0
0 0 0
0 0 0
0 0 0
0 0 0
0 0 0
0 0 0
0 0 0
0 0 0
0 0 0
0 0 0
0 0 0
0 0 0
0 0 0
0 0 0
0 0 0
0 0 0
0 0 0
0 0 0
0 0 0
0 0 0
0 0 0
0 0 0
0 0 0
0 0 0
0 0 0
0 0 0
0 0 0
0 0 0
0 0 0
0 0 0
0 0 0
0 0 0
0 0 0
0 0 0
0 0 0
0 0 0
0 0 0
0 0 0
0 0 0
0 0 0
0 0 0
0 0 0
0 0 0
0 0 0
0 0 0
0 0 0
186 86 86
186 86 86
186 86 86
186 86 86
186 86 86
186 86 86
186 86 86
186 86 86
186 86 86
186 86 86
186 86 86
186 86 86
186 86 86
186 86 86
186 86 86
186 86 86
186 86 86
186 86 86
186 86 86
186 86 86
186 86 86
186 86 86
186 86 86
186 86 86
186 86 86
186 86 86
186 86 86
186 86 86
186 86 86
186 86 86
186 86 86
186 86 86
186 86 86
186 86 86
186 86 86
186 86 86
186 86 86
186 86 86
186 86 86
186 86 86
186 86 86
186 86 86
186 86 86
186 86 86
186 86 86
186 86 86
186 86 86
186 86 86
186 86 86
186 86 86
186 86 86
186 86 86
186 86 86
186 86 86
186 86 86
186 86 86
186 86 86
186 86 86
186 86 86
186 86 86
186 86 86
186 86 86
186 86 86
186 86 86
186 86 86
186 86 86
186 86 86
186 86 86
186 86 86
186 86 86
186 86 86
186 86 86
186 86 86
186 86 86
186 86 86
186 86 86
186 86 86
186 86 86
186 86 86
186 86 86
186 86 86
186 86 86
186 86 86
186 86 86
186 86 86
186 86 86
186 86 86
186 86 86
186 86 86
186 86 86
186 86 86
186 86 86
186 86 86
186 86 86
186 86 86
186 86 86
0 0 0
0 0 0
0 0 0
0 0 0
0 0 0
0 0 0
0 0 0
0 0 0
0 0 0
0 0 0
0 0 0
0 0 0
0 0 0
0 0 0
0 0 0
0 0 0
86 186 86
86 186 86
86 186 86
86 186 86
86 186 86
86 186 86
86 186 86
86 186 86
86 186 86
86 186 86
86 186 86
86 186 86
86 186 86
86 186 86
86 186 86
86 186 86
86 186 86
86 186 86
86 186 86
86 186 86
86 186 86
86 186 86
86 186 86
86 186 86
86 186 86
86 186 86
86 186 86
86 186 86
86 186 86
86 186 86
86 186 86
86 186 86
86 186 86
86 186 86
86 186 86
86 186 86
86 186 86
86 186 86
86 186 86
86 186 86
86 186 86
86 186 86
86 186 86
86 186 86
86 186 86
86 186 86
86 186 86
86 186 86
86 186 86
86 186 86
86 186 86
86 186 86
86 186 86
86 186 86
86 186 86
86 186 86
86 186 86
86 186 86
86 186 86
86 186 86
86 186 86
86 186 86
86 186 86
86 186 86
86 186 86
86 186 86
86 186 86
86 186 86
86 186 86
86 186 86
86 186 86
86 186 86
86 186 86
86 186 86
86 186 86
86 186 86
86 186 86
86 186 86
86 186 86
86 186 86
86 186 86
86 186 86
86 186 86
86 186 86
86 186 86
86 186 86
86 186 86
86 186 86
86 186 86
86 186 86
86 186 86
86 186 86
86 186 86
86 186 86
86 186 86
86 186 86
0 0 0
0 0 0
0 0 0
0 0 0
0 0 0
0 0 0
0 0 0
0 0 0
0 0 0
0 0 0
0 0 0
0 0 0
0 0 0
0 0 0
0 0 0
0 0 0
0 0 0
0 0 0
0 0 0
0 0 0
0 0 0
0 0 0
0 0 0
0 0 0
0 0 0
0 0 0
0 0 0
0 0 0
0 0 0
0 0 0
0 0 0
0 0 0
0 0 0
0 0 0
0 0 0
0 0 0
0 0 0
0 0 0
0 0 0
0 0 0
0 0 0
0 0 0
0 0 0
0 0 0
0 0 0
0 0 0
0 0 0
0 0 0
186 86 86
186 86 86
186 86 86
186 86 86
186 86 86
186 86 86
186 86 86
186 86 86
186 86 86
186 86 86
186 86 86
186 86 86
186 86 86
186 86 86
186 86 86
186 86 86
186 86 86
186 86 86
186 86 86
186 86 86
186 86 86
186 86 86
186 86 86
186 86 86
186 86 86
186 86 86
186 86 86
186 86 86
186 86 86
186 86 86
186 86 86
186 86 86
186 86 86
186 86 86
186 86 86
186 86 86
186 86 86
186 86 86
186 86 86
186 86 86
186 86 86
186 86 86
186 86 86
186 86 86
186 86 86
186 86 86
186 86 86
186 86 86
186 86 86
186 86 86
186 86 86
186 86 86
186 86 86
186 86 86
186 86 86
186 86 86
186 86 86
186 86 86
186 86 86
186 86 86
186 86 86
186 86 86
186 86 86
186 86 86
186 86 86
186 86 86
186 86 86
186 86 86
186 86 86
186 86 86
186 86 86
186 86 86
186 86 86
186 86 86
186 86 86
186 86 86
186 86 86
186 86 86
186 86 86
186 86 86
186 86 86
186 86 86
186 86 86
186 86 86
186 86 86
186 86 86
186 86 86
186 86 86
186 86 86
186 86 86
186 86 86
186 86 86
186 86 86
186 86 86
186 86 86
186 86 86
0 0 0
0 0 0
0 0 0
0 0 0
0 0 0
0 0 0
0 0 0
0 0 0
0 0 0
0 0 0
0 0 0
0 0 0
0 0 0
0 0 0
0 0 0
0 0 0
86 186 86
86 186 86
86 186 86
86 186 86
86 186 86
86 186 86
86 186 86
86 186 86
86 186 86
86 186 86
86 186 86
86 186 86
86 186 86
86 186 86
86 186 86
86 186 86
86 186 86
86 186 86
86 186 86
86 186 86
86 186 86
86 186 86
86 186 86
86 186 86
86 186 86
86 186 86
86 186 86
86 186 86
86 186 86
86 186 86
86 186 86
86 186 86
86 186 86
86 186 86
86 186 86
86 186 86
86 186 86
86 186 86
86 186 86
86 186 86
86 186 86
86 186 86
86 186 86
86 186 86
86 186 86
86 186 86
86 186 86
86 186 86
86 186 86
86 186 86
86 186 86
86 186 86
86 186 86
86 186 86
86 186 86
86 186 86
86 186 86
86 186 86
86 186 86
86 186 86
86 186 86
86 186 86
86 186 86
86 186 86
86 186 86
86 186 86
86 186 86
86 186 86
86 186 86
86 186 86
86 186 86
86 186 86
86 186 86
86 186 86
86 186 86
86 186 86
86 186 86
86 186 86
86 186 86
86 186 86
86 186 86
86 186 86
86 186 86
86 186 86
86 186 86
86 186 86
86 186 86
86 186 86
86 186 86
86 186 86
86 186 86
86 186 86
86 186 86
86 186 86
86 186 86
86 186 86
0 0 0
0 0 0
0 0 0
0 0 0
0 0 0
0 0 0
0 0 0
0 0 0
0 0 0
0 0 0
0 0 0
0 0 0
0 0 0
0 0 0
0 0 0
0 0 0
0 0 0
0 0 0
0 0 0
0 0 0
0 0 0
0 0 0
0 0 0
0 0 0
0 0 0
0 0 0
0 0 0
0 0 0
0 0 0
0 0 0
0 0 0
0 0 0
0 0 0
0 0 0
0 0 0
0 0 0
0 0 0
0 0 0
0 0 0
0 0 0
0 0 0
0 0 0
0 0 0
0 0 0
0 0 0
0 0 0
0 0 0
0 0 0
186 86 86
186 86 86
186 86 86
186 86 86
186 86 86
186 86 86
186 86 86
186 86 86
186 86 86
186 86 86
186 86 86
186 86 86
186 86 86
186 86 86
186 86 86
186 86 86
186 86 86
186 86 86
186 86 86
186 86 86
186 86 86
186 86 86
186 86 86
186 86 86
186 86 86
186 86 86
186 86 86
186 86 86
186 86 86
186 86 86
186 86 86
186 86 86
186 86 86
186 86 86
186 86 86
186 86 86
186 86 86
186 86 86
186 86 86
186 86 86
186 86 86
186 86 86
186 86 86
186 86 86
186 86 86
186 86 86
186 86 86
186 86 86
186 86 86
186 86 86
186 86 86
186 86 86
186 86 86
186 86 86
186 86 86
186 86 86
186 86 86
186 86 86
186 86 86
186 86 86
186 86 86
186 86 86
186 86 86
186 86 86
186 86 86
186 86 86
186 86 86
186 86 86
186 86 86
186 86 86
186 86 86
186 86 86
186 86 86
186 86 86
186 86 86
186 86 86
186 86 86
186 86 86
186 86 86
186 86 86
186 86 86
186 86 86
186 86 86
186 86 86
186 86 86
186 86 86
186 86 86
186 86 86
186 86 86
186 86 86
186 86 86
186 86 86
186 86 86
186 86 86
186 86 86
186 86 86
0 0 0
0 0 0
0 0 0
0 0 0
0 0 0
0 0 0
0 0 0
0 0 0
0 0 0
0 0 0
0 0 0
0 0 0
0 0 0
0 0 0
0 0 0
0 0 0
86 186 86
86 186 86
86 186 86
86 186 86
86 186 86
86 186 86
86 186 86
86 186 86
86 186 86
86 186 86
86 186 86
86 186 86
86 186 86
86 186 86
86 186 86
86 186 86
86 186 86
86 186 86
86 186 86
86 186 86
86 186 86
86 186 86
86 186 86
86 186 86
86 186 86
86 186 86
86 186 86
86 186 86
86 186 86
86 186 86
86 186 86
86 186 86
86 186 86
86 186 86
86 186 86
86 186 86
86 186 86
86 186 86
86 186 86
86 186 86
86 186 86
86 186 86
86 186 86
86 186 86
86 186 86
86 186 86
86 186 86
86 186 86
86 186 86
86 186 86
86 186 86
86 186 86
86 186 86
86 186 86
86 186 86
86 186 86
86 186 86
86 186 86
86 186 86
86 186 86
86 186 86
86 186 86
86 186 86
86 186 86
86 186 86
86 186 86
86 186 86
86 186 86
86 186 86
86 186 86
86 186 86
86 186 86
86 186 86
86 186 86
86 186 86
86 186 86
86 186 86
86 186 86
86 186 86
86 186 86
86 186 86
86 186 86
86 186 86
86 186 86
86 186 86
86 186 86
86 186 86
86 186 86
86 186 86
86 186 86
86 186 86
86 186 86
86 186 86
86 186 86
86 186 86
86 186 86
0 0 0
0 0 0
0 0 0
0 0 0
0 0 0
0 0 0
0 0 0
0 0 0
0 0 0
0 0 0
0 0 0
0 0 0
0 0 0
0 0 0
0 0 0
0 0 0
0 0 0
0 0 0
0 0 0
0 0 0
0 0 0
0 0 0
0 0 0
0 0 0
0 0 0
0 0 0
0 0 0
0 0 0
0 0 0
0 0 0
0 0 0
0 0 0
0 0 0
0 0 0
0 0 0
0 0 0
0 0 0
0 0 0
0 0 0
0 0 0
0 0 0
0 0 0
0 0 0
0 0 0
0 0 0
0 0 0
0 0 0
0 0 0
186 86 86
186 86 86
186 86 86
186 86 86
186 86 86
186 86 86
186 86 86
186 86 86
186 86 86
186 86 86
186 86 86
186 86 86
186 86 86
186 86 86
186 86 86
186 86 86
186 86 86
186 86 86
186 86 86
186 86 86
186 86 86
186 86 86
186 86 86
186 86 86
186 86 86
186 86 86
186 86 86
186 86 86
186 86 86
186 86 86
186 86 86
186 86 86
186 86 86
186 86 86
186 86 86
186 86 86
186 86 86
186 86 86
186 86 86
186 86 86
186 86 86
186 86 86
186 86 86
186 86 86
186 86 86
186 86 86
186 86 86
186 86 86
186 86 86
186 86 86
186 86 86
186 86 86
186 86 86
186 86 86
186 86 86
186 86 86
186 86 86
186 86 86
186 86 86
186 86 86
186 86 86
186 86 86
186 86 86
186 86 86
186 86 86
186 86 86
186 86 86
186 86 86
186 86 86
186 86 86
186 86 86
186 86 86
186 86 86
186 86 86
186 86 86
186 86 86
186 86 86
186 86 86
186 86 86
186 86 86
186 86 86
186 86 86
186 86 86
186 86 86
186 86 86
186 86 86
186 86 86
186 86 86
186 86 86
186 86 86
186 86 86
186 86 86
186 86 86
186 86 86
186 86 86
186 86 86
0 0 0
0 0 0
0 0 0
0 0 0
0 0 0
0 0 0
0 0 0
0 0 0
0 0 0
0 0 0
0 0 0
0 0 0
0 0 0
0 0 0
0 0 0
0 0 0
86 186 86
86 186 86
86 186 86
86 186 86
86 186 86
86 186 86
86 186 86
86 186 86
86 186 86
86 186 86
86 186 86
86 186 86
86 186 86
86 186 86
86 186 86
86 186 86
86 186 86
86 186 86
86 186 86
86 186 86
86 186 86
86 186 86
86 186 86
86 186 86
86 186 86
86 186 86
86 186 86
86 186 86
86 186 86
86 186 86
86 186 86
86 186 86
86 186 86
86 186 86
86 186 86
86 186 86
86 186 86
86 186 86
86 186 86
86 186 86
86 186 86
86 186 86
86 186 86
86 186 86
86 186 86
86 186 86
86 186 86
86 186 86
86 186 86
86 186 86
86 186 86
86 186 86
86 186 86
86 186 86
86 186 86
86 186 86
86 186 86
86 186 86
86 186 86
86 186 86
86 186 86
86 186 86
86 186 86
86 186 86
86 186 86
86 186 86
86 186 86
86 186 86
86 186 86
86 186 86
86 186 86
86 186 86
86 186 86
86 186 86
86 186 86
86 186 86
86 186 86
86 186 86
86 186 86
86 186 86
86 186 86
86 186 86
86 186 86
86 186 86
86 186 86
86 186 86
86 186 86
86 186 86
86 186 86
86 186 86
86 186 86
86 186 86
86 186 86
86 186 86
86 186 86
86 186 86
0 0 0
0 0 0
0 0 0
0 0 0
0 0 0
0 0 0
0 0 0
0 0 0
0 0 0
0 0 0
0 0 0
0 0 0
0 0 0
0 0 0
0 0 0
0 0 0
0 0 0
0 0 0
0 0 0
0 0 0
0 0 0
0 0 0
0 0 0
0 0 0
0 0 0
0 0 0
0 0 0
0 0 0
0 0 0
0 0 0
0 0 0
0 0 0
0 0 0
0 0 0
0 0 0
0 0 0
0 0 0
0 0 0
0 0 0
0 0 0
0 0 0
0 0 0
0 0 0
0 0 0
0 0 0
0 0 0
0 0 0
0 0 0
186 86 86
186 86 86
186 86 86
186 86 86
186 86 86
186 86 86
186 86 86
186 86 86
186 86 86
186 86 86
186 86 86
186 86 86
186 86 86
186 86 86
186 86 86
186 86 86
186 86 86
186 86 86
186 86 86
186 86 86
186 86 86
186 86 86
186 86 86
186 86 86
186 86 86
186 86 86
186 86 86
186 86 86
186 86 86
186 86 86
186 86 86
186 86 86
186 86 86
186 86 86
186 86 86
186 86 86
186 86 86
186 86 86
186 86 86
186 86 86
186 86 86
186 86 86
186 86 86
186 86 86
186 86 86
186 86 86
186 86 86
186 86 86
186 86 86
186 86 86
186 86 86
186 86 86
186 86 86
186 86 86
186 86 86
186 86 86
186 86 86
186 86 86
186 86 86
186 86 86
186 86 86
186 86 86
186 86 86
186 86 86
186 86 86
186 86 86
186 86 86
186 86 86
186 86 86
186 86 86
186 86 86
186 86 86
186 86 86
186 86 86
186 86 86
186 86 86
186 86 86
186 86 86
186 86 86
186 86 86
186 86 86
186 86 86
186 86 86
186 86 86
186 86 86
186 86 86
186 86 86
186 86 86
186 86 86
186 86 86
186 86 86
186 86 86
186 86 86
186 86 86
186 86 86
186 86 86
0 0 0
0 0 0
0 0 0
0 0 0
0 0 0
0 0 0
0 0 0
0 0 0
0 0 0
0 0 0
0 0 0
0 0 0
0 0 0
0 0 0
0 0 0
0 0 0
86 186 86
86 186 86
86 186 86
86 186 86
86 186 86
86 186 86
86 186 86
86 186 86
86 186 86
86 186 86
86 186 86
86 186 86
86 186 86
86 186 86
86 186 86
86 186 86
86 186 86
86 186 86
86 186 86
86 186 86
86 186 86
86 186 86
86 186 86
86 186 86
86 186 86
86 186 86
86 186 86
86 186 86
86 186 86
86 186 86
86 186 86
86 186 86
86 186 86
86 186 86
86 186 86
86 186 86
86 186 86
86 186 86
86 186 86
86 186 86
86 186 86
86 186 86
86 186 86
86 186 86
86 186 86
86 186 86
86 186 86
86 186 86
86 186 86
86 186 86
86 186 86
86 186 86
86 186 86
86 186 86
86 186 86
86 186 86
86 186 86
86 186 86
86 186 86
86 186 86
86 186 86
86 186 86
86 186 86
86 186 86
86 186 86
86 186 86
86 186 86
86 186 86
86 186 86
86 186 86
86 186 86
86 186 86
86 186 86
86 186 86
86 186 86
86 186 86
86 186 86
86 186 86
86 186 86
86 186 86
86 186 86
86 186 86
86 186 86
86 186 86
86 186 86
86 186 86
86 186 86
86 186 86
86 186 86
86 186 86
86 186 86
86 186 86
86 186 86
86 186 86
86 186 86
86 186 86
0 0 0
0 0 0
0 0 0
0 0 0
0 0 0
0 0 0
0 0 0
0 0 0
0 0 0
0 0 0
0 0 0
0 0 0
0 0 0
0 0 0
0 0 0
0 0 0
0 0 0
0 0 0
0 0 0
0 0 0
0 0 0
0 0 0
0 0 0
0 0 0
0 0 0
0 0 0
0 0 0
0 0 0
0 0 0
0 0 0
0 0 0
0 0 0
0 0 0
0 0 0
0 0 0
0 0 0
0 0 0
0 0 0
0 0 0
0 0 0
0 0 0
0 0 0
0 0 0
0 0 0
0 0 0
0 0 0
0 0 0
0 0 0
186 86 86
186 86 86
186 86 86
186 86 86
186 86 86
186 86 86
186 86 86
186 86 86
186 86 86
186 86 86
186 86 86
186 86 86
186 86 86
186 86 86
186 86 86
186 86 86
186 86 86
186 86 86
186 86 86
186 86 86
186 86 86
186 86 86
186 86 86
186 86 86
186 86 86
186 86 86
186 86 86
186 86 86
186 86 86
186 86 86
186 86 86
186 86 86
186 86 86
186 86 86
186 86 86
186 86 86
186 86 86
186 86 86
186 86 86
186 86 86
186 86 86
186 86 86
186 86 86
186 86 86
186 86 86
186 86 86
186 86 86
186 86 86
186 86 86
186 86 86
186 86 86
186 86 86
186 86 86
186 86 86
186 86 86
186 86 86
186 86 86
186 86 86
186 86 86
186 86 86
186 86 86
186 86 86
186 86 86
186 86 86
186 86 86
186 86 86
186 86 86
186 86 86
186 86 86
186 86 86
186 86 86
186 86 86
186 86 86
186 86 86
186 86 86
186 86 86
186 86 86
186 86 86
186 86 86
186 86 86
186 86 86
186 86 86
186 86 86
186 86 86
186 86 86
186 86 86
186 86 86
186 86 86
186 86 86
186 86 86
186 86 86
186 86 86
186 86 86
186 86 86
186 86 86
186 86 86
0 0 0
0 0 0
0 0 0
0 0 0
0 0 0
0 0 0
0 0 0
0 0 0
0 0 0
0 0 0
0 0 0
0 0 0
0 0 0
0 0 0
0 0 0
0 0 0
86 186 86
86 186 86
86 186 86
86 186 86
86 186 86
86 186 86
86 186 86
86 186 86
86 186 86
86 186 86
86 186 86
86 186 86
86 186 86
86 186 86
86 186 86
86 186 86
86 186 86
86 186 86
86 186 86
86 186 86
86 186 86
86 186 86
86 186 86
86 186 86
86 186 86
86 186 86
86 186 86
86 186 86
86 186 86
86 186 86
86 186 86
86 186 86
86 186 86
86 186 86
86 186 86
86 186 86
86 186 86
86 186 86
86 186 86
86 186 86
86 186 86
86 186 86
86 186 86
86 186 86
86 186 86
86 186 86
86 186 86
86 186 86
86 186 86
86 186 86
86 186 86
86 186 86
86 186 86
86 186 86
86 186 86
86 186 86
86 186 86
86 186 86
86 186 86
86 186 86
86 186 86
86 186 86
86 186 86
86 186 86
86 186 86
86 186 86
86 186 86
86 186 86
86 186 86
86 186 86
86 186 86
86 186 86
86 186 86
86 186 86
86 186 86
86 186 86
86 186 86
86 186 86
86 186 86
86 186 86
86 186 86
86 186 86
86 186 86
86 186 86
86 186 86
86 186 86
86 186 86
86 186 86
86 186 86
86 186 86
86 186 86
86 186 86
86 186 86
86 186 86
86 186 86
86 186 86
0 0 0
0 0 0
0 0 0
0 0 0
0 0 0
0 0 0
0 0 0
0 0 0
0 0 0
0 0 0
0 0 0
0 0 0
0 0 0
0 0 0
0 0 0
0 0 0
0 0 0
0 0 0
0 0 0
0 0 0
0 0 0
0 0 0
0 0 0
0 0 0
0 0 0
0 0 0
0 0 0
0 0 0
0 0 0
0 0 0
0 0 0
0 0 0
0 0 0
0 0 0
0 0 0
0 0 0
0 0 0
0 0 0
0 0 0
0 0 0
0 0 0
0 0 0
0 0 0
0 0 0
0 0 0
0 0 0
0 0 0
0 0 0
186 86 86
186 86 86
186 86 86
186 86 86
186 86 86
186 86 86
186 86 86
186 86 86
186 86 86
186 86 86
186 86 86
186 86 86
186 86 86
186 86 86
186 86 86
186 86 86
186 86 86
186 86 86
186 86 86
186 86 86
186 86 86
186 86 86
186 86 86
186 86 86
186 86 86
186 86 86
186 86 86
186 86 86
186 86 86
186 86 86
186 86 86
186 86 86
186 86 86
186 86 86
186 86 86
186 86 86
186 86 86
186 86 86
186 86 86
186 86 86
186 86 86
186 86 86
186 86 86
186 86 86
186 86 86
186 86 86
186 86 86
186 86 86
186 86 86
186 86 86
186 86 86
186 86 86
186 86 86
186 86 86
186 86 86
186 86 86
186 86 86
186 86 86
186 86 86
186 86 86
186 86 86
186 86 86
186 86 86
186 86 86
186 86 86
186 86 86
186 86 86
186 86 86
186 86 86
186 86 86
186 86 86
186 86 86
186 86 86
186 86 86
186 86 86
186 86 86
186 86 86
186 86 86
186 86 86
186 86 86
186 86 86
186 86 86
186 86 86
186 86 86
186 86 86
186 86 86
186 86 86
186 86 86
186 86 86
186 86 86
186 86 86
186 86 86
186 86 86
186 86 86
186 86 86
186 86 86
0 0 0
0 0 0
0 0 0
0 0 0
0 0 0
0 0 0
0 0 0
0 0 0
0 0 0
0 0 0
0 0 0
0 0 0
0 0 0
0 0 0
0 0 0
0 0 0
86 186 86
86 186 86
86 186 86
86 186 86
86 186 86
86 186 86
86 186 86
86 186 86
86 186 86
86 186 86
86 186 86
86 186 86
86 186 86
86 186 86
86 186 86
86 186 86
86 186 86
86 186 86
86 186 86
86 186 86
86 186 86
86 186 86
86 186 86
86 186 86
86 186 86
86 186 86
86 186 86
86 186 86
86 186 86
86 186 86
86 186 86
86 186 86
86 186 86
86 186 86
86 186 86
86 186 86
86 186 86
86 186 86
86 186 86
86 186 86
86 186 86
86 186 86
86 186 86
86 186 86
86 186 86
86 186 86
86 186 86
86 186 86
86 186 86
86 186 86
86 186 86
86 186 86
86 186 86
86 186 86
86 186 86
86 186 86
86 186 86
86 186 86
86 186 86
86 186 86
86 186 86
86 186 86
86 186 86
86 186 86
86 186 86
86 186 86
86 186 86
86 186 86
86 186 86
86 186 86
86 186 86
86 186 86
86 186 86
86 186 86
86 186 86
86 186 86
86 186 86
86 186 86
86 186 86
86 186 86
86 186 86
86 186 86
86 186 86
86 186 86
86 186 86
86 186 86
86 186 86
86 186 86
86 186 86
86 186 86
86 186 86
86 186 86
86 186 86
86 186 86
86 186 86
86 186 86
0 0 0
0 0 0
0 0 0
0 0 0
0 0 0
0 0 0
0 0 0
0 0 0
0 0 0
0 0 0
0 0 0
0 0 0
0 0 0
0 0 0
0 0 0
0 0 0
0 0 0
0 0 0
0 0 0
0 0 0
0 0 0
0 0 0
0 0 0
0 0 0
0 0 0
0 0 0
0 0 0
0 0 0
0 0 0
0 0 0
0 0 0
0 0 0
0 0 0
0 0 0
0 0 0
0 0 0
0 0 0
0 0 0
0 0 0
0 0 0
0 0 0
0 0 0
0 0 0
0 0 0
0 0 0
0 0 0
0 0 0
0 0 0
186 86 86
186 86 86
186 86 86
186 86 86
186 86 86
186 86 86
186 86 86
186 86 86
186 86 86
186 86 86
186 86 86
186 86 86
186 86 86
186 86 86
186 86 86
186 86 86
186 86 86
186 86 86
186 86 86
186 86 86
186 86 86
186 86 86
186 86 86
186 86 86
186 86 86
186 86 86
186 86 86
186 86 86
186 86 86
186 86 86
186 86 86
186 86 86
186 86 86
186 86 86
186 86 86
186 86 86
186 86 86
186 86 86
186 86 86
186 86 86
186 86 86
186 86 86
186 86 86
186 86 86
186 86 86
186 86 86
186 86 86
186 86 86
186 86 86
186 86 86
186 86 86
186 86 86
186 86 86
186 86 86
186 86 86
186 86 86
186 86 86
186 86 86
186 86 86
186 86 86
186 86 86
186 86 86
186 86 86
186 86 86
186 86 86
186 86 86
186 86 86
186 86 86
186 86 86
186 86 86
186 86 86
186 86 86
186 86 86
186 86 86
186 86 86
186 86 86
186 86 86
186 86 86
186 86 86
186 86 86
186 86 86
186 86 86
186 86 86
186 86 86
186 86 86
186 86 86
186 86 86
186 86 86
186 86 86
186 86 86
186 86 86
186 86 86
186 86 86
186 86 86
186 86 86
186 86 86
0 0 0
0 0 0
0 0 0
0 0 0
0 0 0
0 0 0
0 0 0
0 0 0
0 0 0
0 0 0
0 0 0
0 0 0
0 0 0
0 0 0
0 0 0
0 0 0
86 186 86
86 186 86
86 186 86
86 186 86
86 186 86
86 186 86
86 186 86
86 186 86
86 186 86
86 186 86
86 186 86
86 186 86
86 186 86
86 186 86
86 186 86
86 186 86
86 186 86
86 186 86
86 186 86
86 186 86
86 186 86
86 186 86
86 186 86
86 186 86
86 186 86
86 186 86
86 186 86
86 186 86
86 186 86
86 186 86
86 186 86
86 186 86
86 186 86
86 186 86
86 186 86
86 186 86
86 186 86
86 186 86
86 186 86
86 186 86
86 186 86
86 186 86
86 186 86
86 186 86
86 186 86
86 186 86
86 186 86
86 186 86
86 186 86
86 186 86
86 186 86
86 186 86
86 186 86
86 186 86
86 186 86
86 186 86
86 186 86
86 186 86
86 186 86
86 186 86
86 186 86
86 186 86
86 186 86
86 186 86
86 186 86
86 186 86
86 186 86
86 186 86
86 186 86
86 186 86
86 186 86
86 186 86
86 186 86
86 186 86
86 186 86
86 186 86
86 186 86
86 186 86
86 186 86
86 186 86
86 186 86
86 186 86
86 186 86
86 186 86
86 186 86
86 186 86
86 186 86
86 186 86
86 186 86
86 186 86
86 186 86
86 186 86
86 186 86
86 186 86
86 186 86
86 186 86
0 0 0
0 0 0
0 0 0
0 0 0
0 0 0
0 0 0
0 0 0
0 0 0
0 0 0
0 0 0
0 0 0
0 0 0
0 0 0
0 0 0
0 0 0
0 0 0
0 0 0
0 0 0
0 0 0
0 0 0
0 0 0
0 0 0
0 0 0
0 0 0
0 0 0
0 0 0
0 0 0
0 0 0
0 0 0
0 0 0
0 0 0
0 0 0
0 0 0
0 0 0
0 0 0
0 0 0
0 0 0
0 0 0
0 0 0
0 0 0
0 0 0
0 0 0
0 0 0
0 0 0
0 0 0
0 0 0
0 0 0
0 0 0
186 86 86
186 86 86
186 86 86
186 86 86
186 86 86
186 86 86
186 86 86
186 86 86
186 86 86
186 86 86
186 86 86
186 86 86
186 86 86
186 86 86
186 86 86
186 86 86
186 86 86
186 86 86
186 86 86
186 86 86
186 86 86
186 86 86
186 86 86
186 86 86
186 86 86
186 86 86
186 86 86
186 86 86
186 86 86
186 86 86
186 86 86
186 86 86
186 86 86
186 86 86
186 86 86
186 86 86
186 86 86
186 86 86
186 86 86
186 86 86
186 86 86
186 86 86
186 86 86
186 86 86
186 86 86
186 86 86
186 86 86
186 86 86
186 86 86
186 86 86
186 86 86
186 86 86
186 86 86
186 86 86
186 86 86
186 86 86
186 86 86
186 86 86
186 86 86
186 86 86
186 86 86
186 86 86
186 86 86
186 86 86
186 86 86
186 86 86
186 86 86
186 86 86
186 86 86
186 86 86
186 86 86
186 86 86
186 86 86
186 86 86
186 86 86
186 86 86
186 86 86
186 86 86
186 86 86
186 86 86
186 86 86
186 86 86
186 86 86
186 86 86
186 86 86
186 86 86
186 86 86
186 86 86
186 86 86
186 86 86
186 86 86
186 86 86
186 86 86
186 86 86
186 86 86
186 86 86
0 0 0
0 0 0
0 0 0
0 0 0
0 0 0
0 0 0
0 0 0
0 0 0
0 0 0
0 0 0
0 0 0
0 0 0
0 0 0
0 0 0
0 0 0
0 0 0
86 186 86
86 186 86
86 186 86
86 186 86
86 186 86
86 186 86
86 186 86
86 186 86
86 186 86
86 186 86
86 186 86
86 186 86
86 186 86
86 186 86
86 186 86
86 186 86
86 186 86
86 186 86
86 186 86
86 186 86
86 186 86
86 186 86
86 186 86
86 186 86
86 186 86
86 186 86
86 186 86
86 186 86
86 186 86
86 186 86
86 186 86
86 186 86
86 186 86
86 186 86
86 186 86
86 186 86
86 186 86
86 186 86
86 186 86
86 186 86
86 186 86
86 186 86
86 186 86
86 186 86
86 186 86
86 186 86
86 186 86
86 186 86
86 186 86
86 186 86
86 186 86
86 186 86
86 186 86
86 186 86
86 186 86
86 186 86
86 186 86
86 186 86
86 186 86
86 186 86
86 186 86
86 186 86
86 186 86
86 186 86
86 186 86
86 186 86
86 186 86
86 186 86
86 186 86
86 186 86
86 186 86
86 186 86
86 186 86
86 186 86
86 186 86
86 186 86
86 186 86
86 186 86
86 186 86
86 186 86
86 186 86
86 186 86
86 186 86
86 186 86
86 186 86
86 186 86
86 186 86
86 186 86
86 186 86
86 186 86
86 186 86
86 186 86
86 186 86
86 186 86
86 186 86
86 186 86
0 0 0
0 0 0
0 0 0
0 0 0
0 0 0
0 0 0
0 0 0
0 0 0
0 0 0
0 0 0
0 0 0
0 0 0
0 0 0
0 0 0
0 0 0
0 0 0
0 0 0
0 0 0
0 0 0
0 0 0
0 0 0
0 0 0
0 0 0
0 0 0
0 0 0
0 0 0
0 0 0
0 0 0
0 0 0
0 0 0
0 0 0
0 0 0
0 0 0
0 0 0
0 0 0
0 0 0
0 0 0
0 0 0
0 0 0
0 0 0
0 0 0
0 0 0
0 0 0
0 0 0
0 0 0
0 0 0
0 0 0
0 0 0
186 86 86
186 86 86
186 86 86
186 86 86
186 86 86
186 86 86
186 86 86
186 86 86
186 86 86
186 86 86
186 86 86
186 86 86
186 86 86
186 86 86
186 86 86
186 86 86
186 86 86
186 86 86
186 86 86
186 86 86
186 86 86
186 86 86
186 86 86
186 86 86
186 86 86
186 86 86
186 86 86
186 86 86
186 86 86
186 86 86
186 86 86
186 86 86
186 86 86
186 86 86
186 86 86
186 86 86
186 86 86
186 86 86
186 86 86
186 86 86
186 86 86
186 86 86
186 86 86
186 86 86
186 86 86
186 86 86
186 86 86
186 86 86
186 86 86
186 86 86
186 86 86
186 86 86
186 86 86
186 86 86
186 86 86
186 86 86
186 86 86
186 86 86
186 86 86
186 86 86
186 86 86
186 86 86
186 86 86
186 86 86
186 86 86
186 86 86
186 86 86
186 86 86
186 86 86
186 86 86
186 86 86
186 86 86
186 86 86
186 86 86
186 86 86
186 86 86
186 86 86
186 86 86
186 86 86
186 86 86
186 86 86
186 86 86
186 86 86
186 86 86
186 86 86
186 86 86
186 86 86
186 86 86
186 86 86
186 86 86
186 86 86
186 86 86
186 86 86
186 86 86
186 86 86
186 86 86
0 0 0
0 0 0
0 0 0
0 0 0
0 0 0
0 0 0
0 0 0
0 0 0
0 0 0
0 0 0
0 0 0
0 0 0
0 0 0
0 0 0
0 0 0
0 0 0
86 186 86
86 186 86
86 186 86
86 186 86
86 186 86
86 186 86
86 186 86
86 186 86
86 186 86
86 186 86
86 186 86
86 186 86
86 186 86
86 186 86
86 186 86
86 186 86
86 186 86
86 186 86
86 186 86
86 186 86
86 186 86
86 186 86
86 186 86
86 186 86
86 186 86
86 186 86
86 186 86
86 186 86
86 186 86
86 186 86
86 186 86
86 186 86
86 186 86
86 186 86
86 186 86
86 186 86
86 186 86
86 186 86
86 186 86
86 186 86
86 186 86
86 186 86
86 186 86
86 186 86
86 186 86
86 186 86
86 186 86
86 186 86
86 186 86
86 186 86
86 186 86
86 186 86
86 186 86
86 186 86
86 186 86
86 186 86
86 186 86
86 186 86
86 186 86
86 186 86
86 186 86
86 186 86
86 186 86
86 186 86
86 186 86
86 186 86
86 186 86
86 186 86
86 186 86
86 186 86
86 186 86
86 186 86
86 186 86
86 186 86
86 186 86
86 186 86
86 186 86
86 186 86
86 186 86
86 186 86
86 186 86
86 186 86
86 186 86
86 186 86
86 186 86
86 186 86
86 186 86
86 186 86
86 186 86
86 186 86
86 186 86
86 186 86
86 186 86
86 186 86
86 186 86
86 186 86
0 0 0
0 0 0
0 0 0
0 0 0
0 0 0
0 0 0
0 0 0
0 0 0
0 0 0
0 0 0
0 0 0
0 0 0
0 0 0
0 0 0
0 0 0
0 0 0
0 0 0
0 0 0
0 0 0
0 0 0
0 0 0
0 0 0
0 0 0
0 0 0
0 0 0
0 0 0
0 0 0
0 0 0
0 0 0
0 0 0
0 0 0
0 0 0
0 0 0
0 0 0
0 0 0
0 0 0
0 0 0
0 0 0
0 0 0
0 0 0
0 0 0
0 0 0
0 0 0
0 0 0
0 0 0
0 0 0
0 0 0
0 0 0
186 86 86
186 86 86
186 86 86
186 86 86
186 86 86
186 86 86
186 86 86
186 86 86
186 86 86
186 86 86
186 86 86
186 86 86
186 86 86
186 86 86
186 86 86
186 86 86
186 86 86
186 86 86
186 86 86
186 86 86
186 86 86
186 86 86
186 86 86
186 86 86
186 86 86
186 86 86
186 86 86
186 86 86
186 86 86
186 86 86
186 86 86
186 86 86
186 86 86
186 86 86
186 86 86
186 86 86
186 86 86
186 86 86
186 86 86
186 86 86
186 86 86
186 86 86
186 86 86
186 86 86
186 86 86
186 86 86
186 86 86
186 86 86
186 86 86
186 86 86
186 86 86
186 86 86
186 86 86
186 86 86
186 86 86
186 86 86
186 86 86
186 86 86
186 86 86
186 86 86
186 86 86
186 86 86
186 86 86
186 86 86
186 86 86
186 86 86
186 86 86
186 86 86
186 86 86
186 86 86
186 86 86
186 86 86
186 86 86
186 86 86
186 86 86
186 86 86
186 86 86
186 86 86
186 86 86
186 86 86
186 86 86
186 86 86
186 86 86
186 86 86
186 86 86
186 86 86
186 86 86
186 86 86
186 86 86
186 86 86
186 86 86
186 86 86
186 86 86
186 86 86
186 86 86
186 86 86
0 0 0
0 0 0
0 0 0
0 0 0
0 0 0
0 0 0
0 0 0
0 0 0
0 0 0
0 0 0
0 0 0
0 0 0
0 0 0
0 0 0
0 0 0
0 0 0
86 186 86
86 186 86
86 186 86
86 186 86
86 186 86
86 186 86
86 186 86
86 186 86
86 186 86
86 186 86
86 186 86
86 186 86
86 186 86
86 186 86
86 186 86
86 186 86
86 186 86
86 186 86
86 186 86
86 186 86
86 186 86
86 186 86
86 186 86
86 186 86
86 186 86
86 186 86
86 186 86
86 186 86
86 186 86
86 186 86
86 186 86
86 186 86
86 186 86
86 186 86
86 186 86
86 186 86
86 186 86
86 186 86
86 186 86
86 186 86
86 186 86
86 186 86
86 186 86
86 186 86
86 186 86
86 186 86
86 186 86
86 186 86
86 186 86
86 186 86
86 186 86
86 186 86
86 186 86
86 186 86
86 186 86
86 186 86
86 186 86
86 186 86
86 186 86
86 186 86
86 186 86
86 186 86
86 186 86
86 186 86
86 186 86
86 186 86
86 186 86
86 186 86
86 186 86
86 186 86
86 186 86
86 186 86
86 186 86
86 186 86
86 186 86
86 186 86
86 186 86
86 186 86
86 186 86
86 186 86
86 186 86
86 186 86
86 186 86
86 186 86
86 186 86
86 186 86
86 186 86
86 186 86
86 186 86
86 186 86
86 186 86
86 186 86
86 186 86
86 186 86
86 186 86
86 186 86
0 0 0
0 0 0
0 0 0
0 0 0
0 0 0
0 0 0
0 0 0
0 0 0
0 0 0
0 0 0
0 0 0
0 0 0
0 0 0
0 0 0
0 0 0
0 0 0
0 0 0
0 0 0
0 0 0
0 0 0
0 0 0
0 0 0
0 0 0
0 0 0
0 0 0
0 0 0
0 0 0
0 0 0
0 0 0
0 0 0
0 0 0
0 0 0
0 0 0
0 0 0
0 0 0
0 0 0
0 0 0
0 0 0
0 0 0
0 0 0
0 0 0
0 0 0
0 0 0
0 0 0
0 0 0
0 0 0
0 0 0
0 0 0
186 86 86
186 86 86
186 86 86
186 86 86
186 86 86
186 86 86
186 86 86
186 86 86
186 86 86
186 86 86
186 86 86
186 86 86
186 86 86
186 86 86
186 86 86
186 86 86
186 86 86
186 86 86
186 86 86
186 86 86
186 86 86
186 86 86
186 86 86
186 86 86
186 86 86
186 86 86
186 86 86
186 86 86
186 86 86
186 86 86
186 86 86
186 86 86
186 86 86
186 86 86
186 86 86
186 86 86
186 86 86
186 86 86
186 86 86
186 86 86
186 86 86
186 86 86
186 86 86
186 86 86
186 86 86
186 86 86
186 86 86
186 86 86
186 86 86
186 86 86
186 86 86
186 86 86
186 86 86
186 86 86
186 86 86
186 86 86
186 86 86
186 86 86
186 86 86
186 86 86
186 86 86
186 86 86
186 86 86
186 86 86
186 86 86
186 86 86
186 86 86
186 86 86
186 86 86
186 86 86
186 86 86
186 86 86
186 86 86
186 86 86
186 86 86
186 86 86
186 86 86
186 86 86
186 86 86
186 86 86
186 86 86
186 86 86
186 86 86
186 86 86
186 86 86
186 86 86
186 86 86
186 86 86
186 86 86
186 86 86
186 86 86
186 86 86
186 86 86
186 86 86
186 86 86
186 86 86
0 0 0
0 0 0
0 0 0
0 0 0
0 0 0
0 0 0
0 0 0
0 0 0
0 0 0
0 0 0
0 0 0
0 0 0
0 0 0
0 0 0
0 0 0
0 0 0
86 186 86
86 186 86
86 186 86
86 186 86
86 186 86
86 186 86
86 186 86
86 186 86
86 186 86
86 186 86
86 186 86
86 186 86
86 186 86
86 186 86
86 186 86
86 186 86
86 186 86
86 186 86
86 186 86
86 186 86
86 186 86
86 186 86
86 186 86
86 186 86
86 186 86
86 186 86
86 186 86
86 186 86
86 186 86
86 186 86
86 186 86
86 186 86
86 186 86
86 186 86
86 186 86
86 186 86
86 186 86
86 186 86
86 186 86
86 186 86
86 186 86
86 186 86
86 186 86
86 186 86
86 186 86
86 186 86
86 186 86
86 186 86
86 186 86
86 186 86
86 186 86
86 186 86
86 186 86
86 186 86
86 186 86
86 186 86
86 186 86
86 186 86
86 186 86
86 186 86
86 186 86
86 186 86
86 186 86
86 186 86
86 186 86
86 186 86
86 186 86
86 186 86
86 186 86
86 186 86
86 186 86
86 186 86
86 186 86
86 186 86
86 186 86
86 186 86
86 186 86
86 186 86
86 186 86
86 186 86
86 186 86
86 186 86
86 186 86
86 186 86
86 186 86
86 186 86
86 186 86
86 186 86
86 186 86
86 186 86
86 186 86
86 186 86
86 186 86
86 186 86
86 186 86
86 186 86
0 0 0
0 0 0
0 0 0
0 0 0
0 0 0
0 0 0
0 0 0
0 0 0
0 0 0
0 0 0
0 0 0
0 0 0
0 0 0
0 0 0
0 0 0
0 0 0
0 0 0
0 0 0
0 0 0
0 0 0
0 0 0
0 0 0
0 0 0
0 0 0
0 0 0
0 0 0
0 0 0
0 0 0
0 0 0
0 0 0
0 0 0
0 0 0
0 0 0
0 0 0
0 0 0
0 0 0
0 0 0
0 0 0
0 0 0
0 0 0
0 0 0
0 0 0
0 0 0
0 0 0
0 0 0
0 0 0
0 0 0
0 0 0
186 86 86
186 86 86
186 86 86
186 86 86
186 86 86
186 86 86
186 86 86
186 86 86
186 86 86
186 86 86
186 86 86
186 86 86
186 86 86
186 86 86
186 86 86
186 86 86
186 86 86
186 86 86
186 86 86
186 86 86
186 86 86
186 86 86
186 86 86
186 86 86
186 86 86
186 86 86
186 86 86
186 86 86
186 86 86
186 86 86
186 86 86
186 86 86
186 86 86
186 86 86
186 86 86
186 86 86
186 86 86
186 86 86
186 86 86
186 86 86
186 86 86
186 86 86
186 86 86
186 86 86
186 86 86
186 86 86
186 86 86
186 86 86
186 86 86
186 86 86
186 86 86
186 86 86
186 86 86
186 86 86
186 86 86
186 86 86
186 86 86
186 86 86
186 86 86
186 86 86
186 86 86
186 86 86
186 86 86
186 86 86
186 86 86
186 86 86
186 86 86
186 86 86
186 86 86
186 86 86
186 86 86
186 86 86
186 86 86
186 86 86
186 86 86
186 86 86
186 86 86
186 86 86
186 86 86
186 86 86
186 86 86
186 86 86
186 86 86
186 86 86
186 86 86
186 86 86
186 86 86
186 86 86
186 86 86
186 86 86
186 86 86
186 86 86
186 86 86
186 86 86
186 86 86
186 86 86
0 0 0
0 0 0
0 0 0
0 0 0
0 0 0
0 0 0
0 0 0
0 0 0
0 0 0
0 0 0
0 0 0
0 0 0
0 0 0
0 0 0
0 0 0
0 0 0
86 186 86
86 186 86
86 186 86
86 186 86
86 186 86
86 186 86
86 186 86
86 186 86
86 186 86
86 186 86
86 186 86
86 186 86
86 186 86
86 186 86
86 186 86
86 186 86
86 186 86
86 186 86
86 186 86
86 186 86
86 186 86
86 186 86
86 186 86
86 186 86
86 186 86
86 186 86
86 186 86
86 186 86
86 186 86
86 186 86
86 186 86
86 186 86
86 186 86
86 186 86
86 186 86
86 186 86
86 186 86
86 186 86
86 186 86
86 186 86
86 186 86
86 186 86
86 186 86
86 186 86
86 186 86
86 186 86
86 186 86
86 186 86
86 186 86
86 186 86
86 186 86
86 186 86
86 186 86
86 186 86
86 186 86
86 186 86
86 186 86
86 186 86
86 186 86
86 186 86
86 186 86
86 186 86
86 186 86
86 186 86
86 186 86
86 186 86
86 186 86
86 186 86
86 186 86
86 186 86
86 186 86
86 186 86
86 186 86
86 186 86
86 186 86
86 186 86
86 186 86
86 186 86
86 186 86
86 186 86
86 186 86
86 186 86
86 186 86
86 186 86
86 186 86
86 186 86
86 186 86
86 186 86
86 186 86
86 186 86
86 186 86
86 186 86
86 186 86
86 186 86
86 186 86
86 186 86
0 0 0
0 0 0
0 0 0
0 0 0
0 0 0
0 0 0
0 0 0
0 0 0
0 0 0
0 0 0
0 0 0
0 0 0
0 0 0
0 0 0
0 0 0
0 0 0
0 0 0
0 0 0
0 0 0
0 0 0
0 0 0
0 0 0
0 0 0
0 0 0
0 0 0
0 0 0
0 0 0
0 0 0
0 0 0
0 0 0
0 0 0
0 0 0
0 0 0
0 0 0
0 0 0
0 0 0
0 0 0
0 0 0
0 0 0
0 0 0
0 0 0
0 0 0
0 0 0
0 0 0
0 0 0
0 0 0
0 0 0
0 0 0
186 86 86
186 86 86
186 86 86
186 86 86
186 86 86
186 86 86
186 86 86
186 86 86
186 86 86
186 86 86
186 86 86
186 86 86
186 86 86
186 86 86
186 86 86
186 86 86
186 86 86
186 86 86
186 86 86
186 86 86
186 86 86
186 86 86
186 86 86
186 86 86
186 86 86
186 86 86
186 86 86
186 86 86
186 86 86
186 86 86
186 86 86
186 86 86
186 86 86
186 86 86
186 86 86
186 86 86
186 86 86
186 86 86
186 86 86
186 86 86
186 86 86
186 86 86
186 86 86
186 86 86
186 86 86
186 86 86
186 86 86
186 86 86
186 86 86
186 86 86
186 86 86
186 86 86
186 86 86
186 86 86
186 86 86
186 86 86
186 86 86
186 86 86
186 86 86
186 86 86
186 86 86
186 86 86
186 86 86
186 86 86
186 86 86
186 86 86
186 86 86
186 86 86
186 86 86
186 86 86
186 86 86
186 86 86
186 86 86
186 86 86
186 86 86
186 86 86
186 86 86
186 86 86
186 86 86
186 86 86
186 86 86
186 86 86
186 86 86
186 86 86
186 86 86
186 86 86
186 86 86
186 86 86
186 86 86
186 86 86
186 86 86
186 86 86
186 86 86
186 86 86
186 86 86
186 86 86
0 0 0
0 0 0
0 0 0
0 0 0
0 0 0
0 0 0
0 0 0
0 0 0
0 0 0
0 0 0
0 0 0
0 0 0
0 0 0
0 0 0
0 0 0
0 0 0
86 186 86
86 186 86
86 186 86
86 186 86
86 186 86
86 186 86
86 186 86
86 186 86
86 186 86
86 186 86
86 186 86
86 186 86
86 186 86
86 186 86
86 186 86
86 186 86
86 186 86
86 186 86
86 186 86
86 186 86
86 186 86
86 186 86
86 186 86
86 186 86
86 186 86
86 186 86
86 186 86
86 186 86
86 186 86
86 186 86
86 186 86
86 186 86
86 186 86
86 186 86
86 186 86
86 186 86
86 186 86
86 186 86
86 186 86
86 186 86
86 186 86
86 186 86
86 186 86
86 186 86
86 186 86
86 186 86
86 186 86
86 186 86
86 186 86
86 186 86
86 186 86
86 186 86
86 186 86
86 186 86
86 186 86
86 186 86
86 186 86
86 186 86
86 186 86
86 186 86
86 186 86
86 186 86
86 186 86
86 186 86
86 186 86
86 186 86
86 186 86
86 186 86
86 186 86
86 186 86
86 186 86
86 186 86
86 186 86
86 186 86
86 186 86
86 186 86
86 186 86
86 186 86
86 186 86
86 186 86
86 186 86
86 186 86
86 186 86
86 186 86
86 186 86
86 186 86
86 186 86
86 186 86
86 186 86
86 186 86
86 186 86
86 186 86
86 186 86
86 186 86
86 186 86
86 186 86
0 0 0
0 0 0
0 0 0
0 0 0
0 0 0
0 0 0
0 0 0
0 0 0
0 0 0
0 0 0
0 0 0
0 0 0
0 0 0
0 0 0
0 0 0
0 0 0
0 0 0
0 0 0
0 0 0
0 0 0
0 0 0
0 0 0
0 0 0
0 0 0
0 0 0
0 0 0
0 0 0
0 0 0
0 0 0
0 0 0
0 0 0
0 0 0
0 0 0
0 0 0
0 0 0
0 0 0
0 0 0
0 0 0
0 0 0
0 0 0
0 0 0
0 0 0
0 0 0
0 0 0
0 0 0
0 0 0
0 0 0
0 0 0
186 86 86
186 86 86
186 86 86
186 86 86
186 86 86
186 86 86
186 86 86
186 86 86
186 86 86
186 86 86
186 86 86
186 86 86
186 86 86
186 86 86
186 86 86
186 86 86
186 86 86
186 86 86
186 86 86
186 86 86
186 86 86
186 86 86
186 86 86
186 86 86
186 86 86
186 86 86
186 86 86
186 86 86
186 86 86
186 86 86
186 86 86
186 86 86
186 86 86
186 86 86
186 86 86
186 86 86
186 86 86
186 86 86
186 86 86
186 86 86
186 86 86
186 86 86
186 86 86
186 86 86
186 86 86
186 86 86
186 86 86
186 86 86
186 86 86
186 86 86
186 86 86
186 86 86
186 86 86
186 86 86
186 86 86
186 86 86
186 86 86
186 86 86
186 86 86
186 86 86
186 86 86
186 86 86
186 86 86
186 86 86
186 86 86
186 86 86
186 86 86
186 86 86
186 86 86
186 86 86
186 86 86
186 86 86
186 86 86
186 86 86
186 86 86
186 86 86
186 86 86
186 86 86
186 86 86
186 86 86
186 86 86
186 86 86
186 86 86
186 86 86
186 86 86
186 86 86
186 86 86
186 86 86
186 86 86
186 86 86
186 86 86
186 86 86
186 86 86
186 86 86
186 86 86
186 86 86
0 0 0
0 0 0
0 0 0
0 0 0
0 0 0
0 0 0
0 0 0
0 0 0
0 0 0
0 0 0
0 0 0
0 0 0
0 0 0
0 0 0
0 0 0
0 0 0
86 186 86
86 186 86
86 186 86
86 186 86
86 186 86
86 186 86
86 186 86
86 186 86
86 186 86
86 186 86
86 186 86
86 186 86
86 186 86
86 186 86
86 186 86
86 186 86
86 186 86
86 186 86
86 186 86
86 186 86
86 186 86
86 186 86
86 186 86
86 186 86
86 186 86
86 186 86
86 186 86
86 186 86
86 186 86
86 186 86
86 186 86
86 186 86
86 186 86
86 186 86
86 186 86
86 186 86
86 186 86
86 186 86
86 186 86
86 186 86
86 186 86
86 186 86
86 186 86
86 186 86
86 186 86
86 186 86
86 186 86
86 186 86
86 186 86
86 186 86
86 186 86
86 186 86
86 186 86
86 186 86
86 186 86
86 186 86
86 186 86
86 186 86
86 186 86
86 186 86
86 186 86
86 186 86
86 186 86
86 186 86
86 186 86
86 186 86
86 186 86
86 186 86
86 186 86
86 186 86
86 186 86
86 186 86
86 186 86
86 186 86
86 186 86
86 186 86
86 186 86
86 186 86
86 186 86
86 186 86
86 186 86
86 186 86
86 186 86
86 186 86
86 186 86
86 186 86
86 186 86
86 186 86
86 186 86
86 186 86
86 186 86
86 186 86
86 186 86
86 186 86
86 186 86
86 186 86
0 0 0
0 0 0
0 0 0
0 0 0
0 0 0
0 0 0
0 0 0
0 0 0
0 0 0
0 0 0
0 0 0
0 0 0
0 0 0
0 0 0
0 0 0
0 0 0
0 0 0
0 0 0
0 0 0
0 0 0
0 0 0
0 0 0
0 0 0
0 0 0
0 0 0
0 0 0
0 0 0
0 0 0
0 0 0
0 0 0
0 0 0
0 0 0
0 0 0
0 0 0
0 0 0
0 0 0
0 0 0
0 0 0
0 0 0
0 0 0
0 0 0
0 0 0
0 0 0
0 0 0
0 0 0
0 0 0
0 0 0
0 0 0
186 86 86
186 86 86
186 86 86
186 86 86
186 86 86
186 86 86
186 86 86
186 86 86
186 86 86
186 86 86
186 86 86
186 86 86
186 86 86
186 86 86
186 86 86
186 86 86
186 86 86
186 86 86
186 86 86
186 86 86
186 86 86
186 86 86
186 86 86
186 86 86
186 86 86
186 86 86
186 86 86
186 86 86
186 86 86
186 86 86
186 86 86
186 86 86
186 86 86
186 86 86
186 86 86
186 86 86
186 86 86
186 86 86
186 86 86
186 86 86
186 86 86
186 86 86
186 86 86
186 86 86
186 86 86
186 86 86
186 86 86
186 86 86
186 86 86
186 86 86
186 86 86
186 86 86
186 86 86
186 86 86
186 86 86
186 86 86
186 86 86
186 86 86
186 86 86
186 86 86
186 86 86
186 86 86
186 86 86
186 86 86
186 86 86
186 86 86
186 86 86
186 86 86
186 86 86
186 86 86
186 86 86
186 86 86
186 86 86
186 86 86
186 86 86
186 86 86
186 86 86
186 86 86
186 86 86
186 86 86
186 86 86
186 86 86
186 86 86
186 86 86
186 86 86
186 86 86
186 86 86
186 86 86
186 86 86
186 86 86
186 86 86
186 86 86
186 86 86
186 86 86
186 86 86
186 86 86
0 0 0
0 0 0
0 0 0
0 0 0
0 0 0
0 0 0
0 0 0
0 0 0
0 0 0
0 0 0
0 0 0
0 0 0
0 0 0
0 0 0
0 0 0
0 0 0
86 186 86
86 186 86
86 186 86
86 186 86
86 186 86
86 186 86
86 186 86
86 186 86
86 186 86
86 186 86
86 186 86
86 186 86
86 186 86
86 186 86
86 186 86
86 186 86
86 186 86
86 186 86
86 186 86
86 186 86
86 186 86
86 186 86
86 186 86
86 186 86
86 186 86
86 186 86
86 186 86
86 186 86
86 186 86
86 186 86
86 186 86
86 186 86
86 186 86
86 186 86
86 186 86
86 186 86
86 186 86
86 186 86
86 186 86
86 186 86
86 186 86
86 186 86
86 186 86
86 186 86
86 186 86
86 186 86
86 186 86
86 186 86
86 186 86
86 186 86
86 186 86
86 186 86
86 186 86
86 186 86
86 186 86
86 186 86
86 186 86
86 186 86
86 186 86
86 186 86
86 186 86
86 186 86
86 186 86
86 186 86
86 186 86
86 186 86
86 186 86
86 186 86
86 186 86
86 186 86
86 186 86
86 186 86
86 186 86
86 186 86
86 186 86
86 186 86
86 186 86
86 186 86
86 186 86
86 186 86
86 186 86
86 186 86
86 186 86
86 186 86
86 186 86
86 186 86
86 186 86
86 186 86
86 186 86
86 186 86
86 186 86
86 186 86
86 186 86
86 186 86
86 186 86
86 186 86
0 0 0
0 0 0
0 0 0
0 0 0
0 0 0
0 0 0
0 0 0
0 0 0
0 0 0
0 0 0
0 0 0
0 0 0
0 0 0
0 0 0
0 0 0
0 0 0
0 0 0
0 0 0
0 0 0
0 0 0
0 0 0
0 0 0
0 0 0
0 0 0
0 0 0
0 0 0
0 0 0
0 0 0
0 0 0
0 0 0
0 0 0
0 0 0
0 0 0
0 0 0
0 0 0
0 0 0
0 0 0
0 0 0
0 0 0
0 0 0
0 0 0
0 0 0
0 0 0
0 0 0
0 0 0
0 0 0
0 0 0
0 0 0
186 86 86
186 86 86
186 86 86
186 86 86
186 86 86
186 86 86
186 86 86
186 86 86
186 86 86
186 86 86
186 86 86
186 86 86
186 86 86
186 86 86
186 86 86
186 86 86
186 86 86
186 86 86
186 86 86
186 86 86
186 86 86
186 86 86
186 86 86
186 86 86
186 86 86
186 86 86
186 86 86
186 86 86
186 86 86
186 86 86
186 86 86
186 86 86
186 86 86
186 86 86
186 86 86
186 86 86
186 86 86
186 86 86
186 86 86
186 86 86
186 86 86
186 86 86
186 86 86
186 86 86
186 86 86
186 86 86
186 86 86
186 86 86
186 86 86
186 86 86
186 86 86
186 86 86
186 86 86
186 86 86
186 86 86
186 86 86
186 86 86
186 86 86
186 86 86
186 86 86
186 86 86
186 86 86
186 86 86
186 86 86
186 86 86
186 86 86
186 86 86
186 86 86
186 86 86
186 86 86
186 86 86
186 86 86
186 86 86
186 86 86
186 86 86
186 86 86
186 86 86
186 86 86
186 86 86
186 86 86
186 86 86
186 86 86
186 86 86
186 86 86
186 86 86
186 86 86
186 86 86
186 86 86
186 86 86
186 86 86
186 86 86
186 86 86
186 86 86
186 86 86
186 86 86
186 86 86
0 0 0
0 0 0
0 0 0
0 0 0
0 0 0
0 0 0
0 0 0
0 0 0
0 0 0
0 0 0
0 0 0
0 0 0
0 0 0
0 0 0
0 0 0
0 0 0
86 186 86
86 186 86
86 186 86
86 186 86
86 186 86
86 186 86
86 186 86
86 186 86
86 186 86
86 186 86
86 186 86
86 186 86
86 186 86
86 186 86
86 186 86
86 186 86
86 186 86
86 186 86
86 186 86
86 186 86
86 186 86
86 186 86
86 186 86
86 186 86
86 186 86
86 186 86
86 186 86
86 186 86
86 186 86
86 186 86
86 186 86
86 186 86
86 186 86
86 186 86
86 186 86
86 186 86
86 186 86
86 186 86
86 186 86
86 186 86
86 186 86
86 186 86
86 186 86
86 186 86
86 186 86
86 186 86
86 186 86
86 186 86
86 186 86
86 186 86
86 186 86
86 186 86
86 186 86
86 186 86
86 186 86
86 186 86
86 186 86
86 186 86
86 186 86
86 186 86
86 186 86
86 186 86
86 186 86
86 186 86
86 186 86
86 186 86
86 186 86
86 186 86
86 186 86
86 186 86
86 186 86
86 186 86
86 186 86
86 186 86
86 186 86
86 186 86
86 186 86
86 186 86
86 186 86
86 186 86
86 186 86
86 186 86
86 186 86
86 186 86
86 186 86
86 186 86
86 186 86
86 186 86
86 186 86
86 186 86
86 186 86
86 186 86
86 186 86
86 186 86
86 186 86
86 186 86
0 0 0
0 0 0
0 0 0
0 0 0
0 0 0
0 0 0
0 0 0
0 0 0
0 0 0
0 0 0
0 0 0
0 0 0
0 0 0
0 0 0
0 0 0
0 0 0
0 0 0
0 0 0
0 0 0
0 0 0
0 0 0
0 0 0
0 0 0
0 0 0
0 0 0
0 0 0
0 0 0
0 0 0
0 0 0
0 0 0
0 0 0
0 0 0
0 0 0
0 0 0
0 0 0
0 0 0
0 0 0
0 0 0
0 0 0
0 0 0
0 0 0
0 0 0
0 0 0
0 0 0
0 0 0
0 0 0
0 0 0
0 0 0
186 86 86
186 86 86
186 86 86
186 86 86
186 86 86
186 86 86
186 86 86
186 86 86
186 86 86
186 86 86
186 86 86
186 86 86
186 86 86
186 86 86
186 86 86
186 86 86
186 86 86
186 86 86
186 86 86
186 86 86
186 86 86
186 86 86
186 86 86
186 86 86
186 86 86
186 86 86
186 86 86
186 86 86
186 86 86
186 86 86
186 86 86
186 86 86
186 86 86
186 86 86
186 86 86
186 86 86
186 86 86
186 86 86
186 86 86
186 86 86
186 86 86
186 86 86
186 86 86
186 86 86
186 86 86
186 86 86
186 86 86
186 86 86
186 86 86
186 86 86
186 86 86
186 86 86
186 86 86
186 86 86
186 86 86
186 86 86
186 86 86
186 86 86
186 86 86
186 86 86
186 86 86
186 86 86
186 86 86
186 86 86
186 86 86
186 86 86
186 86 86
186 86 86
186 86 86
186 86 86
186 86 86
186 86 86
186 86 86
186 86 86
186 86 86
186 86 86
186 86 86
186 86 86
186 86 86
186 86 86
186 86 86
186 86 86
186 86 86
186 86 86
186 86 86
186 86 86
186 86 86
186 86 86
186 86 86
186 86 86
186 86 86
186 86 86
186 86 86
186 86 86
186 86 86
186 86 86
0 0 0
0 0 0
0 0 0
0 0 0
0 0 0
0 0 0
0 0 0
0 0 0
0 0 0
0 0 0
0 0 0
0 0 0
0 0 0
0 0 0
0 0 0
0 0 0
86 186 86
86 186 86
86 186 86
86 186 86
86 186 86
86 186 86
86 186 86
86 186 86
86 186 86
86 186 86
86 186 86
86 186 86
86 186 86
86 186 86
86 186 86
86 186 86
86 186 86
86 186 86
86 186 86
86 186 86
86 186 86
86 186 86
86 186 86
86 186 86
86 186 86
86 186 86
86 186 86
86 186 86
86 186 86
86 186 86
86 186 86
86 186 86
86 186 86
86 186 86
86 186 86
86 186 86
86 186 86
86 186 86
86 186 86
86 186 86
86 186 86
86 186 86
86 186 86
86 186 86
86 186 86
86 186 86
86 186 86
86 186 86
86 186 86
86 186 86
86 186 86
86 186 86
86 186 86
86 186 86
86 186 86
86 186 86
86 186 86
86 186 86
86 186 86
86 186 86
86 186 86
86 186 86
86 186 86
86 186 86
86 186 86
86 186 86
86 186 86
86 186 86
86 186 86
86 186 86
86 186 86
86 186 86
86 186 86
86 186 86
86 186 86
86 186 86
86 186 86
86 186 86
86 186 86
86 186 86
86 186 86
86 186 86
86 186 86
86 186 86
86 186 86
86 186 86
86 186 86
86 186 86
86 186 86
86 186 86
86 186 86
86 186 86
86 186 86
86 186 86
86 186 86
86 186 86
0 0 0
0 0 0
0 0 0
0 0 0
0 0 0
0 0 0
0 0 0
0 0 0
0 0 0
0 0 0
0 0 0
0 0 0
0 0 0
0 0 0
0 0 0
0 0 0
0 0 0
0 0 0
0 0 0
0 0 0
0 0 0
0 0 0
0 0 0
0 0 0
0 0 0
0 0 0
0 0 0
0 0 0
0 0 0
0 0 0
0 0 0
0 0 0
0 0 0
0 0 0
0 0 0
0 0 0
0 0 0
0 0 0
0 0 0
0 0 0
0 0 0
0 0 0
0 0 0
0 0 0
0 0 0
0 0 0
0 0 0
0 0 0
186 86 86
186 86 86
186 86 86
186 86 86
186 86 86
186 86 86
186 86 86
186 86 86
186 86 86
186 86 86
186 86 86
186 86 86
186 86 86
186 86 86
186 86 86
186 86 86
186 86 86
186 86 86
186 86 86
186 86 86
186 86 86
186 86 86
186 86 86
186 86 86
186 86 86
186 86 86
186 86 86
186 86 86
186 86 86
186 86 86
186 86 86
186 86 86
186 86 86
186 86 86
186 86 86
186 86 86
186 86 86
186 86 86
186 86 86
186 86 86
186 86 86
186 86 86
186 86 86
186 86 86
186 86 86
186 86 86
186 86 86
186 86 86
186 86 86
186 86 86
186 86 86
186 86 86
186 86 86
186 86 86
186 86 86
186 86 86
186 86 86
186 86 86
186 86 86
186 86 86
186 86 86
186 86 86
186 86 86
186 86 86
186 86 86
186 86 86
186 86 86
186 86 86
186 86 86
186 86 86
186 86 86
186 86 86
186 86 86
186 86 86
186 86 86
186 86 86
186 86 86
186 86 86
186 86 86
186 86 86
186 86 86
186 86 86
186 86 86
186 86 86
186 86 86
186 86 86
186 86 86
186 86 86
186 86 86
186 86 86
186 86 86
186 86 86
186 86 86
186 86 86
186 86 86
186 86 86
0 0 0
0 0 0
0 0 0
0 0 0
0 0 0
0 0 0
0 0 0
0 0 0
0 0 0
0 0 0
0 0 0
0 0 0
0 0 0
0 0 0
0 0 0
0 0 0
86 186 86
86 186 86
86 186 86
86 186 86
86 186 86
86 186 86
86 186 86
86 186 86
86 186 86
86 186 86
86 186 86
86 186 86
86 186 86
86 186 86
86 186 86
86 186 86
86 186 86
86 186 86
86 186 86
86 186 86
86 186 86
86 186 86
86 186 86
86 186 86
86 186 86
86 186 86
86 186 86
86 186 86
86 186 86
86 186 86
86 186 86
86 186 86
86 186 86
86 186 86
86 186 86
86 186 86
86 186 86
86 186 86
86 186 86
86 186 86
86 186 86
86 186 86
86 186 86
86 186 86
86 186 86
86 186 86
86 186 86
86 186 86
86 186 86
86 186 86
86 186 86
86 186 86
86 186 86
86 186 86
86 186 86
86 186 86
86 186 86
86 186 86
86 186 86
86 186 86
86 186 86
86 186 86
86 186 86
86 186 86
86 186 86
86 186 86
86 186 86
86 186 86
86 186 86
86 186 86
86 186 86
86 186 86
86 186 86
86 186 86
86 186 86
86 186 86
86 186 86
86 186 86
86 186 86
86 186 86
86 186 86
86 186 86
86 186 86
86 186 86
86 186 86
86 186 86
86 186 86
86 186 86
86 186 86
86 186 86
86 186 86
86 186 86
86 186 86
86 186 86
86 186 86
86 186 86
0 0 0
0 0 0
0 0 0
0 0 0
0 0 0
0 0 0
0 0 0
0 0 0
0 0 0
0 0 0
0 0 0
0 0 0
0 0 0
0 0 0
0 0 0
0 0 0
0 0 0
0 0 0
0 0 0
0 0 0
0 0 0
0 0 0
0 0 0
0 0 0
0 0 0
0 0 0
0 0 0
0 0 0
0 0 0
0 0 0
0 0 0
0 0 0
0 0 0
0 0 0
0 0 0
0 0 0
0 0 0
0 0 0
0 0 0
0 0 0
0 0 0
0 0 0
0 0 0
0 0 0
0 0 0
0 0 0
0 0 0
0 0 0
186 86 86
186 86 86
186 86 86
186 86 86
186 86 86
186 86 86
186 86 86
186 86 86
186 86 86
186 86 86
186 86 86
186 86 86
186 86 86
186 86 86
186 86 86
186 86 86
186 86 86
186 86 86
186 86 86
186 86 86
186 86 86
186 86 86
186 86 86
186 86 86
186 86 86
186 86 86
186 86 86
186 86 86
186 86 86
186 86 86
186 86 86
186 86 86
186 86 86
186 86 86
186 86 86
186 86 86
186 86 86
186 86 86
186 86 86
186 86 86
186 86 86
186 86 86
186 86 86
186 86 86
186 86 86
186 86 86
186 86 86
186 86 86
186 86 86
186 86 86
186 86 86
186 86 86
186 86 86
186 86 86
186 86 86
186 86 86
186 86 86
186 86 86
186 86 86
186 86 86
186 86 86
186 86 86
186 86 86
186 86 86
186 86 86
186 86 86
186 86 86
186 86 86
186 86 86
186 86 86
186 86 86
186 86 86
186 86 86
186 86 86
186 86 86
186 86 86
186 86 86
186 86 86
186 86 86
186 86 86
186 86 86
186 86 86
186 86 86
186 86 86
186 86 86
186 86 86
186 86 86
186 86 86
186 86 86
186 86 86
186 86 86
186 86 86
186 86 86
186 86 86
186 86 86
186 86 86
0 0 0
0 0 0
0 0 0
0 0 0
0 0 0
0 0 0
0 0 0
0 0 0
0 0 0
0 0 0
0 0 0
0 0 0
0 0 0
0 0 0
0 0 0
0 0 0
86 186 86
86 186 86
86 186 86
86 186 86
86 186 86
86 186 86
86 186 86
86 186 86
86 186 86
86 186 86
86 186 86
86 186 86
86 186 86
86 186 86
86 186 86
86 186 86
86 186 86
86 186 86
86 186 86
86 186 86
86 186 86
86 186 86
86 186 86
86 186 86
86 186 86
86 186 86
86 186 86
86 186 86
86 186 86
86 186 86
86 186 86
86 186 86
86 186 86
86 186 86
86 186 86
86 186 86
86 186 86
86 186 86
86 186 86
86 186 86
86 186 86
86 186 86
86 186 86
86 186 86
86 186 86
86 186 86
86 186 86
86 186 86
86 186 86
86 186 86
86 186 86
86 186 86
86 186 86
86 186 86
86 186 86
86 186 86
86 186 86
86 186 86
86 186 86
86 186 86
86 186 86
86 186 86
86 186 86
86 186 86
86 186 86
86 186 86
86 186 86
86 186 86
86 186 86
86 186 86
86 186 86
86 186 86
86 186 86
86 186 86
86 186 86
86 186 86
86 186 86
86 186 86
86 186 86
86 186 86
86 186 86
86 186 86
86 186 86
86 186 86
86 186 86
86 186 86
86 186 86
86 186 86
86 186 86
86 186 86
86 186 86
86 186 86
86 186 86
86 186 86
86 186 86
86 186 86
0 0 0
0 0 0
0 0 0
0 0 0
0 0 0
0 0 0
0 0 0
0 0 0
0 0 0
0 0 0
0 0 0
0 0 0
0 0 0
0 0 0
0 0 0
0 0 0
0 0 0
0 0 0
0 0 0
0 0 0
0 0 0
0 0 0
0 0 0
0 0 0
0 0 0
0 0 0
0 0 0
0 0 0
0 0 0
0 0 0
0 0 0
0 0 0
0 0 0
0 0 0
0 0 0
0 0 0
0 0 0
0 0 0
0 0 0
0 0 0
0 0 0
0 0 0
0 0 0
0 0 0
0 0 0
0 0 0
0 0 0
0 0 0
186 86 86
186 86 86
186 86 86
186 86 86
186 86 86
186 86 86
186 86 86
186 86 86
186 86 86
186 86 86
186 86 86
186 86 86
186 86 86
186 86 86
186 86 86
186 86 86
186 86 86
186 86 86
186 86 86
186 86 86
186 86 86
186 86 86
186 86 86
186 86 86
186 86 86
186 86 86
186 86 86
186 86 86
186 86 86
186 86 86
186 86 86
186 86 86
186 86 86
186 86 86
186 86 86
186 86 86
186 86 86
186 86 86
186 86 86
186 86 86
186 86 86
186 86 86
186 86 86
186 86 86
186 86 86
186 86 86
186 86 86
186 86 86
186 86 86
186 86 86
186 86 86
186 86 86
186 86 86
186 86 86
186 86 86
186 86 86
186 86 86
186 86 86
186 86 86
186 86 86
186 86 86
186 86 86
186 86 86
186 86 86
186 86 86
186 86 86
186 86 86
186 86 86
186 86 86
186 86 86
186 86 86
186 86 86
186 86 86
186 86 86
186 86 86
186 86 86
186 86 86
186 86 86
186 86 86
186 86 86
186 86 86
186 86 86
186 86 86
186 86 86
186 86 86
186 86 86
186 86 86
186 86 86
186 86 86
186 86 86
186 86 86
186 86 86
186 86 86
186 86 86
186 86 86
186 86 86
0 0 0
0 0 0
0 0 0
0 0 0
0 0 0
0 0 0
0 0 0
0 0 0
0 0 0
0 0 0
0 0 0
0 0 0
0 0 0
0 0 0
0 0 0
0 0 0
86 186 86
86 186 86
86 186 86
86 186 86
86 186 86
86 186 86
86 186 86
86 186 86
86 186 86
86 186 86
86 186 86
86 186 86
86 186 86
86 186 86
86 186 86
86 186 86
86 186 86
86 186 86
86 186 86
86 186 86
86 186 86
86 186 86
86 186 86
86 186 86
86 186 86
86 186 86
86 186 86
86 186 86
86 186 86
86 186 86
86 186 86
86 186 86
86 186 86
86 186 86
86 186 86
86 186 86
86 186 86
86 186 86
86 186 86
86 186 86
86 186 86
86 186 86
86 186 86
86 186 86
86 186 86
86 186 86
86 186 86
86 186 86
86 186 86
86 186 86
86 186 86
86 186 86
86 186 86
86 186 86
86 186 86
86 186 86
86 186 86
86 186 86
86 186 86
86 186 86
86 186 86
86 186 86
86 186 86
86 186 86
86 186 86
86 186 86
86 186 86
86 186 86
86 186 86
86 186 86
86 186 86
86 186 86
86 186 86
86 186 86
86 186 86
86 186 86
86 186 86
86 186 86
86 186 86
86 186 86
86 186 86
86 186 86
86 186 86
86 186 86
86 186 86
86 186 86
86 186 86
86 186 86
86 186 86
86 186 86
86 186 86
86 186 86
86 186 86
86 186 86
86 186 86
86 186 86
0 0 0
0 0 0
0 0 0
0 0 0
0 0 0
0 0 0
0 0 0
0 0 0
0 0 0
0 0 0
0 0 0
0 0 0
0 0 0
0 0 0
0 0 0
0 0 0
0 0 0
0 0 0
0 0 0
0 0 0
0 0 0
0 0 0
0 0 0
0 0 0
0 0 0
0 0 0
0 0 0
0 0 0
0 0 0
0 0 0
0 0 0
0 0 0
0 0 0
0 0 0
0 0 0
0 0 0
0 0 0
0 0 0
0 0 0
0 0 0
0 0 0
0 0 0
0 0 0
0 0 0
0 0 0
0 0 0
0 0 0
0 0 0
186 86 86
186 86 86
186 86 86
186 86 86
186 86 86
186 86 86
186 86 86
186 86 86
186 86 86
186 86 86
186 86 86
186 86 86
186 86 86
186 86 86
186 86 86
186 86 86
186 86 86
186 86 86
186 86 86
186 86 86
186 86 86
186 86 86
186 86 86
186 86 86
186 86 86
186 86 86
186 86 86
186 86 86
186 86 86
186 86 86
186 86 86
186 86 86
186 86 86
186 86 86
186 86 86
186 86 86
186 86 86
186 86 86
186 86 86
186 86 86
186 86 86
186 86 86
186 86 86
186 86 86
186 86 86
186 86 86
186 86 86
186 86 86
186 86 86
186 86 86
186 86 86
186 86 86
186 86 86
186 86 86
186 86 86
186 86 86
186 86 86
186 86 86
186 86 86
186 86 86
186 86 86
186 86 86
186 86 86
186 86 86
186 86 86
186 86 86
186 86 86
186 86 86
186 86 86
186 86 86
186 86 86
186 86 86
186 86 86
186 86 86
186 86 86
186 86 86
186 86 86
186 86 86
186 86 86
186 86 86
186 86 86
186 86 86
186 86 86
186 86 86
186 86 86
186 86 86
186 86 86
186 86 86
186 86 86
186 86 86
186 86 86
186 86 86
186 86 86
186 86 86
186 86 86
186 86 86
0 0 0
0 0 0
0 0 0
0 0 0
0 0 0
0 0 0
0 0 0
0 0 0
0 0 0
0 0 0
0 0 0
0 0 0
0 0 0
0 0 0
0 0 0
0 0 0
86 186 86
86 186 86
86 186 86
86 186 86
86 186 86
86 186 86
86 186 86
86 186 86
86 186 86
86 186 86
86 186 86
86 186 86
86 186 86
86 186 86
86 186 86
86 186 86
86 186 86
86 186 86
86 186 86
86 186 86
86 186 86
86 186 86
86 186 86
86 186 86
86 186 86
86 186 86
86 186 86
86 186 86
86 186 86
86 186 86
86 186 86
86 186 86
86 186 86
86 186 86
86 186 86
86 186 86
86 186 86
86 186 86
86 186 86
86 186 86
86 186 86
86 186 86
86 186 86
86 186 86
86 186 86
86 186 86
86 186 86
86 186 86
86 186 86
86 186 86
86 186 86
86 186 86
86 186 86
86 186 86
86 186 86
86 186 86
86 186 86
86 186 86
86 186 86
86 186 86
86 186 86
86 186 86
86 186 86
86 186 86
86 186 86
86 186 86
86 186 86
86 186 86
86 186 86
86 186 86
86 186 86
86 186 86
86 186 86
86 186 86
86 186 86
86 186 86
86 186 86
86 186 86
86 186 86
86 186 86
86 186 86
86 186 86
86 186 86
86 186 86
86 186 86
86 186 86
86 186 86
86 186 86
86 186 86
86 186 86
86 186 86
86 186 86
86 186 86
86 186 86
86 186 86
86 186 86
0 0 0
0 0 0
0 0 0
0 0 0
0 0 0
0 0 0
0 0 0
0 0 0
0 0 0
0 0 0
0 0 0
0 0 0
0 0 0
0 0 0
0 0 0
0 0 0
0 0 0
0 0 0
0 0 0
0 0 0
0 0 0
0 0 0
0 0 0
0 0 0
0 0 0
0 0 0
0 0 0
0 0 0
0 0 0
0 0 0
0 0 0
0 0 0
0 0 0
0 0 0
0 0 0
0 0 0
0 0 0
0 0 0
0 0 0
0 0 0
0 0 0
0 0 0
0 0 0
0 0 0
0 0 0
0 0 0
0 0 0
0 0 0
186 86 86
186 86 86
186 86 86
186 86 86
186 86 86
186 86 86
186 86 86
186 86 86
186 86 86
186 86 86
186 86 86
186 86 86
186 86 86
186 86 86
186 86 86
186 86 86
186 86 86
186 86 86
186 86 86
186 86 86
186 86 86
186 86 86
186 86 86
186 86 86
186 86 86
186 86 86
186 86 86
186 86 86
186 86 86
186 86 86
186 86 86
186 86 86
186 86 86
186 86 86
186 86 86
186 86 86
186 86 86
186 86 86
186 86 86
186 86 86
186 86 86
186 86 86
186 86 86
186 86 86
186 86 86
186 86 86
186 86 86
186 86 86
186 86 86
186 86 86
186 86 86
186 86 86
186 86 86
186 86 86
186 86 86
186 86 86
186 86 86
186 86 86
186 86 86
186 86 86
186 86 86
186 86 86
186 86 86
186 86 86
186 86 86
186 86 86
186 86 86
186 86 86
186 86 86
186 86 86
186 86 86
186 86 86
186 86 86
186 86 86
186 86 86
186 86 86
186 86 86
186 86 86
186 86 86
186 86 86
186 86 86
186 86 86
186 86 86
186 86 86
186 86 86
186 86 86
186 86 86
186 86 86
186 86 86
186 86 86
186 86 86
186 86 86
186 86 86
186 86 86
186 86 86
186 86 86
0 0 0
0 0 0
0 0 0
0 0 0
0 0 0
0 0 0
0 0 0
0 0 0
0 0 0
0 0 0
0 0 0
0 0 0
0 0 0
0 0 0
0 0 0
0 0 0
86 186 86
86 186 86
86 186 86
86 186 86
86 186 86
86 186 86
86 186 86
86 186 86
86 186 86
86 186 86
86 186 86
86 186 86
86 186 86
86 186 86
86 186 86
86 186 86
86 186 86
86 186 86
86 186 86
86 186 86
86 186 86
86 186 86
86 186 86
86 186 86
86 186 86
86 186 86
86 186 86
86 186 86
86 186 86
86 186 86
86 186 86
86 186 86
86 186 86
86 186 86
86 186 86
86 186 86
86 186 86
86 186 86
86 186 86
86 186 86
86 186 86
86 186 86
86 186 86
86 186 86
86 186 86
86 186 86
86 186 86
86 186 86
86 186 86
86 186 86
86 186 86
86 186 86
86 186 86
86 186 86
86 186 86
86 186 86
86 186 86
86 186 86
86 186 86
86 186 86
86 186 86
86 186 86
86 186 86
86 186 86
86 186 86
86 186 86
86 186 86
86 186 86
86 186 86
86 186 86
86 186 86
86 186 86
86 186 86
86 186 86
86 186 86
86 186 86
86 186 86
86 186 86
86 186 86
86 186 86
86 186 86
86 186 86
86 186 86
86 186 86
86 186 86
86 186 86
86 186 86
86 186 86
86 186 86
86 186 86
86 186 86
86 186 86
86 186 86
86 186 86
86 186 86
86 186 86
0 0 0
0 0 0
0 0 0
0 0 0
0 0 0
0 0 0
0 0 0
0 0 0
0 0 0
0 0 0
0 0 0
0 0 0
0 0 0
0 0 0
0 0 0
0 0 0
0 0 0
0 0 0
0 0 0
0 0 0
0 0 0
0 0 0
0 0 0
0 0 0
0 0 0
0 0 0
0 0 0
0 0 0
0 0 0
0 0 0
0 0 0
0 0 0
0 0 0
0 0 0
0 0 0
0 0 0
0 0 0
0 0 0
0 0 0
0 0 0
0 0 0
0 0 0
0 0 0
0 0 0
0 0 0
0 0 0
0 0 0
0 0 0
0 0 0
0 0 0
0 0 0
0 0 0
0 0 0
0 0 0
0 0 0
0 0 0
0 0 0
0 0 0
0 0 0
0 0 0
0 0 0
0 0 0
0 0 0
0 0 0
0 0 0
0 0 0
0 0 0
0 0 0
0 0 0
0 0 0
0 0 0
0 0 0
0 0 0
0 0 0
0 0 0
0 0 0
0 0 0
0 0 0
0 0 0
0 0 0
0 0 0
0 0 0
0 0 0
0 0 0
0 0 0
0 0 0
0 0 0
0 0 0
0 0 0
0 0 0
0 0 0
0 0 0
0 0 0
0 0 0
0 0 0
0 0 0
0 0 0
0 0 0
0 0 0
0 0 0
0 0 0
0 0 0
0 0 0
0 0 0
0 0 0
0 0 0
0 0 0
0 0 0
0 0 0
0 0 0
0 0 0
0 0 0
0 0 0
0 0 0
0 0 0
0 0 0
0 0 0
0 0 0
0 0 0
0 0 0
0 0 0
0 0 0
0 0 0
0 0 0
0 0 0
0 0 0
0 0 0
0 0 0
0 0 0
0 0 0
0 0 0
0 0 0
0 0 0
0 0 0
0 0 0
0 0 0
0 0 0
0 0 0
0 0 0
0 0 0
0 0 0
0 0 0
0 0 0
0 0 0
0 0 0
0 0 0
0 0 0
0 0 0
0 0 0
0 0 0
0 0 0
0 0 0
0 0 0
0 0 0
0 0 0
0 0 0
0 0 0
0 0 0
0 0 0
0 0 0
0 0 0
0 0 0
0 0 0
0 0 0
0 0 0
0 0 0
0 0 0
0 0 0
0 0 0
0 0 0
0 0 0
0 0 0
0 0 0
0 0 0
0 0 0
0 0 0
0 0 0
0 0 0
0 0 0
0 0 0
0 0 0
0 0 0
0 0 0
0 0 0
0 0 0
0 0 0
0 0 0
0 0 0
0 0 0
0 0 0
0 0 0
0 0 0
0 0 0
0 0 0
0 0 0
0 0 0
0 0 0
0 0 0
0 0 0
0 0 0
0 0 0
0 0 0
0 0 0
0 0 0
0 0 0
0 0 0
0 0 0
0 0 0
0 0 0
0 0 0
0 0 0
0 0 0
0 0 0
0 0 0
0 0 0
0 0 0
0 0 0
0 0 0
0 0 0
0 0 0
0 0 0
0 0 0
0 0 0
0 0 0
0 0 0
0 0 0
0 0 0
0 0 0
0 0 0
0 0 0
0 0 0
0 0 0
0 0 0
0 0 0
0 0 0
0 0 0
0 0 0
0 0 0
0 0 0
0 0 0
0 0 0
0 0 0
0 0 0
0 0 0
0 0 0
0 0 0
0 0 0
0 0 0
0 0 0
0 0 0
0 0 0
0 0 0
0 0 0
0 0 0
0 0 0
0 0 0
0 0 0
0 0 0
0 0 0
0 0 0
0 0 0
0 0 0
0 0 0
0 0 0
0 0 0
0 0 0
0 0 0
0 0 0
0 0 0
0 0 0
0 0 0
0 0 0
0 0 0
0 0 0
0 0 0
0 0 0
0 0 0
0 0 0
0 0 0
0 0 0
0 0 0
0 0 0
0 0 0
0 0 0
0 0 0
0 0 0
0 0 0
0 0 0
0 0 0
0 0 0
0 0 0
0 0 0
0 0 0
0 0 0
0 0 0
0 0 0
0 0 0
0 0 0
0 0 0
0 0 0
0 0 0
0 0 0
0 0 0
0 0 0
0 0 0
0 0 0
0 0 0
0 0 0
0 0 0
0 0 0
0 0 0
0 0 0
0 0 0
0 0 0
0 0 0
0 0 0
0 0 0
0 0 0
0 0 0
0 0 0
0 0 0
0 0 0
0 0 0
0 0 0
0 0 0
0 0 0
0 0 0
0 0 0
0 0 0
0 0 0
0 0 0
0 0 0
0 0 0
0 0 0
0 0 0
0 0 0
0 0 0
0 0 0
0 0 0
0 0 0
0 0 0
0 0 0
0 0 0
0 0 0
0 0 0
0 0 0
0 0 0
0 0 0
0 0 0
0 0 0
0 0 0
0 0 0
0 0 0
0 0 0
0 0 0
0 0 0
0 0 0
0 0 0
0 0 0
0 0 0
0 0 0
0 0 0
0 0 0
0 0 0
0 0 0
0 0 0
0 0 0
0 0 0
0 0 0
0 0 0
0 0 0
0 0 0
0 0 0
0 0 0
0 0 0
0 0 0
0 0 0
0 0 0
0 0 0
0 0 0
0 0 0
0 0 0
0 0 0
0 0 0
0 0 0
0 0 0
0 0 0
0 0 0
0 0 0
0 0 0
0 0 0
0 0 0
0 0 0
0 0 0
0 0 0
0 0 0
0 0 0
0 0 0
0 0 0
0 0 0
0 0 0
0 0 0
0 0 0
0 0 0
0 0 0
0 0 0
0 0 0
0 0 0
0 0 0
0 0 0
0 0 0
0 0 0
0 0 0
0 0 0
0 0 0
0 0 0
0 0 0
0 0 0
0 0 0
0 0 0
0 0 0
0 0 0
0 0 0
0 0 0
0 0 0
0 0 0
0 0 0
0 0 0
0 0 0
0 0 0
0 0 0
0 0 0
0 0 0
0 0 0
0 0 0
0 0 0
0 0 0
0 0 0
0 0 0
0 0 0
0 0 0
0 0 0
0 0 0
0 0 0
0 0 0
0 0 0
0 0 0
0 0 0
0 0 0
0 0 0
0 0 0
0 0 0
0 0 0
0 0 0
0 0 0
0 0 0
0 0 0
0 0 0
0 0 0
0 0 0
0 0 0
0 0 0
0 0 0
0 0 0
0 0 0
0 0 0
0 0 0
0 0 0
0 0 0
0 0 0
0 0 0
0 0 0
0 0 0
0 0 0
0 0 0
0 0 0
0 0 0
0 0 0
0 0 0
0 0 0
0 0 0
0 0 0
0 0 0
0 0 0
0 0 0
0 0 0
0 0 0
0 0 0
0 0 0
0 0 0
0 0 0
0 0 0
0 0 0
0 0 0
0 0 0
0 0 0
0 0 0
0 0 0
0 0 0
0 0 0
0 0 0
0 0 0
0 0 0
0 0 0
0 0 0
0 0 0
0 0 0
0 0 0
0 0 0
0 0 0
0 0 0
0 0 0
0 0 0
0 0 0
0 0 0
0 0 0
0 0 0
0 0 0
0 0 0
0 0 0
0 0 0
0 0 0
0 0 0
0 0 0
0 0 0
0 0 0
0 0 0
0 0 0
0 0 0
0 0 0
0 0 0
0 0 0
0 0 0
0 0 0
0 0 0
0 0 0
0 0 0
0 0 0
0 0 0
0 0 0
0 0 0
0 0 0
0 0 0
0 0 0
0 0 0
0 0 0
0 0 0
0 0 0
0 0 0
0 0 0
0 0 0
0 0 0
0 0 0
0 0 0
0 0 0
0 0 0
0 0 0
0 0 0
0 0 0
0 0 0
0 0 0
0 0 0
0 0 0
0 0 0
0 0 0
0 0 0
0 0 0
0 0 0
0 0 0
0 0 0
0 0 0
0 0 0
0 0 0
0 0 0
0 0 0
0 0 0
0 0 0
0 0 0
0 0 0
0 0 0
0 0 0
0 0 0
0 0 0
0 0 0
0 0 0
0 0 0
0 0 0
0 0 0
0 0 0
0 0 0
0 0 0
0 0 0
0 0 0
0 0 0
0 0 0
0 0 0
0 0 0
0 0 0
0 0 0
0 0 0
0 0 0
0 0 0
0 0 0
0 0 0
0 0 0
0 0 0
0 0 0
0 0 0
0 0 0
0 0 0
0 0 0
0 0 0
0 0 0
0 0 0
0 0 0
0 0 0
0 0 0
0 0 0
0 0 0
0 0 0
0 0 0
0 0 0
0 0 0
0 0 0
0 0 0
0 0 0
0 0 0
0 0 0
0 0 0
0 0 0
0 0 0
0 0 0
0 0 0
0 0 0
0 0 0
0 0 0
0 0 0
0 0 0
0 0 0
0 0 0
0 0 0
0 0 0
0 0 0
0 0 0
0 0 0
0 0 0
0 0 0
0 0 0
0 0 0
0 0 0
0 0 0
0 0 0
0 0 0
0 0 0
0 0 0
0 0 0
0 0 0
0 0 0
0 0 0
0 0 0
0 0 0
0 0 0
0 0 0
0 0 0
0 0 0
0 0 0
0 0 0
0 0 0
0 0 0
0 0 0
0 0 0
0 0 0
0 0 0
0 0 0
0 0 0
0 0 0
0 0 0
0 0 0
0 0 0
0 0 0
0 0 0
0 0 0
0 0 0
0 0 0
0 0 0
0 0 0
0 0 0
0 0 0
0 0 0
0 0 0
0 0 0
0 0 0
0 0 0
0 0 0
0 0 0
0 0 0
0 0 0
0 0 0
0 0 0
0 0 0
0 0 0
0 0 0
0 0 0
0 0 0
0 0 0
0 0 0
0 0 0
0 0 0
0 0 0
0 0 0
0 0 0
0 0 0
0 0 0
0 0 0
0 0 0
0 0 0
0 0 0
0 0 0
0 0 0
0 0 0
0 0 0
0 0 0
0 0 0
0 0 0
0 0 0
0 0 0
0 0 0
0 0 0
0 0 0
0 0 0
0 0 0
0 0 0
0 0 0
0 0 0
0 0 0
0 0 0
0 0 0
0 0 0
0 0 0
0 0 0
0 0 0
0 0 0
0 0 0
0 0 0
0 0 0
0 0 0
0 0 0
0 0 0
0 0 0
0 0 0
0 0 0
0 0 0
0 0 0
0 0 0
0 0 0
0 0 0
0 0 0
0 0 0
0 0 0
0 0 0
0 0 0
0 0 0
0 0 0
0 0 0
0 0 0
0 0 0
0 0 0
0 0 0
0 0 0
0 0 0
0 0 0
0 0 0
0 0 0
0 0 0
0 0 0
0 0 0
0 0 0
0 0 0
0 0 0
0 0 0
0 0 0
0 0 0
0 0 0
0 0 0
0 0 0
0 0 0
0 0 0
0 0 0
0 0 0
0 0 0
0 0 0
0 0 0
0 0 0
0 0 0
0 0 0
0 0 0
0 0 0
0 0 0
0 0 0
0 0 0
0 0 0
0 0 0
0 0 0
0 0 0
0 0 0
0 0 0
0 0 0
0 0 0
0 0 0
0 0 0
0 0 0
0 0 0
0 0 0
0 0 0
0 0 0
0 0 0
0 0 0
0 0 0
0 0 0
0 0 0
0 0 0
0 0 0
0 0 0
0 0 0
0 0 0
0 0 0
0 0 0
0 0 0
0 0 0
0 0 0
0 0 0
0 0 0
0 0 0
0 0 0
0 0 0
0 0 0
0 0 0
0 0 0
0 0 0
0 0 0
0 0 0
0 0 0
0 0 0
0 0 0
0 0 0
0 0 0
0 0 0
0 0 0
0 0 0
0 0 0
0 0 0
0 0 0
0 0 0
0 0 0
0 0 0
0 0 0
0 0 0
0 0 0
0 0 0
0 0 0
0 0 0
0 0 0
0 0 0
0 0 0
0 0 0
0 0 0
0 0 0
0 0 0
0 0 0
0 0 0
0 0 0
0 0 0
0 0 0
0 0 0
0 0 0
0 0 0
0 0 0
0 0 0
0 0 0
0 0 0
0 0 0
0 0 0
0 0 0
0 0 0
0 0 0
0 0 0
0 0 0
0 0 0
0 0 0
0 0 0
0 0 0
0 0 0
0 0 0
0 0 0
0 0 0
0 0 0
0 0 0
0 0 0
0 0 0
0 0 0
0 0 0
0 0 0
0 0 0
0 0 0
0 0 0
0 0 0
0 0 0
0 0 0
0 0 0
0 0 0
0 0 0
0 0 0
0 0 0
0 0 0
0 0 0
0 0 0
0 0 0
0 0 0
0 0 0
0 0 0
0 0 0
0 0 0
0 0 0
0 0 0
0 0 0
0 0 0
0 0 0
0 0 0
0 0 0
0 0 0
0 0 0
0 0 0
0 0 0
0 0 0
0 0 0
0 0 0
0 0 0
0 0 0
0 0 0
0 0 0
0 0 0
0 0 0
0 0 0
0 0 0
0 0 0
0 0 0
0 0 0
0 0 0
0 0 0
0 0 0
0 0 0
0 0 0
0 0 0
0 0 0
0 0 0
0 0 0
0 0 0
0 0 0
0 0 0
0 0 0
0 0 0
0 0 0
0 0 0
0 0 0
0 0 0
0 0 0
0 0 0
0 0 0
0 0 0
0 0 0
0 0 0
0 0 0
0 0 0
0 0 0
0 0 0
0 0 0
0 0 0
0 0 0
0 0 0
0 0 0
0 0 0
0 0 0
0 0 0
0 0 0
0 0 0
0 0 0
0 0 0
0 0 0
0 0 0
0 0 0
0 0 0
0 0 0
0 0 0
0 0 0
0 0 0
0 0 0
0 0 0
0 0 0
0 0 0
0 0 0
0 0 0
0 0 0
0 0 0
0 0 0
0 0 0
0 0 0
0 0 0
0 0 0
0 0 0
0 0 0
0 0 0
0 0 0
0 0 0
0 0 0
0 0 0
0 0 0
0 0 0
0 0 0
0 0 0
0 0 0
0 0 0
0 0 0
0 0 0
0 0 0
0 0 0
0 0 0
0 0 0
0 0 0
0 0 0
0 0 0
0 0 0
0 0 0
0 0 0
0 0 0
0 0 0
0 0 0
0 0 0
0 0 0
0 0 0
0 0 0
0 0 0
0 0 0
0 0 0
0 0 0
0 0 0
0 0 0
0 0 0
0 0 0
0 0 0
0 0 0
0 0 0
0 0 0
0 0 0
0 0 0
0 0 0
0 0 0
0 0 0
0 0 0
0 0 0
0 0 0
0 0 0
0 0 0
0 0 0
0 0 0
0 0 0
0 0 0
0 0 0
0 0 0
0 0 0
0 0 0
0 0 0
0 0 0
0 0 0
0 0 0
0 0 0
0 0 0
0 0 0
0 0 0
0 0 0
0 0 0
0 0 0
0 0 0
0 0 0
0 0 0
0 0 0
0 0 0
0 0 0
0 0 0
0 0 0
0 0 0
0 0 0
0 0 0
0 0 0
0 0 0
0 0 0
0 0 0
0 0 0
0 0 0
0 0 0
0 0 0
0 0 0
0 0 0
0 0 0
0 0 0
0 0 0
0 0 0
0 0 0
0 0 0
0 0 0
0 0 0
0 0 0
0 0 0
0 0 0
0 0 0
0 0 0
0 0 0
0 0 0
0 0 0
0 0 0
0 0 0
0 0 0
0 0 0
0 0 0
0 0 0
0 0 0
0 0 0
0 0 0
0 0 0
0 0 0
0 0 0
0 0 0
0 0 0
0 0 0
0 0 0
0 0 0
0 0 0
0 0 0
0 0 0
0 0 0
0 0 0
0 0 0
0 0 0
0 0 0
0 0 0
0 0 0
0 0 0
0 0 0
0 0 0
0 0 0
0 0 0
0 0 0
0 0 0
0 0 0
0 0 0
0 0 0
0 0 0
0 0 0
0 0 0
0 0 0
0 0 0
0 0 0
0 0 0
0 0 0
0 0 0
0 0 0
0 0 0
0 0 0
0 0 0
0 0 0
0 0 0
0 0 0
0 0 0
0 0 0
0 0 0
0 0 0
0 0 0
0 0 0
0 0 0
0 0 0
0 0 0
0 0 0
0 0 0
0 0 0
0 0 0
0 0 0
0 0 0
0 0 0
0 0 0
0 0 0
0 0 0
0 0 0
0 0 0
0 0 0
0 0 0
0 0 0
0 0 0
0 0 0
0 0 0
0 0 0
0 0 0
0 0 0
0 0 0
0 0 0
0 0 0
0 0 0
0 0 0
0 0 0
0 0 0
0 0 0
0 0 0
0 0 0
0 0 0
0 0 0
0 0 0
0 0 0
0 0 0
0 0 0
0 0 0
0 0 0
0 0 0
0 0 0
0 0 0
0 0 0
0 0 0
0 0 0
0 0 0
0 0 0
0 0 0
0 0 0
0 0 0
0 0 0
0 0 0
0 0 0
0 0 0
0 0 0
0 0 0
0 0 0
0 0 0
0 0 0
0 0 0
0 0 0
0 0 0
0 0 0
0 0 0
0 0 0
0 0 0
0 0 0
0 0 0
0 0 0
0 0 0
0 0 0
0 0 0
0 0 0
0 0 0
0 0 0
0 0 0
0 0 0
0 0 0
0 0 0
0 0 0
0 0 0
0 0 0
0 0 0
0 0 0
0 0 0
0 0 0
0 0 0
0 0 0
0 0 0
0 0 0
0 0 0
0 0 0
0 0 0
0 0 0
0 0 0
0 0 0
0 0 0
0 0 0
0 0 0
0 0 0
0 0 0
0 0 0
0 0 0
0 0 0
0 0 0
0 0 0
0 0 0
0 0 0
0 0 0
0 0 0
0 0 0
0 0 0
0 0 0
0 0 0
0 0 0
0 0 0
0 0 0
0 0 0
0 0 0
0 0 0
0 0 0
0 0 0
0 0 0
0 0 0
0 0 0
0 0 0
0 0 0
0 0 0
0 0 0
0 0 0
0 0 0
0 0 0
0 0 0
0 0 0
0 0 0
0 0 0
0 0 0
0 0 0
0 0 0
0 0 0
0 0 0
0 0 0
0 0 0
0 0 0
0 0 0
0 0 0
0 0 0
0 0 0
0 0 0
0 0 0
0 0 0
0 0 0
0 0 0
0 0 0
0 0 0
0 0 0
0 0 0
0 0 0
0 0 0
0 0 0
0 0 0
0 0 0
0 0 0
0 0 0
0 0 0
0 0 0
0 0 0
0 0 0
0 0 0
0 0 0
0 0 0
0 0 0
0 0 0
0 0 0
0 0 0
0 0 0
0 0 0
0 0 0
0 0 0
0 0 0
0 0 0
0 0 0
0 0 0
0 0 0
0 0 0
0 0 0
0 0 0
0 0 0
0 0 0
0 0 0
0 0 0
0 0 0
0 0 0
0 0 0
0 0 0
0 0 0
0 0 0
0 0 0
0 0 0
0 0 0
0 0 0
0 0 0
0 0 0
0 0 0
0 0 0
0 0 0
0 0 0
0 0 0
0 0 0
0 0 0
0 0 0
0 0 0
0 0 0
0 0 0
0 0 0
0 0 0
0 0 0
0 0 0
0 0 0
0 0 0
0 0 0
0 0 0
0 0 0
0 0 0
0 0 0
0 0 0
0 0 0
0 0 0
0 0 0
0 0 0
0 0 0
0 0 0
0 0 0
0 0 0
0 0 0
0 0 0
0 0 0
0 0 0
0 0 0
0 0 0
0 0 0
0 0 0
0 0 0
0 0 0
0 0 0
0 0 0
0 0 0
0 0 0
0 0 0
0 0 0
0 0 0
0 0 0
0 0 0
0 0 0
0 0 0
0 0 0
0 0 0
0 0 0
0 0 0
0 0 0
0 0 0
0 0 0
0 0 0
0 0 0
0 0 0
0 0 0
0 0 0
0 0 0
0 0 0
0 0 0
0 0 0
0 0 0
0 0 0
0 0 0
0 0 0
0 0 0
0 0 0
0 0 0
0 0 0
0 0 0
0 0 0
0 0 0
0 0 0
0 0 0
0 0 0
0 0 0
0 0 0
0 0 0
0 0 0
0 0 0
0 0 0
0 0 0
0 0 0
0 0 0
0 0 0
0 0 0
0 0 0
0 0 0
0 0 0
0 0 0
0 0 0
0 0 0
0 0 0
0 0 0
0 0 0
0 0 0
0 0 0
0 0 0
0 0 0
0 0 0
0 0 0
0 0 0
0 0 0
0 0 0
0 0 0
0 0 0
0 0 0
0 0 0
0 0 0
0 0 0
0 0 0
0 0 0
0 0 0
0 0 0
0 0 0
0 0 0
0 0 0
0 0 0
0 0 0
0 0 0
0 0 0
0 0 0
0 0 0
0 0 0
0 0 0
0 0 0
0 0 0
0 0 0
0 0 0
0 0 0
0 0 0
0 0 0
0 0 0
0 0 0
0 0 0
0 0 0
0 0 0
0 0 0
0 0 0
0 0 0
0 0 0
0 0 0
0 0 0
0 0 0
0 0 0
0 0 0
0 0 0
0 0 0
0 0 0
0 0 0
0 0 0
0 0 0
0 0 0
0 0 0
0 0 0
0 0 0
0 0 0
0 0 0
0 0 0
0 0 0
0 0 0
0 0 0
0 0 0
0 0 0
0 0 0
0 0 0
0 0 0
0 0 0
0 0 0
0 0 0
0 0 0
0 0 0
0 0 0
0 0 0
0 0 0
0 0 0
0 0 0
0 0 0
0 0 0
0 0 0
0 0 0
0 0 0
0 0 0
0 0 0
0 0 0
0 0 0
0 0 0
0 0 0
0 0 0
0 0 0
0 0 0
0 0 0
0 0 0
0 0 0
0 0 0
0 0 0
0 0 0
0 0 0
0 0 0
0 0 0
0 0 0
0 0 0
0 0 0
0 0 0
0 0 0
0 0 0
0 0 0
0 0 0
0 0 0
0 0 0
0 0 0
0 0 0
0 0 0
0 0 0
0 0 0
0 0 0
0 0 0
0 0 0
0 0 0
0 0 0
0 0 0
0 0 0
0 0 0
0 0 0
0 0 0
0 0 0
0 0 0
0 0 0
0 0 0
0 0 0
0 0 0
0 0 0
0 0 0
0 0 0
0 0 0
0 0 0
0 0 0
0 0 0
0 0 0
0 0 0
0 0 0
0 0 0
0 0 0
0 0 0
0 0 0
0 0 0
0 0 0
0 0 0
0 0 0
0 0 0
0 0 0
0 0 0
0 0 0
0 0 0
0 0 0
0 0 0
0 0 0
0 0 0
0 0 0
0 0 0
0 0 0
0 0 0
0 0 0
0 0 0
0 0 0
0 0 0
0 0 0
0 0 0
0 0 0
0 0 0
0 0 0
0 0 0
0 0 0
0 0 0
0 0 0
0 0 0
0 0 0
0 0 0
0 0 0
0 0 0
0 0 0
0 0 0
0 0 0
0 0 0
0 0 0
0 0 0
0 0 0
0 0 0
0 0 0
0 0 0
0 0 0
0 0 0
0 0 0
0 0 0
0 0 0
0 0 0
0 0 0
0 0 0
0 0 0
0 0 0
0 0 0
0 0 0
0 0 0
0 0 0
0 0 0
0 0 0
0 0 0
0 0 0
0 0 0
0 0 0
0 0 0
0 0 0
0 0 0
0 0 0
0 0 0
0 0 0
0 0 0
0 0 0
0 0 0
0 0 0
0 0 0
0 0 0
0 0 0
0 0 0
0 0 0
0 0 0
0 0 0
0 0 0
0 0 0
0 0 0
0 0 0
0 0 0
0 0 0
0 0 0
0 0 0
0 0 0
0 0 0
0 0 0
0 0 0
0 0 0
0 0 0
0 0 0
0 0 0
0 0 0
0 0 0
0 0 0
0 0 0
0 0 0
0 0 0
0 0 0
0 0 0
0 0 0
0 0 0
0 0 0
0 0 0
0 0 0
0 0 0
0 0 0
0 0 0
0 0 0
0 0 0
0 0 0
0 0 0
0 0 0
0 0 0
0 0 0
0 0 0
0 0 0
0 0 0
0 0 0
0 0 0
0 0 0
0 0 0
0 0 0
0 0 0
0 0 0
0 0 0
0 0 0
0 0 0
0 0 0
0 0 0
0 0 0
0 0 0
0 0 0
0 0 0
0 0 0
0 0 0
0 0 0
0 0 0
0 0 0
0 0 0
0 0 0
0 0 0
0 0 0
0 0 0
0 0 0
0 0 0
0 0 0
0 0 0
0 0 0
0 0 0
0 0 0
0 0 0
0 0 0
0 0 0
0 0 0
0 0 0
0 0 0
0 0 0
0 0 0
0 0 0
0 0 0
0 0 0
0 0 0
0 0 0
0 0 0
0 0 0
0 0 0
0 0 0
0 0 0
0 0 0
0 0 0
0 0 0
0 0 0
0 0 0
0 0 0
0 0 0
0 0 0
0 0 0
0 0 0
0 0 0
0 0 0
0 0 0
0 0 0
0 0 0
0 0 0
0 0 0
0 0 0
0 0 0
0 0 0
0 0 0
0 0 0
0 0 0
0 0 0
0 0 0
0 0 0
0 0 0
0 0 0
0 0 0
0 0 0
0 0 0
0 0 0
0 0 0
0 0 0
0 0 0
0 0 0
0 0 0
0 0 0
0 0 0
0 0 0
0 0 0
0 0 0
0 0 0
0 0 0
0 0 0
0 0 0
0 0 0
0 0 0
0 0 0
0 0 0
0 0 0
0 0 0
0 0 0
0 0 0
0 0 0
0 0 0
0 0 0
0 0 0
0 0 0
0 0 0
0 0 0
0 0 0
0 0 0
0 0 0
0 0 0
0 0 0
0 0 0
0 0 0
0 0 0
0 0 0
0 0 0
0 0 0
0 0 0
0 0 0
0 0 0
0 0 0
0 0 0
0 0 0
0 0 0
0 0 0
0 0 0
0 0 0
0 0 0
0 0 0
0 0 0
0 0 0
0 0 0
0 0 0
0 0 0
0 0 0
0 0 0
0 0 0
0 0 0
0 0 0
0 0 0
0 0 0
0 0 0
0 0 0
0 0 0
0 0 0
0 0 0
0 0 0
0 0 0
0 0 0
0 0 0
0 0 0
0 0 0
0 0 0
0 0 0
0 0 0
0 0 0
0 0 0
0 0 0
0 0 0
0 0 0
0 0 0
0 0 0
0 0 0
0 0 0
0 0 0
0 0 0
0 0 0
0 0 0
0 0 0
0 0 0
0 0 0
0 0 0
0 0 0
0 0 0
0 0 0
0 0 0
0 0 0
0 0 0
0 0 0
0 0 0
0 0 0
0 0 0
0 0 0
0 0 0
0 0 0
0 0 0
0 0 0
0 0 0
0 0 0
0 0 0
0 0 0
0 0 0
0 0 0
0 0 0
0 0 0
0 0 0
0 0 0
0 0 0
0 0 0
0 0 0
0 0 0
0 0 0
0 0 0
0 0 0
0 0 0
0 0 0
0 0 0
0 0 0
0 0 0
0 0 0
0 0 0
0 0 0
0 0 0
0 0 0
0 0 0
0 0 0
0 0 0
0 0 0
0 0 0
0 0 0
0 0 0
0 0 0
0 0 0
0 0 0
0 0 0
0 0 0
0 0 0
0 0 0
0 0 0
0 0 0
0 0 0
0 0 0
0 0 0
0 0 0
0 0 0
0 0 0
0 0 0
0 0 0
0 0 0
0 0 0
0 0 0
0 0 0
0 0 0
0 0 0
0 0 0
0 0 0
0 0 0
0 0 0
0 0 0
0 0 0
0 0 0
0 0 0
0 0 0
0 0 0
0 0 0
0 0 0
0 0 0
0 0 0
0 0 0
0 0 0
0 0 0
0 0 0
0 0 0
0 0 0
0 0 0
0 0 0
0 0 0
0 0 0
0 0 0
0 0 0
0 0 0
0 0 0
0 0 0
0 0 0
0 0 0
0 0 0
0 0 0
0 0 0
0 0 0
0 0 0
0 0 0
0 0 0
0 0 0
0 0 0
0 0 0
0 0 0
0 0 0
0 0 0
0 0 0
0 0 0
0 0 0
0 0 0
0 0 0
0 0 0
0 0 0
0 0 0
0 0 0
0 0 0
0 0 0
0 0 0
0 0 0
0 0 0
0 0 0
0 0 0
0 0 0
0 0 0
0 0 0
0 0 0
0 0 0
0 0 0
0 0 0
0 0 0
0 0 0
0 0 0
0 0 0
0 0 0
0 0 0
0 0 0
0 0 0
0 0 0
0 0 0
0 0 0
0 0 0
0 0 0
0 0 0
0 0 0
0 0 0
0 0 0
0 0 0
0 0 0
0 0 0
0 0 0
0 0 0
0 0 0
0 0 0
0 0 0
0 0 0
0 0 0
0 0 0
0 0 0
0 0 0
0 0 0
0 0 0
0 0 0
0 0 0
0 0 0
0 0 0
0 0 0
0 0 0
0 0 0
0 0 0
0 0 0
0 0 0
0 0 0
0 0 0
0 0 0
0 0 0
0 0 0
0 0 0
0 0 0
0 0 0
0 0 0
0 0 0
0 0 0
0 0 0
0 0 0
0 0 0
0 0 0
0 0 0
0 0 0
0 0 0
0 0 0
0 0 0
0 0 0
0 0 0
0 0 0
0 0 0
0 0 0
0 0 0
0 0 0
0 0 0
0 0 0
0 0 0
0 0 0
0 0 0
0 0 0
0 0 0
0 0 0
0 0 0
0 0 0
0 0 0
0 0 0
0 0 0
0 0 0
0 0 0
0 0 0
0 0 0
0 0 0
0 0 0
0 0 0
0 0 0
0 0 0
0 0 0
0 0 0
0 0 0
0 0 0
0 0 0
0 0 0
0 0 0
0 0 0
0 0 0
0 0 0
0 0 0
0 0 0
0 0 0
0 0 0
0 0 0
0 0 0
0 0 0
0 0 0
0 0 0
0 0 0
0 0 0
0 0 0
0 0 0
0 0 0
0 0 0
0 0 0
0 0 0
0 0 0
0 0 0
0 0 0
0 0 0
0 0 0
0 0 0
0 0 0
0 0 0
0 0 0
0 0 0
0 0 0
0 0 0
0 0 0
0 0 0
0 0 0
0 0 0
0 0 0
0 0 0
0 0 0
0 0 0
0 0 0
0 0 0
0 0 0
0 0 0
0 0 0
0 0 0
0 0 0
0 0 0
0 0 0
0 0 0
0 0 0
0 0 0
0 0 0
0 0 0
0 0 0
0 0 0
0 0 0
0 0 0
0 0 0
0 0 0
0 0 0
0 0 0
0 0 0
0 0 0
0 0 0
0 0 0
0 0 0
0 0 0
0 0 0
0 0 0
0 0 0
0 0 0
0 0 0
0 0 0
0 0 0
0 0 0
0 0 0
0 0 0
0 0 0
0 0 0
0 0 0
0 0 0
0 0 0
0 0 0
0 0 0
0 0 0
0 0 0
0 0 0
0 0 0
0 0 0
0 0 0
0 0 0
0 0 0
0 0 0
0 0 0
0 0 0
0 0 0
0 0 0
0 0 0
0 0 0
0 0 0
0 0 0
0 0 0
0 0 0
0 0 0
0 0 0
0 0 0
0 0 0
0 0 0
0 0 0
0 0 0
0 0 0
0 0 0
0 0 0
0 0 0
0 0 0
0 0 0
0 0 0
0 0 0
0 0 0
0 0 0
0 0 0
0 0 0
0 0 0
0 0 0
0 0 0
0 0 0
0 0 0
0 0 0
0 0 0
0 0 0
0 0 0
0 0 0
0 0 0
0 0 0
0 0 0
0 0 0
0 0 0
0 0 0
0 0 0
0 0 0
0 0 0
0 0 0
0 0 0
0 0 0
0 0 0
0 0 0
0 0 0
0 0 0
0 0 0
0 0 0
0 0 0
0 0 0
0 0 0
0 0 0
0 0 0
0 0 0
0 0 0
0 0 0
0 0 0
0 0 0
0 0 0
0 0 0
0 0 0
0 0 0
0 0 0
0 0 0
0 0 0
0 0 0
0 0 0
0 0 0
0 0 0
0 0 0
0 0 0
0 0 0
0 0 0
0 0 0
0 0 0
0 0 0
0 0 0
0 0 0
0 0 0
0 0 0
0 0 0
0 0 0
0 0 0
0 0 0
0 0 0
0 0 0
0 0 0
0 0 0
0 0 0
0 0 0
0 0 0
0 0 0
0 0 0
0 0 0
0 0 0
0 0 0
0 0 0
0 0 0
0 0 0
0 0 0
0 0 0
0 0 0
0 0 0
0 0 0
0 0 0
0 0 0
0 0 0
0 0 0
0 0 0
0 0 0
0 0 0
0 0 0
0 0 0
0 0 0
0 0 0
0 0 0
0 0 0
0 0 0
0 0 0
0 0 0
0 0 0
0 0 0
0 0 0
0 0 0
0 0 0
0 0 0
0 0 0
0 0 0
0 0 0
0 0 0
0 0 0
0 0 0
0 0 0
0 0 0
0 0 0
0 0 0
0 0 0
0 0 0
0 0 0
0 0 0
0 0 0
0 0 0
0 0 0
0 0 0
0 0 0
0 0 0
0 0 0
0 0 0
0 0 0
0 0 0
0 0 0
0 0 0
0 0 0
0 0 0
0 0 0
0 0 0
0 0 0
0 0 0
0 0 0
0 0 0
0 0 0
0 0 0
0 0 0
0 0 0
0 0 0
0 0 0
0 0 0
0 0 0
0 0 0
0 0 0
0 0 0
0 0 0
0 0 0
0 0 0
0 0 0
0 0 0
0 0 0
0 0 0
0 0 0
0 0 0
0 0 0
0 0 0
0 0 0
0 0 0
0 0 0
0 0 0
0 0 0
0 0 0
0 0 0
0 0 0
0 0 0
0 0 0
0 0 0
0 0 0
0 0 0
0 0 0
0 0 0
0 0 0
0 0 0
0 0 0
0 0 0
0 0 0
0 0 0
0 0 0
0 0 0
0 0 0
0 0 0
0 0 0
0 0 0
0 0 0
0 0 0
0 0 0
0 0 0
0 0 0
0 0 0
0 0 0
0 0 0
0 0 0
0 0 0
0 0 0
0 0 0
0 0 0
0 0 0
0 0 0
0 0 0
0 0 0
0 0 0
0 0 0
0 0 0
0 0 0
0 0 0
0 0 0
0 0 0
0 0 0
0 0 0
0 0 0
0 0 0
0 0 0
0 0 0
0 0 0
0 0 0
0 0 0
0 0 0
0 0 0
0 0 0
0 0 0
0 0 0
0 0 0
0 0 0
0 0 0
0 0 0
0 0 0
0 0 0
0 0 0
0 0 0
0 0 0
0 0 0
0 0 0
0 0 0
0 0 0
0 0 0
0 0 0
0 0 0
0 0 0
0 0 0
0 0 0
0 0 0
0 0 0
0 0 0
0 0 0
0 0 0
0 0 0
0 0 0
0 0 0
0 0 0
0 0 0
0 0 0
0 0 0
0 0 0
0 0 0
0 0 0
0 0 0
0 0 0
0 0 0
0 0 0
0 0 0
0 0 0
0 0 0
0 0 0
0 0 0
0 0 0
0 0 0
0 0 0
0 0 0
0 0 0
0 0 0
0 0 0
0 0 0
0 0 0
0 0 0
0 0 0
0 0 0
0 0 0
0 0 0
0 0 0
0 0 0
0 0 0
0 0 0
0 0 0
0 0 0
0 0 0
0 0 0
0 0 0
0 0 0
0 0 0
0 0 0
0 0 0
0 0 0
0 0 0
0 0 0
0 0 0
0 0 0
0 0 0
0 0 0
0 0 0
0 0 0
0 0 0
0 0 0
0 0 0
0 0 0
0 0 0
0 0 0
0 0 0
0 0 0
0 0 0
0 0 0
0 0 0
0 0 0
0 0 0
0 0 0
0 0 0
0 0 0
0 0 0
0 0 0
0 0 0
0 0 0
0 0 0
0 0 0
0 0 0
0 0 0
0 0 0
0 0 0
0 0 0
0 0 0
0 0 0
0 0 0
0 0 0
0 0 0
0 0 0
0 0 0
0 0 0
0 0 0
0 0 0
0 0 0
0 0 0
0 0 0
0 0 0
0 0 0
0 0 0
0 0 0
0 0 0
0 0 0
0 0 0
0 0 0
0 0 0
0 0 0
0 0 0
0 0 0
0 0 0
0 0 0
0 0 0
0 0 0
0 0 0
0 0 0
0 0 0
0 0 0
0 0 0
0 0 0
0 0 0
0 0 0
0 0 0
0 0 0
0 0 0
0 0 0
0 0 0
0 0 0
0 0 0
0 0 0
0 0 0
0 0 0
0 0 0
0 0 0
0 0 0
0 0 0
0 0 0
0 0 0
0 0 0
0 0 0
0 0 0
0 0 0
0 0 0
0 0 0
0 0 0
0 0 0
0 0 0
0 0 0
0 0 0
0 0 0
0 0 0
0 0 0
0 0 0
0 0 0
0 0 0
0 0 0
0 0 0
0 0 0
0 0 0
0 0 0
0 0 0
0 0 0
0 0 0
0 0 0
0 0 0
0 0 0
0 0 0
0 0 0
0 0 0
0 0 0
0 0 0
0 0 0
0 0 0
0 0 0
0 0 0
0 0 0
0 0 0
0 0 0
0 0 0
0 0 0
0 0 0
0 0 0
0 0 0
0 0 0
0 0 0
0 0 0
0 0 0
0 0 0
0 0 0
0 0 0
0 0 0
0 0 0
0 0 0
0 0 0
0 0 0
0 0 0
0 0 0
0 0 0
0 0 0
0 0 0
0 0 0
0 0 0
0 0 0
0 0 0
0 0 0
0 0 0
0 0 0
0 0 0
0 0 0
0 0 0
0 0 0
0 0 0
0 0 0
0 0 0
0 0 0
0 0 0
0 0 0
0 0 0
0 0 0
0 0 0
0 0 0
0 0 0
0 0 0
0 0 0
0 0 0
0 0 0
0 0 0
0 0 0
0 0 0
0 0 0
0 0 0
0 0 0
0 0 0
0 0 0
0 0 0
0 0 0
0 0 0
0 0 0
0 0 0
0 0 0
0 0 0
0 0 0
0 0 0
0 0 0
0 0 0
0 0 0
0 0 0
0 0 0
0 0 0
0 0 0
0 0 0
0 0 0
0 0 0
0 0 0
0 0 0
0 0 0
0 0 0
0 0 0
0 0 0
0 0 0
0 0 0
0 0 0
0 0 0
0 0 0
0 0 0
0 0 0
0 0 0
0 0 0
0 0 0
0 0 0
0 0 0
0 0 0
0 0 0
0 0 0
0 0 0
0 0 0
0 0 0
0 0 0
0 0 0
0 0 0
0 0 0
0 0 0
0 0 0
0 0 0
0 0 0
0 0 0
0 0 0
0 0 0
0 0 0
0 0 0
0 0 0
0 0 0
0 0 0
0 0 0
0 0 0
0 0 0
0 0 0
0 0 0
0 0 0
0 0 0
0 0 0
0 0 0
0 0 0
0 0 0
0 0 0
0 0 0
0 0 0
0 0 0
0 0 0
0 0 0
0 0 0
0 0 0
0 0 0
0 0 0
0 0 0
0 0 0
0 0 0
0 0 0
0 0 0
0 0 0
0 0 0
0 0 0
0 0 0
0 0 0
0 0 0
0 0 0
0 0 0
0 0 0
0 0 0
0 0 0
0 0 0
0 0 0
0 0 0
0 0 0
0 0 0
0 0 0
0 0 0
0 0 0
0 0 0
0 0 0
0 0 0
0 0 0
0 0 0
0 0 0
0 0 0
0 0 0
0 0 0
0 0 0
0 0 0
0 0 0
0 0 0
0 0 0
0 0 0
0 0 0
0 0 0
0 0 0
0 0 0
0 0 0
0 0 0
0 0 0
0 0 0
0 0 0
0 0 0
0 0 0
0 0 0
0 0 0
0 0 0
0 0 0
0 0 0
0 0 0
0 0 0
0 0 0
0 0 0
0 0 0
0 0 0
0 0 0
0 0 0
0 0 0
0 0 0
0 0 0
0 0 0
0 0 0
0 0 0
0 0 0
0 0 0
0 0 0
0 0 0
0 0 0
0 0 0
0 0 0
0 0 0
0 0 0
0 0 0
0 0 0
0 0 0
0 0 0
0 0 0
0 0 0
0 0 0
0 0 0
0 0 0
0 0 0
0 0 0
0 0 0
0 0 0
0 0 0
0 0 0
0 0 0
0 0 0
0 0 0
0 0 0
0 0 0
0 0 0
0 0 0
0 0 0
0 0 0
0 0 0
0 0 0
0 0 0
0 0 0
0 0 0
0 0 0
0 0 0
0 0 0
0 0 0
0 0 0
0 0 0
0 0 0
0 0 0
0 0 0
0 0 0
0 0 0
0 0 0
0 0 0
0 0 0
0 0 0
0 0 0
0 0 0
0 0 0
0 0 0
0 0 0
0 0 0
0 0 0
0 0 0
0 0 0
0 0 0
0 0 0
0 0 0
0 0 0
0 0 0
0 0 0
0 0 0
0 0 0
0 0 0
0 0 0
0 0 0
0 0 0
0 0 0
0 0 0
0 0 0
0 0 0
0 0 0
0 0 0
0 0 0
0 0 0
0 0 0
0 0 0
0 0 0
0 0 0
0 0 0
0 0 0
0 0 0
0 0 0
0 0 0
0 0 0
0 0 0
0 0 0
0 0 0
0 0 0
0 0 0
0 0 0
0 0 0
0 0 0
0 0 0
0 0 0
0 0 0
0 0 0
0 0 0
0 0 0
0 0 0
0 0 0
0 0 0
0 0 0
0 0 0
0 0 0
0 0 0
0 0 0
0 0 0
0 0 0
0 0 0
0 0 0
0 0 0
0 0 0
0 0 0
0 0 0
0 0 0
0 0 0
0 0 0
0 0 0
0 0 0
0 0 0
0 0 0
0 0 0
0 0 0
0 0 0
0 0 0
0 0 0
0 0 0
0 0 0
0 0 0
0 0 0
0 0 0
0 0 0
0 0 0
0 0 0
0 0 0
0 0 0
0 0 0
0 0 0
0 0 0
0 0 0
0 0 0
0 0 0
0 0 0
0 0 0
0 0 0
0 0 0
0 0 0
0 0 0
0 0 0
0 0 0
0 0 0
0 0 0
0 0 0
0 0 0
0 0 0
0 0 0
0 0 0
0 0 0
0 0 0
0 0 0
0 0 0
0 0 0
0 0 0
0 0 0
0 0 0
0 0 0
0 0 0
0 0 0
0 0 0
0 0 0
0 0 0
0 0 0
0 0 0
0 0 0
0 0 0
0 0 0
0 0 0
0 0 0
0 0 0
0 0 0
0 0 0
0 0 0
0 0 0
0 0 0
0 0 0
0 0 0
0 0 0
0 0 0
0 0 0
0 0 0
0 0 0
0 0 0
0 0 0
0 0 0
0 0 0
0 0 0
0 0 0
0 0 0
0 0 0
0 0 0
0 0 0
0 0 0
0 0 0
0 0 0
0 0 0
0 0 0
0 0 0
0 0 0
0 0 0
0 0 0
0 0 0
0 0 0
0 0 0
0 0 0
0 0 0
0 0 0
0 0 0
0 0 0
0 0 0
0 0 0
0 0 0
0 0 0
0 0 0
0 0 0
0 0 0
0 0 0
0 0 0
0 0 0
0 0 0
0 0 0
0 0 0
0 0 0
0 0 0
0 0 0
0 0 0
0 0 0
0 0 0
0 0 0
0 0 0
0 0 0
0 0 0
0 0 0
0 0 0
0 0 0
0 0 0
0 0 0
0 0 0
0 0 0
0 0 0
0 0 0
0 0 0
0 0 0
0 0 0
0 0 0
0 0 0
0 0 0
0 0 0
0 0 0
0 0 0
0 0 0
0 0 0
0 0 0
0 0 0
0 0 0
0 0 0
0 0 0
0 0 0
0 0 0
0 0 0
0 0 0
0 0 0
0 0 0
0 0 0
0 0 0
0 0 0
0 0 0
0 0 0
0 0 0
0 0 0
0 0 0
0 0 0
0 0 0
0 0 0
0 0 0
0 0 0
0 0 0
0 0 0
0 0 0
0 0 0
0 0 0
0 0 0
0 0 0
0 0 0
0 0 0
0 0 0
0 0 0
0 0 0
0 0 0
0 0 0
0 0 0
0 0 0
0 0 0
0 0 0
0 0 0
0 0 0
0 0 0
0 0 0
0 0 0
0 0 0
0 0 0
0 0 0
0 0 0
0 0 0
0 0 0
0 0 0
0 0 0
0 0 0
0 0 0
0 0 0
0 0 0
0 0 0
0 0 0
0 0 0
0 0 0
0 0 0
0 0 0
0 0 0
0 0 0
0 0 0
0 0 0
0 0 0
0 0 0
0 0 0
0 0 0
0 0 0
0 0 0
0 0 0
0 0 0
0 0 0
0 0 0
0 0 0
0 0 0
0 0 0
0 0 0
0 0 0
0 0 0
0 0 0
0 0 0
0 0 0
0 0 0
0 0 0
0 0 0
0 0 0
0 0 0
0 0 0
0 0 0
0 0 0
0 0 0
0 0 0
0 0 0
0 0 0
0 0 0
0 0 0
0 0 0
0 0 0
0 0 0
0 0 0
0 0 0
0 0 0
0 0 0
0 0 0
0 0 0
0 0 0
0 0 0
0 0 0
0 0 0
0 0 0
0 0 0
0 0 0
0 0 0
0 0 0
0 0 0
0 0 0
0 0 0
0 0 0
0 0 0
0 0 0
0 0 0
0 0 0
0 0 0
0 0 0
0 0 0
0 0 0
0 0 0
0 0 0
0 0 0
0 0 0
0 0 0
0 0 0
0 0 0
0 0 0
0 0 0
0 0 0
0 0 0
0 0 0
0 0 0
0 0 0
0 0 0
0 0 0
0 0 0
0 0 0
0 0 0
0 0 0
0 0 0
0 0 0
0 0 0
0 0 0
0 0 0
0 0 0
0 0 0
0 0 0
0 0 0
0 0 0
0 0 0
0 0 0
0 0 0
0 0 0
0 0 0
0 0 0
0 0 0
0 0 0
0 0 0
0 0 0
0 0 0
0 0 0
0 0 0
0 0 0
0 0 0
0 0 0
0 0 0
0 0 0
0 0 0
0 0 0
0 0 0
0 0 0
0 0 0
0 0 0
0 0 0
0 0 0
0 0 0
0 0 0
0 0 0
0 0 0
0 0 0
0 0 0
0 0 0
0 0 0
0 0 0
0 0 0
0 0 0
0 0 0
0 0 0
0 0 0
0 0 0
0 0 0
0 0 0
0 0 0
0 0 0
0 0 0
0 0 0
0 0 0
0 0 0
0 0 0
0 0 0
0 0 0
0 0 0
0 0 0
0 0 0
0 0 0
0 0 0
0 0 0
0 0 0
0 0 0
0 0 0
0 0 0
0 0 0
0 0 0
0 0 0
0 0 0
0 0 0
0 0 0
0 0 0
0 0 0
0 0 0
0 0 0
0 0 0
0 0 0
0 0 0
0 0 0
0 0 0
0 0 0
0 0 0
0 0 0
0 0 0
0 0 0
0 0 0
0 0 0
0 0 0
0 0 0
0 0 0
0 0 0
0 0 0
0 0 0
0 0 0
0 0 0
0 0 0
0 0 0
0 0 0
0 0 0
0 0 0
0 0 0
0 0 0
0 0 0
0 0 0
0 0 0
0 0 0
0 0 0
0 0 0
0 0 0
0 0 0
0 0 0
0 0 0
0 0 0
0 0 0
0 0 0
0 0 0
0 0 0
0 0 0
0 0 0
0 0 0
0 0 0
0 0 0
0 0 0
0 0 0
0 0 0
0 0 0
0 0 0
0 0 0
0 0 0
0 0 0
0 0 0
0 0 0
0 0 0
0 0 0
0 0 0
0 0 0
0 0 0
0 0 0
0 0 0
0 0 0
0 0 0
0 0 0
0 0 0
0 0 0
0 0 0
0 0 0
0 0 0
0 0 0
0 0 0
0 0 0
0 0 0
0 0 0
0 0 0
0 0 0
0 0 0
0 0 0
0 0 0
0 0 0
0 0 0
0 0 0
0 0 0
0 0 0
0 0 0
0 0 0
0 0 0
0 0 0
0 0 0
0 0 0
0 0 0
0 0 0
0 0 0
0 0 0
0 0 0
0 0 0
0 0 0
0 0 0
0 0 0
0 0 0
0 0 0
0 0 0
0 0 0
0 0 0
0 0 0
0 0 0
0 0 0
0 0 0
0 0 0
0 0 0
0 0 0
0 0 0
0 0 0
0 0 0
0 0 0
0 0 0
0 0 0
0 0 0
0 0 0
0 0 0
0 0 0
0 0 0
0 0 0
0 0 0
0 0 0
0 0 0
0 0 0
0 0 0
0 0 0
0 0 0
0 0 0
0 0 0
0 0 0
0 0 0
0 0 0
0 0 0
0 0 0
0 0 0
0 0 0
0 0 0
0 0 0
0 0 0
0 0 0
0 0 0
0 0 0
0 0 0
0 0 0
0 0 0
0 0 0
0 0 0
0 0 0
0 0 0
0 0 0
0 0 0
0 0 0
0 0 0
0 0 0
0 0 0
0 0 0
0 0 0
0 0 0
0 0 0
0 0 0
0 0 0
0 0 0
0 0 0
0 0 0
0 0 0
0 0 0
0 0 0
0 0 0
0 0 0
0 0 0
0 0 0
0 0 0
0 0 0
0 0 0
0 0 0
0 0 0
0 0 0
0 0 0
0 0 0
0 0 0
0 0 0
0 0 0
0 0 0
0 0 0
0 0 0
0 0 0
0 0 0
0 0 0
0 0 0
0 0 0
0 0 0
0 0 0
0 0 0
0 0 0
0 0 0
0 0 0
0 0 0
0 0 0
0 0 0
0 0 0
0 0 0
0 0 0
0 0 0
0 0 0
0 0 0
0 0 0
0 0 0
0 0 0
0 0 0
0 0 0
0 0 0
0 0 0
0 0 0
0 0 0
0 0 0
0 0 0
0 0 0
0 0 0
0 0 0
0 0 0
0 0 0
0 0 0
0 0 0
0 0 0
0 0 0
0 0 0
0 0 0
0 0 0
0 0 0
0 0 0
0 0 0
0 0 0
0 0 0
0 0 0
0 0 0
0 0 0
0 0 0
0 0 0
0 0 0
0 0 0
0 0 0
0 0 0
0 0 0
0 0 0
0 0 0
0 0 0
0 0 0
0 0 0
0 0 0
0 0 0
0 0 0
0 0 0
0 0 0
0 0 0
0 0 0
0 0 0
0 0 0
0 0 0
0 0 0
0 0 0
0 0 0
0 0 0
0 0 0
0 0 0
0 0 0
0 0 0
0 0 0
0 0 0
0 0 0
0 0 0
0 0 0
0 0 0
0 0 0
0 0 0
0 0 0
0 0 0
0 0 0
0 0 0
0 0 0
0 0 0
0 0 0
0 0 0
0 0 0
0 0 0
0 0 0
0 0 0
0 0 0
0 0 0
0 0 0
0 0 0
0 0 0
0 0 0
0 0 0
0 0 0
0 0 0
0 0 0
0 0 0
0 0 0
0 0 0
0 0 0
0 0 0
0 0 0
0 0 0
0 0 0
0 0 0
0 0 0
0 0 0
0 0 0
0 0 0
0 0 0
0 0 0
0 0 0
0 0 0
0 0 0
0 0 0
0 0 0
0 0 0
0 0 0
0 0 0
0 0 0
0 0 0
0 0 0
0 0 0
0 0 0
0 0 0
0 0 0
0 0 0
0 0 0
0 0 0
0 0 0
0 0 0
0 0 0
0 0 0
0 0 0
0 0 0
0 0 0
0 0 0
0 0 0
0 0 0
0 0 0
0 0 0
0 0 0
0 0 0
0 0 0
0 0 0
0 0 0
0 0 0
0 0 0
0 0 0
0 0 0
0 0 0
0 0 0
0 0 0
0 0 0
0 0 0
0 0 0
0 0 0
0 0 0
0 0 0
0 0 0
0 0 0
0 0 0
0 0 0
0 0 0
0 0 0
0 0 0
0 0 0
0 0 0
0 0 0
0 0 0
0 0 0
0 0 0
0 0 0
0 0 0
0 0 0
0 0 0
0 0 0
0 0 0
0 0 0
0 0 0
0 0 0
0 0 0
0 0 0
0 0 0
0 0 0
0 0 0
0 0 0
0 0 0
0 0 0
0 0 0
0 0 0
0 0 0
0 0 0
0 0 0
0 0 0
0 0 0
0 0 0
0 0 0
0 0 0
0 0 0
0 0 0
0 0 0
0 0 0
0 0 0
0 0 0
0 0 0
0 0 0
0 0 0
0 0 0
0 0 0
0 0 0
0 0 0
0 0 0
0 0 0
0 0 0
0 0 0
0 0 0
0 0 0
0 0 0
0 0 0
0 0 0
0 0 0
0 0 0
0 0 0
0 0 0
0 0 0
0 0 0
0 0 0
0 0 0
0 0 0
0 0 0
0 0 0
0 0 0
0 0 0
0 0 0
0 0 0
0 0 0
0 0 0
0 0 0
0 0 0
0 0 0
0 0 0
0 0 0
0 0 0
0 0 0
0 0 0
0 0 0
0 0 0
0 0 0
0 0 0
0 0 0
0 0 0
0 0 0
0 0 0
0 0 0
0 0 0
0 0 0
0 0 0
0 0 0
0 0 0
0 0 0
0 0 0
0 0 0
0 0 0
0 0 0
0 0 0
0 0 0
0 0 0
0 0 0
0 0 0
0 0 0
0 0 0
0 0 0
0 0 0
0 0 0
0 0 0
0 0 0
0 0 0
0 0 0
0 0 0
0 0 0
0 0 0
0 0 0
0 0 0
0 0 0
0 0 0
0 0 0
0 0 0
0 0 0
0 0 0
0 0 0
0 0 0
0 0 0
0 0 0
0 0 0
0 0 0
0 0 0
0 0 0
0 0 0
0 0 0
0 0 0
0 0 0
0 0 0
0 0 0
0 0 0
0 0 0
0 0 0
0 0 0
0 0 0
0 0 0
0 0 0
0 0 0
0 0 0
0 0 0
0 0 0
0 0 0
0 0 0
0 0 0
0 0 0
0 0 0
0 0 0
0 0 0
0 0 0
0 0 0
0 0 0
0 0 0
0 0 0
0 0 0
0 0 0
0 0 0
0 0 0
0 0 0
0 0 0
0 0 0
0 0 0
0 0 0
0 0 0
0 0 0
0 0 0
0 0 0
0 0 0
0 0 0
0 0 0
0 0 0
0 0 0
0 0 0
0 0 0
0 0 0
0 0 0
0 0 0
0 0 0
0 0 0
0 0 0
0 0 0
0 0 0
0 0 0
0 0 0
0 0 0
0 0 0
0 0 0
0 0 0
0 0 0
0 0 0
0 0 0
0 0 0
0 0 0
0 0 0
0 0 0
0 0 0
0 0 0
0 0 0
0 0 0
0 0 0
0 0 0
0 0 0
0 0 0
0 0 0
0 0 0
0 0 0
0 0 0
0 0 0
0 0 0
0 0 0
0 0 0
0 0 0
0 0 0
0 0 0
0 0 0
0 0 0
0 0 0
0 0 0
0 0 0
0 0 0
0 0 0
0 0 0
0 0 0
0 0 0
0 0 0
0 0 0
0 0 0
0 0 0
0 0 0
0 0 0
0 0 0
0 0 0
0 0 0
0 0 0
0 0 0
0 0 0
0 0 0
0 0 0
0 0 0
0 0 0
0 0 0
0 0 0
0 0 0
0 0 0
0 0 0
0 0 0
0 0 0
0 0 0
0 0 0
0 0 0
0 0 0
0 0 0
0 0 0
0 0 0
0 0 0
0 0 0
0 0 0
0 0 0
0 0 0
0 0 0
0 0 0
0 0 0
0 0 0
0 0 0
0 0 0
0 0 0
0 0 0
0 0 0
0 0 0
0 0 0
0 0 0
0 0 0
0 0 0
0 0 0
0 0 0
0 0 0
0 0 0
0 0 0
0 0 0
0 0 0
0 0 0
0 0 0
0 0 0
0 0 0
0 0 0
0 0 0
0 0 0
0 0 0
0 0 0
0 0 0
0 0 0
0 0 0
0 0 0
0 0 0
0 0 0
0 0 0
0 0 0
0 0 0
0 0 0
0 0 0
0 0 0
0 0 0
0 0 0
0 0 0
0 0 0
0 0 0
0 0 0
0 0 0
0 0 0
0 0 0
0 0 0
0 0 0
0 0 0
0 0 0
0 0 0
0 0 0
0 0 0
0 0 0
0 0 0
0 0 0
0 0 0
0 0 0
0 0 0
0 0 0
0 0 0
0 0 0
0 0 0
0 0 0
0 0 0
0 0 0
0 0 0
0 0 0
0 0 0
0 0 0
86 113 186
86 113 186
86 113 186
86 113 186
86 113 186
86 113 186
86 113 186
86 113 186
86 113 186
86 113 186
86 113 186
86 113 186
86 113 186
86 113 186
86 113 186
86 113 186
86 113 186
86 113 186
86 113 186
86 113 186
86 113 186
86 113 186
86 113 186
86 113 186
86 113 186
86 113 186
86 113 186
86 113 186
86 113 186
86 113 186
86 113 186
86 113 186
86 113 186
86 113 186
86 113 186
86 113 186
86 113 186
86 113 186
86 113 186
86 113 186
86 113 186
86 113 186
86 113 186
86 113 186
86 113 186
86 113 186
86 113 186
86 113 186
86 113 186
86 113 186
86 113 186
86 113 186
86 113 186
86 113 186
86 113 186
86 113 186
86 113 186
86 113 186
86 113 186
86 113 186
86 113 186
86 113 186
86 113 186
86 113 186
86 113 186
86 113 186
86 113 186
86 113 186
86 113 186
86 113 186
86 113 186
86 113 186
86 113 186
86 113 186
86 113 186
86 113 186
86 113 186
86 113 186
86 113 186
86 113 186
86 113 186
86 113 186
86 113 186
86 113 186
86 113 186
86 113 186
86 113 186
86 113 186
86 113 186
86 113 186
86 113 186
86 113 186
86 113 186
86 113 186
86 113 186
86 113 186
0 0 0
0 0 0
0 0 0
0 0 0
0 0 0
0 0 0
0 0 0
0 0 0
0 0 0
0 0 0
0 0 0
0 0 0
0 0 0
0 0 0
0 0 0
0 0 0
186 177 86
186 177 86
186 177 86
186 177 86
186 177 86
186 177 86
186 177 86
186 177 86
186 177 86
186 177 86
186 177 86
186 177 86
186 177 86
186 177 86
186 177 86
186 177 86
186 177 86
186 177 86
186 177 86
186 177 86
186 177 86
186 177 86
186 177 86
186 177 86
186 177 86
186 177 86
186 177 86
186 177 86
186 177 86
186 177 86
186 177 86
186 177 86
186 177 86
186 177 86
186 177 86
186 177 86
186 177 86
186 177 86
186 177 86
186 177 86
186 177 86
186 177 86
186 177 86
186 177 86
186 177 86
186 177 86
186 177 86
186 177 86
186 177 86
186 177 86
186 177 86
186 177 86
186 177 86
186 177 86
186 177 86
186 177 86
186 177 86
186 177 86
186 177 86
186 177 86
186 177 86
186 177 86
186 177 86
186 177 86
186 177 86
186 177 86
186 177 86
186 177 86
186 177 86
186 177 86
186 177 86
186 177 86
186 177 86
186 177 86
186 177 86
186 177 86
186 177 86
186 177 86
186 177 86
186 177 86
186 177 86
186 177 86
186 177 86
186 177 86
186 177 86
186 177 86
186 177 86
186 177 86
186 177 86
186 177 86
186 177 86
186 177 86
186 177 86
186 177 86
186 177 86
186 177 86
0 0 0
0 0 0
0 0 0
0 0 0
0 0 0
0 0 0
0 0 0
0 0 0
0 0 0
0 0 0
0 0 0
0 0 0
0 0 0
0 0 0
0 0 0
0 0 0
0 0 0
0 0 0
0 0 0
0 0 0
0 0 0
0 0 0
0 0 0
0 0 0
0 0 0
0 0 0
0 0 0
0 0 0
0 0 0
0 0 0
0 0 0
0 0 0
0 0 0
0 0 0
0 0 0
0 0 0
0 0 0
0 0 0
0 0 0
0 0 0
0 0 0
0 0 0
0 0 0
0 0 0
0 0 0
0 0 0
0 0 0
0 0 0
86 113 186
86 113 186
86 113 186
86 113 186
86 113 186
86 113 186
86 113 186
86 113 186
86 113 186
86 113 186
86 113 186
86 113 186
86 113 186
86 113 186
86 113 186
86 113 186
86 113 186
86 113 186
86 113 186
86 113 186
86 113 186
86 113 186
86 113 186
86 113 186
86 113 186
86 113 186
86 113 186
86 113 186
86 113 186
86 113 186
86 113 186
86 113 186
86 113 186
86 113 186
86 113 186
86 113 186
86 113 186
86 113 186
86 113 186
86 113 186
86 113 186
86 113 186
86 113 186
86 113 186
86 113 186
86 113 186
86 113 186
86 113 186
86 113 186
86 113 186
86 113 186
86 113 186
86 113 186
86 113 186
86 113 186
86 113 186
86 113 186
86 113 186
86 113 186
86 113 186
86 113 186
86 113 186
86 113 186
86 113 186
86 113 186
86 113 186
86 113 186
86 113 186
86 113 186
86 113 186
86 113 186
86 113 186
86 113 186
86 113 186
86 113 186
86 113 186
86 113 186
86 113 186
86 113 186
86 113 186
86 113 186
86 113 186
86 113 186
86 113 186
86 113 186
86 113 186
86 113 186
86 113 186
86 113 186
86 113 186
86 113 186
86 113 186
86 113 186
86 113 186
86 113 186
86 113 186
0 0 0
0 0 0
0 0 0
0 0 0
0 0 0
0 0 0
0 0 0
0 0 0
0 0 0
0 0 0
0 0 0
0 0 0
0 0 0
0 0 0
0 0 0
0 0 0
186 177 86
186 177 86
186 177 86
186 177 86
186 177 86
186 177 86
186 177 86
186 177 86
186 177 86
186 177 86
186 177 86
186 177 86
186 177 86
186 177 86
186 177 86
186 177 86
186 177 86
186 177 86
186 177 86
186 177 86
186 177 86
186 177 86
186 177 86
186 177 86
186 177 86
186 177 86
186 177 86
186 177 86
186 177 86
186 177 86
186 177 86
186 177 86
186 177 86
186 177 86
186 177 86
186 177 86
186 177 86
186 177 86
186 177 86
186 177 86
186 177 86
186 177 86
186 177 86
186 177 86
186 177 86
186 177 86
186 177 86
186 177 86
186 177 86
186 177 86
186 177 86
186 177 86
186 177 86
186 177 86
186 177 86
186 177 86
186 177 86
186 177 86
186 177 86
186 177 86
186 177 86
186 177 86
186 177 86
186 177 86
186 177 86
186 177 86
186 177 86
186 177 86
186 177 86
186 177 86
186 177 86
186 177 86
186 177 86
186 177 86
186 177 86
186 177 86
186 177 86
186 177 86
186 177 86
186 177 86
186 177 86
186 177 86
186 177 86
186 177 86
186 177 86
186 177 86
186 177 86
186 177 86
186 177 86
186 177 86
186 177 86
186 177 86
186 177 86
186 177 86
186 177 86
186 177 86
0 0 0
0 0 0
0 0 0
0 0 0
0 0 0
0 0 0
0 0 0
0 0 0
0 0 0
0 0 0
0 0 0
0 0 0
0 0 0
0 0 0
0 0 0
0 0 0
0 0 0
0 0 0
0 0 0
0 0 0
0 0 0
0 0 0
0 0 0
0 0 0
0 0 0
0 0 0
0 0 0
0 0 0
0 0 0
0 0 0
0 0 0
0 0 0
0 0 0
0 0 0
0 0 0
0 0 0
0 0 0
0 0 0
0 0 0
0 0 0
0 0 0
0 0 0
0 0 0
0 0 0
0 0 0
0 0 0
0 0 0
0 0 0
86 113 186
86 113 186
86 113 186
86 113 186
86 113 186
86 113 186
86 113 186
86 113 186
86 113 186
86 113 186
86 113 186
86 113 186
86 113 186
86 113 186
86 113 186
86 113 186
86 113 186
86 113 186
86 113 186
86 113 186
86 113 186
86 113 186
86 113 186
86 113 186
86 113 186
86 113 186
86 113 186
86 113 186
86 113 186
86 113 186
86 113 186
86 113 186
86 113 186
86 113 186
86 113 186
86 113 186
86 113 186
86 113 186
86 113 186
86 113 186
86 113 186
86 113 186
86 113 186
86 113 186
86 113 186
86 113 186
86 113 186
86 113 186
86 113 186
86 113 186
86 113 186
86 113 186
86 113 186
86 113 186
86 113 186
86 113 186
86 113 186
86 113 186
86 113 186
86 113 186
86 113 186
86 113 186
86 113 186
86 113 186
86 113 186
86 113 186
86 113 186
86 113 186
86 113 186
86 113 186
86 113 186
86 113 186
86 113 186
86 113 186
86 113 186
86 113 186
86 113 186
86 113 186
86 113 186
86 113 186
86 113 186
86 113 186
86 113 186
86 113 186
86 113 186
86 113 186
86 113 186
86 113 186
86 113 186
86 113 186
86 113 186
86 113 186
86 113 186
86 113 186
86 113 186
86 113 186
0 0 0
0 0 0
0 0 0
0 0 0
0 0 0
0 0 0
0 0 0
0 0 0
0 0 0
0 0 0
0 0 0
0 0 0
0 0 0
0 0 0
0 0 0
0 0 0
186 177 86
186 177 86
186 177 86
186 177 86
186 177 86
186 177 86
186 177 86
186 177 86
186 177 86
186 177 86
186 177 86
186 177 86
186 177 86
186 177 86
186 177 86
186 177 86
186 177 86
186 177 86
186 177 86
186 177 86
186 177 86
186 177 86
186 177 86
186 177 86
186 177 86
186 177 86
186 177 86
186 177 86
186 177 86
186 177 86
186 177 86
186 177 86
186 177 86
186 177 86
186 177 86
186 177 86
186 177 86
186 177 86
186 177 86
186 177 86
186 177 86
186 177 86
186 177 86
186 177 86
186 177 86
186 177 86
186 177 86
186 177 86
186 177 86
186 177 86
186 177 86
186 177 86
186 177 86
186 177 86
186 177 86
186 177 86
186 177 86
186 177 86
186 177 86
186 177 86
186 177 86
186 177 86
186 177 86
186 177 86
186 177 86
186 177 86
186 177 86
186 177 86
186 177 86
186 177 86
186 177 86
186 177 86
186 177 86
186 177 86
186 177 86
186 177 86
186 177 86
186 177 86
186 177 86
186 177 86
186 177 86
186 177 86
186 177 86
186 177 86
186 177 86
186 177 86
186 177 86
186 177 86
186 177 86
186 177 86
186 177 86
186 177 86
186 177 86
186 177 86
186 177 86
186 177 86
0 0 0
0 0 0
0 0 0
0 0 0
0 0 0
0 0 0
0 0 0
0 0 0
0 0 0
0 0 0
0 0 0
0 0 0
0 0 0
0 0 0
0 0 0
0 0 0
0 0 0
0 0 0
0 0 0
0 0 0
0 0 0
0 0 0
0 0 0
0 0 0
0 0 0
0 0 0
0 0 0
0 0 0
0 0 0
0 0 0
0 0 0
0 0 0
0 0 0
0 0 0
0 0 0
0 0 0
0 0 0
0 0 0
0 0 0
0 0 0
0 0 0
0 0 0
0 0 0
0 0 0
0 0 0
0 0 0
0 0 0
0 0 0
86 113 186
86 113 186
86 113 186
86 113 186
86 113 186
86 113 186
86 113 186
86 113 186
86 113 186
86 113 186
86 113 186
86 113 186
86 113 186
86 113 186
86 113 186
86 113 186
86 113 186
86 113 186
86 113 186
86 113 186
86 113 186
86 113 186
86 113 186
86 113 186
86 113 186
86 113 186
86 113 186
86 113 186
86 113 186
86 113 186
86 113 186
86 113 186
86 113 186
86 113 186
86 113 186
86 113 186
86 113 186
86 113 186
86 113 186
86 113 186
86 113 186
86 113 186
86 113 186
86 113 186
86 113 186
86 113 186
86 113 186
86 113 186
86 113 186
86 113 186
86 113 186
86 113 186
86 113 186
86 113 186
86 113 186
86 113 186
86 113 186
86 113 186
86 113 186
86 113 186
86 113 186
86 113 186
86 113 186
86 113 186
86 113 186
86 113 186
86 113 186
86 113 186
86 113 186
86 113 186
86 113 186
86 113 186
86 113 186
86 113 186
86 113 186
86 113 186
86 113 186
86 113 186
86 113 186
86 113 186
86 113 186
86 113 186
86 113 186
86 113 186
86 113 186
86 113 186
86 113 186
86 113 186
86 113 186
86 113 186
86 113 186
86 113 186
86 113 186
86 113 186
86 113 186
86 113 186
0 0 0
0 0 0
0 0 0
0 0 0
0 0 0
0 0 0
0 0 0
0 0 0
0 0 0
0 0 0
0 0 0
0 0 0
0 0 0
0 0 0
0 0 0
0 0 0
186 177 86
186 177 86
186 177 86
186 177 86
186 177 86
186 177 86
186 177 86
186 177 86
186 177 86
186 177 86
186 177 86
186 177 86
186 177 86
186 177 86
186 177 86
186 177 86
186 177 86
186 177 86
186 177 86
186 177 86
186 177 86
186 177 86
186 177 86
186 177 86
186 177 86
186 177 86
186 177 86
186 177 86
186 177 86
186 177 86
186 177 86
186 177 86
186 177 86
186 177 86
186 177 86
186 177 86
186 177 86
186 177 86
186 177 86
186 177 86
186 177 86
186 177 86
186 177 86
186 177 86
186 177 86
186 177 86
186 177 86
186 177 86
186 177 86
186 177 86
186 177 86
186 177 86
186 177 86
186 177 86
186 177 86
186 177 86
186 177 86
186 177 86
186 177 86
186 177 86
186 177 86
186 177 86
186 177 86
186 177 86
186 177 86
186 177 86
186 177 86
186 177 86
186 177 86
186 177 86
186 177 86
186 177 86
186 177 86
186 177 86
186 177 86
186 177 86
186 177 86
186 177 86
186 177 86
186 177 86
186 177 86
186 177 86
186 177 86
186 177 86
186 177 86
186 177 86
186 177 86
186 177 86
186 177 86
186 177 86
186 177 86
186 177 86
186 177 86
186 177 86
186 177 86
186 177 86
0 0 0
0 0 0
0 0 0
0 0 0
0 0 0
0 0 0
0 0 0
0 0 0
0 0 0
0 0 0
0 0 0
0 0 0
0 0 0
0 0 0
0 0 0
0 0 0
0 0 0
0 0 0
0 0 0
0 0 0
0 0 0
0 0 0
0 0 0
0 0 0
0 0 0
0 0 0
0 0 0
0 0 0
0 0 0
0 0 0
0 0 0
0 0 0
0 0 0
0 0 0
0 0 0
0 0 0
0 0 0
0 0 0
0 0 0
0 0 0
0 0 0
0 0 0
0 0 0
0 0 0
0 0 0
0 0 0
0 0 0
0 0 0
86 113 186
86 113 186
86 113 186
86 113 186
86 113 186
86 113 186
86 113 186
86 113 186
86 113 186
86 113 186
86 113 186
86 113 186
86 113 186
86 113 186
86 113 186
86 113 186
86 113 186
86 113 186
86 113 186
86 113 186
86 113 186
86 113 186
86 113 186
86 113 186
86 113 186
86 113 186
86 113 186
86 113 186
86 113 186
86 113 186
86 113 186
86 113 186
86 113 186
86 113 186
86 113 186
86 113 186
86 113 186
86 113 186
86 113 186
86 113 186
86 113 186
86 113 186
86 113 186
86 113 186
86 113 186
86 113 186
86 113 186
86 113 186
86 113 186
86 113 186
86 113 186
86 113 186
86 113 186
86 113 186
86 113 186
86 113 186
86 113 186
86 113 186
86 113 186
86 113 186
86 113 186
86 113 186
86 113 186
86 113 186
86 113 186
86 113 186
86 113 186
86 113 186
86 113 186
86 113 186
86 113 186
86 113 186
86 113 186
86 113 186
86 113 186
86 113 186
86 113 186
86 113 186
86 113 186
86 113 186
86 113 186
86 113 186
86 113 186
86 113 186
86 113 186
86 113 186
86 113 186
86 113 186
86 113 186
86 113 186
86 113 186
86 113 186
86 113 186
86 113 186
86 113 186
86 113 186
0 0 0
0 0 0
0 0 0
0 0 0
0 0 0
0 0 0
0 0 0
0 0 0
0 0 0
0 0 0
0 0 0
0 0 0
0 0 0
0 0 0
0 0 0
0 0 0
186 177 86
186 177 86
186 177 86
186 177 86
186 177 86
186 177 86
186 177 86
186 177 86
186 177 86
186 177 86
186 177 86
186 177 86
186 177 86
186 177 86
186 177 86
186 177 86
186 177 86
186 177 86
186 177 86
186 177 86
186 177 86
186 177 86
186 177 86
186 177 86
186 177 86
186 177 86
186 177 86
186 177 86
186 177 86
186 177 86
186 177 86
186 177 86
186 177 86
186 177 86
186 177 86
186 177 86
186 177 86
186 177 86
186 177 86
186 177 86
186 177 86
186 177 86
186 177 86
186 177 86
186 177 86
186 177 86
186 177 86
186 177 86
186 177 86
186 177 86
186 177 86
186 177 86
186 177 86
186 177 86
186 177 86
186 177 86
186 177 86
186 177 86
186 177 86
186 177 86
186 177 86
186 177 86
186 177 86
186 177 86
186 177 86
186 177 86
186 177 86
186 177 86
186 177 86
186 177 86
186 177 86
186 177 86
186 177 86
186 177 86
186 177 86
186 177 86
186 177 86
186 177 86
186 177 86
186 177 86
186 177 86
186 177 86
186 177 86
186 177 86
186 177 86
186 177 86
186 177 86
186 177 86
186 177 86
186 177 86
186 177 86
186 177 86
186 177 86
186 177 86
186 177 86
186 177 86
0 0 0
0 0 0
0 0 0
0 0 0
0 0 0
0 0 0
0 0 0
0 0 0
0 0 0
0 0 0
0 0 0
0 0 0
0 0 0
0 0 0
0 0 0
0 0 0
0 0 0
0 0 0
0 0 0
0 0 0
0 0 0
0 0 0
0 0 0
0 0 0
0 0 0
0 0 0
0 0 0
0 0 0
0 0 0
0 0 0
0 0 0
0 0 0
0 0 0
0 0 0
0 0 0
0 0 0
0 0 0
0 0 0
0 0 0
0 0 0
0 0 0
0 0 0
0 0 0
0 0 0
0 0 0
0 0 0
0 0 0
0 0 0
86 113 186
86 113 186
86 113 186
86 113 186
86 113 186
86 113 186
86 113 186
86 113 186
86 113 186
86 113 186
86 113 186
86 113 186
86 113 186
86 113 186
86 113 186
86 113 186
86 113 186
86 113 186
86 113 186
86 113 186
86 113 186
86 113 186
86 113 186
86 113 186
86 113 186
86 113 186
86 113 186
86 113 186
86 113 186
86 113 186
86 113 186
86 113 186
86 113 186
86 113 186
86 113 186
86 113 186
86 113 186
86 113 186
86 113 186
86 113 186
86 113 186
86 113 186
86 113 186
86 113 186
86 113 186
86 113 186
86 113 186
86 113 186
86 113 186
86 113 186
86 113 186
86 113 186
86 113 186
86 113 186
86 113 186
86 113 186
86 113 186
86 113 186
86 113 186
86 113 186
86 113 186
86 113 186
86 113 186
86 113 186
86 113 186
86 113 186
86 113 186
86 113 186
86 113 186
86 113 186
86 113 186
86 113 186
86 113 186
86 113 186
86 113 186
86 113 186
86 113 186
86 113 186
86 113 186
86 113 186
86 113 186
86 113 186
86 113 186
86 113 186
86 113 186
86 113 186
86 113 186
86 113 186
86 113 186
86 113 186
86 113 186
86 113 186
86 113 186
86 113 186
86 113 186
86 113 186
0 0 0
0 0 0
0 0 0
0 0 0
0 0 0
0 0 0
0 0 0
0 0 0
0 0 0
0 0 0
0 0 0
0 0 0
0 0 0
0 0 0
0 0 0
0 0 0
186 177 86
186 177 86
186 177 86
186 177 86
186 177 86
186 177 86
186 177 86
186 177 86
186 177 86
186 177 86
186 177 86
186 177 86
186 177 86
186 177 86
186 177 86
186 177 86
186 177 86
186 177 86
186 177 86
186 177 86
186 177 86
186 177 86
186 177 86
186 177 86
186 177 86
186 177 86
186 177 86
186 177 86
186 177 86
186 177 86
186 177 86
186 177 86
186 177 86
186 177 86
186 177 86
186 177 86
186 177 86
186 177 86
186 177 86
186 177 86
186 177 86
186 177 86
186 177 86
186 177 86
186 177 86
186 177 86
186 177 86
186 177 86
186 177 86
186 177 86
186 177 86
186 177 86
186 177 86
186 177 86
186 177 86
186 177 86
186 177 86
186 177 86
186 177 86
186 177 86
186 177 86
186 177 86
186 177 86
186 177 86
186 177 86
186 177 86
186 177 86
186 177 86
186 177 86
186 177 86
186 177 86
186 177 86
186 177 86
186 177 86
186 177 86
186 177 86
186 177 86
186 177 86
186 177 86
186 177 86
186 177 86
186 177 86
186 177 86
186 177 86
186 177 86
186 177 86
186 177 86
186 177 86
186 177 86
186 177 86
186 177 86
186 177 86
186 177 86
186 177 86
186 177 86
186 177 86
0 0 0
0 0 0
0 0 0
0 0 0
0 0 0
0 0 0
0 0 0
0 0 0
0 0 0
0 0 0
0 0 0
0 0 0
0 0 0
0 0 0
0 0 0
0 0 0
0 0 0
0 0 0
0 0 0
0 0 0
0 0 0
0 0 0
0 0 0
0 0 0
0 0 0
0 0 0
0 0 0
0 0 0
0 0 0
0 0 0
0 0 0
0 0 0
0 0 0
0 0 0
0 0 0
0 0 0
0 0 0
0 0 0
0 0 0
0 0 0
0 0 0
0 0 0
0 0 0
0 0 0
0 0 0
0 0 0
0 0 0
0 0 0
86 113 186
86 113 186
86 113 186
86 113 186
86 113 186
86 113 186
86 113 186
86 113 186
86 113 186
86 113 186
86 113 186
86 113 186
86 113 186
86 113 186
86 113 186
86 113 186
86 113 186
86 113 186
86 113 186
86 113 186
86 113 186
86 113 186
86 113 186
86 113 186
86 113 186
86 113 186
86 113 186
86 113 186
86 113 186
86 113 186
86 113 186
86 113 186
86 113 186
86 113 186
86 113 186
86 113 186
86 113 186
86 113 186
86 113 186
86 113 186
86 113 186
86 113 186
86 113 186
86 113 186
86 113 186
86 113 186
86 113 186
86 113 186
86 113 186
86 113 186
86 113 186
86 113 186
86 113 186
86 113 186
86 113 186
86 113 186
86 113 186
86 113 186
86 113 186
86 113 186
86 113 186
86 113 186
86 113 186
86 113 186
86 113 186
86 113 186
86 113 186
86 113 186
86 113 186
86 113 186
86 113 186
86 113 186
86 113 186
86 113 186
86 113 186
86 113 186
86 113 186
86 113 186
86 113 186
86 113 186
86 113 186
86 113 186
86 113 186
86 113 186
86 113 186
86 113 186
86 113 186
86 113 186
86 113 186
86 113 186
86 113 186
86 113 186
86 113 186
86 113 186
86 113 186
86 113 186
0 0 0
0 0 0
0 0 0
0 0 0
0 0 0
0 0 0
0 0 0
0 0 0
0 0 0
0 0 0
0 0 0
0 0 0
0 0 0
0 0 0
0 0 0
0 0 0
186 177 86
186 177 86
186 177 86
186 177 86
186 177 86
186 177 86
186 177 86
186 177 86
186 177 86
186 177 86
186 177 86
186 177 86
186 177 86
186 177 86
186 177 86
186 177 86
186 177 86
186 177 86
186 177 86
186 177 86
186 177 86
186 177 86
186 177 86
186 177 86
186 177 86
186 177 86
186 177 86
186 177 86
186 177 86
186 177 86
186 177 86
186 177 86
186 177 86
186 177 86
186 177 86
186 177 86
186 177 86
186 177 86
186 177 86
186 177 86
186 177 86
186 177 86
186 177 86
186 177 86
186 177 86
186 177 86
186 177 86
186 177 86
186 177 86
186 177 86
186 177 86
186 177 86
186 177 86
186 177 86
186 177 86
186 177 86
186 177 86
186 177 86
186 177 86
186 177 86
186 177 86
186 177 86
186 177 86
186 177 86
186 177 86
186 177 86
186 177 86
186 177 86
186 177 86
186 177 86
186 177 86
186 177 86
186 177 86
186 177 86
186 177 86
186 177 86
186 177 86
186 177 86
186 177 86
186 177 86
186 177 86
186 177 86
186 177 86
186 177 86
186 177 86
186 177 86
186 177 86
186 177 86
186 177 86
186 177 86
186 177 86
186 177 86
186 177 86
186 177 86
186 177 86
186 177 86
0 0 0
0 0 0
0 0 0
0 0 0
0 0 0
0 0 0
0 0 0
0 0 0
0 0 0
0 0 0
0 0 0
0 0 0
0 0 0
0 0 0
0 0 0
0 0 0
0 0 0
0 0 0
0 0 0
0 0 0
0 0 0
0 0 0
0 0 0
0 0 0
0 0 0
0 0 0
0 0 0
0 0 0
0 0 0
0 0 0
0 0 0
0 0 0
0 0 0
0 0 0
0 0 0
0 0 0
0 0 0
0 0 0
0 0 0
0 0 0
0 0 0
0 0 0
0 0 0
0 0 0
0 0 0
0 0 0
0 0 0
0 0 0
86 113 186
86 113 186
86 113 186
86 113 186
86 113 186
86 113 186
86 113 186
86 113 186
86 113 186
86 113 186
86 113 186
86 113 186
86 113 186
86 113 186
86 113 186
86 113 186
86 113 186
86 113 186
86 113 186
86 113 186
86 113 186
86 113 186
86 113 186
86 113 186
86 113 186
86 113 186
86 113 186
86 113 186
86 113 186
86 113 186
86 113 186
86 113 186
86 113 186
86 113 186
86 113 186
86 113 186
86 113 186
86 113 186
86 113 186
86 113 186
86 113 186
86 113 186
86 113 186
86 113 186
86 113 186
86 113 186
86 113 186
86 113 186
86 113 186
86 113 186
86 113 186
86 113 186
86 113 186
86 113 186
86 113 186
86 113 186
86 113 186
86 113 186
86 113 186
86 113 186
86 113 186
86 113 186
86 113 186
86 113 186
86 113 186
86 113 186
86 113 186
86 113 186
86 113 186
86 113 186
86 113 186
86 113 186
86 113 186
86 113 186
86 113 186
86 113 186
86 113 186
86 113 186
86 113 186
86 113 186
86 113 186
86 113 186
86 113 186
86 113 186
86 113 186
86 113 186
86 113 186
86 113 186
86 113 186
86 113 186
86 113 186
86 113 186
86 113 186
86 113 186
86 113 186
86 113 186
0 0 0
0 0 0
0 0 0
0 0 0
0 0 0
0 0 0
0 0 0
0 0 0
0 0 0
0 0 0
0 0 0
0 0 0
0 0 0
0 0 0
0 0 0
0 0 0
186 177 86
186 177 86
186 177 86
186 177 86
186 177 86
186 177 86
186 177 86
186 177 86
186 177 86
186 177 86
186 177 86
186 177 86
186 177 86
186 177 86
186 177 86
186 177 86
186 177 86
186 177 86
186 177 86
186 177 86
186 177 86
186 177 86
186 177 86
186 177 86
186 177 86
186 177 86
186 177 86
186 177 86
186 177 86
186 177 86
186 177 86
186 177 86
186 177 86
186 177 86
186 177 86
186 177 86
186 177 86
186 177 86
186 177 86
186 177 86
186 177 86
186 177 86
186 177 86
186 177 86
186 177 86
186 177 86
186 177 86
186 177 86
186 177 86
186 177 86
186 177 86
186 177 86
186 177 86
186 177 86
186 177 86
186 177 86
186 177 86
186 177 86
186 177 86
186 177 86
186 177 86
186 177 86
186 177 86
186 177 86
186 177 86
186 177 86
186 177 86
186 177 86
186 177 86
186 177 86
186 177 86
186 177 86
186 177 86
186 177 86
186 177 86
186 177 86
186 177 86
186 177 86
186 177 86
186 177 86
186 177 86
186 177 86
186 177 86
186 177 86
186 177 86
186 177 86
186 177 86
186 177 86
186 177 86
186 177 86
186 177 86
186 177 86
186 177 86
186 177 86
186 177 86
186 177 86
0 0 0
0 0 0
0 0 0
0 0 0
0 0 0
0 0 0
0 0 0
0 0 0
0 0 0
0 0 0
0 0 0
0 0 0
0 0 0
0 0 0
0 0 0
0 0 0
0 0 0
0 0 0
0 0 0
0 0 0
0 0 0
0 0 0
0 0 0
0 0 0
0 0 0
0 0 0
0 0 0
0 0 0
0 0 0
0 0 0
0 0 0
0 0 0
0 0 0
0 0 0
0 0 0
0 0 0
0 0 0
0 0 0
0 0 0
0 0 0
0 0 0
0 0 0
0 0 0
0 0 0
0 0 0
0 0 0
0 0 0
0 0 0
86 113 186
86 113 186
86 113 186
86 113 186
86 113 186
86 113 186
86 113 186
86 113 186
86 113 186
86 113 186
86 113 186
86 113 186
86 113 186
86 113 186
86 113 186
86 113 186
86 113 186
86 113 186
86 113 186
86 113 186
86 113 186
86 113 186
86 113 186
86 113 186
86 113 186
86 113 186
86 113 186
86 113 186
86 113 186
86 113 186
86 113 186
86 113 186
86 113 186
86 113 186
86 113 186
86 113 186
86 113 186
86 113 186
86 113 186
86 113 186
86 113 186
86 113 186
86 113 186
86 113 186
86 113 186
86 113 186
86 113 186
86 113 186
86 113 186
86 113 186
86 113 186
86 113 186
86 113 186
86 113 186
86 113 186
86 113 186
86 113 186
86 113 186
86 113 186
86 113 186
86 113 186
86 113 186
86 113 186
86 113 186
86 113 186
86 113 186
86 113 186
86 113 186
86 113 186
86 113 186
86 113 186
86 113 186
86 113 186
86 113 186
86 113 186
86 113 186
86 113 186
86 113 186
86 113 186
86 113 186
86 113 186
86 113 186
86 113 186
86 113 186
86 113 186
86 113 186
86 113 186
86 113 186
86 113 186
86 113 186
86 113 186
86 113 186
86 113 186
86 113 186
86 113 186
86 113 186
0 0 0
0 0 0
0 0 0
0 0 0
0 0 0
0 0 0
0 0 0
0 0 0
0 0 0
0 0 0
0 0 0
0 0 0
0 0 0
0 0 0
0 0 0
0 0 0
186 177 86
186 177 86
186 177 86
186 177 86
186 177 86
186 177 86
186 177 86
186 177 86
186 177 86
186 177 86
186 177 86
186 177 86
186 177 86
186 177 86
186 177 86
186 177 86
186 177 86
186 177 86
186 177 86
186 177 86
186 177 86
186 177 86
186 177 86
186 177 86
186 177 86
186 177 86
186 177 86
186 177 86
186 177 86
186 177 86
186 177 86
186 177 86
186 177 86
186 177 86
186 177 86
186 177 86
186 177 86
186 177 86
186 177 86
186 177 86
186 177 86
186 177 86
186 177 86
186 177 86
186 177 86
186 177 86
186 177 86
186 177 86
186 177 86
186 177 86
186 177 86
186 177 86
186 177 86
186 177 86
186 177 86
186 177 86
186 177 86
186 177 86
186 177 86
186 177 86
186 177 86
186 177 86
186 177 86
186 177 86
186 177 86
186 177 86
186 177 86
186 177 86
186 177 86
186 177 86
186 177 86
186 177 86
186 177 86
186 177 86
186 177 86
186 177 86
186 177 86
186 177 86
186 177 86
186 177 86
186 177 86
186 177 86
186 177 86
186 177 86
186 177 86
186 177 86
186 177 86
186 177 86
186 177 86
186 177 86
186 177 86
186 177 86
186 177 86
186 177 86
186 177 86
186 177 86
0 0 0
0 0 0
0 0 0
0 0 0
0 0 0
0 0 0
0 0 0
0 0 0
0 0 0
0 0 0
0 0 0
0 0 0
0 0 0
0 0 0
0 0 0
0 0 0
0 0 0
0 0 0
0 0 0
0 0 0
0 0 0
0 0 0
0 0 0
0 0 0
0 0 0
0 0 0
0 0 0
0 0 0
0 0 0
0 0 0
0 0 0
0 0 0
0 0 0
0 0 0
0 0 0
0 0 0
0 0 0
0 0 0
0 0 0
0 0 0
0 0 0
0 0 0
0 0 0
0 0 0
0 0 0
0 0 0
0 0 0
0 0 0
86 113 186
86 113 186
86 113 186
86 113 186
86 113 186
86 113 186
86 113 186
86 113 186
86 113 186
86 113 186
86 113 186
86 113 186
86 113 186
86 113 186
86 113 186
86 113 186
86 113 186
86 113 186
86 113 186
86 113 186
86 113 186
86 113 186
86 113 186
86 113 186
86 113 186
86 113 186
86 113 186
86 113 186
86 113 186
86 113 186
86 113 186
86 113 186
86 113 186
86 113 186
86 113 186
86 113 186
86 113 186
86 113 186
86 113 186
86 113 186
86 113 186
86 113 186
86 113 186
86 113 186
86 113 186
86 113 186
86 113 186
86 113 186
86 113 186
86 113 186
86 113 186
86 113 186
86 113 186
86 113 186
86 113 186
86 113 186
86 113 186
86 113 186
86 113 186
86 113 186
86 113 186
86 113 186
86 113 186
86 113 186
86 113 186
86 113 186
86 113 186
86 113 186
86 113 186
86 113 186
86 113 186
86 113 186
86 113 186
86 113 186
86 113 186
86 113 186
86 113 186
86 113 186
86 113 186
86 113 186
86 113 186
86 113 186
86 113 186
86 113 186
86 113 186
86 113 186
86 113 186
86 113 186
86 113 186
86 113 186
86 113 186
86 113 186
86 113 186
86 113 186
86 113 186
86 113 186
0 0 0
0 0 0
0 0 0
0 0 0
0 0 0
0 0 0
0 0 0
0 0 0
0 0 0
0 0 0
0 0 0
0 0 0
0 0 0
0 0 0
0 0 0
0 0 0
186 177 86
186 177 86
186 177 86
186 177 86
186 177 86
186 177 86
186 177 86
186 177 86
186 177 86
186 177 86
186 177 86
186 177 86
186 177 86
186 177 86
186 177 86
186 177 86
186 177 86
186 177 86
186 177 86
186 177 86
186 177 86
186 177 86
186 177 86
186 177 86
186 177 86
186 177 86
186 177 86
186 177 86
186 177 86
186 177 86
186 177 86
186 177 86
186 177 86
186 177 86
186 177 86
186 177 86
186 177 86
186 177 86
186 177 86
186 177 86
186 177 86
186 177 86
186 177 86
186 177 86
186 177 86
186 177 86
186 177 86
186 177 86
186 177 86
186 177 86
186 177 86
186 177 86
186 177 86
186 177 86
186 177 86
186 177 86
186 177 86
186 177 86
186 177 86
186 177 86
186 177 86
186 177 86
186 177 86
186 177 86
186 177 86
186 177 86
186 177 86
186 177 86
186 177 86
186 177 86
186 177 86
186 177 86
186 177 86
186 177 86
186 177 86
186 177 86
186 177 86
186 177 86
186 177 86
186 177 86
186 177 86
186 177 86
186 177 86
186 177 86
186 177 86
186 177 86
186 177 86
186 177 86
186 177 86
186 177 86
186 177 86
186 177 86
186 177 86
186 177 86
186 177 86
186 177 86
0 0 0
0 0 0
0 0 0
0 0 0
0 0 0
0 0 0
0 0 0
0 0 0
0 0 0
0 0 0
0 0 0
0 0 0
0 0 0
0 0 0
0 0 0
0 0 0
0 0 0
0 0 0
0 0 0
0 0 0
0 0 0
0 0 0
0 0 0
0 0 0
0 0 0
0 0 0
0 0 0
0 0 0
0 0 0
0 0 0
0 0 0
0 0 0
0 0 0
0 0 0
0 0 0
0 0 0
0 0 0
0 0 0
0 0 0
0 0 0
0 0 0
0 0 0
0 0 0
0 0 0
0 0 0
0 0 0
0 0 0
0 0 0
86 113 186
86 113 186
86 113 186
86 113 186
86 113 186
86 113 186
86 113 186
86 113 186
86 113 186
86 113 186
86 113 186
86 113 186
86 113 186
86 113 186
86 113 186
86 113 186
86 113 186
86 113 186
86 113 186
86 113 186
86 113 186
86 113 186
86 113 186
86 113 186
86 113 186
86 113 186
86 113 186
86 113 186
86 113 186
86 113 186
86 113 186
86 113 186
86 113 186
86 113 186
86 113 186
86 113 186
86 113 186
86 113 186
86 113 186
86 113 186
86 113 186
86 113 186
86 113 186
86 113 186
86 113 186
86 113 186
86 113 186
86 113 186
86 113 186
86 113 186
86 113 186
86 113 186
86 113 186
86 113 186
86 113 186
86 113 186
86 113 186
86 113 186
86 113 186
86 113 186
86 113 186
86 113 186
86 113 186
86 113 186
86 113 186
86 113 186
86 113 186
86 113 186
86 113 186
86 113 186
86 113 186
86 113 186
86 113 186
86 113 186
86 113 186
86 113 186
86 113 186
86 113 186
86 113 186
86 113 186
86 113 186
86 113 186
86 113 186
86 113 186
86 113 186
86 113 186
86 113 186
86 113 186
86 113 186
86 113 186
86 113 186
86 113 186
86 113 186
86 113 186
86 113 186
86 113 186
0 0 0
0 0 0
0 0 0
0 0 0
0 0 0
0 0 0
0 0 0
0 0 0
0 0 0
0 0 0
0 0 0
0 0 0
0 0 0
0 0 0
0 0 0
0 0 0
186 177 86
186 177 86
186 177 86
186 177 86
186 177 86
186 177 86
186 177 86
186 177 86
186 177 86
186 177 86
186 177 86
186 177 86
186 177 86
186 177 86
186 177 86
186 177 86
186 177 86
186 177 86
186 177 86
186 177 86
186 177 86
186 177 86
186 177 86
186 177 86
186 177 86
186 177 86
186 177 86
186 177 86
186 177 86
186 177 86
186 177 86
186 177 86
186 177 86
186 177 86
186 177 86
186 177 86
186 177 86
186 177 86
186 177 86
186 177 86
186 177 86
186 177 86
186 177 86
186 177 86
186 177 86
186 177 86
186 177 86
186 177 86
186 177 86
186 177 86
186 177 86
186 177 86
186 177 86
186 177 86
186 177 86
186 177 86
186 177 86
186 177 86
186 177 86
186 177 86
186 177 86
186 177 86
186 177 86
186 177 86
186 177 86
186 177 86
186 177 86
186 177 86
186 177 86
186 177 86
186 177 86
186 177 86
186 177 86
186 177 86
186 177 86
186 177 86
186 177 86
186 177 86
186 177 86
186 177 86
186 177 86
186 177 86
186 177 86
186 177 86
186 177 86
186 177 86
186 177 86
186 177 86
186 177 86
186 177 86
186 177 86
186 177 86
186 177 86
186 177 86
186 177 86
186 177 86
0 0 0
0 0 0
0 0 0
0 0 0
0 0 0
0 0 0
0 0 0
0 0 0
0 0 0
0 0 0
0 0 0
0 0 0
0 0 0
0 0 0
0 0 0
0 0 0
0 0 0
0 0 0
0 0 0
0 0 0
0 0 0
0 0 0
0 0 0
0 0 0
0 0 0
0 0 0
0 0 0
0 0 0
0 0 0
0 0 0
0 0 0
0 0 0
0 0 0
0 0 0
0 0 0
0 0 0
0 0 0
0 0 0
0 0 0
0 0 0
0 0 0
0 0 0
0 0 0
0 0 0
0 0 0
0 0 0
0 0 0
0 0 0
86 113 186
86 113 186
86 113 186
86 113 186
86 113 186
86 113 186
86 113 186
86 113 186
86 113 186
86 113 186
86 113 186
86 113 186
86 113 186
86 113 186
86 113 186
86 113 186
86 113 186
86 113 186
86 113 186
86 113 186
86 113 186
86 113 186
86 113 186
86 113 186
86 113 186
86 113 186
86 113 186
86 113 186
86 113 186
86 113 186
86 113 186
86 113 186
86 113 186
86 113 186
86 113 186
86 113 186
86 113 186
86 113 186
86 113 186
86 113 186
86 113 186
86 113 186
86 113 186
86 113 186
86 113 186
86 113 186
86 113 186
86 113 186
86 113 186
86 113 186
86 113 186
86 113 186
86 113 186
86 113 186
86 113 186
86 113 186
86 113 186
86 113 186
86 113 186
86 113 186
86 113 186
86 113 186
86 113 186
86 113 186
86 113 186
86 113 186
86 113 186
86 113 186
86 113 186
86 113 186
86 113 186
86 113 186
86 113 186
86 113 186
86 113 186
86 113 186
86 113 186
86 113 186
86 113 186
86 113 186
86 113 186
86 113 186
86 113 186
86 113 186
86 113 186
86 113 186
86 113 186
86 113 186
86 113 186
86 113 186
86 113 186
86 113 186
86 113 186
86 113 186
86 113 186
86 113 186
0 0 0
0 0 0
0 0 0
0 0 0
0 0 0
0 0 0
0 0 0
0 0 0
0 0 0
0 0 0
0 0 0
0 0 0
0 0 0
0 0 0
0 0 0
0 0 0
186 177 86
186 177 86
186 177 86
186 177 86
186 177 86
186 177 86
186 177 86
186 177 86
186 177 86
186 177 86
186 177 86
186 177 86
186 177 86
186 177 86
186 177 86
186 177 86
186 177 86
186 177 86
186 177 86
186 177 86
186 177 86
186 177 86
186 177 86
186 177 86
186 177 86
186 177 86
186 177 86
186 177 86
186 177 86
186 177 86
186 177 86
186 177 86
186 177 86
186 177 86
186 177 86
186 177 86
186 177 86
186 177 86
186 177 86
186 177 86
186 177 86
186 177 86
186 177 86
186 177 86
186 177 86
186 177 86
186 177 86
186 177 86
186 177 86
186 177 86
186 177 86
186 177 86
186 177 86
186 177 86
186 177 86
186 177 86
186 177 86
186 177 86
186 177 86
186 177 86
186 177 86
186 177 86
186 177 86
186 177 86
186 177 86
186 177 86
186 177 86
186 177 86
186 177 86
186 177 86
186 177 86
186 177 86
186 177 86
186 177 86
186 177 86
186 177 86
186 177 86
186 177 86
186 177 86
186 177 86
186 177 86
186 177 86
186 177 86
186 177 86
186 177 86
186 177 86
186 177 86
186 177 86
186 177 86
186 177 86
186 177 86
186 177 86
186 177 86
186 177 86
186 177 86
186 177 86
0 0 0
0 0 0
0 0 0
0 0 0
0 0 0
0 0 0
0 0 0
0 0 0
0 0 0
0 0 0
0 0 0
0 0 0
0 0 0
0 0 0
0 0 0
0 0 0
0 0 0
0 0 0
0 0 0
0 0 0
0 0 0
0 0 0
0 0 0
0 0 0
0 0 0
0 0 0
0 0 0
0 0 0
0 0 0
0 0 0
0 0 0
0 0 0
0 0 0
0 0 0
0 0 0
0 0 0
0 0 0
0 0 0
0 0 0
0 0 0
0 0 0
0 0 0
0 0 0
0 0 0
0 0 0
0 0 0
0 0 0
0 0 0
86 113 186
86 113 186
86 113 186
86 113 186
86 113 186
86 113 186
86 113 186
86 113 186
86 113 186
86 113 186
86 113 186
86 113 186
86 113 186
86 113 186
86 113 186
86 113 186
86 113 186
86 113 186
86 113 186
86 113 186
86 113 186
86 113 186
86 113 186
86 113 186
86 113 186
86 113 186
86 113 186
86 113 186
86 113 186
86 113 186
86 113 186
86 113 186
86 113 186
86 113 186
86 113 186
86 113 186
86 113 186
86 113 186
86 113 186
86 113 186
86 113 186
86 113 186
86 113 186
86 113 186
86 113 186
86 113 186
86 113 186
86 113 186
86 113 186
86 113 186
86 113 186
86 113 186
86 113 186
86 113 186
86 113 186
86 113 186
86 113 186
86 113 186
86 113 186
86 113 186
86 113 186
86 113 186
86 113 186
86 113 186
86 113 186
86 113 186
86 113 186
86 113 186
86 113 186
86 113 186
86 113 186
86 113 186
86 113 186
86 113 186
86 113 186
86 113 186
86 113 186
86 113 186
86 113 186
86 113 186
86 113 186
86 113 186
86 113 186
86 113 186
86 113 186
86 113 186
86 113 186
86 113 186
86 113 186
86 113 186
86 113 186
86 113 186
86 113 186
86 113 186
86 113 186
86 113 186
0 0 0
0 0 0
0 0 0
0 0 0
0 0 0
0 0 0
0 0 0
0 0 0
0 0 0
0 0 0
0 0 0
0 0 0
0 0 0
0 0 0
0 0 0
0 0 0
186 177 86
186 177 86
186 177 86
186 177 86
186 177 86
186 177 86
186 177 86
186 177 86
186 177 86
186 177 86
186 177 86
186 177 86
186 177 86
186 177 86
186 177 86
186 177 86
186 177 86
186 177 86
186 177 86
186 177 86
186 177 86
186 177 86
186 177 86
186 177 86
186 177 86
186 177 86
186 177 86
186 177 86
186 177 86
186 177 86
186 177 86
186 177 86
186 177 86
186 177 86
186 177 86
186 177 86
186 177 86
186 177 86
186 177 86
186 177 86
186 177 86
186 177 86
186 177 86
186 177 86
186 177 86
186 177 86
186 177 86
186 177 86
186 177 86
186 177 86
186 177 86
186 177 86
186 177 86
186 177 86
186 177 86
186 177 86
186 177 86
186 177 86
186 177 86
186 177 86
186 177 86
186 177 86
186 177 86
186 177 86
186 177 86
186 177 86
186 177 86
186 177 86
186 177 86
186 177 86
186 177 86
186 177 86
186 177 86
186 177 86
186 177 86
186 177 86
186 177 86
186 177 86
186 177 86
186 177 86
186 177 86
186 177 86
186 177 86
186 177 86
186 177 86
186 177 86
186 177 86
186 177 86
186 177 86
186 177 86
186 177 86
186 177 86
186 177 86
186 177 86
186 177 86
186 177 86
0 0 0
0 0 0
0 0 0
0 0 0
0 0 0
0 0 0
0 0 0
0 0 0
0 0 0
0 0 0
0 0 0
0 0 0
0 0 0
0 0 0
0 0 0
0 0 0
0 0 0
0 0 0
0 0 0
0 0 0
0 0 0
0 0 0
0 0 0
0 0 0
0 0 0
0 0 0
0 0 0
0 0 0
0 0 0
0 0 0
0 0 0
0 0 0
0 0 0
0 0 0
0 0 0
0 0 0
0 0 0
0 0 0
0 0 0
0 0 0
0 0 0
0 0 0
0 0 0
0 0 0
0 0 0
0 0 0
0 0 0
0 0 0
86 113 186
86 113 186
86 113 186
86 113 186
86 113 186
86 113 186
86 113 186
86 113 186
86 113 186
86 113 186
86 113 186
86 113 186
86 113 186
86 113 186
86 113 186
86 113 186
86 113 186
86 113 186
86 113 186
86 113 186
86 113 186
86 113 186
86 113 186
86 113 186
86 113 186
86 113 186
86 113 186
86 113 186
86 113 186
86 113 186
86 113 186
86 113 186
86 113 186
86 113 186
86 113 186
86 113 186
86 113 186
86 113 186
86 113 186
86 113 186
86 113 186
86 113 186
86 113 186
86 113 186
86 113 186
86 113 186
86 113 186
86 113 186
86 113 186
86 113 186
86 113 186
86 113 186
86 113 186
86 113 186
86 113 186
86 113 186
86 113 186
86 113 186
86 113 186
86 113 186
86 113 186
86 113 186
86 113 186
86 113 186
86 113 186
86 113 186
86 113 186
86 113 186
86 113 186
86 113 186
86 113 186
86 113 186
86 113 186
86 113 186
86 113 186
86 113 186
86 113 186
86 113 186
86 113 186
86 113 186
86 113 186
86 113 186
86 113 186
86 113 186
86 113 186
86 113 186
86 113 186
86 113 186
86 113 186
86 113 186
86 113 186
86 113 186
86 113 186
86 113 186
86 113 186
86 113 186
0 0 0
0 0 0
0 0 0
0 0 0
0 0 0
0 0 0
0 0 0
0 0 0
0 0 0
0 0 0
0 0 0
0 0 0
0 0 0
0 0 0
0 0 0
0 0 0
186 177 86
186 177 86
186 177 86
186 177 86
186 177 86
186 177 86
186 177 86
186 177 86
186 177 86
186 177 86
186 177 86
186 177 86
186 177 86
186 177 86
186 177 86
186 177 86
186 177 86
186 177 86
186 177 86
186 177 86
186 177 86
186 177 86
186 177 86
186 177 86
186 177 86
186 177 86
186 177 86
186 177 86
186 177 86
186 177 86
186 177 86
186 177 86
186 177 86
186 177 86
186 177 86
186 177 86
186 177 86
186 177 86
186 177 86
186 177 86
186 177 86
186 177 86
186 177 86
186 177 86
186 177 86
186 177 86
186 177 86
186 177 86
186 177 86
186 177 86
186 177 86
186 177 86
186 177 86
186 177 86
186 177 86
186 177 86
186 177 86
186 177 86
186 177 86
186 177 86
186 177 86
186 177 86
186 177 86
186 177 86
186 177 86
186 177 86
186 177 86
186 177 86
186 177 86
186 177 86
186 177 86
186 177 86
186 177 86
186 177 86
186 177 86
186 177 86
186 177 86
186 177 86
186 177 86
186 177 86
186 177 86
186 177 86
186 177 86
186 177 86
186 177 86
186 177 86
186 177 86
186 177 86
186 177 86
186 177 86
186 177 86
186 177 86
186 177 86
186 177 86
186 177 86
186 177 86
0 0 0
0 0 0
0 0 0
0 0 0
0 0 0
0 0 0
0 0 0
0 0 0
0 0 0
0 0 0
0 0 0
0 0 0
0 0 0
0 0 0
0 0 0
0 0 0
0 0 0
0 0 0
0 0 0
0 0 0
0 0 0
0 0 0
0 0 0
0 0 0
0 0 0
0 0 0
0 0 0
0 0 0
0 0 0
0 0 0
0 0 0
0 0 0
0 0 0
0 0 0
0 0 0
0 0 0
0 0 0
0 0 0
0 0 0
0 0 0
0 0 0
0 0 0
0 0 0
0 0 0
0 0 0
0 0 0
0 0 0
0 0 0
86 113 186
86 113 186
86 113 186
86 113 186
86 113 186
86 113 186
86 113 186
86 113 186
86 113 186
86 113 186
86 113 186
86 113 186
86 113 186
86 113 186
86 113 186
86 113 186
86 113 186
86 113 186
86 113 186
86 113 186
86 113 186
86 113 186
86 113 186
86 113 186
86 113 186
86 113 186
86 113 186
86 113 186
86 113 186
86 113 186
86 113 186
86 113 186
86 113 186
86 113 186
86 113 186
86 113 186
86 113 186
86 113 186
86 113 186
86 113 186
86 113 186
86 113 186
86 113 186
86 113 186
86 113 186
86 113 186
86 113 186
86 113 186
86 113 186
86 113 186
86 113 186
86 113 186
86 113 186
86 113 186
86 113 186
86 113 186
86 113 186
86 113 186
86 113 186
86 113 186
86 113 186
86 113 186
86 113 186
86 113 186
86 113 186
86 113 186
86 113 186
86 113 186
86 113 186
86 113 186
86 113 186
86 113 186
86 113 186
86 113 186
86 113 186
86 113 186
86 113 186
86 113 186
86 113 186
86 113 186
86 113 186
86 113 186
86 113 186
86 113 186
86 113 186
86 113 186
86 113 186
86 113 186
86 113 186
86 113 186
86 113 186
86 113 186
86 113 186
86 113 186
86 113 186
86 113 186
0 0 0
0 0 0
0 0 0
0 0 0
0 0 0
0 0 0
0 0 0
0 0 0
0 0 0
0 0 0
0 0 0
0 0 0
0 0 0
0 0 0
0 0 0
0 0 0
186 177 86
186 177 86
186 177 86
186 177 86
186 177 86
186 177 86
186 177 86
186 177 86
186 177 86
186 177 86
186 177 86
186 177 86
186 177 86
186 177 86
186 177 86
186 177 86
186 177 86
186 177 86
186 177 86
186 177 86
186 177 86
186 177 86
186 177 86
186 177 86
186 177 86
186 177 86
186 177 86
186 177 86
186 177 86
186 177 86
186 177 86
186 177 86
186 177 86
186 177 86
186 177 86
186 177 86
186 177 86
186 177 86
186 177 86
186 177 86
186 177 86
186 177 86
186 177 86
186 177 86
186 177 86
186 177 86
186 177 86
186 177 86
186 177 86
186 177 86
186 177 86
186 177 86
186 177 86
186 177 86
186 177 86
186 177 86
186 177 86
186 177 86
186 177 86
186 177 86
186 177 86
186 177 86
186 177 86
186 177 86
186 177 86
186 177 86
186 177 86
186 177 86
186 177 86
186 177 86
186 177 86
186 177 86
186 177 86
186 177 86
186 177 86
186 177 86
186 177 86
186 177 86
186 177 86
186 177 86
186 177 86
186 177 86
186 177 86
186 177 86
186 177 86
186 177 86
186 177 86
186 177 86
186 177 86
186 177 86
186 177 86
186 177 86
186 177 86
186 177 86
186 177 86
186 177 86
0 0 0
0 0 0
0 0 0
0 0 0
0 0 0
0 0 0
0 0 0
0 0 0
0 0 0
0 0 0
0 0 0
0 0 0
0 0 0
0 0 0
0 0 0
0 0 0
0 0 0
0 0 0
0 0 0
0 0 0
0 0 0
0 0 0
0 0 0
0 0 0
0 0 0
0 0 0
0 0 0
0 0 0
0 0 0
0 0 0
0 0 0
0 0 0
0 0 0
0 0 0
0 0 0
0 0 0
0 0 0
0 0 0
0 0 0
0 0 0
0 0 0
0 0 0
0 0 0
0 0 0
0 0 0
0 0 0
0 0 0
0 0 0
86 113 186
86 113 186
86 113 186
86 113 186
86 113 186
86 113 186
86 113 186
86 113 186
86 113 186
86 113 186
86 113 186
86 113 186
86 113 186
86 113 186
86 113 186
86 113 186
86 113 186
86 113 186
86 113 186
86 113 186
86 113 186
86 113 186
86 113 186
86 113 186
86 113 186
86 113 186
86 113 186
86 113 186
86 113 186
86 113 186
86 113 186
86 113 186
86 113 186
86 113 186
86 113 186
86 113 186
86 113 186
86 113 186
86 113 186
86 113 186
86 113 186
86 113 186
86 113 186
86 113 186
86 113 186
86 113 186
86 113 186
86 113 186
86 113 186
86 113 186
86 113 186
86 113 186
86 113 186
86 113 186
86 113 186
86 113 186
86 113 186
86 113 186
86 113 186
86 113 186
86 113 186
86 113 186
86 113 186
86 113 186
86 113 186
86 113 186
86 113 186
86 113 186
86 113 186
86 113 186
86 113 186
86 113 186
86 113 186
86 113 186
86 113 186
86 113 186
86 113 186
86 113 186
86 113 186
86 113 186
86 113 186
86 113 186
86 113 186
86 113 186
86 113 186
86 113 186
86 113 186
86 113 186
86 113 186
86 113 186
86 113 186
86 113 186
86 113 186
86 113 186
86 113 186
86 113 186
0 0 0
0 0 0
0 0 0
0 0 0
0 0 0
0 0 0
0 0 0
0 0 0
0 0 0
0 0 0
0 0 0
0 0 0
0 0 0
0 0 0
0 0 0
0 0 0
186 177 86
186 177 86
186 177 86
186 177 86
186 177 86
186 177 86
186 177 86
186 177 86
186 177 86
186 177 86
186 177 86
186 177 86
186 177 86
186 177 86
186 177 86
186 177 86
186 177 86
186 177 86
186 177 86
186 177 86
186 177 86
186 177 86
186 177 86
186 177 86
186 177 86
186 177 86
186 177 86
186 177 86
186 177 86
186 177 86
186 177 86
186 177 86
186 177 86
186 177 86
186 177 86
186 177 86
186 177 86
186 177 86
186 177 86
186 177 86
186 177 86
186 177 86
186 177 86
186 177 86
186 177 86
186 177 86
186 177 86
186 177 86
186 177 86
186 177 86
186 177 86
186 177 86
186 177 86
186 177 86
186 177 86
186 177 86
186 177 86
186 177 86
186 177 86
186 177 86
186 177 86
186 177 86
186 177 86
186 177 86
186 177 86
186 177 86
186 177 86
186 177 86
186 177 86
186 177 86
186 177 86
186 177 86
186 177 86
186 177 86
186 177 86
186 177 86
186 177 86
186 177 86
186 177 86
186 177 86
186 177 86
186 177 86
186 177 86
186 177 86
186 177 86
186 177 86
186 177 86
186 177 86
186 177 86
186 177 86
186 177 86
186 177 86
186 177 86
186 177 86
186 177 86
186 177 86
0 0 0
0 0 0
0 0 0
0 0 0
0 0 0
0 0 0
0 0 0
0 0 0
0 0 0
0 0 0
0 0 0
0 0 0
0 0 0
0 0 0
0 0 0
0 0 0
0 0 0
0 0 0
0 0 0
0 0 0
0 0 0
0 0 0
0 0 0
0 0 0
0 0 0
0 0 0
0 0 0
0 0 0
0 0 0
0 0 0
0 0 0
0 0 0
0 0 0
0 0 0
0 0 0
0 0 0
0 0 0
0 0 0
0 0 0
0 0 0
0 0 0
0 0 0
0 0 0
0 0 0
0 0 0
0 0 0
0 0 0
0 0 0
86 113 186
86 113 186
86 113 186
86 113 186
86 113 186
86 113 186
86 113 186
86 113 186
86 113 186
86 113 186
86 113 186
86 113 186
86 113 186
86 113 186
86 113 186
86 113 186
86 113 186
86 113 186
86 113 186
86 113 186
86 113 186
86 113 186
86 113 186
86 113 186
86 113 186
86 113 186
86 113 186
86 113 186
86 113 186
86 113 186
86 113 186
86 113 186
86 113 186
86 113 186
86 113 186
86 113 186
86 113 186
86 113 186
86 113 186
86 113 186
86 113 186
86 113 186
86 113 186
86 113 186
86 113 186
86 113 186
86 113 186
86 113 186
86 113 186
86 113 186
86 113 186
86 113 186
86 113 186
86 113 186
86 113 186
86 113 186
86 113 186
86 113 186
86 113 186
86 113 186
86 113 186
86 113 186
86 113 186
86 113 186
86 113 186
86 113 186
86 113 186
86 113 186
86 113 186
86 113 186
86 113 186
86 113 186
86 113 186
86 113 186
86 113 186
86 113 186
86 113 186
86 113 186
86 113 186
86 113 186
86 113 186
86 113 186
86 113 186
86 113 186
86 113 186
86 113 186
86 113 186
86 113 186
86 113 186
86 113 186
86 113 186
86 113 186
86 113 186
86 113 186
86 113 186
86 113 186
0 0 0
0 0 0
0 0 0
0 0 0
0 0 0
0 0 0
0 0 0
0 0 0
0 0 0
0 0 0
0 0 0
0 0 0
0 0 0
0 0 0
0 0 0
0 0 0
186 177 86
186 177 86
186 177 86
186 177 86
186 177 86
186 177 86
186 177 86
186 177 86
186 177 86
186 177 86
186 177 86
186 177 86
186 177 86
186 177 86
186 177 86
186 177 86
186 177 86
186 177 86
186 177 86
186 177 86
186 177 86
186 177 86
186 177 86
186 177 86
186 177 86
186 177 86
186 177 86
186 177 86
186 177 86
186 177 86
186 177 86
186 177 86
186 177 86
186 177 86
186 177 86
186 177 86
186 177 86
186 177 86
186 177 86
186 177 86
186 177 86
186 177 86
186 177 86
186 177 86
186 177 86
186 177 86
186 177 86
186 177 86
186 177 86
186 177 86
186 177 86
186 177 86
186 177 86
186 177 86
186 177 86
186 177 86
186 177 86
186 177 86
186 177 86
186 177 86
186 177 86
186 177 86
186 177 86
186 177 86
186 177 86
186 177 86
186 177 86
186 177 86
186 177 86
186 177 86
186 177 86
186 177 86
186 177 86
186 177 86
186 177 86
186 177 86
186 177 86
186 177 86
186 177 86
186 177 86
186 177 86
186 177 86
186 177 86
186 177 86
186 177 86
186 177 86
186 177 86
186 177 86
186 177 86
186 177 86
186 177 86
186 177 86
186 177 86
186 177 86
186 177 86
186 177 86
0 0 0
0 0 0
0 0 0
0 0 0
0 0 0
0 0 0
0 0 0
0 0 0
0 0 0
0 0 0
0 0 0
0 0 0
0 0 0
0 0 0
0 0 0
0 0 0
0 0 0
0 0 0
0 0 0
0 0 0
0 0 0
0 0 0
0 0 0
0 0 0
0 0 0
0 0 0
0 0 0
0 0 0
0 0 0
0 0 0
0 0 0
0 0 0
0 0 0
0 0 0
0 0 0
0 0 0
0 0 0
0 0 0
0 0 0
0 0 0
0 0 0
0 0 0
0 0 0
0 0 0
0 0 0
0 0 0
0 0 0
0 0 0
86 113 186
86 113 186
86 113 186
86 113 186
86 113 186
86 113 186
86 113 186
86 113 186
86 113 186
86 113 186
86 113 186
86 113 186
86 113 186
86 113 186
86 113 186
86 113 186
86 113 186
86 113 186
86 113 186
86 113 186
86 113 186
86 113 186
86 113 186
86 113 186
86 113 186
86 113 186
86 113 186
86 113 186
86 113 186
86 113 186
86 113 186
86 113 186
86 113 186
86 113 186
86 113 186
86 113 186
86 113 186
86 113 186
86 113 186
86 113 186
86 113 186
86 113 186
86 113 186
86 113 186
86 113 186
86 113 186
86 113 186
86 113 186
86 113 186
86 113 186
86 113 186
86 113 186
86 113 186
86 113 186
86 113 186
86 113 186
86 113 186
86 113 186
86 113 186
86 113 186
86 113 186
86 113 186
86 113 186
86 113 186
86 113 186
86 113 186
86 113 186
86 113 186
86 113 186
86 113 186
86 113 186
86 113 186
86 113 186
86 113 186
86 113 186
86 113 186
86 113 186
86 113 186
86 113 186
86 113 186
86 113 186
86 113 186
86 113 186
86 113 186
86 113 186
86 113 186
86 113 186
86 113 186
86 113 186
86 113 186
86 113 186
86 113 186
86 113 186
86 113 186
86 113 186
86 113 186
0 0 0
0 0 0
0 0 0
0 0 0
0 0 0
0 0 0
0 0 0
0 0 0
0 0 0
0 0 0
0 0 0
0 0 0
0 0 0
0 0 0
0 0 0
0 0 0
186 177 86
186 177 86
186 177 86
186 177 86
186 177 86
186 177 86
186 177 86
186 177 86
186 177 86
186 177 86
186 177 86
186 177 86
186 177 86
186 177 86
186 177 86
186 177 86
186 177 86
186 177 86
186 177 86
186 177 86
186 177 86
186 177 86
186 177 86
186 177 86
186 177 86
186 177 86
186 177 86
186 177 86
186 177 86
186 177 86
186 177 86
186 177 86
186 177 86
186 177 86
186 177 86
186 177 86
186 177 86
186 177 86
186 177 86
186 177 86
186 177 86
186 177 86
186 177 86
186 177 86
186 177 86
186 177 86
186 177 86
186 177 86
186 177 86
186 177 86
186 177 86
186 177 86
186 177 86
186 177 86
186 177 86
186 177 86
186 177 86
186 177 86
186 177 86
186 177 86
186 177 86
186 177 86
186 177 86
186 177 86
186 177 86
186 177 86
186 177 86
186 177 86
186 177 86
186 177 86
186 177 86
186 177 86
186 177 86
186 177 86
186 177 86
186 177 86
186 177 86
186 177 86
186 177 86
186 177 86
186 177 86
186 177 86
186 177 86
186 177 86
186 177 86
186 177 86
186 177 86
186 177 86
186 177 86
186 177 86
186 177 86
186 177 86
186 177 86
186 177 86
186 177 86
186 177 86
0 0 0
0 0 0
0 0 0
0 0 0
0 0 0
0 0 0
0 0 0
0 0 0
0 0 0
0 0 0
0 0 0
0 0 0
0 0 0
0 0 0
0 0 0
0 0 0
0 0 0
0 0 0
0 0 0
0 0 0
0 0 0
0 0 0
0 0 0
0 0 0
0 0 0
0 0 0
0 0 0
0 0 0
0 0 0
0 0 0
0 0 0
0 0 0
0 0 0
0 0 0
0 0 0
0 0 0
0 0 0
0 0 0
0 0 0
0 0 0
0 0 0
0 0 0
0 0 0
0 0 0
0 0 0
0 0 0
0 0 0
0 0 0
86 113 186
86 113 186
86 113 186
86 113 186
86 113 186
86 113 186
86 113 186
86 113 186
86 113 186
86 113 186
86 113 186
86 113 186
86 113 186
86 113 186
86 113 186
86 113 186
86 113 186
86 113 186
86 113 186
86 113 186
86 113 186
86 113 186
86 113 186
86 113 186
86 113 186
86 113 186
86 113 186
86 113 186
86 113 186
86 113 186
86 113 186
86 113 186
86 113 186
86 113 186
86 113 186
86 113 186
86 113 186
86 113 186
86 113 186
86 113 186
86 113 186
86 113 186
86 113 186
86 113 186
86 113 186
86 113 186
86 113 186
86 113 186
86 113 186
86 113 186
86 113 186
86 113 186
86 113 186
86 113 186
86 113 186
86 113 186
86 113 186
86 113 186
86 113 186
86 113 186
86 113 186
86 113 186
86 113 186
86 113 186
86 113 186
86 113 186
86 113 186
86 113 186
86 113 186
86 113 186
86 113 186
86 113 186
86 113 186
86 113 186
86 113 186
86 113 186
86 113 186
86 113 186
86 113 186
86 113 186
86 113 186
86 113 186
86 113 186
86 113 186
86 113 186
86 113 186
86 113 186
86 113 186
86 113 186
86 113 186
86 113 186
86 113 186
86 113 186
86 113 186
86 113 186
86 113 186
0 0 0
0 0 0
0 0 0
0 0 0
0 0 0
0 0 0
0 0 0
0 0 0
0 0 0
0 0 0
0 0 0
0 0 0
0 0 0
0 0 0
0 0 0
0 0 0
186 177 86
186 177 86
186 177 86
186 177 86
186 177 86
186 177 86
186 177 86
186 177 86
186 177 86
186 177 86
186 177 86
186 177 86
186 177 86
186 177 86
186 177 86
186 177 86
186 177 86
186 177 86
186 177 86
186 177 86
186 177 86
186 177 86
186 177 86
186 177 86
186 177 86
186 177 86
186 177 86
186 177 86
186 177 86
186 177 86
186 177 86
186 177 86
186 177 86
186 177 86
186 177 86
186 177 86
186 177 86
186 177 86
186 177 86
186 177 86
186 177 86
186 177 86
186 177 86
186 177 86
186 177 86
186 177 86
186 177 86
186 177 86
186 177 86
186 177 86
186 177 86
186 177 86
186 177 86
186 177 86
186 177 86
186 177 86
186 177 86
186 177 86
186 177 86
186 177 86
186 177 86
186 177 86
186 177 86
186 177 86
186 177 86
186 177 86
186 177 86
186 177 86
186 177 86
186 177 86
186 177 86
186 177 86
186 177 86
186 177 86
186 177 86
186 177 86
186 177 86
186 177 86
186 177 86
186 177 86
186 177 86
186 177 86
186 177 86
186 177 86
186 177 86
186 177 86
186 177 86
186 177 86
186 177 86
186 177 86
186 177 86
186 177 86
186 177 86
186 177 86
186 177 86
186 177 86
0 0 0
0 0 0
0 0 0
0 0 0
0 0 0
0 0 0
0 0 0
0 0 0
0 0 0
0 0 0
0 0 0
0 0 0
0 0 0
0 0 0
0 0 0
0 0 0
0 0 0
0 0 0
0 0 0
0 0 0
0 0 0
0 0 0
0 0 0
0 0 0
0 0 0
0 0 0
0 0 0
0 0 0
0 0 0
0 0 0
0 0 0
0 0 0
0 0 0
0 0 0
0 0 0
0 0 0
0 0 0
0 0 0
0 0 0
0 0 0
0 0 0
0 0 0
0 0 0
0 0 0
0 0 0
0 0 0
0 0 0
0 0 0
86 113 186
86 113 186
86 113 186
86 113 186
86 113 186
86 113 186
86 113 186
86 113 186
86 113 186
86 113 186
86 113 186
86 113 186
86 113 186
86 113 186
86 113 186
86 113 186
86 113 186
86 113 186
86 113 186
86 113 186
86 113 186
86 113 186
86 113 186
86 113 186
86 113 186
86 113 186
86 113 186
86 113 186
86 113 186
86 113 186
86 113 186
86 113 186
86 113 186
86 113 186
86 113 186
86 113 186
86 113 186
86 113 186
86 113 186
86 113 186
86 113 186
86 113 186
86 113 186
86 113 186
86 113 186
86 113 186
86 113 186
86 113 186
86 113 186
86 113 186
86 113 186
86 113 186
86 113 186
86 113 186
86 113 186
86 113 186
86 113 186
86 113 186
86 113 186
86 113 186
86 113 186
86 113 186
86 113 186
86 113 186
86 113 186
86 113 186
86 113 186
86 113 186
86 113 186
86 113 186
86 113 186
86 113 186
86 113 186
86 113 186
86 113 186
86 113 186
86 113 186
86 113 186
86 113 186
86 113 186
86 113 186
86 113 186
86 113 186
86 113 186
86 113 186
86 113 186
86 113 186
86 113 186
86 113 186
86 113 186
86 113 186
86 113 186
86 113 186
86 113 186
86 113 186
86 113 186
0 0 0
0 0 0
0 0 0
0 0 0
0 0 0
0 0 0
0 0 0
0 0 0
0 0 0
0 0 0
0 0 0
0 0 0
0 0 0
0 0 0
0 0 0
0 0 0
186 177 86
186 177 86
186 177 86
186 177 86
186 177 86
186 177 86
186 177 86
186 177 86
186 177 86
186 177 86
186 177 86
186 177 86
186 177 86
186 177 86
186 177 86
186 177 86
186 177 86
186 177 86
186 177 86
186 177 86
186 177 86
186 177 86
186 177 86
186 177 86
186 177 86
186 177 86
186 177 86
186 177 86
186 177 86
186 177 86
186 177 86
186 177 86
186 177 86
186 177 86
186 177 86
186 177 86
186 177 86
186 177 86
186 177 86
186 177 86
186 177 86
186 177 86
186 177 86
186 177 86
186 177 86
186 177 86
186 177 86
186 177 86
186 177 86
186 177 86
186 177 86
186 177 86
186 177 86
186 177 86
186 177 86
186 177 86
186 177 86
186 177 86
186 177 86
186 177 86
186 177 86
186 177 86
186 177 86
186 177 86
186 177 86
186 177 86
186 177 86
186 177 86
186 177 86
186 177 86
186 177 86
186 177 86
186 177 86
186 177 86
186 177 86
186 177 86
186 177 86
186 177 86
186 177 86
186 177 86
186 177 86
186 177 86
186 177 86
186 177 86
186 177 86
186 177 86
186 177 86
186 177 86
186 177 86
186 177 86
186 177 86
186 177 86
186 177 86
186 177 86
186 177 86
186 177 86
0 0 0
0 0 0
0 0 0
0 0 0
0 0 0
0 0 0
0 0 0
0 0 0
0 0 0
0 0 0
0 0 0
0 0 0
0 0 0
0 0 0
0 0 0
0 0 0
0 0 0
0 0 0
0 0 0
0 0 0
0 0 0
0 0 0
0 0 0
0 0 0
0 0 0
0 0 0
0 0 0
0 0 0
0 0 0
0 0 0
0 0 0
0 0 0
0 0 0
0 0 0
0 0 0
0 0 0
0 0 0
0 0 0
0 0 0
0 0 0
0 0 0
0 0 0
0 0 0
0 0 0
0 0 0
0 0 0
0 0 0
0 0 0
86 113 186
86 113 186
86 113 186
86 113 186
86 113 186
86 113 186
86 113 186
86 113 186
86 113 186
86 113 186
86 113 186
86 113 186
86 113 186
86 113 186
86 113 186
86 113 186
86 113 186
86 113 186
86 113 186
86 113 186
86 113 186
86 113 186
86 113 186
86 113 186
86 113 186
86 113 186
86 113 186
86 113 186
86 113 186
86 113 186
86 113 186
86 113 186
86 113 186
86 113 186
86 113 186
86 113 186
86 113 186
86 113 186
86 113 186
86 113 186
86 113 186
86 113 186
86 113 186
86 113 186
86 113 186
86 113 186
86 113 186
86 113 186
86 113 186
86 113 186
86 113 186
86 113 186
86 113 186
86 113 186
86 113 186
86 113 186
86 113 186
86 113 186
86 113 186
86 113 186
86 113 186
86 113 186
86 113 186
86 113 186
86 113 186
86 113 186
86 113 186
86 113 186
86 113 186
86 113 186
86 113 186
86 113 186
86 113 186
86 113 186
86 113 186
86 113 186
86 113 186
86 113 186
86 113 186
86 113 186
86 113 186
86 113 186
86 113 186
86 113 186
86 113 186
86 113 186
86 113 186
86 113 186
86 113 186
86 113 186
86 113 186
86 113 186
86 113 186
86 113 186
86 113 186
86 113 186
0 0 0
0 0 0
0 0 0
0 0 0
0 0 0
0 0 0
0 0 0
0 0 0
0 0 0
0 0 0
0 0 0
0 0 0
0 0 0
0 0 0
0 0 0
0 0 0
186 177 86
186 177 86
186 177 86
186 177 86
186 177 86
186 177 86
186 177 86
186 177 86
186 177 86
186 177 86
186 177 86
186 177 86
186 177 86
186 177 86
186 177 86
186 177 86
186 177 86
186 177 86
186 177 86
186 177 86
186 177 86
186 177 86
186 177 86
186 177 86
186 177 86
186 177 86
186 177 86
186 177 86
186 177 86
186 177 86
186 177 86
186 177 86
186 177 86
186 177 86
186 177 86
186 177 86
186 177 86
186 177 86
186 177 86
186 177 86
186 177 86
186 177 86
186 177 86
186 177 86
186 177 86
186 177 86
186 177 86
186 177 86
186 177 86
186 177 86
186 177 86
186 177 86
186 177 86
186 177 86
186 177 86
186 177 86
186 177 86
186 177 86
186 177 86
186 177 86
186 177 86
186 177 86
186 177 86
186 177 86
186 177 86
186 177 86
186 177 86
186 177 86
186 177 86
186 177 86
186 177 86
186 177 86
186 177 86
186 177 86
186 177 86
186 177 86
186 177 86
186 177 86
186 177 86
186 177 86
186 177 86
186 177 86
186 177 86
186 177 86
186 177 86
186 177 86
186 177 86
186 177 86
186 177 86
186 177 86
186 177 86
186 177 86
186 177 86
186 177 86
186 177 86
186 177 86
0 0 0
0 0 0
0 0 0
0 0 0
0 0 0
0 0 0
0 0 0
0 0 0
0 0 0
0 0 0
0 0 0
0 0 0
0 0 0
0 0 0
0 0 0
0 0 0
0 0 0
0 0 0
0 0 0
0 0 0
0 0 0
0 0 0
0 0 0
0 0 0
0 0 0
0 0 0
0 0 0
0 0 0
0 0 0
0 0 0
0 0 0
0 0 0
0 0 0
0 0 0
0 0 0
0 0 0
0 0 0
0 0 0
0 0 0
0 0 0
0 0 0
0 0 0
0 0 0
0 0 0
0 0 0
0 0 0
0 0 0
0 0 0
86 113 186
86 113 186
86 113 186
86 113 186
86 113 186
86 113 186
86 113 186
86 113 186
86 113 186
86 113 186
86 113 186
86 113 186
86 113 186
86 113 186
86 113 186
86 113 186
86 113 186
86 113 186
86 113 186
86 113 186
86 113 186
86 113 186
86 113 186
86 113 186
86 113 186
86 113 186
86 113 186
86 113 186
86 113 186
86 113 186
86 113 186
86 113 186
86 113 186
86 113 186
86 113 186
86 113 186
86 113 186
86 113 186
86 113 186
86 113 186
86 113 186
86 113 186
86 113 186
86 113 186
86 113 186
86 113 186
86 113 186
86 113 186
86 113 186
86 113 186
86 113 186
86 113 186
86 113 186
86 113 186
86 113 186
86 113 186
86 113 186
86 113 186
86 113 186
86 113 186
86 113 186
86 113 186
86 113 186
86 113 186
86 113 186
86 113 186
86 113 186
86 113 186
86 113 186
86 113 186
86 113 186
86 113 186
86 113 186
86 113 186
86 113 186
86 113 186
86 113 186
86 113 186
86 113 186
86 113 186
86 113 186
86 113 186
86 113 186
86 113 186
86 113 186
86 113 186
86 113 186
86 113 186
86 113 186
86 113 186
86 113 186
86 113 186
86 113 186
86 113 186
86 113 186
86 113 186
0 0 0
0 0 0
0 0 0
0 0 0
0 0 0
0 0 0
0 0 0
0 0 0
0 0 0
0 0 0
0 0 0
0 0 0
0 0 0
0 0 0
0 0 0
0 0 0
186 177 86
186 177 86
186 177 86
186 177 86
186 177 86
186 177 86
186 177 86
186 177 86
186 177 86
186 177 86
186 177 86
186 177 86
186 177 86
186 177 86
186 177 86
186 177 86
186 177 86
186 177 86
186 177 86
186 177 86
186 177 86
186 177 86
186 177 86
186 177 86
186 177 86
186 177 86
186 177 86
186 177 86
186 177 86
186 177 86
186 177 86
186 177 86
186 177 86
186 177 86
186 177 86
186 177 86
186 177 86
186 177 86
186 177 86
186 177 86
186 177 86
186 177 86
186 177 86
186 177 86
186 177 86
186 177 86
186 177 86
186 177 86
186 177 86
186 177 86
186 177 86
186 177 86
186 177 86
186 177 86
186 177 86
186 177 86
186 177 86
186 177 86
186 177 86
186 177 86
186 177 86
186 177 86
186 177 86
186 177 86
186 177 86
186 177 86
186 177 86
186 177 86
186 177 86
186 177 86
186 177 86
186 177 86
186 177 86
186 177 86
186 177 86
186 177 86
186 177 86
186 177 86
186 177 86
186 177 86
186 177 86
186 177 86
186 177 86
186 177 86
186 177 86
186 177 86
186 177 86
186 177 86
186 177 86
186 177 86
186 177 86
186 177 86
186 177 86
186 177 86
186 177 86
186 177 86
0 0 0
0 0 0
0 0 0
0 0 0
0 0 0
0 0 0
0 0 0
0 0 0
0 0 0
0 0 0
0 0 0
0 0 0
0 0 0
0 0 0
0 0 0
0 0 0
0 0 0
0 0 0
0 0 0
0 0 0
0 0 0
0 0 0
0 0 0
0 0 0
0 0 0
0 0 0
0 0 0
0 0 0
0 0 0
0 0 0
0 0 0
0 0 0
0 0 0
0 0 0
0 0 0
0 0 0
0 0 0
0 0 0
0 0 0
0 0 0
0 0 0
0 0 0
0 0 0
0 0 0
0 0 0
0 0 0
0 0 0
0 0 0
86 113 186
86 113 186
86 113 186
86 113 186
86 113 186
86 113 186
86 113 186
86 113 186
86 113 186
86 113 186
86 113 186
86 113 186
86 113 186
86 113 186
86 113 186
86 113 186
86 113 186
86 113 186
86 113 186
86 113 186
86 113 186
86 113 186
86 113 186
86 113 186
86 113 186
86 113 186
86 113 186
86 113 186
86 113 186
86 113 186
86 113 186
86 113 186
86 113 186
86 113 186
86 113 186
86 113 186
86 113 186
86 113 186
86 113 186
86 113 186
86 113 186
86 113 186
86 113 186
86 113 186
86 113 186
86 113 186
86 113 186
86 113 186
86 113 186
86 113 186
86 113 186
86 113 186
86 113 186
86 113 186
86 113 186
86 113 186
86 113 186
86 113 186
86 113 186
86 113 186
86 113 186
86 113 186
86 113 186
86 113 186
86 113 186
86 113 186
86 113 186
86 113 186
86 113 186
86 113 186
86 113 186
86 113 186
86 113 186
86 113 186
86 113 186
86 113 186
86 113 186
86 113 186
86 113 186
86 113 186
86 113 186
86 113 186
86 113 186
86 113 186
86 113 186
86 113 186
86 113 186
86 113 186
86 113 186
86 113 186
86 113 186
86 113 186
86 113 186
86 113 186
86 113 186
86 113 186
0 0 0
0 0 0
0 0 0
0 0 0
0 0 0
0 0 0
0 0 0
0 0 0
0 0 0
0 0 0
0 0 0
0 0 0
0 0 0
0 0 0
0 0 0
0 0 0
186 177 86
186 177 86
186 177 86
186 177 86
186 177 86
186 177 86
186 177 86
186 177 86
186 177 86
186 177 86
186 177 86
186 177 86
186 177 86
186 177 86
186 177 86
186 177 86
186 177 86
186 177 86
186 177 86
186 177 86
186 177 86
186 177 86
186 177 86
186 177 86
186 177 86
186 177 86
186 177 86
186 177 86
186 177 86
186 177 86
186 177 86
186 177 86
186 177 86
186 177 86
186 177 86
186 177 86
186 177 86
186 177 86
186 177 86
186 177 86
186 177 86
186 177 86
186 177 86
186 177 86
186 177 86
186 177 86
186 177 86
186 177 86
186 177 86
186 177 86
186 177 86
186 177 86
186 177 86
186 177 86
186 177 86
186 177 86
186 177 86
186 177 86
186 177 86
186 177 86
186 177 86
186 177 86
186 177 86
186 177 86
186 177 86
186 177 86
186 177 86
186 177 86
186 177 86
186 177 86
186 177 86
186 177 86
186 177 86
186 177 86
186 177 86
186 177 86
186 177 86
186 177 86
186 177 86
186 177 86
186 177 86
186 177 86
186 177 86
186 177 86
186 177 86
186 177 86
186 177 86
186 177 86
186 177 86
186 177 86
186 177 86
186 177 86
186 177 86
186 177 86
186 177 86
186 177 86
0 0 0
0 0 0
0 0 0
0 0 0
0 0 0
0 0 0
0 0 0
0 0 0
0 0 0
0 0 0
0 0 0
0 0 0
0 0 0
0 0 0
0 0 0
0 0 0
0 0 0
0 0 0
0 0 0
0 0 0
0 0 0
0 0 0
0 0 0
0 0 0
0 0 0
0 0 0
0 0 0
0 0 0
0 0 0
0 0 0
0 0 0
0 0 0
0 0 0
0 0 0
0 0 0
0 0 0
0 0 0
0 0 0
0 0 0
0 0 0
0 0 0
0 0 0
0 0 0
0 0 0
0 0 0
0 0 0
0 0 0
0 0 0
86 113 186
86 113 186
86 113 186
86 113 186
86 113 186
86 113 186
86 113 186
86 113 186
86 113 186
86 113 186
86 113 186
86 113 186
86 113 186
86 113 186
86 113 186
86 113 186
86 113 186
86 113 186
86 113 186
86 113 186
86 113 186
86 113 186
86 113 186
86 113 186
86 113 186
86 113 186
86 113 186
86 113 186
86 113 186
86 113 186
86 113 186
86 113 186
86 113 186
86 113 186
86 113 186
86 113 186
86 113 186
86 113 186
86 113 186
86 113 186
86 113 186
86 113 186
86 113 186
86 113 186
86 113 186
86 113 186
86 113 186
86 113 186
86 113 186
86 113 186
86 113 186
86 113 186
86 113 186
86 113 186
86 113 186
86 113 186
86 113 186
86 113 186
86 113 186
86 113 186
86 113 186
86 113 186
86 113 186
86 113 186
86 113 186
86 113 186
86 113 186
86 113 186
86 113 186
86 113 186
86 113 186
86 113 186
86 113 186
86 113 186
86 113 186
86 113 186
86 113 186
86 113 186
86 113 186
86 113 186
86 113 186
86 113 186
86 113 186
86 113 186
86 113 186
86 113 186
86 113 186
86 113 186
86 113 186
86 113 186
86 113 186
86 113 186
86 113 186
86 113 186
86 113 186
86 113 186
0 0 0
0 0 0
0 0 0
0 0 0
0 0 0
0 0 0
0 0 0
0 0 0
0 0 0
0 0 0
0 0 0
0 0 0
0 0 0
0 0 0
0 0 0
0 0 0
186 177 86
186 177 86
186 177 86
186 177 86
186 177 86
186 177 86
186 177 86
186 177 86
186 177 86
186 177 86
186 177 86
186 177 86
186 177 86
186 177 86
186 177 86
186 177 86
186 177 86
186 177 86
186 177 86
186 177 86
186 177 86
186 177 86
186 177 86
186 177 86
186 177 86
186 177 86
186 177 86
186 177 86
186 177 86
186 177 86
186 177 86
186 177 86
186 177 86
186 177 86
186 177 86
186 177 86
186 177 86
186 177 86
186 177 86
186 177 86
186 177 86
186 177 86
186 177 86
186 177 86
186 177 86
186 177 86
186 177 86
186 177 86
186 177 86
186 177 86
186 177 86
186 177 86
186 177 86
186 177 86
186 177 86
186 177 86
186 177 86
186 177 86
186 177 86
186 177 86
186 177 86
186 177 86
186 177 86
186 177 86
186 177 86
186 177 86
186 177 86
186 177 86
186 177 86
186 177 86
186 177 86
186 177 86
186 177 86
186 177 86
186 177 86
186 177 86
186 177 86
186 177 86
186 177 86
186 177 86
186 177 86
186 177 86
186 177 86
186 177 86
186 177 86
186 177 86
186 177 86
186 177 86
186 177 86
186 177 86
186 177 86
186 177 86
186 177 86
186 177 86
186 177 86
186 177 86
0 0 0
0 0 0
0 0 0
0 0 0
0 0 0
0 0 0
0 0 0
0 0 0
0 0 0
0 0 0
0 0 0
0 0 0
0 0 0
0 0 0
0 0 0
0 0 0
0 0 0
0 0 0
0 0 0
0 0 0
0 0 0
0 0 0
0 0 0
0 0 0
0 0 0
0 0 0
0 0 0
0 0 0
0 0 0
0 0 0
0 0 0
0 0 0
0 0 0
0 0 0
0 0 0
0 0 0
0 0 0
0 0 0
0 0 0
0 0 0
0 0 0
0 0 0
0 0 0
0 0 0
0 0 0
0 0 0
0 0 0
0 0 0
86 113 186
86 113 186
86 113 186
86 113 186
86 113 186
86 113 186
86 113 186
86 113 186
86 113 186
86 113 186
86 113 186
86 113 186
86 113 186
86 113 186
86 113 186
86 113 186
86 113 186
86 113 186
86 113 186
86 113 186
86 113 186
86 113 186
86 113 186
86 113 186
86 113 186
86 113 186
86 113 186
86 113 186
86 113 186
86 113 186
86 113 186
86 113 186
86 113 186
86 113 186
86 113 186
86 113 186
86 113 186
86 113 186
86 113 186
86 113 186
86 113 186
86 113 186
86 113 186
86 113 186
86 113 186
86 113 186
86 113 186
86 113 186
86 113 186
86 113 186
86 113 186
86 113 186
86 113 186
86 113 186
86 113 186
86 113 186
86 113 186
86 113 186
86 113 186
86 113 186
86 113 186
86 113 186
86 113 186
86 113 186
86 113 186
86 113 186
86 113 186
86 113 186
86 113 186
86 113 186
86 113 186
86 113 186
86 113 186
86 113 186
86 113 186
86 113 186
86 113 186
86 113 186
86 113 186
86 113 186
86 113 186
86 113 186
86 113 186
86 113 186
86 113 186
86 113 186
86 113 186
86 113 186
86 113 186
86 113 186
86 113 186
86 113 186
86 113 186
86 113 186
86 113 186
86 113 186
0 0 0
0 0 0
0 0 0
0 0 0
0 0 0
0 0 0
0 0 0
0 0 0
0 0 0
0 0 0
0 0 0
0 0 0
0 0 0
0 0 0
0 0 0
0 0 0
186 177 86
186 177 86
186 177 86
186 177 86
186 177 86
186 177 86
186 177 86
186 177 86
186 177 86
186 177 86
186 177 86
186 177 86
186 177 86
186 177 86
186 177 86
186 177 86
186 177 86
186 177 86
186 177 86
186 177 86
186 177 86
186 177 86
186 177 86
186 177 86
186 177 86
186 177 86
186 177 86
186 177 86
186 177 86
186 177 86
186 177 86
186 177 86
186 177 86
186 177 86
186 177 86
186 177 86
186 177 86
186 177 86
186 177 86
186 177 86
186 177 86
186 177 86
186 177 86
186 177 86
186 177 86
186 177 86
186 177 86
186 177 86
186 177 86
186 177 86
186 177 86
186 177 86
186 177 86
186 177 86
186 177 86
186 177 86
186 177 86
186 177 86
186 177 86
186 177 86
186 177 86
186 177 86
186 177 86
186 177 86
186 177 86
186 177 86
186 177 86
186 177 86
186 177 86
186 177 86
186 177 86
186 177 86
186 177 86
186 177 86
186 177 86
186 177 86
186 177 86
186 177 86
186 177 86
186 177 86
186 177 86
186 177 86
186 177 86
186 177 86
186 177 86
186 177 86
186 177 86
186 177 86
186 177 86
186 177 86
186 177 86
186 177 86
186 177 86
186 177 86
186 177 86
186 177 86
0 0 0
0 0 0
0 0 0
0 0 0
0 0 0
0 0 0
0 0 0
0 0 0
0 0 0
0 0 0
0 0 0
0 0 0
0 0 0
0 0 0
0 0 0
0 0 0
0 0 0
0 0 0
0 0 0
0 0 0
0 0 0
0 0 0
0 0 0
0 0 0
0 0 0
0 0 0
0 0 0
0 0 0
0 0 0
0 0 0
0 0 0
0 0 0
0 0 0
0 0 0
0 0 0
0 0 0
0 0 0
0 0 0
0 0 0
0 0 0
0 0 0
0 0 0
0 0 0
0 0 0
0 0 0
0 0 0
0 0 0
0 0 0
86 113 186
86 113 186
86 113 186
86 113 186
86 113 186
86 113 186
86 113 186
86 113 186
86 113 186
86 113 186
86 113 186
86 113 186
86 113 186
86 113 186
86 113 186
86 113 186
86 113 186
86 113 186
86 113 186
86 113 186
86 113 186
86 113 186
86 113 186
86 113 186
86 113 186
86 113 186
86 113 186
86 113 186
86 113 186
86 113 186
86 113 186
86 113 186
86 113 186
86 113 186
86 113 186
86 113 186
86 113 186
86 113 186
86 113 186
86 113 186
86 113 186
86 113 186
86 113 186
86 113 186
86 113 186
86 113 186
86 113 186
86 113 186
86 113 186
86 113 186
86 113 186
86 113 186
86 113 186
86 113 186
86 113 186
86 113 186
86 113 186
86 113 186
86 113 186
86 113 186
86 113 186
86 113 186
86 113 186
86 113 186
86 113 186
86 113 186
86 113 186
86 113 186
86 113 186
86 113 186
86 113 186
86 113 186
86 113 186
86 113 186
86 113 186
86 113 186
86 113 186
86 113 186
86 113 186
86 113 186
86 113 186
86 113 186
86 113 186
86 113 186
86 113 186
86 113 186
86 113 186
86 113 186
86 113 186
86 113 186
86 113 186
86 113 186
86 113 186
86 113 186
86 113 186
86 113 186
0 0 0
0 0 0
0 0 0
0 0 0
0 0 0
0 0 0
0 0 0
0 0 0
0 0 0
0 0 0
0 0 0
0 0 0
0 0 0
0 0 0
0 0 0
0 0 0
186 177 86
186 177 86
186 177 86
186 177 86
186 177 86
186 177 86
186 177 86
186 177 86
186 177 86
186 177 86
186 177 86
186 177 86
186 177 86
186 177 86
186 177 86
186 177 86
186 177 86
186 177 86
186 177 86
186 177 86
186 177 86
186 177 86
186 177 86
186 177 86
186 177 86
186 177 86
186 177 86
186 177 86
186 177 86
186 177 86
186 177 86
186 177 86
186 177 86
186 177 86
186 177 86
186 177 86
186 177 86
186 177 86
186 177 86
186 177 86
186 177 86
186 177 86
186 177 86
186 177 86
186 177 86
186 177 86
186 177 86
186 177 86
186 177 86
186 177 86
186 177 86
186 177 86
186 177 86
186 177 86
186 177 86
186 177 86
186 177 86
186 177 86
186 177 86
186 177 86
186 177 86
186 177 86
186 177 86
186 177 86
186 177 86
186 177 86
186 177 86
186 177 86
186 177 86
186 177 86
186 177 86
186 177 86
186 177 86
186 177 86
186 177 86
186 177 86
186 177 86
186 177 86
186 177 86
186 177 86
186 177 86
186 177 86
186 177 86
186 177 86
186 177 86
186 177 86
186 177 86
186 177 86
186 177 86
186 177 86
186 177 86
186 177 86
186 177 86
186 177 86
186 177 86
186 177 86
0 0 0
0 0 0
0 0 0
0 0 0
0 0 0
0 0 0
0 0 0
0 0 0
0 0 0
0 0 0
0 0 0
0 0 0
0 0 0
0 0 0
0 0 0
0 0 0
0 0 0
0 0 0
0 0 0
0 0 0
0 0 0
0 0 0
0 0 0
0 0 0
0 0 0
0 0 0
0 0 0
0 0 0
0 0 0
0 0 0
0 0 0
0 0 0
0 0 0
0 0 0
0 0 0
0 0 0
0 0 0
0 0 0
0 0 0
0 0 0
0 0 0
0 0 0
0 0 0
0 0 0
0 0 0
0 0 0
0 0 0
0 0 0
86 113 186
86 113 186
86 113 186
86 113 186
86 113 186
86 113 186
86 113 186
86 113 186
86 113 186
86 113 186
86 113 186
86 113 186
86 113 186
86 113 186
86 113 186
86 113 186
86 113 186
86 113 186
86 113 186
86 113 186
86 113 186
86 113 186
86 113 186
86 113 186
86 113 186
86 113 186
86 113 186
86 113 186
86 113 186
86 113 186
86 113 186
86 113 186
86 113 186
86 113 186
86 113 186
86 113 186
86 113 186
86 113 186
86 113 186
86 113 186
86 113 186
86 113 186
86 113 186
86 113 186
86 113 186
86 113 186
86 113 186
86 113 186
86 113 186
86 113 186
86 113 186
86 113 186
86 113 186
86 113 186
86 113 186
86 113 186
86 113 186
86 113 186
86 113 186
86 113 186
86 113 186
86 113 186
86 113 186
86 113 186
86 113 186
86 113 186
86 113 186
86 113 186
86 113 186
86 113 186
86 113 186
86 113 186
86 113 186
86 113 186
86 113 186
86 113 186
86 113 186
86 113 186
86 113 186
86 113 186
86 113 186
86 113 186
86 113 186
86 113 186
86 113 186
86 113 186
86 113 186
86 113 186
86 113 186
86 113 186
86 113 186
86 113 186
86 113 186
86 113 186
86 113 186
86 113 186
0 0 0
0 0 0
0 0 0
0 0 0
0 0 0
0 0 0
0 0 0
0 0 0
0 0 0
0 0 0
0 0 0
0 0 0
0 0 0
0 0 0
0 0 0
0 0 0
186 177 86
186 177 86
186 177 86
186 177 86
186 177 86
186 177 86
186 177 86
186 177 86
186 177 86
186 177 86
186 177 86
186 177 86
186 177 86
186 177 86
186 177 86
186 177 86
186 177 86
186 177 86
186 177 86
186 177 86
186 177 86
186 177 86
186 177 86
186 177 86
186 177 86
186 177 86
186 177 86
186 177 86
186 177 86
186 177 86
186 177 86
186 177 86
186 177 86
186 177 86
186 177 86
186 177 86
186 177 86
186 177 86
186 177 86
186 177 86
186 177 86
186 177 86
186 177 86
186 177 86
186 177 86
186 177 86
186 177 86
186 177 86
186 177 86
186 177 86
186 177 86
186 177 86
186 177 86
186 177 86
186 177 86
186 177 86
186 177 86
186 177 86
186 177 86
186 177 86
186 177 86
186 177 86
186 177 86
186 177 86
186 177 86
186 177 86
186 177 86
186 177 86
186 177 86
186 177 86
186 177 86
186 177 86
186 177 86
186 177 86
186 177 86
186 177 86
186 177 86
186 177 86
186 177 86
186 177 86
186 177 86
186 177 86
186 177 86
186 177 86
186 177 86
186 177 86
186 177 86
186 177 86
186 177 86
186 177 86
186 177 86
186 177 86
186 177 86
186 177 86
186 177 86
186 177 86
0 0 0
0 0 0
0 0 0
0 0 0
0 0 0
0 0 0
0 0 0
0 0 0
0 0 0
0 0 0
0 0 0
0 0 0
0 0 0
0 0 0
0 0 0
0 0 0
0 0 0
0 0 0
0 0 0
0 0 0
0 0 0
0 0 0
0 0 0
0 0 0
0 0 0
0 0 0
0 0 0
0 0 0
0 0 0
0 0 0
0 0 0
0 0 0
0 0 0
0 0 0
0 0 0
0 0 0
0 0 0
0 0 0
0 0 0
0 0 0
0 0 0
0 0 0
0 0 0
0 0 0
0 0 0
0 0 0
0 0 0
0 0 0
86 113 186
86 113 186
86 113 186
86 113 186
86 113 186
86 113 186
86 113 186
86 113 186
86 113 186
86 113 186
86 113 186
86 113 186
86 113 186
86 113 186
86 113 186
86 113 186
86 113 186
86 113 186
86 113 186
86 113 186
86 113 186
86 113 186
86 113 186
86 113 186
86 113 186
86 113 186
86 113 186
86 113 186
86 113 186
86 113 186
86 113 186
86 113 186
86 113 186
86 113 186
86 113 186
86 113 186
86 113 186
86 113 186
86 113 186
86 113 186
86 113 186
86 113 186
86 113 186
86 113 186
86 113 186
86 113 186
86 113 186
86 113 186
86 113 186
86 113 186
86 113 186
86 113 186
86 113 186
86 113 186
86 113 186
86 113 186
86 113 186
86 113 186
86 113 186
86 113 186
86 113 186
86 113 186
86 113 186
86 113 186
86 113 186
86 113 186
86 113 186
86 113 186
86 113 186
86 113 186
86 113 186
86 113 186
86 113 186
86 113 186
86 113 186
86 113 186
86 113 186
86 113 186
86 113 186
86 113 186
86 113 186
86 113 186
86 113 186
86 113 186
86 113 186
86 113 186
86 113 186
86 113 186
86 113 186
86 113 186
86 113 186
86 113 186
86 113 186
86 113 186
86 113 186
86 113 186
0 0 0
0 0 0
0 0 0
0 0 0
0 0 0
0 0 0
0 0 0
0 0 0
0 0 0
0 0 0
0 0 0
0 0 0
0 0 0
0 0 0
0 0 0
0 0 0
186 177 86
186 177 86
186 177 86
186 177 86
186 177 86
186 177 86
186 177 86
186 177 86
186 177 86
186 177 86
186 177 86
186 177 86
186 177 86
186 177 86
186 177 86
186 177 86
186 177 86
186 177 86
186 177 86
186 177 86
186 177 86
186 177 86
186 177 86
186 177 86
186 177 86
186 177 86
186 177 86
186 177 86
186 177 86
186 177 86
186 177 86
186 177 86
186 177 86
186 177 86
186 177 86
186 177 86
186 177 86
186 177 86
186 177 86
186 177 86
186 177 86
186 177 86
186 177 86
186 177 86
186 177 86
186 177 86
186 177 86
186 177 86
186 177 86
186 177 86
186 177 86
186 177 86
186 177 86
186 177 86
186 177 86
186 177 86
186 177 86
186 177 86
186 177 86
186 177 86
186 177 86
186 177 86
186 177 86
186 177 86
186 177 86
186 177 86
186 177 86
186 177 86
186 177 86
186 177 86
186 177 86
186 177 86
186 177 86
186 177 86
186 177 86
186 177 86
186 177 86
186 177 86
186 177 86
186 177 86
186 177 86
186 177 86
186 177 86
186 177 86
186 177 86
186 177 86
186 177 86
186 177 86
186 177 86
186 177 86
186 177 86
186 177 86
186 177 86
186 177 86
186 177 86
186 177 86
0 0 0
0 0 0
0 0 0
0 0 0
0 0 0
0 0 0
0 0 0
0 0 0
0 0 0
0 0 0
0 0 0
0 0 0
0 0 0
0 0 0
0 0 0
0 0 0
0 0 0
0 0 0
0 0 0
0 0 0
0 0 0
0 0 0
0 0 0
0 0 0
0 0 0
0 0 0
0 0 0
0 0 0
0 0 0
0 0 0
0 0 0
0 0 0
0 0 0
0 0 0
0 0 0
0 0 0
0 0 0
0 0 0
0 0 0
0 0 0
0 0 0
0 0 0
0 0 0
0 0 0
0 0 0
0 0 0
0 0 0
0 0 0
86 113 186
86 113 186
86 113 186
86 113 186
86 113 186
86 113 186
86 113 186
86 113 186
86 113 186
86 113 186
86 113 186
86 113 186
86 113 186
86 113 186
86 113 186
86 113 186
86 113 186
86 113 186
86 113 186
86 113 186
86 113 186
86 113 186
86 113 186
86 113 186
86 113 186
86 113 186
86 113 186
86 113 186
86 113 186
86 113 186
86 113 186
86 113 186
86 113 186
86 113 186
86 113 186
86 113 186
86 113 186
86 113 186
86 113 186
86 113 186
86 113 186
86 113 186
86 113 186
86 113 186
86 113 186
86 113 186
86 113 186
86 113 186
86 113 186
86 113 186
86 113 186
86 113 186
86 113 186
86 113 186
86 113 186
86 113 186
86 113 186
86 113 186
86 113 186
86 113 186
86 113 186
86 113 186
86 113 186
86 113 186
86 113 186
86 113 186
86 113 186
86 113 186
86 113 186
86 113 186
86 113 186
86 113 186
86 113 186
86 113 186
86 113 186
86 113 186
86 113 186
86 113 186
86 113 186
86 113 186
86 113 186
86 113 186
86 113 186
86 113 186
86 113 186
86 113 186
86 113 186
86 113 186
86 113 186
86 113 186
86 113 186
86 113 186
86 113 186
86 113 186
86 113 186
86 113 186
0 0 0
0 0 0
0 0 0
0 0 0
0 0 0
0 0 0
0 0 0
0 0 0
0 0 0
0 0 0
0 0 0
0 0 0
0 0 0
0 0 0
0 0 0
0 0 0
186 177 86
186 177 86
186 177 86
186 177 86
186 177 86
186 177 86
186 177 86
186 177 86
186 177 86
186 177 86
186 177 86
186 177 86
186 177 86
186 177 86
186 177 86
186 177 86
186 177 86
186 177 86
186 177 86
186 177 86
186 177 86
186 177 86
186 177 86
186 177 86
186 177 86
186 177 86
186 177 86
186 177 86
186 177 86
186 177 86
186 177 86
186 177 86
186 177 86
186 177 86
186 177 86
186 177 86
186 177 86
186 177 86
186 177 86
186 177 86
186 177 86
186 177 86
186 177 86
186 177 86
186 177 86
186 177 86
186 177 86
186 177 86
186 177 86
186 177 86
186 177 86
186 177 86
186 177 86
186 177 86
186 177 86
186 177 86
186 177 86
186 177 86
186 177 86
186 177 86
186 177 86
186 177 86
186 177 86
186 177 86
186 177 86
186 177 86
186 177 86
186 177 86
186 177 86
186 177 86
186 177 86
186 177 86
186 177 86
186 177 86
186 177 86
186 177 86
186 177 86
186 177 86
186 177 86
186 177 86
186 177 86
186 177 86
186 177 86
186 177 86
186 177 86
186 177 86
186 177 86
186 177 86
186 177 86
186 177 86
186 177 86
186 177 86
186 177 86
186 177 86
186 177 86
186 177 86
0 0 0
0 0 0
0 0 0
0 0 0
0 0 0
0 0 0
0 0 0
0 0 0
0 0 0
0 0 0
0 0 0
0 0 0
0 0 0
0 0 0
0 0 0
0 0 0
0 0 0
0 0 0
0 0 0
0 0 0
0 0 0
0 0 0
0 0 0
0 0 0
0 0 0
0 0 0
0 0 0
0 0 0
0 0 0
0 0 0
0 0 0
0 0 0
0 0 0
0 0 0
0 0 0
0 0 0
0 0 0
0 0 0
0 0 0
0 0 0
0 0 0
0 0 0
0 0 0
0 0 0
0 0 0
0 0 0
0 0 0
0 0 0
86 113 186
86 113 186
86 113 186
86 113 186
86 113 186
86 113 186
86 113 186
86 113 186
86 113 186
86 113 186
86 113 186
86 113 186
86 113 186
86 113 186
86 113 186
86 113 186
86 113 186
86 113 186
86 113 186
86 113 186
86 113 186
86 113 186
86 113 186
86 113 186
86 113 186
86 113 186
86 113 186
86 113 186
86 113 186
86 113 186
86 113 186
86 113 186
86 113 186
86 113 186
86 113 186
86 113 186
86 113 186
86 113 186
86 113 186
86 113 186
86 113 186
86 113 186
86 113 186
86 113 186
86 113 186
86 113 186
86 113 186
86 113 186
86 113 186
86 113 186
86 113 186
86 113 186
86 113 186
86 113 186
86 113 186
86 113 186
86 113 186
86 113 186
86 113 186
86 113 186
86 113 186
86 113 186
86 113 186
86 113 186
86 113 186
86 113 186
86 113 186
86 113 186
86 113 186
86 113 186
86 113 186
86 113 186
86 113 186
86 113 186
86 113 186
86 113 186
86 113 186
86 113 186
86 113 186
86 113 186
86 113 186
86 113 186
86 113 186
86 113 186
86 113 186
86 113 186
86 113 186
86 113 186
86 113 186
86 113 186
86 113 186
86 113 186
86 113 186
86 113 186
86 113 186
86 113 186
0 0 0
0 0 0
0 0 0
0 0 0
0 0 0
0 0 0
0 0 0
0 0 0
0 0 0
0 0 0
0 0 0
0 0 0
0 0 0
0 0 0
0 0 0
0 0 0
186 177 86
186 177 86
186 177 86
186 177 86
186 177 86
186 177 86
186 177 86
186 177 86
186 177 86
186 177 86
186 177 86
186 177 86
186 177 86
186 177 86
186 177 86
186 177 86
186 177 86
186 177 86
186 177 86
186 177 86
186 177 86
186 177 86
186 177 86
186 177 86
186 177 86
186 177 86
186 177 86
186 177 86
186 177 86
186 177 86
186 177 86
186 177 86
186 177 86
186 177 86
186 177 86
186 177 86
186 177 86
186 177 86
186 177 86
186 177 86
186 177 86
186 177 86
186 177 86
186 177 86
186 177 86
186 177 86
186 177 86
186 177 86
186 177 86
186 177 86
186 177 86
186 177 86
186 177 86
186 177 86
186 177 86
186 177 86
186 177 86
186 177 86
186 177 86
186 177 86
186 177 86
186 177 86
186 177 86
186 177 86
186 177 86
186 177 86
186 177 86
186 177 86
186 177 86
186 177 86
186 177 86
186 177 86
186 177 86
186 177 86
186 177 86
186 177 86
186 177 86
186 177 86
186 177 86
186 177 86
186 177 86
186 177 86
186 177 86
186 177 86
186 177 86
186 177 86
186 177 86
186 177 86
186 177 86
186 177 86
186 177 86
186 177 86
186 177 86
186 177 86
186 177 86
186 177 86
0 0 0
0 0 0
0 0 0
0 0 0
0 0 0
0 0 0
0 0 0
0 0 0
0 0 0
0 0 0
0 0 0
0 0 0
0 0 0
0 0 0
0 0 0
0 0 0
0 0 0
0 0 0
0 0 0
0 0 0
0 0 0
0 0 0
0 0 0
0 0 0
0 0 0
0 0 0
0 0 0
0 0 0
0 0 0
0 0 0
0 0 0
0 0 0
0 0 0
0 0 0
0 0 0
0 0 0
0 0 0
0 0 0
0 0 0
0 0 0
0 0 0
0 0 0
0 0 0
0 0 0
0 0 0
0 0 0
0 0 0
0 0 0
86 113 186
86 113 186
86 113 186
86 113 186
86 113 186
86 113 186
86 113 186
86 113 186
86 113 186
86 113 186
86 113 186
86 113 186
86 113 186
86 113 186
86 113 186
86 113 186
86 113 186
86 113 186
86 113 186
86 113 186
86 113 186
86 113 186
86 113 186
86 113 186
86 113 186
86 113 186
86 113 186
86 113 186
86 113 186
86 113 186
86 113 186
86 113 186
86 113 186
86 113 186
86 113 186
86 113 186
86 113 186
86 113 186
86 113 186
86 113 186
86 113 186
86 113 186
86 113 186
86 113 186
86 113 186
86 113 186
86 113 186
86 113 186
86 113 186
86 113 186
86 113 186
86 113 186
86 113 186
86 113 186
86 113 186
86 113 186
86 113 186
86 113 186
86 113 186
86 113 186
86 113 186
86 113 186
86 113 186
86 113 186
86 113 186
86 113 186
86 113 186
86 113 186
86 113 186
86 113 186
86 113 186
86 113 186
86 113 186
86 113 186
86 113 186
86 113 186
86 113 186
86 113 186
86 113 186
86 113 186
86 113 186
86 113 186
86 113 186
86 113 186
86 113 186
86 113 186
86 113 186
86 113 186
86 113 186
86 113 186
86 113 186
86 113 186
86 113 186
86 113 186
86 113 186
86 113 186
0 0 0
0 0 0
0 0 0
0 0 0
0 0 0
0 0 0
0 0 0
0 0 0
0 0 0
0 0 0
0 0 0
0 0 0
0 0 0
0 0 0
0 0 0
0 0 0
186 177 86
186 177 86
186 177 86
186 177 86
186 177 86
186 177 86
186 177 86
186 177 86
186 177 86
186 177 86
186 177 86
186 177 86
186 177 86
186 177 86
186 177 86
186 177 86
186 177 86
186 177 86
186 177 86
186 177 86
186 177 86
186 177 86
186 177 86
186 177 86
186 177 86
186 177 86
186 177 86
186 177 86
186 177 86
186 177 86
186 177 86
186 177 86
186 177 86
186 177 86
186 177 86
186 177 86
186 177 86
186 177 86
186 177 86
186 177 86
186 177 86
186 177 86
186 177 86
186 177 86
186 177 86
186 177 86
186 177 86
186 177 86
186 177 86
186 177 86
186 177 86
186 177 86
186 177 86
186 177 86
186 177 86
186 177 86
186 177 86
186 177 86
186 177 86
186 177 86
186 177 86
186 177 86
186 177 86
186 177 86
186 177 86
186 177 86
186 177 86
186 177 86
186 177 86
186 177 86
186 177 86
186 177 86
186 177 86
186 177 86
186 177 86
186 177 86
186 177 86
186 177 86
186 177 86
186 177 86
186 177 86
186 177 86
186 177 86
186 177 86
186 177 86
186 177 86
186 177 86
186 177 86
186 177 86
186 177 86
186 177 86
186 177 86
186 177 86
186 177 86
186 177 86
186 177 86
0 0 0
0 0 0
0 0 0
0 0 0
0 0 0
0 0 0
0 0 0
0 0 0
0 0 0
0 0 0
0 0 0
0 0 0
0 0 0
0 0 0
0 0 0
0 0 0
0 0 0
0 0 0
0 0 0
0 0 0
0 0 0
0 0 0
0 0 0
0 0 0
0 0 0
0 0 0
0 0 0
0 0 0
0 0 0
0 0 0
0 0 0
0 0 0
0 0 0
0 0 0
0 0 0
0 0 0
0 0 0
0 0 0
0 0 0
0 0 0
0 0 0
0 0 0
0 0 0
0 0 0
0 0 0
0 0 0
0 0 0
0 0 0
86 113 186
86 113 186
86 113 186
86 113 186
86 113 186
86 113 186
86 113 186
86 113 186
86 113 186
86 113 186
86 113 186
86 113 186
86 113 186
86 113 186
86 113 186
86 113 186
86 113 186
86 113 186
86 113 186
86 113 186
86 113 186
86 113 186
86 113 186
86 113 186
86 113 186
86 113 186
86 113 186
86 113 186
86 113 186
86 113 186
86 113 186
86 113 186
86 113 186
86 113 186
86 113 186
86 113 186
86 113 186
86 113 186
86 113 186
86 113 186
86 113 186
86 113 186
86 113 186
86 113 186
86 113 186
86 113 186
86 113 186
86 113 186
86 113 186
86 113 186
86 113 186
86 113 186
86 113 186
86 113 186
86 113 186
86 113 186
86 113 186
86 113 186
86 113 186
86 113 186
86 113 186
86 113 186
86 113 186
86 113 186
86 113 186
86 113 186
86 113 186
86 113 186
86 113 186
86 113 186
86 113 186
86 113 186
86 113 186
86 113 186
86 113 186
86 113 186
86 113 186
86 113 186
86 113 186
86 113 186
86 113 186
86 113 186
86 113 186
86 113 186
86 113 186
86 113 186
86 113 186
86 113 186
86 113 186
86 113 186
86 113 186
86 113 186
86 113 186
86 113 186
86 113 186
86 113 186
0 0 0
0 0 0
0 0 0
0 0 0
0 0 0
0 0 0
0 0 0
0 0 0
0 0 0
0 0 0
0 0 0
0 0 0
0 0 0
0 0 0
0 0 0
0 0 0
186 177 86
186 177 86
186 177 86
186 177 86
186 177 86
186 177 86
186 177 86
186 177 86
186 177 86
186 177 86
186 177 86
186 177 86
186 177 86
186 177 86
186 177 86
186 177 86
186 177 86
186 177 86
186 177 86
186 177 86
186 177 86
186 177 86
186 177 86
186 177 86
186 177 86
186 177 86
186 177 86
186 177 86
186 177 86
186 177 86
186 177 86
186 177 86
186 177 86
186 177 86
186 177 86
186 177 86
186 177 86
186 177 86
186 177 86
186 177 86
186 177 86
186 177 86
186 177 86
186 177 86
186 177 86
186 177 86
186 177 86
186 177 86
186 177 86
186 177 86
186 177 86
186 177 86
186 177 86
186 177 86
186 177 86
186 177 86
186 177 86
186 177 86
186 177 86
186 177 86
186 177 86
186 177 86
186 177 86
186 177 86
186 177 86
186 177 86
186 177 86
186 177 86
186 177 86
186 177 86
186 177 86
186 177 86
186 177 86
186 177 86
186 177 86
186 177 86
186 177 86
186 177 86
186 177 86
186 177 86
186 177 86
186 177 86
186 177 86
186 177 86
186 177 86
186 177 86
186 177 86
186 177 86
186 177 86
186 177 86
186 177 86
186 177 86
186 177 86
186 177 86
186 177 86
186 177 86
0 0 0
0 0 0
0 0 0
0 0 0
0 0 0
0 0 0
0 0 0
0 0 0
0 0 0
0 0 0
0 0 0
0 0 0
0 0 0
0 0 0
0 0 0
0 0 0
0 0 0
0 0 0
0 0 0
0 0 0
0 0 0
0 0 0
0 0 0
0 0 0
0 0 0
0 0 0
0 0 0
0 0 0
0 0 0
0 0 0
0 0 0
0 0 0
0 0 0
0 0 0
0 0 0
0 0 0
0 0 0
0 0 0
0 0 0
0 0 0
0 0 0
0 0 0
0 0 0
0 0 0
0 0 0
0 0 0
0 0 0
0 0 0
86 113 186
86 113 186
86 113 186
86 113 186
86 113 186
86 113 186
86 113 186
86 113 186
86 113 186
86 113 186
86 113 186
86 113 186
86 113 186
86 113 186
86 113 186
86 113 186
86 113 186
86 113 186
86 113 186
86 113 186
86 113 186
86 113 186
86 113 186
86 113 186
86 113 186
86 113 186
86 113 186
86 113 186
86 113 186
86 113 186
86 113 186
86 113 186
86 113 186
86 113 186
86 113 186
86 113 186
86 113 186
86 113 186
86 113 186
86 113 186
86 113 186
86 113 186
86 113 186
86 113 186
86 113 186
86 113 186
86 113 186
86 113 186
86 113 186
86 113 186
86 113 186
86 113 186
86 113 186
86 113 186
86 113 186
86 113 186
86 113 186
86 113 186
86 113 186
86 113 186
86 113 186
86 113 186
86 113 186
86 113 186
86 113 186
86 113 186
86 113 186
86 113 186
86 113 186
86 113 186
86 113 186
86 113 186
86 113 186
86 113 186
86 113 186
86 113 186
86 113 186
86 113 186
86 113 186
86 113 186
86 113 186
86 113 186
86 113 186
86 113 186
86 113 186
86 113 186
86 113 186
86 113 186
86 113 186
86 113 186
86 113 186
86 113 186
86 113 186
86 113 186
86 113 186
86 113 186
0 0 0
0 0 0
0 0 0
0 0 0
0 0 0
0 0 0
0 0 0
0 0 0
0 0 0
0 0 0
0 0 0
0 0 0
0 0 0
0 0 0
0 0 0
0 0 0
186 177 86
186 177 86
186 177 86
186 177 86
186 177 86
186 177 86
186 177 86
186 177 86
186 177 86
186 177 86
186 177 86
186 177 86
186 177 86
186 177 86
186 177 86
186 177 86
186 177 86
186 177 86
186 177 86
186 177 86
186 177 86
186 177 86
186 177 86
186 177 86
186 177 86
186 177 86
186 177 86
186 177 86
186 177 86
186 177 86
186 177 86
186 177 86
186 177 86
186 177 86
186 177 86
186 177 86
186 177 86
186 177 86
186 177 86
186 177 86
186 177 86
186 177 86
186 177 86
186 177 86
186 177 86
186 177 86
186 177 86
186 177 86
186 177 86
186 177 86
186 177 86
186 177 86
186 177 86
186 177 86
186 177 86
186 177 86
186 177 86
186 177 86
186 177 86
186 177 86
186 177 86
186 177 86
186 177 86
186 177 86
186 177 86
186 177 86
186 177 86
186 177 86
186 177 86
186 177 86
186 177 86
186 177 86
186 177 86
186 177 86
186 177 86
186 177 86
186 177 86
186 177 86
186 177 86
186 177 86
186 177 86
186 177 86
186 177 86
186 177 86
186 177 86
186 177 86
186 177 86
186 177 86
186 177 86
186 177 86
186 177 86
186 177 86
186 177 86
186 177 86
186 177 86
186 177 86
0 0 0
0 0 0
0 0 0
0 0 0
0 0 0
0 0 0
0 0 0
0 0 0
0 0 0
0 0 0
0 0 0
0 0 0
0 0 0
0 0 0
0 0 0
0 0 0
0 0 0
0 0 0
0 0 0
0 0 0
0 0 0
0 0 0
0 0 0
0 0 0
0 0 0
0 0 0
0 0 0
0 0 0
0 0 0
0 0 0
0 0 0
0 0 0
0 0 0
0 0 0
0 0 0
0 0 0
0 0 0
0 0 0
0 0 0
0 0 0
0 0 0
0 0 0
0 0 0
0 0 0
0 0 0
0 0 0
0 0 0
0 0 0
86 113 186
86 113 186
86 113 186
86 113 186
86 113 186
86 113 186
86 113 186
86 113 186
86 113 186
86 113 186
86 113 186
86 113 186
86 113 186
86 113 186
86 113 186
86 113 186
86 113 186
86 113 186
86 113 186
86 113 186
86 113 186
86 113 186
86 113 186
86 113 186
86 113 186
86 113 186
86 113 186
86 113 186
86 113 186
86 113 186
86 113 186
86 113 186
86 113 186
86 113 186
86 113 186
86 113 186
86 113 186
86 113 186
86 113 186
86 113 186
86 113 186
86 113 186
86 113 186
86 113 186
86 113 186
86 113 186
86 113 186
86 113 186
86 113 186
86 113 186
86 113 186
86 113 186
86 113 186
86 113 186
86 113 186
86 113 186
86 113 186
86 113 186
86 113 186
86 113 186
86 113 186
86 113 186
86 113 186
86 113 186
86 113 186
86 113 186
86 113 186
86 113 186
86 113 186
86 113 186
86 113 186
86 113 186
86 113 186
86 113 186
86 113 186
86 113 186
86 113 186
86 113 186
86 113 186
86 113 186
86 113 186
86 113 186
86 113 186
86 113 186
86 113 186
86 113 186
86 113 186
86 113 186
86 113 186
86 113 186
86 113 186
86 113 186
86 113 186
86 113 186
86 113 186
86 113 186
0 0 0
0 0 0
0 0 0
0 0 0
0 0 0
0 0 0
0 0 0
0 0 0
0 0 0
0 0 0
0 0 0
0 0 0
0 0 0
0 0 0
0 0 0
0 0 0
186 177 86
186 177 86
186 177 86
186 177 86
186 177 86
186 177 86
186 177 86
186 177 86
186 177 86
186 177 86
186 177 86
186 177 86
186 177 86
186 177 86
186 177 86
186 177 86
186 177 86
186 177 86
186 177 86
186 177 86
186 177 86
186 177 86
186 177 86
186 177 86
186 177 86
186 177 86
186 177 86
186 177 86
186 177 86
186 177 86
186 177 86
186 177 86
186 177 86
186 177 86
186 177 86
186 177 86
186 177 86
186 177 86
186 177 86
186 177 86
186 177 86
186 177 86
186 177 86
186 177 86
186 177 86
186 177 86
186 177 86
186 177 86
186 177 86
186 177 86
186 177 86
186 177 86
186 177 86
186 177 86
186 177 86
186 177 86
186 177 86
186 177 86
186 177 86
186 177 86
186 177 86
186 177 86
186 177 86
186 177 86
186 177 86
186 177 86
186 177 86
186 177 86
186 177 86
186 177 86
186 177 86
186 177 86
186 177 86
186 177 86
186 177 86
186 177 86
186 177 86
186 177 86
186 177 86
186 177 86
186 177 86
186 177 86
186 177 86
186 177 86
186 177 86
186 177 86
186 177 86
186 177 86
186 177 86
186 177 86
186 177 86
186 177 86
186 177 86
186 177 86
186 177 86
186 177 86
0 0 0
0 0 0
0 0 0
0 0 0
0 0 0
0 0 0
0 0 0
0 0 0
0 0 0
0 0 0
0 0 0
0 0 0
0 0 0
0 0 0
0 0 0
0 0 0
0 0 0
0 0 0
0 0 0
0 0 0
0 0 0
0 0 0
0 0 0
0 0 0
0 0 0
0 0 0
0 0 0
0 0 0
0 0 0
0 0 0
0 0 0
0 0 0
0 0 0
0 0 0
0 0 0
0 0 0
0 0 0
0 0 0
0 0 0
0 0 0
0 0 0
0 0 0
0 0 0
0 0 0
0 0 0
0 0 0
0 0 0
0 0 0
86 113 186
86 113 186
86 113 186
86 113 186
86 113 186
86 113 186
86 113 186
86 113 186
86 113 186
86 113 186
86 113 186
86 113 186
86 113 186
86 113 186
86 113 186
86 113 186
86 113 186
86 113 186
86 113 186
86 113 186
86 113 186
86 113 186
86 113 186
86 113 186
86 113 186
86 113 186
86 113 186
86 113 186
86 113 186
86 113 186
86 113 186
86 113 186
86 113 186
86 113 186
86 113 186
86 113 186
86 113 186
86 113 186
86 113 186
86 113 186
86 113 186
86 113 186
86 113 186
86 113 186
86 113 186
86 113 186
86 113 186
86 113 186
86 113 186
86 113 186
86 113 186
86 113 186
86 113 186
86 113 186
86 113 186
86 113 186
86 113 186
86 113 186
86 113 186
86 113 186
86 113 186
86 113 186
86 113 186
86 113 186
86 113 186
86 113 186
86 113 186
86 113 186
86 113 186
86 113 186
86 113 186
86 113 186
86 113 186
86 113 186
86 113 186
86 113 186
86 113 186
86 113 186
86 113 186
86 113 186
86 113 186
86 113 186
86 113 186
86 113 186
86 113 186
86 113 186
86 113 186
86 113 186
86 113 186
86 113 186
86 113 186
86 113 186
86 113 186
86 113 186
86 113 186
86 113 186
0 0 0
0 0 0
0 0 0
0 0 0
0 0 0
0 0 0
0 0 0
0 0 0
0 0 0
0 0 0
0 0 0
0 0 0
0 0 0
0 0 0
0 0 0
0 0 0
186 177 86
186 177 86
186 177 86
186 177 86
186 177 86
186 177 86
186 177 86
186 177 86
186 177 86
186 177 86
186 177 86
186 177 86
186 177 86
186 177 86
186 177 86
186 177 86
186 177 86
186 177 86
186 177 86
186 177 86
186 177 86
186 177 86
186 177 86
186 177 86
186 177 86
186 177 86
186 177 86
186 177 86
186 177 86
186 177 86
186 177 86
186 177 86
186 177 86
186 177 86
186 177 86
186 177 86
186 177 86
186 177 86
186 177 86
186 177 86
186 177 86
186 177 86
186 177 86
186 177 86
186 177 86
186 177 86
186 177 86
186 177 86
186 177 86
186 177 86
186 177 86
186 177 86
186 177 86
186 177 86
186 177 86
186 177 86
186 177 86
186 177 86
186 177 86
186 177 86
186 177 86
186 177 86
186 177 86
186 177 86
186 177 86
186 177 86
186 177 86
186 177 86
186 177 86
186 177 86
186 177 86
186 177 86
186 177 86
186 177 86
186 177 86
186 177 86
186 177 86
186 177 86
186 177 86
186 177 86
186 177 86
186 177 86
186 177 86
186 177 86
186 177 86
186 177 86
186 177 86
186 177 86
186 177 86
186 177 86
186 177 86
186 177 86
186 177 86
186 177 86
186 177 86
186 177 86
0 0 0
0 0 0
0 0 0
0 0 0
0 0 0
0 0 0
0 0 0
0 0 0
0 0 0
0 0 0
0 0 0
0 0 0
0 0 0
0 0 0
0 0 0
0 0 0
0 0 0
0 0 0
0 0 0
0 0 0
0 0 0
0 0 0
0 0 0
0 0 0
0 0 0
0 0 0
0 0 0
0 0 0
0 0 0
0 0 0
0 0 0
0 0 0
0 0 0
0 0 0
0 0 0
0 0 0
0 0 0
0 0 0
0 0 0
0 0 0
0 0 0
0 0 0
0 0 0
0 0 0
0 0 0
0 0 0
0 0 0
0 0 0
86 113 186
86 113 186
86 113 186
86 113 186
86 113 186
86 113 186
86 113 186
86 113 186
86 113 186
86 113 186
86 113 186
86 113 186
86 113 186
86 113 186
86 113 186
86 113 186
86 113 186
86 113 186
86 113 186
86 113 186
86 113 186
86 113 186
86 113 186
86 113 186
86 113 186
86 113 186
86 113 186
86 113 186
86 113 186
86 113 186
86 113 186
86 113 186
86 113 186
86 113 186
86 113 186
86 113 186
86 113 186
86 113 186
86 113 186
86 113 186
86 113 186
86 113 186
86 113 186
86 113 186
86 113 186
86 113 186
86 113 186
86 113 186
86 113 186
86 113 186
86 113 186
86 113 186
86 113 186
86 113 186
86 113 186
86 113 186
86 113 186
86 113 186
86 113 186
86 113 186
86 113 186
86 113 186
86 113 186
86 113 186
86 113 186
86 113 186
86 113 186
86 113 186
86 113 186
86 113 186
86 113 186
86 113 186
86 113 186
86 113 186
86 113 186
86 113 186
86 113 186
86 113 186
86 113 186
86 113 186
86 113 186
86 113 186
86 113 186
86 113 186
86 113 186
86 113 186
86 113 186
86 113 186
86 113 186
86 113 186
86 113 186
86 113 186
86 113 186
86 113 186
86 113 186
86 113 186
0 0 0
0 0 0
0 0 0
0 0 0
0 0 0
0 0 0
0 0 0
0 0 0
0 0 0
0 0 0
0 0 0
0 0 0
0 0 0
0 0 0
0 0 0
0 0 0
186 177 86
186 177 86
186 177 86
186 177 86
186 177 86
186 177 86
186 177 86
186 177 86
186 177 86
186 177 86
186 177 86
186 177 86
186 177 86
186 177 86
186 177 86
186 177 86
186 177 86
186 177 86
186 177 86
186 177 86
186 177 86
186 177 86
186 177 86
186 177 86
186 177 86
186 177 86
186 177 86
186 177 86
186 177 86
186 177 86
186 177 86
186 177 86
186 177 86
186 177 86
186 177 86
186 177 86
186 177 86
186 177 86
186 177 86
186 177 86
186 177 86
186 177 86
186 177 86
186 177 86
186 177 86
186 177 86
186 177 86
186 177 86
186 177 86
186 177 86
186 177 86
186 177 86
186 177 86
186 177 86
186 177 86
186 177 86
186 177 86
186 177 86
186 177 86
186 177 86
186 177 86
186 177 86
186 177 86
186 177 86
186 177 86
186 177 86
186 177 86
186 177 86
186 177 86
186 177 86
186 177 86
186 177 86
186 177 86
186 177 86
186 177 86
186 177 86
186 177 86
186 177 86
186 177 86
186 177 86
186 177 86
186 177 86
186 177 86
186 177 86
186 177 86
186 177 86
186 177 86
186 177 86
186 177 86
186 177 86
186 177 86
186 177 86
186 177 86
186 177 86
186 177 86
186 177 86
0 0 0
0 0 0
0 0 0
0 0 0
0 0 0
0 0 0
0 0 0
0 0 0
0 0 0
0 0 0
0 0 0
0 0 0
0 0 0
0 0 0
0 0 0
0 0 0
0 0 0
0 0 0
0 0 0
0 0 0
0 0 0
0 0 0
0 0 0
0 0 0
0 0 0
0 0 0
0 0 0
0 0 0
0 0 0
0 0 0
0 0 0
0 0 0
0 0 0
0 0 0
0 0 0
0 0 0
0 0 0
0 0 0
0 0 0
0 0 0
0 0 0
0 0 0
0 0 0
0 0 0
0 0 0
0 0 0
0 0 0
0 0 0
86 113 186
86 113 186
86 113 186
86 113 186
86 113 186
86 113 186
86 113 186
86 113 186
86 113 186
86 113 186
86 113 186
86 113 186
86 113 186
86 113 186
86 113 186
86 113 186
86 113 186
86 113 186
86 113 186
86 113 186
86 113 186
86 113 186
86 113 186
86 113 186
86 113 186
86 113 186
86 113 186
86 113 186
86 113 186
86 113 186
86 113 186
86 113 186
86 113 186
86 113 186
86 113 186
86 113 186
86 113 186
86 113 186
86 113 186
86 113 186
86 113 186
86 113 186
86 113 186
86 113 186
86 113 186
86 113 186
86 113 186
86 113 186
86 113 186
86 113 186
86 113 186
86 113 186
86 113 186
86 113 186
86 113 186
86 113 186
86 113 186
86 113 186
86 113 186
86 113 186
86 113 186
86 113 186
86 113 186
86 113 186
86 113 186
86 113 186
86 113 186
86 113 186
86 113 186
86 113 186
86 113 186
86 113 186
86 113 186
86 113 186
86 113 186
86 113 186
86 113 186
86 113 186
86 113 186
86 113 186
86 113 186
86 113 186
86 113 186
86 113 186
86 113 186
86 113 186
86 113 186
86 113 186
86 113 186
86 113 186
86 113 186
86 113 186
86 113 186
86 113 186
86 113 186
86 113 186
0 0 0
0 0 0
0 0 0
0 0 0
0 0 0
0 0 0
0 0 0
0 0 0
0 0 0
0 0 0
0 0 0
0 0 0
0 0 0
0 0 0
0 0 0
0 0 0
186 177 86
186 177 86
186 177 86
186 177 86
186 177 86
186 177 86
186 177 86
186 177 86
186 177 86
186 177 86
186 177 86
186 177 86
186 177 86
186 177 86
186 177 86
186 177 86
186 177 86
186 177 86
186 177 86
186 177 86
186 177 86
186 177 86
186 177 86
186 177 86
186 177 86
186 177 86
186 177 86
186 177 86
186 177 86
186 177 86
186 177 86
186 177 86
186 177 86
186 177 86
186 177 86
186 177 86
186 177 86
186 177 86
186 177 86
186 177 86
186 177 86
186 177 86
186 177 86
186 177 86
186 177 86
186 177 86
186 177 86
186 177 86
186 177 86
186 177 86
186 177 86
186 177 86
186 177 86
186 177 86
186 177 86
186 177 86
186 177 86
186 177 86
186 177 86
186 177 86
186 177 86
186 177 86
186 177 86
186 177 86
186 177 86
186 177 86
186 177 86
186 177 86
186 177 86
186 177 86
186 177 86
186 177 86
186 177 86
186 177 86
186 177 86
186 177 86
186 177 86
186 177 86
186 177 86
186 177 86
186 177 86
186 177 86
186 177 86
186 177 86
186 177 86
186 177 86
186 177 86
186 177 86
186 177 86
186 177 86
186 177 86
186 177 86
186 177 86
186 177 86
186 177 86
186 177 86
0 0 0
0 0 0
0 0 0
0 0 0
0 0 0
0 0 0
0 0 0
0 0 0
0 0 0
0 0 0
0 0 0
0 0 0
0 0 0
0 0 0
0 0 0
0 0 0
0 0 0
0 0 0
0 0 0
0 0 0
0 0 0
0 0 0
0 0 0
0 0 0
0 0 0
0 0 0
0 0 0
0 0 0
0 0 0
0 0 0
0 0 0
0 0 0
0 0 0
0 0 0
0 0 0
0 0 0
0 0 0
0 0 0
0 0 0
0 0 0
0 0 0
0 0 0
0 0 0
0 0 0
0 0 0
0 0 0
0 0 0
0 0 0
86 113 186
86 113 186
86 113 186
86 113 186
86 113 186
86 113 186
86 113 186
86 113 186
86 113 186
86 113 186
86 113 186
86 113 186
86 113 186
86 113 186
86 113 186
86 113 186
86 113 186
86 113 186
86 113 186
86 113 186
86 113 186
86 113 186
86 113 186
86 113 186
86 113 186
86 113 186
86 113 186
86 113 186
86 113 186
86 113 186
86 113 186
86 113 186
86 113 186
86 113 186
86 113 186
86 113 186
86 113 186
86 113 186
86 113 186
86 113 186
86 113 186
86 113 186
86 113 186
86 113 186
86 113 186
86 113 186
86 113 186
86 113 186
86 113 186
86 113 186
86 113 186
86 113 186
86 113 186
86 113 186
86 113 186
86 113 186
86 113 186
86 113 186
86 113 186
86 113 186
86 113 186
86 113 186
86 113 186
86 113 186
86 113 186
86 113 186
86 113 186
86 113 186
86 113 186
86 113 186
86 113 186
86 113 186
86 113 186
86 113 186
86 113 186
86 113 186
86 113 186
86 113 186
86 113 186
86 113 186
86 113 186
86 113 186
86 113 186
86 113 186
86 113 186
86 113 186
86 113 186
86 113 186
86 113 186
86 113 186
86 113 186
86 113 186
86 113 186
86 113 186
86 113 186
86 113 186
0 0 0
0 0 0
0 0 0
0 0 0
0 0 0
0 0 0
0 0 0
0 0 0
0 0 0
0 0 0
0 0 0
0 0 0
0 0 0
0 0 0
0 0 0
0 0 0
186 177 86
186 177 86
186 177 86
186 177 86
186 177 86
186 177 86
186 177 86
186 177 86
186 177 86
186 177 86
186 177 86
186 177 86
186 177 86
186 177 86
186 177 86
186 177 86
186 177 86
186 177 86
186 177 86
186 177 86
186 177 86
186 177 86
186 177 86
186 177 86
186 177 86
186 177 86
186 177 86
186 177 86
186 177 86
186 177 86
186 177 86
186 177 86
186 177 86
186 177 86
186 177 86
186 177 86
186 177 86
186 177 86
186 177 86
186 177 86
186 177 86
186 177 86
186 177 86
186 177 86
186 177 86
186 177 86
186 177 86
186 177 86
186 177 86
186 177 86
186 177 86
186 177 86
186 177 86
186 177 86
186 177 86
186 177 86
186 177 86
186 177 86
186 177 86
186 177 86
186 177 86
186 177 86
186 177 86
186 177 86
186 177 86
186 177 86
186 177 86
186 177 86
186 177 86
186 177 86
186 177 86
186 177 86
186 177 86
186 177 86
186 177 86
186 177 86
186 177 86
186 177 86
186 177 86
186 177 86
186 177 86
186 177 86
186 177 86
186 177 86
186 177 86
186 177 86
186 177 86
186 177 86
186 177 86
186 177 86
186 177 86
186 177 86
186 177 86
186 177 86
186 177 86
186 177 86
0 0 0
0 0 0
0 0 0
0 0 0
0 0 0
0 0 0
0 0 0
0 0 0
0 0 0
0 0 0
0 0 0
0 0 0
0 0 0
0 0 0
0 0 0
0 0 0
0 0 0
0 0 0
0 0 0
0 0 0
0 0 0
0 0 0
0 0 0
0 0 0
0 0 0
0 0 0
0 0 0
0 0 0
0 0 0
0 0 0
0 0 0
0 0 0
0 0 0
0 0 0
0 0 0
0 0 0
0 0 0
0 0 0
0 0 0
0 0 0
0 0 0
0 0 0
0 0 0
0 0 0
0 0 0
0 0 0
0 0 0
0 0 0
86 113 186
86 113 186
86 113 186
86 113 186
86 113 186
86 113 186
86 113 186
86 113 186
86 113 186
86 113 186
86 113 186
86 113 186
86 113 186
86 113 186
86 113 186
86 113 186
86 113 186
86 113 186
86 113 186
86 113 186
86 113 186
86 113 186
86 113 186
86 113 186
86 113 186
86 113 186
86 113 186
86 113 186
86 113 186
86 113 186
86 113 186
86 113 186
86 113 186
86 113 186
86 113 186
86 113 186
86 113 186
86 113 186
86 113 186
86 113 186
86 113 186
86 113 186
86 113 186
86 113 186
86 113 186
86 113 186
86 113 186
86 113 186
86 113 186
86 113 186
86 113 186
86 113 186
86 113 186
86 113 186
86 113 186
86 113 186
86 113 186
86 113 186
86 113 186
86 113 186
86 113 186
86 113 186
86 113 186
86 113 186
86 113 186
86 113 186
86 113 186
86 113 186
86 113 186
86 113 186
86 113 186
86 113 186
86 113 186
86 113 186
86 113 186
86 113 186
86 113 186
86 113 186
86 113 186
86 113 186
86 113 186
86 113 186
86 113 186
86 113 186
86 113 186
86 113 186
86 113 186
86 113 186
86 113 186
86 113 186
86 113 186
86 113 186
86 113 186
86 113 186
86 113 186
86 113 186
0 0 0
0 0 0
0 0 0
0 0 0
0 0 0
0 0 0
0 0 0
0 0 0
0 0 0
0 0 0
0 0 0
0 0 0
0 0 0
0 0 0
0 0 0
0 0 0
186 177 86
186 177 86
186 177 86
186 177 86
186 177 86
186 177 86
186 177 86
186 177 86
186 177 86
186 177 86
186 177 86
186 177 86
186 177 86
186 177 86
186 177 86
186 177 86
186 177 86
186 177 86
186 177 86
186 177 86
186 177 86
186 177 86
186 177 86
186 177 86
186 177 86
186 177 86
186 177 86
186 177 86
186 177 86
186 177 86
186 177 86
186 177 86
186 177 86
186 177 86
186 177 86
186 177 86
186 177 86
186 177 86
186 177 86
186 177 86
186 177 86
186 177 86
186 177 86
186 177 86
186 177 86
186 177 86
186 177 86
186 177 86
186 177 86
186 177 86
186 177 86
186 177 86
186 177 86
186 177 86
186 177 86
186 177 86
186 177 86
186 177 86
186 177 86
186 177 86
186 177 86
186 177 86
186 177 86
186 177 86
186 177 86
186 177 86
186 177 86
186 177 86
186 177 86
186 177 86
186 177 86
186 177 86
186 177 86
186 177 86
186 177 86
186 177 86
186 177 86
186 177 86
186 177 86
186 177 86
186 177 86
186 177 86
186 177 86
186 177 86
186 177 86
186 177 86
186 177 86
186 177 86
186 177 86
186 177 86
186 177 86
186 177 86
186 177 86
186 177 86
186 177 86
186 177 86
0 0 0
0 0 0
0 0 0
0 0 0
0 0 0
0 0 0
0 0 0
0 0 0
0 0 0
0 0 0
0 0 0
0 0 0
0 0 0
0 0 0
0 0 0
0 0 0
0 0 0
0 0 0
0 0 0
0 0 0
0 0 0
0 0 0
0 0 0
0 0 0
0 0 0
0 0 0
0 0 0
0 0 0
0 0 0
0 0 0
0 0 0
0 0 0
0 0 0
0 0 0
0 0 0
0 0 0
0 0 0
0 0 0
0 0 0
0 0 0
0 0 0
0 0 0
0 0 0
0 0 0
0 0 0
0 0 0
0 0 0
0 0 0
86 113 186
86 113 186
86 113 186
86 113 186
86 113 186
86 113 186
86 113 186
86 113 186
86 113 186
86 113 186
86 113 186
86 113 186
86 113 186
86 113 186
86 113 186
86 113 186
86 113 186
86 113 186
86 113 186
86 113 186
86 113 186
86 113 186
86 113 186
86 113 186
86 113 186
86 113 186
86 113 186
86 113 186
86 113 186
86 113 186
86 113 186
86 113 186
86 113 186
86 113 186
86 113 186
86 113 186
86 113 186
86 113 186
86 113 186
86 113 186
86 113 186
86 113 186
86 113 186
86 113 186
86 113 186
86 113 186
86 113 186
86 113 186
86 113 186
86 113 186
86 113 186
86 113 186
86 113 186
86 113 186
86 113 186
86 113 186
86 113 186
86 113 186
86 113 186
86 113 186
86 113 186
86 113 186
86 113 186
86 113 186
86 113 186
86 113 186
86 113 186
86 113 186
86 113 186
86 113 186
86 113 186
86 113 186
86 113 186
86 113 186
86 113 186
86 113 186
86 113 186
86 113 186
86 113 186
86 113 186
86 113 186
86 113 186
86 113 186
86 113 186
86 113 186
86 113 186
86 113 186
86 113 186
86 113 186
86 113 186
86 113 186
86 113 186
86 113 186
86 113 186
86 113 186
86 113 186
0 0 0
0 0 0
0 0 0
0 0 0
0 0 0
0 0 0
0 0 0
0 0 0
0 0 0
0 0 0
0 0 0
0 0 0
0 0 0
0 0 0
0 0 0
0 0 0
186 177 86
186 177 86
186 177 86
186 177 86
186 177 86
186 177 86
186 177 86
186 177 86
186 177 86
186 177 86
186 177 86
186 177 86
186 177 86
186 177 86
186 177 86
186 177 86
186 177 86
186 177 86
186 177 86
186 177 86
186 177 86
186 177 86
186 177 86
186 177 86
186 177 86
186 177 86
186 177 86
186 177 86
186 177 86
186 177 86
186 177 86
186 177 86
186 177 86
186 177 86
186 177 86
186 177 86
186 177 86
186 177 86
186 177 86
186 177 86
186 177 86
186 177 86
186 177 86
186 177 86
186 177 86
186 177 86
186 177 86
186 177 86
186 177 86
186 177 86
186 177 86
186 177 86
186 177 86
186 177 86
186 177 86
186 177 86
186 177 86
186 177 86
186 177 86
186 177 86
186 177 86
186 177 86
186 177 86
186 177 86
186 177 86
186 177 86
186 177 86
186 177 86
186 177 86
186 177 86
186 177 86
186 177 86
186 177 86
186 177 86
186 177 86
186 177 86
186 177 86
186 177 86
186 177 86
186 177 86
186 177 86
186 177 86
186 177 86
186 177 86
186 177 86
186 177 86
186 177 86
186 177 86
186 177 86
186 177 86
186 177 86
186 177 86
186 177 86
186 177 86
186 177 86
186 177 86
0 0 0
0 0 0
0 0 0
0 0 0
0 0 0
0 0 0
0 0 0
0 0 0
0 0 0
0 0 0
0 0 0
0 0 0
0 0 0
0 0 0
0 0 0
0 0 0
0 0 0
0 0 0
0 0 0
0 0 0
0 0 0
0 0 0
0 0 0
0 0 0
0 0 0
0 0 0
0 0 0
0 0 0
0 0 0
0 0 0
0 0 0
0 0 0
0 0 0
0 0 0
0 0 0
0 0 0
0 0 0
0 0 0
0 0 0
0 0 0
0 0 0
0 0 0
0 0 0
0 0 0
0 0 0
0 0 0
0 0 0
0 0 0
86 113 186
86 113 186
86 113 186
86 113 186
86 113 186
86 113 186
86 113 186
86 113 186
86 113 186
86 113 186
86 113 186
86 113 186
86 113 186
86 113 186
86 113 186
86 113 186
86 113 186
86 113 186
86 113 186
86 113 186
86 113 186
86 113 186
86 113 186
86 113 186
86 113 186
86 113 186
86 113 186
86 113 186
86 113 186
86 113 186
86 113 186
86 113 186
86 113 186
86 113 186
86 113 186
86 113 186
86 113 186
86 113 186
86 113 186
86 113 186
86 113 186
86 113 186
86 113 186
86 113 186
86 113 186
86 113 186
86 113 186
86 113 186
86 113 186
86 113 186
86 113 186
86 113 186
86 113 186
86 113 186
86 113 186
86 113 186
86 113 186
86 113 186
86 113 186
86 113 186
86 113 186
86 113 186
86 113 186
86 113 186
86 113 186
86 113 186
86 113 186
86 113 186
86 113 186
86 113 186
86 113 186
86 113 186
86 113 186
86 113 186
86 113 186
86 113 186
86 113 186
86 113 186
86 113 186
86 113 186
86 113 186
86 113 186
86 113 186
86 113 186
86 113 186
86 113 186
86 113 186
86 113 186
86 113 186
86 113 186
86 113 186
86 113 186
86 113 186
86 113 186
86 113 186
86 113 186
0 0 0
0 0 0
0 0 0
0 0 0
0 0 0
0 0 0
0 0 0
0 0 0
0 0 0
0 0 0
0 0 0
0 0 0
0 0 0
0 0 0
0 0 0
0 0 0
186 177 86
186 177 86
186 177 86
186 177 86
186 177 86
186 177 86
186 177 86
186 177 86
186 177 86
186 177 86
186 177 86
186 177 86
186 177 86
186 177 86
186 177 86
186 177 86
186 177 86
186 177 86
186 177 86
186 177 86
186 177 86
186 177 86
186 177 86
186 177 86
186 177 86
186 177 86
186 177 86
186 177 86
186 177 86
186 177 86
186 177 86
186 177 86
186 177 86
186 177 86
186 177 86
186 177 86
186 177 86
186 177 86
186 177 86
186 177 86
186 177 86
186 177 86
186 177 86
186 177 86
186 177 86
186 177 86
186 177 86
186 177 86
186 177 86
186 177 86
186 177 86
186 177 86
186 177 86
186 177 86
186 177 86
186 177 86
186 177 86
186 177 86
186 177 86
186 177 86
186 177 86
186 177 86
186 177 86
186 177 86
186 177 86
186 177 86
186 177 86
186 177 86
186 177 86
186 177 86
186 177 86
186 177 86
186 177 86
186 177 86
186 177 86
186 177 86
186 177 86
186 177 86
186 177 86
186 177 86
186 177 86
186 177 86
186 177 86
186 177 86
186 177 86
186 177 86
186 177 86
186 177 86
186 177 86
186 177 86
186 177 86
186 177 86
186 177 86
186 177 86
186 177 86
186 177 86
0 0 0
0 0 0
0 0 0
0 0 0
0 0 0
0 0 0
0 0 0
0 0 0
0 0 0
0 0 0
0 0 0
0 0 0
0 0 0
0 0 0
0 0 0
0 0 0
0 0 0
0 0 0
0 0 0
0 0 0
0 0 0
0 0 0
0 0 0
0 0 0
0 0 0
0 0 0
0 0 0
0 0 0
0 0 0
0 0 0
0 0 0
0 0 0
0 0 0
0 0 0
0 0 0
0 0 0
0 0 0
0 0 0
0 0 0
0 0 0
0 0 0
0 0 0
0 0 0
0 0 0
0 0 0
0 0 0
0 0 0
0 0 0
86 113 186
86 113 186
86 113 186
86 113 186
86 113 186
86 113 186
86 113 186
86 113 186
86 113 186
86 113 186
86 113 186
86 113 186
86 113 186
86 113 186
86 113 186
86 113 186
86 113 186
86 113 186
86 113 186
86 113 186
86 113 186
86 113 186
86 113 186
86 113 186
86 113 186
86 113 186
86 113 186
86 113 186
86 113 186
86 113 186
86 113 186
86 113 186
86 113 186
86 113 186
86 113 186
86 113 186
86 113 186
86 113 186
86 113 186
86 113 186
86 113 186
86 113 186
86 113 186
86 113 186
86 113 186
86 113 186
86 113 186
86 113 186
86 113 186
86 113 186
86 113 186
86 113 186
86 113 186
86 113 186
86 113 186
86 113 186
86 113 186
86 113 186
86 113 186
86 113 186
86 113 186
86 113 186
86 113 186
86 113 186
86 113 186
86 113 186
86 113 186
86 113 186
86 113 186
86 113 186
86 113 186
86 113 186
86 113 186
86 113 186
86 113 186
86 113 186
86 113 186
86 113 186
86 113 186
86 113 186
86 113 186
86 113 186
86 113 186
86 113 186
86 113 186
86 113 186
86 113 186
86 113 186
86 113 186
86 113 186
86 113 186
86 113 186
86 113 186
86 113 186
86 113 186
86 113 186
0 0 0
0 0 0
0 0 0
0 0 0
0 0 0
0 0 0
0 0 0
0 0 0
0 0 0
0 0 0
0 0 0
0 0 0
0 0 0
0 0 0
0 0 0
0 0 0
186 177 86
186 177 86
186 177 86
186 177 86
186 177 86
186 177 86
186 177 86
186 177 86
186 177 86
186 177 86
186 177 86
186 177 86
186 177 86
186 177 86
186 177 86
186 177 86
186 177 86
186 177 86
186 177 86
186 177 86
186 177 86
186 177 86
186 177 86
186 177 86
186 177 86
186 177 86
186 177 86
186 177 86
186 177 86
186 177 86
186 177 86
186 177 86
186 177 86
186 177 86
186 177 86
186 177 86
186 177 86
186 177 86
186 177 86
186 177 86
186 177 86
186 177 86
186 177 86
186 177 86
186 177 86
186 177 86
186 177 86
186 177 86
186 177 86
186 177 86
186 177 86
186 177 86
186 177 86
186 177 86
186 177 86
186 177 86
186 177 86
186 177 86
186 177 86
186 177 86
186 177 86
186 177 86
186 177 86
186 177 86
186 177 86
186 177 86
186 177 86
186 177 86
186 177 86
186 177 86
186 177 86
186 177 86
186 177 86
186 177 86
186 177 86
186 177 86
186 177 86
186 177 86
186 177 86
186 177 86
186 177 86
186 177 86
186 177 86
186 177 86
186 177 86
186 177 86
186 177 86
186 177 86
186 177 86
186 177 86
186 177 86
186 177 86
186 177 86
186 177 86
186 177 86
186 177 86
0 0 0
0 0 0
0 0 0
0 0 0
0 0 0
0 0 0
0 0 0
0 0 0
0 0 0
0 0 0
0 0 0
0 0 0
0 0 0
0 0 0
0 0 0
0 0 0
0 0 0
0 0 0
0 0 0
0 0 0
0 0 0
0 0 0
0 0 0
0 0 0
0 0 0
0 0 0
0 0 0
0 0 0
0 0 0
0 0 0
0 0 0
0 0 0
0 0 0
0 0 0
0 0 0
0 0 0
0 0 0
0 0 0
0 0 0
0 0 0
0 0 0
0 0 0
0 0 0
0 0 0
0 0 0
0 0 0
0 0 0
0 0 0
86 113 186
86 113 186
86 113 186
86 113 186
86 113 186
86 113 186
86 113 186
86 113 186
86 113 186
86 113 186
86 113 186
86 113 186
86 113 186
86 113 186
86 113 186
86 113 186
86 113 186
86 113 186
86 113 186
86 113 186
86 113 186
86 113 186
86 113 186
86 113 186
86 113 186
86 113 186
86 113 186
86 113 186
86 113 186
86 113 186
86 113 186
86 113 186
86 113 186
86 113 186
86 113 186
86 113 186
86 113 186
86 113 186
86 113 186
86 113 186
86 113 186
86 113 186
86 113 186
86 113 186
86 113 186
86 113 186
86 113 186
86 113 186
86 113 186
86 113 186
86 113 186
86 113 186
86 113 186
86 113 186
86 113 186
86 113 186
86 113 186
86 113 186
86 113 186
86 113 186
86 113 186
86 113 186
86 113 186
86 113 186
86 113 186
86 113 186
86 113 186
86 113 186
86 113 186
86 113 186
86 113 186
86 113 186
86 113 186
86 113 186
86 113 186
86 113 186
86 113 186
86 113 186
86 113 186
86 113 186
86 113 186
86 113 186
86 113 186
86 113 186
86 113 186
86 113 186
86 113 186
86 113 186
86 113 186
86 113 186
86 113 186
86 113 186
86 113 186
86 113 186
86 113 186
86 113 186
0 0 0
0 0 0
0 0 0
0 0 0
0 0 0
0 0 0
0 0 0
0 0 0
0 0 0
0 0 0
0 0 0
0 0 0
0 0 0
0 0 0
0 0 0
0 0 0
186 177 86
186 177 86
186 177 86
186 177 86
186 177 86
186 177 86
186 177 86
186 177 86
186 177 86
186 177 86
186 177 86
186 177 86
186 177 86
186 177 86
186 177 86
186 177 86
186 177 86
186 177 86
186 177 86
186 177 86
186 177 86
186 177 86
186 177 86
186 177 86
186 177 86
186 177 86
186 177 86
186 177 86
186 177 86
186 177 86
186 177 86
186 177 86
186 177 86
186 177 86
186 177 86
186 177 86
186 177 86
186 177 86
186 177 86
186 177 86
186 177 86
186 177 86
186 177 86
186 177 86
186 177 86
186 177 86
186 177 86
186 177 86
186 177 86
186 177 86
186 177 86
186 177 86
186 177 86
186 177 86
186 177 86
186 177 86
186 177 86
186 177 86
186 177 86
186 177 86
186 177 86
186 177 86
186 177 86
186 177 86
186 177 86
186 177 86
186 177 86
186 177 86
186 177 86
186 177 86
186 177 86
186 177 86
186 177 86
186 177 86
186 177 86
186 177 86
186 177 86
186 177 86
186 177 86
186 177 86
186 177 86
186 177 86
186 177 86
186 177 86
186 177 86
186 177 86
186 177 86
186 177 86
186 177 86
186 177 86
186 177 86
186 177 86
186 177 86
186 177 86
186 177 86
186 177 86
0 0 0
0 0 0
0 0 0
0 0 0
0 0 0
0 0 0
0 0 0
0 0 0
0 0 0
0 0 0
0 0 0
0 0 0
0 0 0
0 0 0
0 0 0
0 0 0
0 0 0
0 0 0
0 0 0
0 0 0
0 0 0
0 0 0
0 0 0
0 0 0
0 0 0
0 0 0
0 0 0
0 0 0
0 0 0
0 0 0
0 0 0
0 0 0
0 0 0
0 0 0
0 0 0
0 0 0
0 0 0
0 0 0
0 0 0
0 0 0
0 0 0
0 0 0
0 0 0
0 0 0
0 0 0
0 0 0
0 0 0
0 0 0
86 113 186
86 113 186
86 113 186
86 113 186
86 113 186
86 113 186
86 113 186
86 113 186
86 113 186
86 113 186
86 113 186
86 113 186
86 113 186
86 113 186
86 113 186
86 113 186
86 113 186
86 113 186
86 113 186
86 113 186
86 113 186
86 113 186
86 113 186
86 113 186
86 113 186
86 113 186
86 113 186
86 113 186
86 113 186
86 113 186
86 113 186
86 113 186
86 113 186
86 113 186
86 113 186
86 113 186
86 113 186
86 113 186
86 113 186
86 113 186
86 113 186
86 113 186
86 113 186
86 113 186
86 113 186
86 113 186
86 113 186
86 113 186
86 113 186
86 113 186
86 113 186
86 113 186
86 113 186
86 113 186
86 113 186
86 113 186
86 113 186
86 113 186
86 113 186
86 113 186
86 113 186
86 113 186
86 113 186
86 113 186
86 113 186
86 113 186
86 113 186
86 113 186
86 113 186
86 113 186
86 113 186
86 113 186
86 113 186
86 113 186
86 113 186
86 113 186
86 113 186
86 113 186
86 113 186
86 113 186
86 113 186
86 113 186
86 113 186
86 113 186
86 113 186
86 113 186
86 113 186
86 113 186
86 113 186
86 113 186
86 113 186
86 113 186
86 113 186
86 113 186
86 113 186
86 113 186
0 0 0
0 0 0
0 0 0
0 0 0
0 0 0
0 0 0
0 0 0
0 0 0
0 0 0
0 0 0
0 0 0
0 0 0
0 0 0
0 0 0
0 0 0
0 0 0
186 177 86
186 177 86
186 177 86
186 177 86
186 177 86
186 177 86
186 177 86
186 177 86
186 177 86
186 177 86
186 177 86
186 177 86
186 177 86
186 177 86
186 177 86
186 177 86
186 177 86
186 177 86
186 177 86
186 177 86
186 177 86
186 177 86
186 177 86
186 177 86
186 177 86
186 177 86
186 177 86
186 177 86
186 177 86
186 177 86
186 177 86
186 177 86
186 177 86
186 177 86
186 177 86
186 177 86
186 177 86
186 177 86
186 177 86
186 177 86
186 177 86
186 177 86
186 177 86
186 177 86
186 177 86
186 177 86
186 177 86
186 177 86
186 177 86
186 177 86
186 177 86
186 177 86
186 177 86
186 177 86
186 177 86
186 177 86
186 177 86
186 177 86
186 177 86
186 177 86
186 177 86
186 177 86
186 177 86
186 177 86
186 177 86
186 177 86
186 177 86
186 177 86
186 177 86
186 177 86
186 177 86
186 177 86
186 177 86
186 177 86
186 177 86
186 177 86
186 177 86
186 177 86
186 177 86
186 177 86
186 177 86
186 177 86
186 177 86
186 177 86
186 177 86
186 177 86
186 177 86
186 177 86
186 177 86
186 177 86
186 177 86
186 177 86
186 177 86
186 177 86
186 177 86
186 177 86
0 0 0
0 0 0
0 0 0
0 0 0
0 0 0
0 0 0
0 0 0
0 0 0
0 0 0
0 0 0
0 0 0
0 0 0
0 0 0
0 0 0
0 0 0
0 0 0
0 0 0
0 0 0
0 0 0
0 0 0
0 0 0
0 0 0
0 0 0
0 0 0
0 0 0
0 0 0
0 0 0
0 0 0
0 0 0
0 0 0
0 0 0
0 0 0
0 0 0
0 0 0
0 0 0
0 0 0
0 0 0
0 0 0
0 0 0
0 0 0
0 0 0
0 0 0
0 0 0
0 0 0
0 0 0
0 0 0
0 0 0
0 0 0
86 113 186
86 113 186
86 113 186
86 113 186
86 113 186
86 113 186
86 113 186
86 113 186
86 113 186
86 113 186
86 113 186
86 113 186
86 113 186
86 113 186
86 113 186
86 113 186
86 113 186
86 113 186
86 113 186
86 113 186
86 113 186
86 113 186
86 113 186
86 113 186
86 113 186
86 113 186
86 113 186
86 113 186
86 113 186
86 113 186
86 113 186
86 113 186
86 113 186
86 113 186
86 113 186
86 113 186
86 113 186
86 113 186
86 113 186
86 113 186
86 113 186
86 113 186
86 113 186
86 113 186
86 113 186
86 113 186
86 113 186
86 113 186
86 113 186
86 113 186
86 113 186
86 113 186
86 113 186
86 113 186
86 113 186
86 113 186
86 113 186
86 113 186
86 113 186
86 113 186
86 113 186
86 113 186
86 113 186
86 113 186
86 113 186
86 113 186
86 113 186
86 113 186
86 113 186
86 113 186
86 113 186
86 113 186
86 113 186
86 113 186
86 113 186
86 113 186
86 113 186
86 113 186
86 113 186
86 113 186
86 113 186
86 113 186
86 113 186
86 113 186
86 113 186
86 113 186
86 113 186
86 113 186
86 113 186
86 113 186
86 113 186
86 113 186
86 113 186
86 113 186
86 113 186
86 113 186
0 0 0
0 0 0
0 0 0
0 0 0
0 0 0
0 0 0
0 0 0
0 0 0
0 0 0
0 0 0
0 0 0
0 0 0
0 0 0
0 0 0
0 0 0
0 0 0
186 177 86
186 177 86
186 177 86
186 177 86
186 177 86
186 177 86
186 177 86
186 177 86
186 177 86
186 177 86
186 177 86
186 177 86
186 177 86
186 177 86
186 177 86
186 177 86
186 177 86
186 177 86
186 177 86
186 177 86
186 177 86
186 177 86
186 177 86
186 177 86
186 177 86
186 177 86
186 177 86
186 177 86
186 177 86
186 177 86
186 177 86
186 177 86
186 177 86
186 177 86
186 177 86
186 177 86
186 177 86
186 177 86
186 177 86
186 177 86
186 177 86
186 177 86
186 177 86
186 177 86
186 177 86
186 177 86
186 177 86
186 177 86
186 177 86
186 177 86
186 177 86
186 177 86
186 177 86
186 177 86
186 177 86
186 177 86
186 177 86
186 177 86
186 177 86
186 177 86
186 177 86
186 177 86
186 177 86
186 177 86
186 177 86
186 177 86
186 177 86
186 177 86
186 177 86
186 177 86
186 177 86
186 177 86
186 177 86
186 177 86
186 177 86
186 177 86
186 177 86
186 177 86
186 177 86
186 177 86
186 177 86
186 177 86
186 177 86
186 177 86
186 177 86
186 177 86
186 177 86
186 177 86
186 177 86
186 177 86
186 177 86
186 177 86
186 177 86
186 177 86
186 177 86
186 177 86
0 0 0
0 0 0
0 0 0
0 0 0
0 0 0
0 0 0
0 0 0
0 0 0
0 0 0
0 0 0
0 0 0
0 0 0
0 0 0
0 0 0
0 0 0
0 0 0
0 0 0
0 0 0
0 0 0
0 0 0
0 0 0
0 0 0
0 0 0
0 0 0
0 0 0
0 0 0
0 0 0
0 0 0
0 0 0
0 0 0
0 0 0
0 0 0
0 0 0
0 0 0
0 0 0
0 0 0
0 0 0
0 0 0
0 0 0
0 0 0
0 0 0
0 0 0
0 0 0
0 0 0
0 0 0
0 0 0
0 0 0
0 0 0
86 113 186
86 113 186
86 113 186
86 113 186
86 113 186
86 113 186
86 113 186
86 113 186
86 113 186
86 113 186
86 113 186
86 113 186
86 113 186
86 113 186
86 113 186
86 113 186
86 113 186
86 113 186
86 113 186
86 113 186
86 113 186
86 113 186
86 113 186
86 113 186
86 113 186
86 113 186
86 113 186
86 113 186
86 113 186
86 113 186
86 113 186
86 113 186
86 113 186
86 113 186
86 113 186
86 113 186
86 113 186
86 113 186
86 113 186
86 113 186
86 113 186
86 113 186
86 113 186
86 113 186
86 113 186
86 113 186
86 113 186
86 113 186
86 113 186
86 113 186
86 113 186
86 113 186
86 113 186
86 113 186
86 113 186
86 113 186
86 113 186
86 113 186
86 113 186
86 113 186
86 113 186
86 113 186
86 113 186
86 113 186
86 113 186
86 113 186
86 113 186
86 113 186
86 113 186
86 113 186
86 113 186
86 113 186
86 113 186
86 113 186
86 113 186
86 113 186
86 113 186
86 113 186
86 113 186
86 113 186
86 113 186
86 113 186
86 113 186
86 113 186
86 113 186
86 113 186
86 113 186
86 113 186
86 113 186
86 113 186
86 113 186
86 113 186
86 113 186
86 113 186
86 113 186
86 113 186
0 0 0
0 0 0
0 0 0
0 0 0
0 0 0
0 0 0
0 0 0
0 0 0
0 0 0
0 0 0
0 0 0
0 0 0
0 0 0
0 0 0
0 0 0
0 0 0
186 177 86
186 177 86
186 177 86
186 177 86
186 177 86
186 177 86
186 177 86
186 177 86
186 177 86
186 177 86
186 177 86
186 177 86
186 177 86
186 177 86
186 177 86
186 177 86
186 177 86
186 177 86
186 177 86
186 177 86
186 177 86
186 177 86
186 177 86
186 177 86
186 177 86
186 177 86
186 177 86
186 177 86
186 177 86
186 177 86
186 177 86
186 177 86
186 177 86
186 177 86
186 177 86
186 177 86
186 177 86
186 177 86
186 177 86
186 177 86
186 177 86
186 177 86
186 177 86
186 177 86
186 177 86
186 177 86
186 177 86
186 177 86
186 177 86
186 177 86
186 177 86
186 177 86
186 177 86
186 177 86
186 177 86
186 177 86
186 177 86
186 177 86
186 177 86
186 177 86
186 177 86
186 177 86
186 177 86
186 177 86
186 177 86
186 177 86
186 177 86
186 177 86
186 177 86
186 177 86
186 177 86
186 177 86
186 177 86
186 177 86
186 177 86
186 177 86
186 177 86
186 177 86
186 177 86
186 177 86
186 177 86
186 177 86
186 177 86
186 177 86
186 177 86
186 177 86
186 177 86
186 177 86
186 177 86
186 177 86
186 177 86
186 177 86
186 177 86
186 177 86
186 177 86
186 177 86
0 0 0
0 0 0
0 0 0
0 0 0
0 0 0
0 0 0
0 0 0
0 0 0
0 0 0
0 0 0
0 0 0
0 0 0
0 0 0
0 0 0
0 0 0
0 0 0
0 0 0
0 0 0
0 0 0
0 0 0
0 0 0
0 0 0
0 0 0
0 0 0
0 0 0
0 0 0
0 0 0
0 0 0
0 0 0
0 0 0
0 0 0
0 0 0
0 0 0
0 0 0
0 0 0
0 0 0
0 0 0
0 0 0
0 0 0
0 0 0
0 0 0
0 0 0
0 0 0
0 0 0
0 0 0
0 0 0
0 0 0
0 0 0
86 113 186
86 113 186
86 113 186
86 113 186
86 113 186
86 113 186
86 113 186
86 113 186
86 113 186
86 113 186
86 113 186
86 113 186
86 113 186
86 113 186
86 113 186
86 113 186
86 113 186
86 113 186
86 113 186
86 113 186
86 113 186
86 113 186
86 113 186
86 113 186
86 113 186
86 113 186
86 113 186
86 113 186
86 113 186
86 113 186
86 113 186
86 113 186
86 113 186
86 113 186
86 113 186
86 113 186
86 113 186
86 113 186
86 113 186
86 113 186
86 113 186
86 113 186
86 113 186
86 113 186
86 113 186
86 113 186
86 113 186
86 113 186
86 113 186
86 113 186
86 113 186
86 113 186
86 113 186
86 113 186
86 113 186
86 113 186
86 113 186
86 113 186
86 113 186
86 113 186
86 113 186
86 113 186
86 113 186
86 113 186
86 113 186
86 113 186
86 113 186
86 113 186
86 113 186
86 113 186
86 113 186
86 113 186
86 113 186
86 113 186
86 113 186
86 113 186
86 113 186
86 113 186
86 113 186
86 113 186
86 113 186
86 113 186
86 113 186
86 113 186
86 113 186
86 113 186
86 113 186
86 113 186
86 113 186
86 113 186
86 113 186
86 113 186
86 113 186
86 113 186
86 113 186
86 113 186
0 0 0
0 0 0
0 0 0
0 0 0
0 0 0
0 0 0
0 0 0
0 0 0
0 0 0
0 0 0
0 0 0
0 0 0
0 0 0
0 0 0
0 0 0
0 0 0
186 177 86
186 177 86
186 177 86
186 177 86
186 177 86
186 177 86
186 177 86
186 177 86
186 177 86
186 177 86
186 177 86
186 177 86
186 177 86
186 177 86
186 177 86
186 177 86
186 177 86
186 177 86
186 177 86
186 177 86
186 177 86
186 177 86
186 177 86
186 177 86
186 177 86
186 177 86
186 177 86
186 177 86
186 177 86
186 177 86
186 177 86
186 177 86
186 177 86
186 177 86
186 177 86
186 177 86
186 177 86
186 177 86
186 177 86
186 177 86
186 177 86
186 177 86
186 177 86
186 177 86
186 177 86
186 177 86
186 177 86
186 177 86
186 177 86
186 177 86
186 177 86
186 177 86
186 177 86
186 177 86
186 177 86
186 177 86
186 177 86
186 177 86
186 177 86
186 177 86
186 177 86
186 177 86
186 177 86
186 177 86
186 177 86
186 177 86
186 177 86
186 177 86
186 177 86
186 177 86
186 177 86
186 177 86
186 177 86
186 177 86
186 177 86
186 177 86
186 177 86
186 177 86
186 177 86
186 177 86
186 177 86
186 177 86
186 177 86
186 177 86
186 177 86
186 177 86
186 177 86
186 177 86
186 177 86
186 177 86
186 177 86
186 177 86
186 177 86
186 177 86
186 177 86
186 177 86
0 0 0
0 0 0
0 0 0
0 0 0
0 0 0
0 0 0
0 0 0
0 0 0
0 0 0
0 0 0
0 0 0
0 0 0
0 0 0
0 0 0
0 0 0
0 0 0
0 0 0
0 0 0
0 0 0
0 0 0
0 0 0
0 0 0
0 0 0
0 0 0
0 0 0
0 0 0
0 0 0
0 0 0
0 0 0
0 0 0
0 0 0
0 0 0
0 0 0
0 0 0
0 0 0
0 0 0
0 0 0
0 0 0
0 0 0
0 0 0
0 0 0
0 0 0
0 0 0
0 0 0
0 0 0
0 0 0
0 0 0
0 0 0
86 113 186
86 113 186
86 113 186
86 113 186
86 113 186
86 113 186
86 113 186
86 113 186
86 113 186
86 113 186
86 113 186
86 113 186
86 113 186
86 113 186
86 113 186
86 113 186
86 113 186
86 113 186
86 113 186
86 113 186
86 113 186
86 113 186
86 113 186
86 113 186
86 113 186
86 113 186
86 113 186
86 113 186
86 113 186
86 113 186
86 113 186
86 113 186
86 113 186
86 113 186
86 113 186
86 113 186
86 113 186
86 113 186
86 113 186
86 113 186
86 113 186
86 113 186
86 113 186
86 113 186
86 113 186
86 113 186
86 113 186
86 113 186
86 113 186
86 113 186
86 113 186
86 113 186
86 113 186
86 113 186
86 113 186
86 113 186
86 113 186
86 113 186
86 113 186
86 113 186
86 113 186
86 113 186
86 113 186
86 113 186
86 113 186
86 113 186
86 113 186
86 113 186
86 113 186
86 113 186
86 113 186
86 113 186
86 113 186
86 113 186
86 113 186
86 113 186
86 113 186
86 113 186
86 113 186
86 113 186
86 113 186
86 113 186
86 113 186
86 113 186
86 113 186
86 113 186
86 113 186
86 113 186
86 113 186
86 113 186
86 113 186
86 113 186
86 113 186
86 113 186
86 113 186
86 113 186
0 0 0
0 0 0
0 0 0
0 0 0
0 0 0
0 0 0
0 0 0
0 0 0
0 0 0
0 0 0
0 0 0
0 0 0
0 0 0
0 0 0
0 0 0
0 0 0
186 177 86
186 177 86
186 177 86
186 177 86
186 177 86
186 177 86
186 177 86
186 177 86
186 177 86
186 177 86
186 177 86
186 177 86
186 177 86
186 177 86
186 177 86
186 177 86
186 177 86
186 177 86
186 177 86
186 177 86
186 177 86
186 177 86
186 177 86
186 177 86
186 177 86
186 177 86
186 177 86
186 177 86
186 177 86
186 177 86
186 177 86
186 177 86
186 177 86
186 177 86
186 177 86
186 177 86
186 177 86
186 177 86
186 177 86
186 177 86
186 177 86
186 177 86
186 177 86
186 177 86
186 177 86
186 177 86
186 177 86
186 177 86
186 177 86
186 177 86
186 177 86
186 177 86
186 177 86
186 177 86
186 177 86
186 177 86
186 177 86
186 177 86
186 177 86
186 177 86
186 177 86
186 177 86
186 177 86
186 177 86
186 177 86
186 177 86
186 177 86
186 177 86
186 177 86
186 177 86
186 177 86
186 177 86
186 177 86
186 177 86
186 177 86
186 177 86
186 177 86
186 177 86
186 177 86
186 177 86
186 177 86
186 177 86
186 177 86
186 177 86
186 177 86
186 177 86
186 177 86
186 177 86
186 177 86
186 177 86
186 177 86
186 177 86
186 177 86
186 177 86
186 177 86
186 177 86
0 0 0
0 0 0
0 0 0
0 0 0
0 0 0
0 0 0
0 0 0
0 0 0
0 0 0
0 0 0
0 0 0
0 0 0
0 0 0
0 0 0
0 0 0
0 0 0
0 0 0
0 0 0
0 0 0
0 0 0
0 0 0
0 0 0
0 0 0
0 0 0
0 0 0
0 0 0
0 0 0
0 0 0
0 0 0
0 0 0
0 0 0
0 0 0
0 0 0
0 0 0
0 0 0
0 0 0
0 0 0
0 0 0
0 0 0
0 0 0
0 0 0
0 0 0
0 0 0
0 0 0
0 0 0
0 0 0
0 0 0
0 0 0
86 113 186
86 113 186
86 113 186
86 113 186
86 113 186
86 113 186
86 113 186
86 113 186
86 113 186
86 113 186
86 113 186
86 113 186
86 113 186
86 113 186
86 113 186
86 113 186
86 113 186
86 113 186
86 113 186
86 113 186
86 113 186
86 113 186
86 113 186
86 113 186
86 113 186
86 113 186
86 113 186
86 113 186
86 113 186
86 113 186
86 113 186
86 113 186
86 113 186
86 113 186
86 113 186
86 113 186
86 113 186
86 113 186
86 113 186
86 113 186
86 113 186
86 113 186
86 113 186
86 113 186
86 113 186
86 113 186
86 113 186
86 113 186
86 113 186
86 113 186
86 113 186
86 113 186
86 113 186
86 113 186
86 113 186
86 113 186
86 113 186
86 113 186
86 113 186
86 113 186
86 113 186
86 113 186
86 113 186
86 113 186
86 113 186
86 113 186
86 113 186
86 113 186
86 113 186
86 113 186
86 113 186
86 113 186
86 113 186
86 113 186
86 113 186
86 113 186
86 113 186
86 113 186
86 113 186
86 113 186
86 113 186
86 113 186
86 113 186
86 113 186
86 113 186
86 113 186
86 113 186
86 113 186
86 113 186
86 113 186
86 113 186
86 113 186
86 113 186
86 113 186
86 113 186
86 113 186
0 0 0
0 0 0
0 0 0
0 0 0
0 0 0
0 0 0
0 0 0
0 0 0
0 0 0
0 0 0
0 0 0
0 0 0
0 0 0
0 0 0
0 0 0
0 0 0
186 177 86
186 177 86
186 177 86
186 177 86
186 177 86
186 177 86
186 177 86
186 177 86
186 177 86
186 177 86
186 177 86
186 177 86
186 177 86
186 177 86
186 177 86
186 177 86
186 177 86
186 177 86
186 177 86
186 177 86
186 177 86
186 177 86
186 177 86
186 177 86
186 177 86
186 177 86
186 177 86
186 177 86
186 177 86
186 177 86
186 177 86
186 177 86
186 177 86
186 177 86
186 177 86
186 177 86
186 177 86
186 177 86
186 177 86
186 177 86
186 177 86
186 177 86
186 177 86
186 177 86
186 177 86
186 177 86
186 177 86
186 177 86
186 177 86
186 177 86
186 177 86
186 177 86
186 177 86
186 177 86
186 177 86
186 177 86
186 177 86
186 177 86
186 177 86
186 177 86
186 177 86
186 177 86
186 177 86
186 177 86
186 177 86
186 177 86
186 177 86
186 177 86
186 177 86
186 177 86
186 177 86
186 177 86
186 177 86
186 177 86
186 177 86
186 177 86
186 177 86
186 177 86
186 177 86
186 177 86
186 177 86
186 177 86
186 177 86
186 177 86
186 177 86
186 177 86
186 177 86
186 177 86
186 177 86
186 177 86
186 177 86
186 177 86
186 177 86
186 177 86
186 177 86
186 177 86
0 0 0
0 0 0
0 0 0
0 0 0
0 0 0
0 0 0
0 0 0
0 0 0
0 0 0
0 0 0
0 0 0
0 0 0
0 0 0
0 0 0
0 0 0
0 0 0
0 0 0
0 0 0
0 0 0
0 0 0
0 0 0
0 0 0
0 0 0
0 0 0
0 0 0
0 0 0
0 0 0
0 0 0
0 0 0
0 0 0
0 0 0
0 0 0
0 0 0
0 0 0
0 0 0
0 0 0
0 0 0
0 0 0
0 0 0
0 0 0
0 0 0
0 0 0
0 0 0
0 0 0
0 0 0
0 0 0
0 0 0
0 0 0
86 113 186
86 113 186
86 113 186
86 113 186
86 113 186
86 113 186
86 113 186
86 113 186
86 113 186
86 113 186
86 113 186
86 113 186
86 113 186
86 113 186
86 113 186
86 113 186
86 113 186
86 113 186
86 113 186
86 113 186
86 113 186
86 113 186
86 113 186
86 113 186
86 113 186
86 113 186
86 113 186
86 113 186
86 113 186
86 113 186
86 113 186
86 113 186
86 113 186
86 113 186
86 113 186
86 113 186
86 113 186
86 113 186
86 113 186
86 113 186
86 113 186
86 113 186
86 113 186
86 113 186
86 113 186
86 113 186
86 113 186
86 113 186
86 113 186
86 113 186
86 113 186
86 113 186
86 113 186
86 113 186
86 113 186
86 113 186
86 113 186
86 113 186
86 113 186
86 113 186
86 113 186
86 113 186
86 113 186
86 113 186
86 113 186
86 113 186
86 113 186
86 113 186
86 113 186
86 113 186
86 113 186
86 113 186
86 113 186
86 113 186
86 113 186
86 113 186
86 113 186
86 113 186
86 113 186
86 113 186
86 113 186
86 113 186
86 113 186
86 113 186
86 113 186
86 113 186
86 113 186
86 113 186
86 113 186
86 113 186
86 113 186
86 113 186
86 113 186
86 113 186
86 113 186
86 113 186
0 0 0
0 0 0
0 0 0
0 0 0
0 0 0
0 0 0
0 0 0
0 0 0
0 0 0
0 0 0
0 0 0
0 0 0
0 0 0
0 0 0
0 0 0
0 0 0
186 177 86
186 177 86
186 177 86
186 177 86
186 177 86
186 177 86
186 177 86
186 177 86
186 177 86
186 177 86
186 177 86
186 177 86
186 177 86
186 177 86
186 177 86
186 177 86
186 177 86
186 177 86
186 177 86
186 177 86
186 177 86
186 177 86
186 177 86
186 177 86
186 177 86
186 177 86
186 177 86
186 177 86
186 177 86
186 177 86
186 177 86
186 177 86
186 177 86
186 177 86
186 177 86
186 177 86
186 177 86
186 177 86
186 177 86
186 177 86
186 177 86
186 177 86
186 177 86
186 177 86
186 177 86
186 177 86
186 177 86
186 177 86
186 177 86
186 177 86
186 177 86
186 177 86
186 177 86
186 177 86
186 177 86
186 177 86
186 177 86
186 177 86
186 177 86
186 177 86
186 177 86
186 177 86
186 177 86
186 177 86
186 177 86
186 177 86
186 177 86
186 177 86
186 177 86
186 177 86
186 177 86
186 177 86
186 177 86
186 177 86
186 177 86
186 177 86
186 177 86
186 177 86
186 177 86
186 177 86
186 177 86
186 177 86
186 177 86
186 177 86
186 177 86
186 177 86
186 177 86
186 177 86
186 177 86
186 177 86
186 177 86
186 177 86
186 177 86
186 177 86
186 177 86
186 177 86
0 0 0
0 0 0
0 0 0
0 0 0
0 0 0
0 0 0
0 0 0
0 0 0
0 0 0
0 0 0
0 0 0
0 0 0
0 0 0
0 0 0
0 0 0
0 0 0
0 0 0
0 0 0
0 0 0
0 0 0
0 0 0
0 0 0
0 0 0
0 0 0
0 0 0
0 0 0
0 0 0
0 0 0
0 0 0
0 0 0
0 0 0
0 0 0
0 0 0
0 0 0
0 0 0
0 0 0
0 0 0
0 0 0
0 0 0
0 0 0
0 0 0
0 0 0
0 0 0
0 0 0
0 0 0
0 0 0
0 0 0
0 0 0
86 113 186
86 113 186
86 113 186
86 113 186
86 113 186
86 113 186
86 113 186
86 113 186
86 113 186
86 113 186
86 113 186
86 113 186
86 113 186
86 113 186
86 113 186
86 113 186
86 113 186
86 113 186
86 113 186
86 113 186
86 113 186
86 113 186
86 113 186
86 113 186
86 113 186
86 113 186
86 113 186
86 113 186
86 113 186
86 113 186
86 113 186
86 113 186
86 113 186
86 113 186
86 113 186
86 113 186
86 113 186
86 113 186
86 113 186
86 113 186
86 113 186
86 113 186
86 113 186
86 113 186
86 113 186
86 113 186
86 113 186
86 113 186
86 113 186
86 113 186
86 113 186
86 113 186
86 113 186
86 113 186
86 113 186
86 113 186
86 113 186
86 113 186
86 113 186
86 113 186
86 113 186
86 113 186
86 113 186
86 113 186
86 113 186
86 113 186
86 113 186
86 113 186
86 113 186
86 113 186
86 113 186
86 113 186
86 113 186
86 113 186
86 113 186
86 113 186
86 113 186
86 113 186
86 113 186
86 113 186
86 113 186
86 113 186
86 113 186
86 113 186
86 113 186
86 113 186
86 113 186
86 113 186
86 113 186
86 113 186
86 113 186
86 113 186
86 113 186
86 113 186
86 113 186
86 113 186
0 0 0
0 0 0
0 0 0
0 0 0
0 0 0
0 0 0
0 0 0
0 0 0
0 0 0
0 0 0
0 0 0
0 0 0
0 0 0
0 0 0
0 0 0
0 0 0
186 177 86
186 177 86
186 177 86
186 177 86
186 177 86
186 177 86
186 177 86
186 177 86
186 177 86
186 177 86
186 177 86
186 177 86
186 177 86
186 177 86
186 177 86
186 177 86
186 177 86
186 177 86
186 177 86
186 177 86
186 177 86
186 177 86
186 177 86
186 177 86
186 177 86
186 177 86
186 177 86
186 177 86
186 177 86
186 177 86
186 177 86
186 177 86
186 177 86
186 177 86
186 177 86
186 177 86
186 177 86
186 177 86
186 177 86
186 177 86
186 177 86
186 177 86
186 177 86
186 177 86
186 177 86
186 177 86
186 177 86
186 177 86
186 177 86
186 177 86
186 177 86
186 177 86
186 177 86
186 177 86
186 177 86
186 177 86
186 177 86
186 177 86
186 177 86
186 177 86
186 177 86
186 177 86
186 177 86
186 177 86
186 177 86
186 177 86
186 177 86
186 177 86
186 177 86
186 177 86
186 177 86
186 177 86
186 177 86
186 177 86
186 177 86
186 177 86
186 177 86
186 177 86
186 177 86
186 177 86
186 177 86
186 177 86
186 177 86
186 177 86
186 177 86
186 177 86
186 177 86
186 177 86
186 177 86
186 177 86
186 177 86
186 177 86
186 177 86
186 177 86
186 177 86
186 177 86
0 0 0
0 0 0
0 0 0
0 0 0
0 0 0
0 0 0
0 0 0
0 0 0
0 0 0
0 0 0
0 0 0
0 0 0
0 0 0
0 0 0
0 0 0
0 0 0
0 0 0
0 0 0
0 0 0
0 0 0
0 0 0
0 0 0
0 0 0
0 0 0
0 0 0
0 0 0
0 0 0
0 0 0
0 0 0
0 0 0
0 0 0
0 0 0
0 0 0
0 0 0
0 0 0
0 0 0
0 0 0
0 0 0
0 0 0
0 0 0
0 0 0
0 0 0
0 0 0
0 0 0
0 0 0
0 0 0
0 0 0
0 0 0
86 113 186
86 113 186
86 113 186
86 113 186
86 113 186
86 113 186
86 113 186
86 113 186
86 113 186
86 113 186
86 113 186
86 113 186
86 113 186
86 113 186
86 113 186
86 113 186
86 113 186
86 113 186
86 113 186
86 113 186
86 113 186
86 113 186
86 113 186
86 113 186
86 113 186
86 113 186
86 113 186
86 113 186
86 113 186
86 113 186
86 113 186
86 113 186
86 113 186
86 113 186
86 113 186
86 113 186
86 113 186
86 113 186
86 113 186
86 113 186
86 113 186
86 113 186
86 113 186
86 113 186
86 113 186
86 113 186
86 113 186
86 113 186
86 113 186
86 113 186
86 113 186
86 113 186
86 113 186
86 113 186
86 113 186
86 113 186
86 113 186
86 113 186
86 113 186
86 113 186
86 113 186
86 113 186
86 113 186
86 113 186
86 113 186
86 113 186
86 113 186
86 113 186
86 113 186
86 113 186
86 113 186
86 113 186
86 113 186
86 113 186
86 113 186
86 113 186
86 113 186
86 113 186
86 113 186
86 113 186
86 113 186
86 113 186
86 113 186
86 113 186
86 113 186
86 113 186
86 113 186
86 113 186
86 113 186
86 113 186
86 113 186
86 113 186
86 113 186
86 113 186
86 113 186
86 113 186
0 0 0
0 0 0
0 0 0
0 0 0
0 0 0
0 0 0
0 0 0
0 0 0
0 0 0
0 0 0
0 0 0
0 0 0
0 0 0
0 0 0
0 0 0
0 0 0
186 177 86
186 177 86
186 177 86
186 177 86
186 177 86
186 177 86
186 177 86
186 177 86
186 177 86
186 177 86
186 177 86
186 177 86
186 177 86
186 177 86
186 177 86
186 177 86
186 177 86
186 177 86
186 177 86
186 177 86
186 177 86
186 177 86
186 177 86
186 177 86
186 177 86
186 177 86
186 177 86
186 177 86
186 177 86
186 177 86
186 177 86
186 177 86
186 177 86
186 177 86
186 177 86
186 177 86
186 177 86
186 177 86
186 177 86
186 177 86
186 177 86
186 177 86
186 177 86
186 177 86
186 177 86
186 177 86
186 177 86
186 177 86
186 177 86
186 177 86
186 177 86
186 177 86
186 177 86
186 177 86
186 177 86
186 177 86
186 177 86
186 177 86
186 177 86
186 177 86
186 177 86
186 177 86
186 177 86
186 177 86
186 177 86
186 177 86
186 177 86
186 177 86
186 177 86
186 177 86
186 177 86
186 177 86
186 177 86
186 177 86
186 177 86
186 177 86
186 177 86
186 177 86
186 177 86
186 177 86
186 177 86
186 177 86
186 177 86
186 177 86
186 177 86
186 177 86
186 177 86
186 177 86
186 177 86
186 177 86
186 177 86
186 177 86
186 177 86
186 177 86
186 177 86
186 177 86
0 0 0
0 0 0
0 0 0
0 0 0
0 0 0
0 0 0
0 0 0
0 0 0
0 0 0
0 0 0
0 0 0
0 0 0
0 0 0
0 0 0
0 0 0
0 0 0
0 0 0
0 0 0
0 0 0
0 0 0
0 0 0
0 0 0
0 0 0
0 0 0
0 0 0
0 0 0
0 0 0
0 0 0
0 0 0
0 0 0
0 0 0
0 0 0
0 0 0
0 0 0
0 0 0
0 0 0
0 0 0
0 0 0
0 0 0
0 0 0
0 0 0
0 0 0
0 0 0
0 0 0
0 0 0
0 0 0
0 0 0
0 0 0
86 113 186
86 113 186
86 113 186
86 113 186
86 113 186
86 113 186
86 113 186
86 113 186
86 113 186
86 113 186
86 113 186
86 113 186
86 113 186
86 113 186
86 113 186
86 113 186
86 113 186
86 113 186
86 113 186
86 113 186
86 113 186
86 113 186
86 113 186
86 113 186
86 113 186
86 113 186
86 113 186
86 113 186
86 113 186
86 113 186
86 113 186
86 113 186
86 113 186
86 113 186
86 113 186
86 113 186
86 113 186
86 113 186
86 113 186
86 113 186
86 113 186
86 113 186
86 113 186
86 113 186
86 113 186
86 113 186
86 113 186
86 113 186
86 113 186
86 113 186
86 113 186
86 113 186
86 113 186
86 113 186
86 113 186
86 113 186
86 113 186
86 113 186
86 113 186
86 113 186
86 113 186
86 113 186
86 113 186
86 113 186
86 113 186
86 113 186
86 113 186
86 113 186
86 113 186
86 113 186
86 113 186
86 113 186
86 113 186
86 113 186
86 113 186
86 113 186
86 113 186
86 113 186
86 113 186
86 113 186
86 113 186
86 113 186
86 113 186
86 113 186
86 113 186
86 113 186
86 113 186
86 113 186
86 113 186
86 113 186
86 113 186
86 113 186
86 113 186
86 113 186
86 113 186
86 113 186
0 0 0
0 0 0
0 0 0
0 0 0
0 0 0
0 0 0
0 0 0
0 0 0
0 0 0
0 0 0
0 0 0
0 0 0
0 0 0
0 0 0
0 0 0
0 0 0
186 177 86
186 177 86
186 177 86
186 177 86
186 177 86
186 177 86
186 177 86
186 177 86
186 177 86
186 177 86
186 177 86
186 177 86
186 177 86
186 177 86
186 177 86
186 177 86
186 177 86
186 177 86
186 177 86
186 177 86
186 177 86
186 177 86
186 177 86
186 177 86
186 177 86
186 177 86
186 177 86
186 177 86
186 177 86
186 177 86
186 177 86
186 177 86
186 177 86
186 177 86
186 177 86
186 177 86
186 177 86
186 177 86
186 177 86
186 177 86
186 177 86
186 177 86
186 177 86
186 177 86
186 177 86
186 177 86
186 177 86
186 177 86
186 177 86
186 177 86
186 177 86
186 177 86
186 177 86
186 177 86
186 177 86
186 177 86
186 177 86
186 177 86
186 177 86
186 177 86
186 177 86
186 177 86
186 177 86
186 177 86
186 177 86
186 177 86
186 177 86
186 177 86
186 177 86
186 177 86
186 177 86
186 177 86
186 177 86
186 177 86
186 177 86
186 177 86
186 177 86
186 177 86
186 177 86
186 177 86
186 177 86
186 177 86
186 177 86
186 177 86
186 177 86
186 177 86
186 177 86
186 177 86
186 177 86
186 177 86
186 177 86
186 177 86
186 177 86
186 177 86
186 177 86
186 177 86
0 0 0
0 0 0
0 0 0
0 0 0
0 0 0
0 0 0
0 0 0
0 0 0
0 0 0
0 0 0
0 0 0
0 0 0
0 0 0
0 0 0
0 0 0
0 0 0
0 0 0
0 0 0
0 0 0
0 0 0
0 0 0
0 0 0
0 0 0
0 0 0
0 0 0
0 0 0
0 0 0
0 0 0
0 0 0
0 0 0
0 0 0
0 0 0
0 0 0
0 0 0
0 0 0
0 0 0
0 0 0
0 0 0
0 0 0
0 0 0
0 0 0
0 0 0
0 0 0
0 0 0
0 0 0
0 0 0
0 0 0
0 0 0
86 113 186
86 113 186
86 113 186
86 113 186
86 113 186
86 113 186
86 113 186
86 113 186
86 113 186
86 113 186
86 113 186
86 113 186
86 113 186
86 113 186
86 113 186
86 113 186
86 113 186
86 113 186
86 113 186
86 113 186
86 113 186
86 113 186
86 113 186
86 113 186
86 113 186
86 113 186
86 113 186
86 113 186
86 113 186
86 113 186
86 113 186
86 113 186
86 113 186
86 113 186
86 113 186
86 113 186
86 113 186
86 113 186
86 113 186
86 113 186
86 113 186
86 113 186
86 113 186
86 113 186
86 113 186
86 113 186
86 113 186
86 113 186
86 113 186
86 113 186
86 113 186
86 113 186
86 113 186
86 113 186
86 113 186
86 113 186
86 113 186
86 113 186
86 113 186
86 113 186
86 113 186
86 113 186
86 113 186
86 113 186
86 113 186
86 113 186
86 113 186
86 113 186
86 113 186
86 113 186
86 113 186
86 113 186
86 113 186
86 113 186
86 113 186
86 113 186
86 113 186
86 113 186
86 113 186
86 113 186
86 113 186
86 113 186
86 113 186
86 113 186
86 113 186
86 113 186
86 113 186
86 113 186
86 113 186
86 113 186
86 113 186
86 113 186
86 113 186
86 113 186
86 113 186
86 113 186
0 0 0
0 0 0
0 0 0
0 0 0
0 0 0
0 0 0
0 0 0
0 0 0
0 0 0
0 0 0
0 0 0
0 0 0
0 0 0
0 0 0
0 0 0
0 0 0
186 177 86
186 177 86
186 177 86
186 177 86
186 177 86
186 177 86
186 177 86
186 177 86
186 177 86
186 177 86
186 177 86
186 177 86
186 177 86
186 177 86
186 177 86
186 177 86
186 177 86
186 177 86
186 177 86
186 177 86
186 177 86
186 177 86
186 177 86
186 177 86
186 177 86
186 177 86
186 177 86
186 177 86
186 177 86
186 177 86
186 177 86
186 177 86
186 177 86
186 177 86
186 177 86
186 177 86
186 177 86
186 177 86
186 177 86
186 177 86
186 177 86
186 177 86
186 177 86
186 177 86
186 177 86
186 177 86
186 177 86
186 177 86
186 177 86
186 177 86
186 177 86
186 177 86
186 177 86
186 177 86
186 177 86
186 177 86
186 177 86
186 177 86
186 177 86
186 177 86
186 177 86
186 177 86
186 177 86
186 177 86
186 177 86
186 177 86
186 177 86
186 177 86
186 177 86
186 177 86
186 177 86
186 177 86
186 177 86
186 177 86
186 177 86
186 177 86
186 177 86
186 177 86
186 177 86
186 177 86
186 177 86
186 177 86
186 177 86
186 177 86
186 177 86
186 177 86
186 177 86
186 177 86
186 177 86
186 177 86
186 177 86
186 177 86
186 177 86
186 177 86
186 177 86
186 177 86
0 0 0
0 0 0
0 0 0
0 0 0
0 0 0
0 0 0
0 0 0
0 0 0
0 0 0
0 0 0
0 0 0
0 0 0
0 0 0
0 0 0
0 0 0
0 0 0
0 0 0
0 0 0
0 0 0
0 0 0
0 0 0
0 0 0
0 0 0
0 0 0
0 0 0
0 0 0
0 0 0
0 0 0
0 0 0
0 0 0
0 0 0
0 0 0
0 0 0
0 0 0
0 0 0
0 0 0
0 0 0
0 0 0
0 0 0
0 0 0
0 0 0
0 0 0
0 0 0
0 0 0
0 0 0
0 0 0
0 0 0
0 0 0
86 113 186
86 113 186
86 113 186
86 113 186
86 113 186
86 113 186
86 113 186
86 113 186
86 113 186
86 113 186
86 113 186
86 113 186
86 113 186
86 113 186
86 113 186
86 113 186
86 113 186
86 113 186
86 113 186
86 113 186
86 113 186
86 113 186
86 113 186
86 113 186
86 113 186
86 113 186
86 113 186
86 113 186
86 113 186
86 113 186
86 113 186
86 113 186
86 113 186
86 113 186
86 113 186
86 113 186
86 113 186
86 113 186
86 113 186
86 113 186
86 113 186
86 113 186
86 113 186
86 113 186
86 113 186
86 113 186
86 113 186
86 113 186
86 113 186
86 113 186
86 113 186
86 113 186
86 113 186
86 113 186
86 113 186
86 113 186
86 113 186
86 113 186
86 113 186
86 113 186
86 113 186
86 113 186
86 113 186
86 113 186
86 113 186
86 113 186
86 113 186
86 113 186
86 113 186
86 113 186
86 113 186
86 113 186
86 113 186
86 113 186
86 113 186
86 113 186
86 113 186
86 113 186
86 113 186
86 113 186
86 113 186
86 113 186
86 113 186
86 113 186
86 113 186
86 113 186
86 113 186
86 113 186
86 113 186
86 113 186
86 113 186
86 113 186
86 113 186
86 113 186
86 113 186
86 113 186
0 0 0
0 0 0
0 0 0
0 0 0
0 0 0
0 0 0
0 0 0
0 0 0
0 0 0
0 0 0
0 0 0
0 0 0
0 0 0
0 0 0
0 0 0
0 0 0
186 177 86
186 177 86
186 177 86
186 177 86
186 177 86
186 177 86
186 177 86
186 177 86
186 177 86
186 177 86
186 177 86
186 177 86
186 177 86
186 177 86
186 177 86
186 177 86
186 177 86
186 177 86
186 177 86
186 177 86
186 177 86
186 177 86
186 177 86
186 177 86
186 177 86
186 177 86
186 177 86
186 177 86
186 177 86
186 177 86
186 177 86
186 177 86
186 177 86
186 177 86
186 177 86
186 177 86
186 177 86
186 177 86
186 177 86
186 177 86
186 177 86
186 177 86
186 177 86
186 177 86
186 177 86
186 177 86
186 177 86
186 177 86
186 177 86
186 177 86
186 177 86
186 177 86
186 177 86
186 177 86
186 177 86
186 177 86
186 177 86
186 177 86
186 177 86
186 177 86
186 177 86
186 177 86
186 177 86
186 177 86
186 177 86
186 177 86
186 177 86
186 177 86
186 177 86
186 177 86
186 177 86
186 177 86
186 177 86
186 177 86
186 177 86
186 177 86
186 177 86
186 177 86
186 177 86
186 177 86
186 177 86
186 177 86
186 177 86
186 177 86
186 177 86
186 177 86
186 177 86
186 177 86
186 177 86
186 177 86
186 177 86
186 177 86
186 177 86
186 177 86
186 177 86
186 177 86
0 0 0
0 0 0
0 0 0
0 0 0
0 0 0
0 0 0
0 0 0
0 0 0
0 0 0
0 0 0
0 0 0
0 0 0
0 0 0
0 0 0
0 0 0
0 0 0
0 0 0
0 0 0
0 0 0
0 0 0
0 0 0
0 0 0
0 0 0
0 0 0
0 0 0
0 0 0
0 0 0
0 0 0
0 0 0
0 0 0
0 0 0
0 0 0
0 0 0
0 0 0
0 0 0
0 0 0
0 0 0
0 0 0
0 0 0
0 0 0
0 0 0
0 0 0
0 0 0
0 0 0
0 0 0
0 0 0
0 0 0
0 0 0
86 113 186
86 113 186
86 113 186
86 113 186
86 113 186
86 113 186
86 113 186
86 113 186
86 113 186
86 113 186
86 113 186
86 113 186
86 113 186
86 113 186
86 113 186
86 113 186
86 113 186
86 113 186
86 113 186
86 113 186
86 113 186
86 113 186
86 113 186
86 113 186
86 113 186
86 113 186
86 113 186
86 113 186
86 113 186
86 113 186
86 113 186
86 113 186
86 113 186
86 113 186
86 113 186
86 113 186
86 113 186
86 113 186
86 113 186
86 113 186
86 113 186
86 113 186
86 113 186
86 113 186
86 113 186
86 113 186
86 113 186
86 113 186
86 113 186
86 113 186
86 113 186
86 113 186
86 113 186
86 113 186
86 113 186
86 113 186
86 113 186
86 113 186
86 113 186
86 113 186
86 113 186
86 113 186
86 113 186
86 113 186
86 113 186
86 113 186
86 113 186
86 113 186
86 113 186
86 113 186
86 113 186
86 113 186
86 113 186
86 113 186
86 113 186
86 113 186
86 113 186
86 113 186
86 113 186
86 113 186
86 113 186
86 113 186
86 113 186
86 113 186
86 113 186
86 113 186
86 113 186
86 113 186
86 113 186
86 113 186
86 113 186
86 113 186
86 113 186
86 113 186
86 113 186
86 113 186
0 0 0
0 0 0
0 0 0
0 0 0
0 0 0
0 0 0
0 0 0
0 0 0
0 0 0
0 0 0
0 0 0
0 0 0
0 0 0
0 0 0
0 0 0
0 0 0
186 177 86
186 177 86
186 177 86
186 177 86
186 177 86
186 177 86
186 177 86
186 177 86
186 177 86
186 177 86
186 177 86
186 177 86
186 177 86
186 177 86
186 177 86
186 177 86
186 177 86
186 177 86
186 177 86
186 177 86
186 177 86
186 177 86
186 177 86
186 177 86
186 177 86
186 177 86
186 177 86
186 177 86
186 177 86
186 177 86
186 177 86
186 177 86
186 177 86
186 177 86
186 177 86
186 177 86
186 177 86
186 177 86
186 177 86
186 177 86
186 177 86
186 177 86
186 177 86
186 177 86
186 177 86
186 177 86
186 177 86
186 177 86
186 177 86
186 177 86
186 177 86
186 177 86
186 177 86
186 177 86
186 177 86
186 177 86
186 177 86
186 177 86
186 177 86
186 177 86
186 177 86
186 177 86
186 177 86
186 177 86
186 177 86
186 177 86
186 177 86
186 177 86
186 177 86
186 177 86
186 177 86
186 177 86
186 177 86
186 177 86
186 177 86
186 177 86
186 177 86
186 177 86
186 177 86
186 177 86
186 177 86
186 177 86
186 177 86
186 177 86
186 177 86
186 177 86
186 177 86
186 177 86
186 177 86
186 177 86
186 177 86
186 177 86
186 177 86
186 177 86
186 177 86
186 177 86
0 0 0
0 0 0
0 0 0
0 0 0
0 0 0
0 0 0
0 0 0
0 0 0
0 0 0
0 0 0
0 0 0
0 0 0
0 0 0
0 0 0
0 0 0
0 0 0
0 0 0
0 0 0
0 0 0
0 0 0
0 0 0
0 0 0
0 0 0
0 0 0
0 0 0
0 0 0
0 0 0
0 0 0
0 0 0
0 0 0
0 0 0
0 0 0
0 0 0
0 0 0
0 0 0
0 0 0
0 0 0
0 0 0
0 0 0
0 0 0
0 0 0
0 0 0
0 0 0
0 0 0
0 0 0
0 0 0
0 0 0
0 0 0
86 113 186
86 113 186
86 113 186
86 113 186
86 113 186
86 113 186
86 113 186
86 113 186
86 113 186
86 113 186
86 113 186
86 113 186
86 113 186
86 113 186
86 113 186
86 113 186
86 113 186
86 113 186
86 113 186
86 113 186
86 113 186
86 113 186
86 113 186
86 113 186
86 113 186
86 113 186
86 113 186
86 113 186
86 113 186
86 113 186
86 113 186
86 113 186
86 113 186
86 113 186
86 113 186
86 113 186
86 113 186
86 113 186
86 113 186
86 113 186
86 113 186
86 113 186
86 113 186
86 113 186
86 113 186
86 113 186
86 113 186
86 113 186
86 113 186
86 113 186
86 113 186
86 113 186
86 113 186
86 113 186
86 113 186
86 113 186
86 113 186
86 113 186
86 113 186
86 113 186
86 113 186
86 113 186
86 113 186
86 113 186
86 113 186
86 113 186
86 113 186
86 113 186
86 113 186
86 113 186
86 113 186
86 113 186
86 113 186
86 113 186
86 113 186
86 113 186
86 113 186
86 113 186
86 113 186
86 113 186
86 113 186
86 113 186
86 113 186
86 113 186
86 113 186
86 113 186
86 113 186
86 113 186
86 113 186
86 113 186
86 113 186
86 113 186
86 113 186
86 113 186
86 113 186
86 113 186
0 0 0
0 0 0
0 0 0
0 0 0
0 0 0
0 0 0
0 0 0
0 0 0
0 0 0
0 0 0
0 0 0
0 0 0
0 0 0
0 0 0
0 0 0
0 0 0
186 177 86
186 177 86
186 177 86
186 177 86
186 177 86
186 177 86
186 177 86
186 177 86
186 177 86
186 177 86
186 177 86
186 177 86
186 177 86
186 177 86
186 177 86
186 177 86
186 177 86
186 177 86
186 177 86
186 177 86
186 177 86
186 177 86
186 177 86
186 177 86
186 177 86
186 177 86
186 177 86
186 177 86
186 177 86
186 177 86
186 177 86
186 177 86
186 177 86
186 177 86
186 177 86
186 177 86
186 177 86
186 177 86
186 177 86
186 177 86
186 177 86
186 177 86
186 177 86
186 177 86
186 177 86
186 177 86
186 177 86
186 177 86
186 177 86
186 177 86
186 177 86
186 177 86
186 177 86
186 177 86
186 177 86
186 177 86
186 177 86
186 177 86
186 177 86
186 177 86
186 177 86
186 177 86
186 177 86
186 177 86
186 177 86
186 177 86
186 177 86
186 177 86
186 177 86
186 177 86
186 177 86
186 177 86
186 177 86
186 177 86
186 177 86
186 177 86
186 177 86
186 177 86
186 177 86
186 177 86
186 177 86
186 177 86
186 177 86
186 177 86
186 177 86
186 177 86
186 177 86
186 177 86
186 177 86
186 177 86
186 177 86
186 177 86
186 177 86
186 177 86
186 177 86
186 177 86
0 0 0
0 0 0
0 0 0
0 0 0
0 0 0
0 0 0
0 0 0
0 0 0
0 0 0
0 0 0
0 0 0
0 0 0
0 0 0
0 0 0
0 0 0
0 0 0
0 0 0
0 0 0
0 0 0
0 0 0
0 0 0
0 0 0
0 0 0
0 0 0
0 0 0
0 0 0
0 0 0
0 0 0
0 0 0
0 0 0
0 0 0
0 0 0
0 0 0
0 0 0
0 0 0
0 0 0
0 0 0
0 0 0
0 0 0
0 0 0
0 0 0
0 0 0
0 0 0
0 0 0
0 0 0
0 0 0
0 0 0
0 0 0
86 113 186
86 113 186
86 113 186
86 113 186
86 113 186
86 113 186
86 113 186
86 113 186
86 113 186
86 113 186
86 113 186
86 113 186
86 113 186
86 113 186
86 113 186
86 113 186
86 113 186
86 113 186
86 113 186
86 113 186
86 113 186
86 113 186
86 113 186
86 113 186
86 113 186
86 113 186
86 113 186
86 113 186
86 113 186
86 113 186
86 113 186
86 113 186
86 113 186
86 113 186
86 113 186
86 113 186
86 113 186
86 113 186
86 113 186
86 113 186
86 113 186
86 113 186
86 113 186
86 113 186
86 113 186
86 113 186
86 113 186
86 113 186
86 113 186
86 113 186
86 113 186
86 113 186
86 113 186
86 113 186
86 113 186
86 113 186
86 113 186
86 113 186
86 113 186
86 113 186
86 113 186
86 113 186
86 113 186
86 113 186
86 113 186
86 113 186
86 113 186
86 113 186
86 113 186
86 113 186
86 113 186
86 113 186
86 113 186
86 113 186
86 113 186
86 113 186
86 113 186
86 113 186
86 113 186
86 113 186
86 113 186
86 113 186
86 113 186
86 113 186
86 113 186
86 113 186
86 113 186
86 113 186
86 113 186
86 113 186
86 113 186
86 113 186
86 113 186
86 113 186
86 113 186
86 113 186
0 0 0
0 0 0
0 0 0
0 0 0
0 0 0
0 0 0
0 0 0
0 0 0
0 0 0
0 0 0
0 0 0
0 0 0
0 0 0
0 0 0
0 0 0
0 0 0
186 177 86
186 177 86
186 177 86
186 177 86
186 177 86
186 177 86
186 177 86
186 177 86
186 177 86
186 177 86
186 177 86
186 177 86
186 177 86
186 177 86
186 177 86
186 177 86
186 177 86
186 177 86
186 177 86
186 177 86
186 177 86
186 177 86
186 177 86
186 177 86
186 177 86
186 177 86
186 177 86
186 177 86
186 177 86
186 177 86
186 177 86
186 177 86
186 177 86
186 177 86
186 177 86
186 177 86
186 177 86
186 177 86
186 177 86
186 177 86
186 177 86
186 177 86
186 177 86
186 177 86
186 177 86
186 177 86
186 177 86
186 177 86
186 177 86
186 177 86
186 177 86
186 177 86
186 177 86
186 177 86
186 177 86
186 177 86
186 177 86
186 177 86
186 177 86
186 177 86
186 177 86
186 177 86
186 177 86
186 177 86
186 177 86
186 177 86
186 177 86
186 177 86
186 177 86
186 177 86
186 177 86
186 177 86
186 177 86
186 177 86
186 177 86
186 177 86
186 177 86
186 177 86
186 177 86
186 177 86
186 177 86
186 177 86
186 177 86
186 177 86
186 177 86
186 177 86
186 177 86
186 177 86
186 177 86
186 177 86
186 177 86
186 177 86
186 177 86
186 177 86
186 177 86
186 177 86
0 0 0
0 0 0
0 0 0
0 0 0
0 0 0
0 0 0
0 0 0
0 0 0
0 0 0
0 0 0
0 0 0
0 0 0
0 0 0
0 0 0
0 0 0
0 0 0
0 0 0
0 0 0
0 0 0
0 0 0
0 0 0
0 0 0
0 0 0
0 0 0
0 0 0
0 0 0
0 0 0
0 0 0
0 0 0
0 0 0
0 0 0
0 0 0
0 0 0
0 0 0
0 0 0
0 0 0
0 0 0
0 0 0
0 0 0
0 0 0
0 0 0
0 0 0
0 0 0
0 0 0
0 0 0
0 0 0
0 0 0
0 0 0
86 113 186
86 113 186
86 113 186
86 113 186
86 113 186
86 113 186
86 113 186
86 113 186
86 113 186
86 113 186
86 113 186
86 113 186
86 113 186
86 113 186
86 113 186
86 113 186
86 113 186
86 113 186
86 113 186
86 113 186
86 113 186
86 113 186
86 113 186
86 113 186
86 113 186
86 113 186
86 113 186
86 113 186
86 113 186
86 113 186
86 113 186
86 113 186
86 113 186
86 113 186
86 113 186
86 113 186
86 113 186
86 113 186
86 113 186
86 113 186
86 113 186
86 113 186
86 113 186
86 113 186
86 113 186
86 113 186
86 113 186
86 113 186
86 113 186
86 113 186
86 113 186
86 113 186
86 113 186
86 113 186
86 113 186
86 113 186
86 113 186
86 113 186
86 113 186
86 113 186
86 113 186
86 113 186
86 113 186
86 113 186
86 113 186
86 113 186
86 113 186
86 113 186
86 113 186
86 113 186
86 113 186
86 113 186
86 113 186
86 113 186
86 113 186
86 113 186
86 113 186
86 113 186
86 113 186
86 113 186
86 113 186
86 113 186
86 113 186
86 113 186
86 113 186
86 113 186
86 113 186
86 113 186
86 113 186
86 113 186
86 113 186
86 113 186
86 113 186
86 113 186
86 113 186
86 113 186
0 0 0
0 0 0
0 0 0
0 0 0
0 0 0
0 0 0
0 0 0
0 0 0
0 0 0
0 0 0
0 0 0
0 0 0
0 0 0
0 0 0
0 0 0
0 0 0
186 177 86
186 177 86
186 177 86
186 177 86
186 177 86
186 177 86
186 177 86
186 177 86
186 177 86
186 177 86
186 177 86
186 177 86
186 177 86
186 177 86
186 177 86
186 177 86
186 177 86
186 177 86
186 177 86
186 177 86
186 177 86
186 177 86
186 177 86
186 177 86
186 177 86
186 177 86
186 177 86
186 177 86
186 177 86
186 177 86
186 177 86
186 177 86
186 177 86
186 177 86
186 177 86
186 177 86
186 177 86
186 177 86
186 177 86
186 177 86
186 177 86
186 177 86
186 177 86
186 177 86
186 177 86
186 177 86
186 177 86
186 177 86
186 177 86
186 177 86
186 177 86
186 177 86
186 177 86
186 177 86
186 177 86
186 177 86
186 177 86
186 177 86
186 177 86
186 177 86
186 177 86
186 177 86
186 177 86
186 177 86
186 177 86
186 177 86
186 177 86
186 177 86
186 177 86
186 177 86
186 177 86
186 177 86
186 177 86
186 177 86
186 177 86
186 177 86
186 177 86
186 177 86
186 177 86
186 177 86
186 177 86
186 177 86
186 177 86
186 177 86
186 177 86
186 177 86
186 177 86
186 177 86
186 177 86
186 177 86
186 177 86
186 177 86
186 177 86
186 177 86
186 177 86
186 177 86
0 0 0
0 0 0
0 0 0
0 0 0
0 0 0
0 0 0
0 0 0
0 0 0
0 0 0
0 0 0
0 0 0
0 0 0
0 0 0
0 0 0
0 0 0
0 0 0
0 0 0
0 0 0
0 0 0
0 0 0
0 0 0
0 0 0
0 0 0
0 0 0
0 0 0
0 0 0
0 0 0
0 0 0
0 0 0
0 0 0
0 0 0
0 0 0
0 0 0
0 0 0
0 0 0
0 0 0
0 0 0
0 0 0
0 0 0
0 0 0
0 0 0
0 0 0
0 0 0
0 0 0
0 0 0
0 0 0
0 0 0
0 0 0
86 113 186
86 113 186
86 113 186
86 113 186
86 113 186
86 113 186
86 113 186
86 113 186
86 113 186
86 113 186
86 113 186
86 113 186
86 113 186
86 113 186
86 113 186
86 113 186
86 113 186
86 113 186
86 113 186
86 113 186
86 113 186
86 113 186
86 113 186
86 113 186
86 113 186
86 113 186
86 113 186
86 113 186
86 113 186
86 113 186
86 113 186
86 113 186
86 113 186
86 113 186
86 113 186
86 113 186
86 113 186
86 113 186
86 113 186
86 113 186
86 113 186
86 113 186
86 113 186
86 113 186
86 113 186
86 113 186
86 113 186
86 113 186
86 113 186
86 113 186
86 113 186
86 113 186
86 113 186
86 113 186
86 113 186
86 113 186
86 113 186
86 113 186
86 113 186
86 113 186
86 113 186
86 113 186
86 113 186
86 113 186
86 113 186
86 113 186
86 113 186
86 113 186
86 113 186
86 113 186
86 113 186
86 113 186
86 113 186
86 113 186
86 113 186
86 113 186
86 113 186
86 113 186
86 113 186
86 113 186
86 113 186
86 113 186
86 113 186
86 113 186
86 113 186
86 113 186
86 113 186
86 113 186
86 113 186
86 113 186
86 113 186
86 113 186
86 113 186
86 113 186
86 113 186
86 113 186
0 0 0
0 0 0
0 0 0
0 0 0
0 0 0
0 0 0
0 0 0
0 0 0
0 0 0
0 0 0
0 0 0
0 0 0
0 0 0
0 0 0
0 0 0
0 0 0
186 177 86
186 177 86
186 177 86
186 177 86
186 177 86
186 177 86
186 177 86
186 177 86
186 177 86
186 177 86
186 177 86
186 177 86
186 177 86
186 177 86
186 177 86
186 177 86
186 177 86
186 177 86
186 177 86
186 177 86
186 177 86
186 177 86
186 177 86
186 177 86
186 177 86
186 177 86
186 177 86
186 177 86
186 177 86
186 177 86
186 177 86
186 177 86
186 177 86
186 177 86
186 177 86
186 177 86
186 177 86
186 177 86
186 177 86
186 177 86
186 177 86
186 177 86
186 177 86
186 177 86
186 177 86
186 177 86
186 177 86
186 177 86
186 177 86
186 177 86
186 177 86
186 177 86
186 177 86
186 177 86
186 177 86
186 177 86
186 177 86
186 177 86
186 177 86
186 177 86
186 177 86
186 177 86
186 177 86
186 177 86
186 177 86
186 177 86
186 177 86
186 177 86
186 177 86
186 177 86
186 177 86
186 177 86
186 177 86
186 177 86
186 177 86
186 177 86
186 177 86
186 177 86
186 177 86
186 177 86
186 177 86
186 177 86
186 177 86
186 177 86
186 177 86
186 177 86
186 177 86
186 177 86
186 177 86
186 177 86
186 177 86
186 177 86
186 177 86
186 177 86
186 177 86
186 177 86
0 0 0
0 0 0
0 0 0
0 0 0
0 0 0
0 0 0
0 0 0
0 0 0
0 0 0
0 0 0
0 0 0
0 0 0
0 0 0
0 0 0
0 0 0
0 0 0
0 0 0
0 0 0
0 0 0
0 0 0
0 0 0
0 0 0
0 0 0
0 0 0
0 0 0
0 0 0
0 0 0
0 0 0
0 0 0
0 0 0
0 0 0
0 0 0
0 0 0
0 0 0
0 0 0
0 0 0
0 0 0
0 0 0
0 0 0
0 0 0
0 0 0
0 0 0
0 0 0
0 0 0
0 0 0
0 0 0
0 0 0
0 0 0
86 113 186
86 113 186
86 113 186
86 113 186
86 113 186
86 113 186
86 113 186
86 113 186
86 113 186
86 113 186
86 113 186
86 113 186
86 113 186
86 113 186
86 113 186
86 113 186
86 113 186
86 113 186
86 113 186
86 113 186
86 113 186
86 113 186
86 113 186
86 113 186
86 113 186
86 113 186
86 113 186
86 113 186
86 113 186
86 113 186
86 113 186
86 113 186
86 113 186
86 113 186
86 113 186
86 113 186
86 113 186
86 113 186
86 113 186
86 113 186
86 113 186
86 113 186
86 113 186
86 113 186
86 113 186
86 113 186
86 113 186
86 113 186
86 113 186
86 113 186
86 113 186
86 113 186
86 113 186
86 113 186
86 113 186
86 113 186
86 113 186
86 113 186
86 113 186
86 113 186
86 113 186
86 113 186
86 113 186
86 113 186
86 113 186
86 113 186
86 113 186
86 113 186
86 113 186
86 113 186
86 113 186
86 113 186
86 113 186
86 113 186
86 113 186
86 113 186
86 113 186
86 113 186
86 113 186
86 113 186
86 113 186
86 113 186
86 113 186
86 113 186
86 113 186
86 113 186
86 113 186
86 113 186
86 113 186
86 113 186
86 113 186
86 113 186
86 113 186
86 113 186
86 113 186
86 113 186
0 0 0
0 0 0
0 0 0
0 0 0
0 0 0
0 0 0
0 0 0
0 0 0
0 0 0
0 0 0
0 0 0
0 0 0
0 0 0
0 0 0
0 0 0
0 0 0
186 177 86
186 177 86
186 177 86
186 177 86
186 177 86
186 177 86
186 177 86
186 177 86
186 177 86
186 177 86
186 177 86
186 177 86
186 177 86
186 177 86
186 177 86
186 177 86
186 177 86
186 177 86
186 177 86
186 177 86
186 177 86
186 177 86
186 177 86
186 177 86
186 177 86
186 177 86
186 177 86
186 177 86
186 177 86
186 177 86
186 177 86
186 177 86
186 177 86
186 177 86
186 177 86
186 177 86
186 177 86
186 177 86
186 177 86
186 177 86
186 177 86
186 177 86
186 177 86
186 177 86
186 177 86
186 177 86
186 177 86
186 177 86
186 177 86
186 177 86
186 177 86
186 177 86
186 177 86
186 177 86
186 177 86
186 177 86
186 177 86
186 177 86
186 177 86
186 177 86
186 177 86
186 177 86
186 177 86
186 177 86
186 177 86
186 177 86
186 177 86
186 177 86
186 177 86
186 177 86
186 177 86
186 177 86
186 177 86
186 177 86
186 177 86
186 177 86
186 177 86
186 177 86
186 177 86
186 177 86
186 177 86
186 177 86
186 177 86
186 177 86
186 177 86
186 177 86
186 177 86
186 177 86
186 177 86
186 177 86
186 177 86
186 177 86
186 177 86
186 177 86
186 177 86
186 177 86
0 0 0
0 0 0
0 0 0
0 0 0
0 0 0
0 0 0
0 0 0
0 0 0
0 0 0
0 0 0
0 0 0
0 0 0
0 0 0
0 0 0
0 0 0
0 0 0
0 0 0
0 0 0
0 0 0
0 0 0
0 0 0
0 0 0
0 0 0
0 0 0
0 0 0
0 0 0
0 0 0
0 0 0
0 0 0
0 0 0
0 0 0
0 0 0
0 0 0
0 0 0
0 0 0
0 0 0
0 0 0
0 0 0
0 0 0
0 0 0
0 0 0
0 0 0
0 0 0
0 0 0
0 0 0
0 0 0
0 0 0
0 0 0
86 113 186
86 113 186
86 113 186
86 113 186
86 113 186
86 113 186
86 113 186
86 113 186
86 113 186
86 113 186
86 113 186
86 113 186
86 113 186
86 113 186
86 113 186
86 113 186
86 113 186
86 113 186
86 113 186
86 113 186
86 113 186
86 113 186
86 113 186
86 113 186
86 113 186
86 113 186
86 113 186
86 113 186
86 113 186
86 113 186
86 113 186
86 113 186
86 113 186
86 113 186
86 113 186
86 113 186
86 113 186
86 113 186
86 113 186
86 113 186
86 113 186
86 113 186
86 113 186
86 113 186
86 113 186
86 113 186
86 113 186
86 113 186
86 113 186
86 113 186
86 113 186
86 113 186
86 113 186
86 113 186
86 113 186
86 113 186
86 113 186
86 113 186
86 113 186
86 113 186
86 113 186
86 113 186
86 113 186
86 113 186
86 113 186
86 113 186
86 113 186
86 113 186
86 113 186
86 113 186
86 113 186
86 113 186
86 113 186
86 113 186
86 113 186
86 113 186
86 113 186
86 113 186
86 113 186
86 113 186
86 113 186
86 113 186
86 113 186
86 113 186
86 113 186
86 113 186
86 113 186
86 113 186
86 113 186
86 113 186
86 113 186
86 113 186
86 113 186
86 113 186
86 113 186
86 113 186
0 0 0
0 0 0
0 0 0
0 0 0
0 0 0
0 0 0
0 0 0
0 0 0
0 0 0
0 0 0
0 0 0
0 0 0
0 0 0
0 0 0
0 0 0
0 0 0
186 177 86
186 177 86
186 177 86
186 177 86
186 177 86
186 177 86
186 177 86
186 177 86
186 177 86
186 177 86
186 177 86
186 177 86
186 177 86
186 177 86
186 177 86
186 177 86
186 177 86
186 177 86
186 177 86
186 177 86
186 177 86
186 177 86
186 177 86
186 177 86
186 177 86
186 177 86
186 177 86
186 177 86
186 177 86
186 177 86
186 177 86
186 177 86
186 177 86
186 177 86
186 177 86
186 177 86
186 177 86
186 177 86
186 177 86
186 177 86
186 177 86
186 177 86
186 177 86
186 177 86
186 177 86
186 177 86
186 177 86
186 177 86
186 177 86
186 177 86
186 177 86
186 177 86
186 177 86
186 177 86
186 177 86
186 177 86
186 177 86
186 177 86
186 177 86
186 177 86
186 177 86
186 177 86
186 177 86
186 177 86
186 177 86
186 177 86
186 177 86
186 177 86
186 177 86
186 177 86
186 177 86
186 177 86
186 177 86
186 177 86
186 177 86
186 177 86
186 177 86
186 177 86
186 177 86
186 177 86
186 177 86
186 177 86
186 177 86
186 177 86
186 177 86
186 177 86
186 177 86
186 177 86
186 177 86
186 177 86
186 177 86
186 177 86
186 177 86
186 177 86
186 177 86
186 177 86
0 0 0
0 0 0
0 0 0
0 0 0
0 0 0
0 0 0
0 0 0
0 0 0
0 0 0
0 0 0
0 0 0
0 0 0
0 0 0
0 0 0
0 0 0
0 0 0
0 0 0
0 0 0
0 0 0
0 0 0
0 0 0
0 0 0
0 0 0
0 0 0
0 0 0
0 0 0
0 0 0
0 0 0
0 0 0
0 0 0
0 0 0
0 0 0
0 0 0
0 0 0
0 0 0
0 0 0
0 0 0
0 0 0
0 0 0
0 0 0
0 0 0
0 0 0
0 0 0
0 0 0
0 0 0
0 0 0
0 0 0
0 0 0
86 113 186
86 113 186
86 113 186
86 113 186
86 113 186
86 113 186
86 113 186
86 113 186
86 113 186
86 113 186
86 113 186
86 113 186
86 113 186
86 113 186
86 113 186
86 113 186
86 113 186
86 113 186
86 113 186
86 113 186
86 113 186
86 113 186
86 113 186
86 113 186
86 113 186
86 113 186
86 113 186
86 113 186
86 113 186
86 113 186
86 113 186
86 113 186
86 113 186
86 113 186
86 113 186
86 113 186
86 113 186
86 113 186
86 113 186
86 113 186
86 113 186
86 113 186
86 113 186
86 113 186
86 113 186
86 113 186
86 113 186
86 113 186
86 113 186
86 113 186
86 113 186
86 113 186
86 113 186
86 113 186
86 113 186
86 113 186
86 113 186
86 113 186
86 113 186
86 113 186
86 113 186
86 113 186
86 113 186
86 113 186
86 113 186
86 113 186
86 113 186
86 113 186
86 113 186
86 113 186
86 113 186
86 113 186
86 113 186
86 113 186
86 113 186
86 113 186
86 113 186
86 113 186
86 113 186
86 113 186
86 113 186
86 113 186
86 113 186
86 113 186
86 113 186
86 113 186
86 113 186
86 113 186
86 113 186
86 113 186
86 113 186
86 113 186
86 113 186
86 113 186
86 113 186
86 113 186
0 0 0
0 0 0
0 0 0
0 0 0
0 0 0
0 0 0
0 0 0
0 0 0
0 0 0
0 0 0
0 0 0
0 0 0
0 0 0
0 0 0
0 0 0
0 0 0
186 177 86
186 177 86
186 177 86
186 177 86
186 177 86
186 177 86
186 177 86
186 177 86
186 177 86
186 177 86
186 177 86
186 177 86
186 177 86
186 177 86
186 177 86
186 177 86
186 177 86
186 177 86
186 177 86
186 177 86
186 177 86
186 177 86
186 177 86
186 177 86
186 177 86
186 177 86
186 177 86
186 177 86
186 177 86
186 177 86
186 177 86
186 177 86
186 177 86
186 177 86
186 177 86
186 177 86
186 177 86
186 177 86
186 177 86
186 177 86
186 177 86
186 177 86
186 177 86
186 177 86
186 177 86
186 177 86
186 177 86
186 177 86
186 177 86
186 177 86
186 177 86
186 177 86
186 177 86
186 177 86
186 177 86
186 177 86
186 177 86
186 177 86
186 177 86
186 177 86
186 177 86
186 177 86
186 177 86
186 177 86
186 177 86
186 177 86
186 177 86
186 177 86
186 177 86
186 177 86
186 177 86
186 177 86
186 177 86
186 177 86
186 177 86
186 177 86
186 177 86
186 177 86
186 177 86
186 177 86
186 177 86
186 177 86
186 177 86
186 177 86
186 177 86
186 177 86
186 177 86
186 177 86
186 177 86
186 177 86
186 177 86
186 177 86
186 177 86
186 177 86
186 177 86
186 177 86
0 0 0
0 0 0
0 0 0
0 0 0
0 0 0
0 0 0
0 0 0
0 0 0
0 0 0
0 0 0
0 0 0
0 0 0
0 0 0
0 0 0
0 0 0
0 0 0
0 0 0
0 0 0
0 0 0
0 0 0
0 0 0
0 0 0
0 0 0
0 0 0
0 0 0
0 0 0
0 0 0
0 0 0
0 0 0
0 0 0
0 0 0
0 0 0
0 0 0
0 0 0
0 0 0
0 0 0
0 0 0
0 0 0
0 0 0
0 0 0
0 0 0
0 0 0
0 0 0
0 0 0
0 0 0
0 0 0
0 0 0
0 0 0
86 113 186
86 113 186
86 113 186
86 113 186
86 113 186
86 113 186
86 113 186
86 113 186
86 113 186
86 113 186
86 113 186
86 113 186
86 113 186
86 113 186
86 113 186
86 113 186
86 113 186
86 113 186
86 113 186
86 113 186
86 113 186
86 113 186
86 113 186
86 113 186
86 113 186
86 113 186
86 113 186
86 113 186
86 113 186
86 113 186
86 113 186
86 113 186
86 113 186
86 113 186
86 113 186
86 113 186
86 113 186
86 113 186
86 113 186
86 113 186
86 113 186
86 113 186
86 113 186
86 113 186
86 113 186
86 113 186
86 113 186
86 113 186
86 113 186
86 113 186
86 113 186
86 113 186
86 113 186
86 113 186
86 113 186
86 113 186
86 113 186
86 113 186
86 113 186
86 113 186
86 113 186
86 113 186
86 113 186
86 113 186
86 113 186
86 113 186
86 113 186
86 113 186
86 113 186
86 113 186
86 113 186
86 113 186
86 113 186
86 113 186
86 113 186
86 113 186
86 113 186
86 113 186
86 113 186
86 113 186
86 113 186
86 113 186
86 113 186
86 113 186
86 113 186
86 113 186
86 113 186
86 113 186
86 113 186
86 113 186
86 113 186
86 113 186
86 113 186
86 113 186
86 113 186
86 113 186
0 0 0
0 0 0
0 0 0
0 0 0
0 0 0
0 0 0
0 0 0
0 0 0
0 0 0
0 0 0
0 0 0
0 0 0
0 0 0
0 0 0
0 0 0
0 0 0
186 177 86
186 177 86
186 177 86
186 177 86
186 177 86
186 177 86
186 177 86
186 177 86
186 177 86
186 177 86
186 177 86
186 177 86
186 177 86
186 177 86
186 177 86
186 177 86
186 177 86
186 177 86
186 177 86
186 177 86
186 177 86
186 177 86
186 177 86
186 177 86
186 177 86
186 177 86
186 177 86
186 177 86
186 177 86
186 177 86
186 177 86
186 177 86
186 177 86
186 177 86
186 177 86
186 177 86
186 177 86
186 177 86
186 177 86
186 177 86
186 177 86
186 177 86
186 177 86
186 177 86
186 177 86
186 177 86
186 177 86
186 177 86
186 177 86
186 177 86
186 177 86
186 177 86
186 177 86
186 177 86
186 177 86
186 177 86
186 177 86
186 177 86
186 177 86
186 177 86
186 177 86
186 177 86
186 177 86
186 177 86
186 177 86
186 177 86
186 177 86
186 177 86
186 177 86
186 177 86
186 177 86
186 177 86
186 177 86
186 177 86
186 177 86
186 177 86
186 177 86
186 177 86
186 177 86
186 177 86
186 177 86
186 177 86
186 177 86
186 177 86
186 177 86
186 177 86
186 177 86
186 177 86
186 177 86
186 177 86
186 177 86
186 177 86
186 177 86
186 177 86
186 177 86
186 177 86
0 0 0
0 0 0
0 0 0
0 0 0
0 0 0
0 0 0
0 0 0
0 0 0
0 0 0
0 0 0
0 0 0
0 0 0
0 0 0
0 0 0
0 0 0
0 0 0
0 0 0
0 0 0
0 0 0
0 0 0
0 0 0
0 0 0
0 0 0
0 0 0
0 0 0
0 0 0
0 0 0
0 0 0
0 0 0
0 0 0
0 0 0
0 0 0
0 0 0
0 0 0
0 0 0
0 0 0
0 0 0
0 0 0
0 0 0
0 0 0
0 0 0
0 0 0
0 0 0
0 0 0
0 0 0
0 0 0
0 0 0
0 0 0
86 113 186
86 113 186
86 113 186
86 113 186
86 113 186
86 113 186
86 113 186
86 113 186
86 113 186
86 113 186
86 113 186
86 113 186
86 113 186
86 113 186
86 113 186
86 113 186
86 113 186
86 113 186
86 113 186
86 113 186
86 113 186
86 113 186
86 113 186
86 113 186
86 113 186
86 113 186
86 113 186
86 113 186
86 113 186
86 113 186
86 113 186
86 113 186
86 113 186
86 113 186
86 113 186
86 113 186
86 113 186
86 113 186
86 113 186
86 113 186
86 113 186
86 113 186
86 113 186
86 113 186
86 113 186
86 113 186
86 113 186
86 113 186
86 113 186
86 113 186
86 113 186
86 113 186
86 113 186
86 113 186
86 113 186
86 113 186
86 113 186
86 113 186
86 113 186
86 113 186
86 113 186
86 113 186
86 113 186
86 113 186
86 113 186
86 113 186
86 113 186
86 113 186
86 113 186
86 113 186
86 113 186
86 113 186
86 113 186
86 113 186
86 113 186
86 113 186
86 113 186
86 113 186
86 113 186
86 113 186
86 113 186
86 113 186
86 113 186
86 113 186
86 113 186
86 113 186
86 113 186
86 113 186
86 113 186
86 113 186
86 113 186
86 113 186
86 113 186
86 113 186
86 113 186
86 113 186
0 0 0
0 0 0
0 0 0
0 0 0
0 0 0
0 0 0
0 0 0
0 0 0
0 0 0
0 0 0
0 0 0
0 0 0
0 0 0
0 0 0
0 0 0
0 0 0
186 177 86
186 177 86
186 177 86
186 177 86
186 177 86
186 177 86
186 177 86
186 177 86
186 177 86
186 177 86
186 177 86
186 177 86
186 177 86
186 177 86
186 177 86
186 177 86
186 177 86
186 177 86
186 177 86
186 177 86
186 177 86
186 177 86
186 177 86
186 177 86
186 177 86
186 177 86
186 177 86
186 177 86
186 177 86
186 177 86
186 177 86
186 177 86
186 177 86
186 177 86
186 177 86
186 177 86
186 177 86
186 177 86
186 177 86
186 177 86
186 177 86
186 177 86
186 177 86
186 177 86
186 177 86
186 177 86
186 177 86
186 177 86
186 177 86
186 177 86
186 177 86
186 177 86
186 177 86
186 177 86
186 177 86
186 177 86
186 177 86
186 177 86
186 177 86
186 177 86
186 177 86
186 177 86
186 177 86
186 177 86
186 177 86
186 177 86
186 177 86
186 177 86
186 177 86
186 177 86
186 177 86
186 177 86
186 177 86
186 177 86
186 177 86
186 177 86
186 177 86
186 177 86
186 177 86
186 177 86
186 177 86
186 177 86
186 177 86
186 177 86
186 177 86
186 177 86
186 177 86
186 177 86
186 177 86
186 177 86
186 177 86
186 177 86
186 177 86
186 177 86
186 177 86
186 177 86
0 0 0
0 0 0
0 0 0
0 0 0
0 0 0
0 0 0
0 0 0
0 0 0
0 0 0
0 0 0
0 0 0
0 0 0
0 0 0
0 0 0
0 0 0
0 0 0
0 0 0
0 0 0
0 0 0
0 0 0
0 0 0
0 0 0
0 0 0
0 0 0
0 0 0
0 0 0
0 0 0
0 0 0
0 0 0
0 0 0
0 0 0
0 0 0
0 0 0
0 0 0
0 0 0
0 0 0
0 0 0
0 0 0
0 0 0
0 0 0
0 0 0
0 0 0
0 0 0
0 0 0
0 0 0
0 0 0
0 0 0
0 0 0
86 113 186
86 113 186
86 113 186
86 113 186
86 113 186
86 113 186
86 113 186
86 113 186
86 113 186
86 113 186
86 113 186
86 113 186
86 113 186
86 113 186
86 113 186
86 113 186
86 113 186
86 113 186
86 113 186
86 113 186
86 113 186
86 113 186
86 113 186
86 113 186
86 113 186
86 113 186
86 113 186
86 113 186
86 113 186
86 113 186
86 113 186
86 113 186
86 113 186
86 113 186
86 113 186
86 113 186
86 113 186
86 113 186
86 113 186
86 113 186
86 113 186
86 113 186
86 113 186
86 113 186
86 113 186
86 113 186
86 113 186
86 113 186
86 113 186
86 113 186
86 113 186
86 113 186
86 113 186
86 113 186
86 113 186
86 113 186
86 113 186
86 113 186
86 113 186
86 113 186
86 113 186
86 113 186
86 113 186
86 113 186
86 113 186
86 113 186
86 113 186
86 113 186
86 113 186
86 113 186
86 113 186
86 113 186
86 113 186
86 113 186
86 113 186
86 113 186
86 113 186
86 113 186
86 113 186
86 113 186
86 113 186
86 113 186
86 113 186
86 113 186
86 113 186
86 113 186
86 113 186
86 113 186
86 113 186
86 113 186
86 113 186
86 113 186
86 113 186
86 113 186
86 113 186
86 113 186
0 0 0
0 0 0
0 0 0
0 0 0
0 0 0
0 0 0
0 0 0
0 0 0
0 0 0
0 0 0
0 0 0
0 0 0
0 0 0
0 0 0
0 0 0
0 0 0
186 177 86
186 177 86
186 177 86
186 177 86
186 177 86
186 177 86
186 177 86
186 177 86
186 177 86
186 177 86
186 177 86
186 177 86
186 177 86
186 177 86
186 177 86
186 177 86
186 177 86
186 177 86
186 177 86
186 177 86
186 177 86
186 177 86
186 177 86
186 177 86
186 177 86
186 177 86
186 177 86
186 177 86
186 177 86
186 177 86
186 177 86
186 177 86
186 177 86
186 177 86
186 177 86
186 177 86
186 177 86
186 177 86
186 177 86
186 177 86
186 177 86
186 177 86
186 177 86
186 177 86
186 177 86
186 177 86
186 177 86
186 177 86
186 177 86
186 177 86
186 177 86
186 177 86
186 177 86
186 177 86
186 177 86
186 177 86
186 177 86
186 177 86
186 177 86
186 177 86
186 177 86
186 177 86
186 177 86
186 177 86
186 177 86
186 177 86
186 177 86
186 177 86
186 177 86
186 177 86
186 177 86
186 177 86
186 177 86
186 177 86
186 177 86
186 177 86
186 177 86
186 177 86
186 177 86
186 177 86
186 177 86
186 177 86
186 177 86
186 177 86
186 177 86
186 177 86
186 177 86
186 177 86
186 177 86
186 177 86
186 177 86
186 177 86
186 177 86
186 177 86
186 177 86
186 177 86
0 0 0
0 0 0
0 0 0
0 0 0
0 0 0
0 0 0
0 0 0
0 0 0
0 0 0
0 0 0
0 0 0
0 0 0
0 0 0
0 0 0
0 0 0
0 0 0
0 0 0
0 0 0
0 0 0
0 0 0
0 0 0
0 0 0
0 0 0
0 0 0
0 0 0
0 0 0
0 0 0
0 0 0
0 0 0
0 0 0
0 0 0
0 0 0
0 0 0
0 0 0
0 0 0
0 0 0
0 0 0
0 0 0
0 0 0
0 0 0
0 0 0
0 0 0
0 0 0
0 0 0
0 0 0
0 0 0
0 0 0
0 0 0
86 113 186
86 113 186
86 113 186
86 113 186
86 113 186
86 113 186
86 113 186
86 113 186
86 113 186
86 113 186
86 113 186
86 113 186
86 113 186
86 113 186
86 113 186
86 113 186
86 113 186
86 113 186
86 113 186
86 113 186
86 113 186
86 113 186
86 113 186
86 113 186
86 113 186
86 113 186
86 113 186
86 113 186
86 113 186
86 113 186
86 113 186
86 113 186
86 113 186
86 113 186
86 113 186
86 113 186
86 113 186
86 113 186
86 113 186
86 113 186
86 113 186
86 113 186
86 113 186
86 113 186
86 113 186
86 113 186
86 113 186
86 113 186
86 113 186
86 113 186
86 113 186
86 113 186
86 113 186
86 113 186
86 113 186
86 113 186
86 113 186
86 113 186
86 113 186
86 113 186
86 113 186
86 113 186
86 113 186
86 113 186
86 113 186
86 113 186
86 113 186
86 113 186
86 113 186
86 113 186
86 113 186
86 113 186
86 113 186
86 113 186
86 113 186
86 113 186
86 113 186
86 113 186
86 113 186
86 113 186
86 113 186
86 113 186
86 113 186
86 113 186
86 113 186
86 113 186
86 113 186
86 113 186
86 113 186
86 113 186
86 113 186
86 113 186
86 113 186
86 113 186
86 113 186
86 113 186
0 0 0
0 0 0
0 0 0
0 0 0
0 0 0
0 0 0
0 0 0
0 0 0
0 0 0
0 0 0
0 0 0
0 0 0
0 0 0
0 0 0
0 0 0
0 0 0
186 177 86
186 177 86
186 177 86
186 177 86
186 177 86
186 177 86
186 177 86
186 177 86
186 177 86
186 177 86
186 177 86
186 177 86
186 177 86
186 177 86
186 177 86
186 177 86
186 177 86
186 177 86
186 177 86
186 177 86
186 177 86
186 177 86
186 177 86
186 177 86
186 177 86
186 177 86
186 177 86
186 177 86
186 177 86
186 177 86
186 177 86
186 177 86
186 177 86
186 177 86
186 177 86
186 177 86
186 177 86
186 177 86
186 177 86
186 177 86
186 177 86
186 177 86
186 177 86
186 177 86
186 177 86
186 177 86
186 177 86
186 177 86
186 177 86
186 177 86
186 177 86
186 177 86
186 177 86
186 177 86
186 177 86
186 177 86
186 177 86
186 177 86
186 177 86
186 177 86
186 177 86
186 177 86
186 177 86
186 177 86
186 177 86
186 177 86
186 177 86
186 177 86
186 177 86
186 177 86
186 177 86
186 177 86
186 177 86
186 177 86
186 177 86
186 177 86
186 177 86
186 177 86
186 177 86
186 177 86
186 177 86
186 177 86
186 177 86
186 177 86
186 177 86
186 177 86
186 177 86
186 177 86
186 177 86
186 177 86
186 177 86
186 177 86
186 177 86
186 177 86
186 177 86
186 177 86
0 0 0
0 0 0
0 0 0
0 0 0
0 0 0
0 0 0
0 0 0
0 0 0
0 0 0
0 0 0
0 0 0
0 0 0
0 0 0
0 0 0
0 0 0
0 0 0
0 0 0
0 0 0
0 0 0
0 0 0
0 0 0
0 0 0
0 0 0
0 0 0
0 0 0
0 0 0
0 0 0
0 0 0
0 0 0
0 0 0
0 0 0
0 0 0
0 0 0
0 0 0
0 0 0
0 0 0
0 0 0
0 0 0
0 0 0
0 0 0
0 0 0
0 0 0
0 0 0
0 0 0
0 0 0
0 0 0
0 0 0
0 0 0
86 113 186
86 113 186
86 113 186
86 113 186
86 113 186
86 113 186
86 113 186
86 113 186
86 113 186
86 113 186
86 113 186
86 113 186
86 113 186
86 113 186
86 113 186
86 113 186
86 113 186
86 113 186
86 113 186
86 113 186
86 113 186
86 113 186
86 113 186
86 113 186
86 113 186
86 113 186
86 113 186
86 113 186
86 113 186
86 113 186
86 113 186
86 113 186
86 113 186
86 113 186
86 113 186
86 113 186
86 113 186
86 113 186
86 113 186
86 113 186
86 113 186
86 113 186
86 113 186
86 113 186
86 113 186
86 113 186
86 113 186
86 113 186
86 113 186
86 113 186
86 113 186
86 113 186
86 113 186
86 113 186
86 113 186
86 113 186
86 113 186
86 113 186
86 113 186
86 113 186
86 113 186
86 113 186
86 113 186
86 113 186
86 113 186
86 113 186
86 113 186
86 113 186
86 113 186
86 113 186
86 113 186
86 113 186
86 113 186
86 113 186
86 113 186
86 113 186
86 113 186
86 113 186
86 113 186
86 113 186
86 113 186
86 113 186
86 113 186
86 113 186
86 113 186
86 113 186
86 113 186
86 113 186
86 113 186
86 113 186
86 113 186
86 113 186
86 113 186
86 113 186
86 113 186
86 113 186
0 0 0
0 0 0
0 0 0
0 0 0
0 0 0
0 0 0
0 0 0
0 0 0
0 0 0
0 0 0
0 0 0
0 0 0
0 0 0
0 0 0
0 0 0
0 0 0
186 177 86
186 177 86
186 177 86
186 177 86
186 177 86
186 177 86
186 177 86
186 177 86
186 177 86
186 177 86
186 177 86
186 177 86
186 177 86
186 177 86
186 177 86
186 177 86
186 177 86
186 177 86
186 177 86
186 177 86
186 177 86
186 177 86
186 177 86
186 177 86
186 177 86
186 177 86
186 177 86
186 177 86
186 177 86
186 177 86
186 177 86
186 177 86
186 177 86
186 177 86
186 177 86
186 177 86
186 177 86
186 177 86
186 177 86
186 177 86
186 177 86
186 177 86
186 177 86
186 177 86
186 177 86
186 177 86
186 177 86
186 177 86
186 177 86
186 177 86
186 177 86
186 177 86
186 177 86
186 177 86
186 177 86
186 177 86
186 177 86
186 177 86
186 177 86
186 177 86
186 177 86
186 177 86
186 177 86
186 177 86
186 177 86
186 177 86
186 177 86
186 177 86
186 177 86
186 177 86
186 177 86
186 177 86
186 177 86
186 177 86
186 177 86
186 177 86
186 177 86
186 177 86
186 177 86
186 177 86
186 177 86
186 177 86
186 177 86
186 177 86
186 177 86
186 177 86
186 177 86
186 177 86
186 177 86
186 177 86
186 177 86
186 177 86
186 177 86
186 177 86
186 177 86
186 177 86
0 0 0
0 0 0
0 0 0
0 0 0
0 0 0
0 0 0
0 0 0
0 0 0
0 0 0
0 0 0
0 0 0
0 0 0
0 0 0
0 0 0
0 0 0
0 0 0
0 0 0
0 0 0
0 0 0
0 0 0
0 0 0
0 0 0
0 0 0
0 0 0
0 0 0
0 0 0
0 0 0
0 0 0
0 0 0
0 0 0
0 0 0
0 0 0
0 0 0
0 0 0
0 0 0
0 0 0
0 0 0
0 0 0
0 0 0
0 0 0
0 0 0
0 0 0
0 0 0
0 0 0
0 0 0
0 0 0
0 0 0
0 0 0
86 113 186
86 113 186
86 113 186
86 113 186
86 113 186
86 113 186
86 113 186
86 113 186
86 113 186
86 113 186
86 113 186
86 113 186
86 113 186
86 113 186
86 113 186
86 113 186
86 113 186
86 113 186
86 113 186
86 113 186
86 113 186
86 113 186
86 113 186
86 113 186
86 113 186
86 113 186
86 113 186
86 113 186
86 113 186
86 113 186
86 113 186
86 113 186
86 113 186
86 113 186
86 113 186
86 113 186
86 113 186
86 113 186
86 113 186
86 113 186
86 113 186
86 113 186
86 113 186
86 113 186
86 113 186
86 113 186
86 113 186
86 113 186
86 113 186
86 113 186
86 113 186
86 113 186
86 113 186
86 113 186
86 113 186
86 113 186
86 113 186
86 113 186
86 113 186
86 113 186
86 113 186
86 113 186
86 113 186
86 113 186
86 113 186
86 113 186
86 113 186
86 113 186
86 113 186
86 113 186
86 113 186
86 113 186
86 113 186
86 113 186
86 113 186
86 113 186
86 113 186
86 113 186
86 113 186
86 113 186
86 113 186
86 113 186
86 113 186
86 113 186
86 113 186
86 113 186
86 113 186
86 113 186
86 113 186
86 113 186
86 113 186
86 113 186
86 113 186
86 113 186
86 113 186
86 113 186
0 0 0
0 0 0
0 0 0
0 0 0
0 0 0
0 0 0
0 0 0
0 0 0
0 0 0
0 0 0
0 0 0
0 0 0
0 0 0
0 0 0
0 0 0
0 0 0
186 177 86
186 177 86
186 177 86
186 177 86
186 177 86
186 177 86
186 177 86
186 177 86
186 177 86
186 177 86
186 177 86
186 177 86
186 177 86
186 177 86
186 177 86
186 177 86
186 177 86
186 177 86
186 177 86
186 177 86
186 177 86
186 177 86
186 177 86
186 177 86
186 177 86
186 177 86
186 177 86
186 177 86
186 177 86
186 177 86
186 177 86
186 177 86
186 177 86
186 177 86
186 177 86
186 177 86
186 177 86
186 177 86
186 177 86
186 177 86
186 177 86
186 177 86
186 177 86
186 177 86
186 177 86
186 177 86
186 177 86
186 177 86
186 177 86
186 177 86
186 177 86
186 177 86
186 177 86
186 177 86
186 177 86
186 177 86
186 177 86
186 177 86
186 177 86
186 177 86
186 177 86
186 177 86
186 177 86
186 177 86
186 177 86
186 177 86
186 177 86
186 177 86
186 177 86
186 177 86
186 177 86
186 177 86
186 177 86
186 177 86
186 177 86
186 177 86
186 177 86
186 177 86
186 177 86
186 177 86
186 177 86
186 177 86
186 177 86
186 177 86
186 177 86
186 177 86
186 177 86
186 177 86
186 177 86
186 177 86
186 177 86
186 177 86
186 177 86
186 177 86
186 177 86
186 177 86
0 0 0
0 0 0
0 0 0
0 0 0
0 0 0
0 0 0
0 0 0
0 0 0
0 0 0
0 0 0
0 0 0
0 0 0
0 0 0
0 0 0
0 0 0
0 0 0
0 0 0
0 0 0
0 0 0
0 0 0
0 0 0
0 0 0
0 0 0
0 0 0
0 0 0
0 0 0
0 0 0
0 0 0
0 0 0
0 0 0
0 0 0
0 0 0
0 0 0
0 0 0
0 0 0
0 0 0
0 0 0
0 0 0
0 0 0
0 0 0
0 0 0
0 0 0
0 0 0
0 0 0
0 0 0
0 0 0
0 0 0
0 0 0
86 113 186
86 113 186
86 113 186
86 113 186
86 113 186
86 113 186
86 113 186
86 113 186
86 113 186
86 113 186
86 113 186
86 113 186
86 113 186
86 113 186
86 113 186
86 113 186
86 113 186
86 113 186
86 113 186
86 113 186
86 113 186
86 113 186
86 113 186
86 113 186
86 113 186
86 113 186
86 113 186
86 113 186
86 113 186
86 113 186
86 113 186
86 113 186
86 113 186
86 113 186
86 113 186
86 113 186
86 113 186
86 113 186
86 113 186
86 113 186
86 113 186
86 113 186
86 113 186
86 113 186
86 113 186
86 113 186
86 113 186
86 113 186
86 113 186
86 113 186
86 113 186
86 113 186
86 113 186
86 113 186
86 113 186
86 113 186
86 113 186
86 113 186
86 113 186
86 113 186
86 113 186
86 113 186
86 113 186
86 113 186
86 113 186
86 113 186
86 113 186
86 113 186
86 113 186
86 113 186
86 113 186
86 113 186
86 113 186
86 113 186
86 113 186
86 113 186
86 113 186
86 113 186
86 113 186
86 113 186
86 113 186
86 113 186
86 113 186
86 113 186
86 113 186
86 113 186
86 113 186
86 113 186
86 113 186
86 113 186
86 113 186
86 113 186
86 113 186
86 113 186
86 113 186
86 113 186
0 0 0
0 0 0
0 0 0
0 0 0
0 0 0
0 0 0
0 0 0
0 0 0
0 0 0
0 0 0
0 0 0
0 0 0
0 0 0
0 0 0
0 0 0
0 0 0
186 177 86
186 177 86
186 177 86
186 177 86
186 177 86
186 177 86
186 177 86
186 177 86
186 177 86
186 177 86
186 177 86
186 177 86
186 177 86
186 177 86
186 177 86
186 177 86
186 177 86
186 177 86
186 177 86
186 177 86
186 177 86
186 177 86
186 177 86
186 177 86
186 177 86
186 177 86
186 177 86
186 177 86
186 177 86
186 177 86
186 177 86
186 177 86
186 177 86
186 177 86
186 177 86
186 177 86
186 177 86
186 177 86
186 177 86
186 177 86
186 177 86
186 177 86
186 177 86
186 177 86
186 177 86
186 177 86
186 177 86
186 177 86
186 177 86
186 177 86
186 177 86
186 177 86
186 177 86
186 177 86
186 177 86
186 177 86
186 177 86
186 177 86
186 177 86
186 177 86
186 177 86
186 177 86
186 177 86
186 177 86
186 177 86
186 177 86
186 177 86
186 177 86
186 177 86
186 177 86
186 177 86
186 177 86
186 177 86
186 177 86
186 177 86
186 177 86
186 177 86
186 177 86
186 177 86
186 177 86
186 177 86
186 177 86
186 177 86
186 177 86
186 177 86
186 177 86
186 177 86
186 177 86
186 177 86
186 177 86
186 177 86
186 177 86
186 177 86
186 177 86
186 177 86
186 177 86
0 0 0
0 0 0
0 0 0
0 0 0
0 0 0
0 0 0
0 0 0
0 0 0
0 0 0
0 0 0
0 0 0
0 0 0
0 0 0
0 0 0
0 0 0
0 0 0
0 0 0
0 0 0
0 0 0
0 0 0
0 0 0
0 0 0
0 0 0
0 0 0
0 0 0
0 0 0
0 0 0
0 0 0
0 0 0
0 0 0
0 0 0
0 0 0
0 0 0
0 0 0
0 0 0
0 0 0
0 0 0
0 0 0
0 0 0
0 0 0
0 0 0
0 0 0
0 0 0
0 0 0
0 0 0
0 0 0
0 0 0
0 0 0
86 113 186
86 113 186
86 113 186
86 113 186
86 113 186
86 113 186
86 113 186
86 113 186
86 113 186
86 113 186
86 113 186
86 113 186
86 113 186
86 113 186
86 113 186
86 113 186
86 113 186
86 113 186
86 113 186
86 113 186
86 113 186
86 113 186
86 113 186
86 113 186
86 113 186
86 113 186
86 113 186
86 113 186
86 113 186
86 113 186
86 113 186
86 113 186
86 113 186
86 113 186
86 113 186
86 113 186
86 113 186
86 113 186
86 113 186
86 113 186
86 113 186
86 113 186
86 113 186
86 113 186
86 113 186
86 113 186
86 113 186
86 113 186
86 113 186
86 113 186
86 113 186
86 113 186
86 113 186
86 113 186
86 113 186
86 113 186
86 113 186
86 113 186
86 113 186
86 113 186
86 113 186
86 113 186
86 113 186
86 113 186
86 113 186
86 113 186
86 113 186
86 113 186
86 113 186
86 113 186
86 113 186
86 113 186
86 113 186
86 113 186
86 113 186
86 113 186
86 113 186
86 113 186
86 113 186
86 113 186
86 113 186
86 113 186
86 113 186
86 113 186
86 113 186
86 113 186
86 113 186
86 113 186
86 113 186
86 113 186
86 113 186
86 113 186
86 113 186
86 113 186
86 113 186
86 113 186
0 0 0
0 0 0
0 0 0
0 0 0
0 0 0
0 0 0
0 0 0
0 0 0
0 0 0
0 0 0
0 0 0
0 0 0
0 0 0
0 0 0
0 0 0
0 0 0
186 177 86
186 177 86
186 177 86
186 177 86
186 177 86
186 177 86
186 177 86
186 177 86
186 177 86
186 177 86
186 177 86
186 177 86
186 177 86
186 177 86
186 177 86
186 177 86
186 177 86
186 177 86
186 177 86
186 177 86
186 177 86
186 177 86
186 177 86
186 177 86
186 177 86
186 177 86
186 177 86
186 177 86
186 177 86
186 177 86
186 177 86
186 177 86
186 177 86
186 177 86
186 177 86
186 177 86
186 177 86
186 177 86
186 177 86
186 177 86
186 177 86
186 177 86
186 177 86
186 177 86
186 177 86
186 177 86
186 177 86
186 177 86
186 177 86
186 177 86
186 177 86
186 177 86
186 177 86
186 177 86
186 177 86
186 177 86
186 177 86
186 177 86
186 177 86
186 177 86
186 177 86
186 177 86
186 177 86
186 177 86
186 177 86
186 177 86
186 177 86
186 177 86
186 177 86
186 177 86
186 177 86
186 177 86
186 177 86
186 177 86
186 177 86
186 177 86
186 177 86
186 177 86
186 177 86
186 177 86
186 177 86
186 177 86
186 177 86
186 177 86
186 177 86
186 177 86
186 177 86
186 177 86
186 177 86
186 177 86
186 177 86
186 177 86
186 177 86
186 177 86
186 177 86
186 177 86
0 0 0
0 0 0
0 0 0
0 0 0
0 0 0
0 0 0
0 0 0
0 0 0
0 0 0
0 0 0
0 0 0
0 0 0
0 0 0
0 0 0
0 0 0
0 0 0
0 0 0
0 0 0
0 0 0
0 0 0
0 0 0
0 0 0
0 0 0
0 0 0
0 0 0
0 0 0
0 0 0
0 0 0
0 0 0
0 0 0
0 0 0
0 0 0
0 0 0
0 0 0
0 0 0
0 0 0
0 0 0
0 0 0
0 0 0
0 0 0
0 0 0
0 0 0
0 0 0
0 0 0
0 0 0
0 0 0
0 0 0
0 0 0
86 113 186
86 113 186
86 113 186
86 113 186
86 113 186
86 113 186
86 113 186
86 113 186
86 113 186
86 113 186
86 113 186
86 113 186
86 113 186
86 113 186
86 113 186
86 113 186
86 113 186
86 113 186
86 113 186
86 113 186
86 113 186
86 113 186
86 113 186
86 113 186
86 113 186
86 113 186
86 113 186
86 113 186
86 113 186
86 113 186
86 113 186
86 113 186
86 113 186
86 113 186
86 113 186
86 113 186
86 113 186
86 113 186
86 113 186
86 113 186
86 113 186
86 113 186
86 113 186
86 113 186
86 113 186
86 113 186
86 113 186
86 113 186
86 113 186
86 113 186
86 113 186
86 113 186
86 113 186
86 113 186
86 113 186
86 113 186
86 113 186
86 113 186
86 113 186
86 113 186
86 113 186
86 113 186
86 113 186
86 113 186
86 113 186
86 113 186
86 113 186
86 113 186
86 113 186
86 113 186
86 113 186
86 113 186
86 113 186
86 113 186
86 113 186
86 113 186
86 113 186
86 113 186
86 113 186
86 113 186
86 113 186
86 113 186
86 113 186
86 113 186
86 113 186
86 113 186
86 113 186
86 113 186
86 113 186
86 113 186
86 113 186
86 113 186
86 113 186
86 113 186
86 113 186
86 113 186
0 0 0
0 0 0
0 0 0
0 0 0
0 0 0
0 0 0
0 0 0
0 0 0
0 0 0
0 0 0
0 0 0
0 0 0
0 0 0
0 0 0
0 0 0
0 0 0
186 177 86
186 177 86
186 177 86
186 177 86
186 177 86
186 177 86
186 177 86
186 177 86
186 177 86
186 177 86
186 177 86
186 177 86
186 177 86
186 177 86
186 177 86
186 177 86
186 177 86
186 177 86
186 177 86
186 177 86
186 177 86
186 177 86
186 177 86
186 177 86
186 177 86
186 177 86
186 177 86
186 177 86
186 177 86
186 177 86
186 177 86
186 177 86
186 177 86
186 177 86
186 177 86
186 177 86
186 177 86
186 177 86
186 177 86
186 177 86
186 177 86
186 177 86
186 177 86
186 177 86
186 177 86
186 177 86
186 177 86
186 177 86
186 177 86
186 177 86
186 177 86
186 177 86
186 177 86
186 177 86
186 177 86
186 177 86
186 177 86
186 177 86
186 177 86
186 177 86
186 177 86
186 177 86
186 177 86
186 177 86
186 177 86
186 177 86
186 177 86
186 177 86
186 177 86
186 177 86
186 177 86
186 177 86
186 177 86
186 177 86
186 177 86
186 177 86
186 177 86
186 177 86
186 177 86
186 177 86
186 177 86
186 177 86
186 177 86
186 177 86
186 177 86
186 177 86
186 177 86
186 177 86
186 177 86
186 177 86
186 177 86
186 177 86
186 177 86
186 177 86
186 177 86
186 177 86
0 0 0
0 0 0
0 0 0
0 0 0
0 0 0
0 0 0
0 0 0
0 0 0
0 0 0
0 0 0
0 0 0
0 0 0
0 0 0
0 0 0
0 0 0
0 0 0
0 0 0
0 0 0
0 0 0
0 0 0
0 0 0
0 0 0
0 0 0
0 0 0
0 0 0
0 0 0
0 0 0
0 0 0
0 0 0
0 0 0
0 0 0
0 0 0
0 0 0
0 0 0
0 0 0
0 0 0
0 0 0
0 0 0
0 0 0
0 0 0
0 0 0
0 0 0
0 0 0
0 0 0
0 0 0
0 0 0
0 0 0
0 0 0
86 113 186
86 113 186
86 113 186
86 113 186
86 113 186
86 113 186
86 113 186
86 113 186
86 113 186
86 113 186
86 113 186
86 113 186
86 113 186
86 113 186
86 113 186
86 113 186
86 113 186
86 113 186
86 113 186
86 113 186
86 113 186
86 113 186
86 113 186
86 113 186
86 113 186
86 113 186
86 113 186
86 113 186
86 113 186
86 113 186
86 113 186
86 113 186
86 113 186
86 113 186
86 113 186
86 113 186
86 113 186
86 113 186
86 113 186
86 113 186
86 113 186
86 113 186
86 113 186
86 113 186
86 113 186
86 113 186
86 113 186
86 113 186
86 113 186
86 113 186
86 113 186
86 113 186
86 113 186
86 113 186
86 113 186
86 113 186
86 113 186
86 113 186
86 113 186
86 113 186
86 113 186
86 113 186
86 113 186
86 113 186
86 113 186
86 113 186
86 113 186
86 113 186
86 113 186
86 113 186
86 113 186
86 113 186
86 113 186
86 113 186
86 113 186
86 113 186
86 113 186
86 113 186
86 113 186
86 113 186
86 113 186
86 113 186
86 113 186
86 113 186
86 113 186
86 113 186
86 113 186
86 113 186
86 113 186
86 113 186
86 113 186
86 113 186
86 113 186
86 113 186
86 113 186
86 113 186
0 0 0
0 0 0
0 0 0
0 0 0
0 0 0
0 0 0
0 0 0
0 0 0
0 0 0
0 0 0
0 0 0
0 0 0
0 0 0
0 0 0
0 0 0
0 0 0
186 177 86
186 177 86
186 177 86
186 177 86
186 177 86
186 177 86
186 177 86
186 177 86
186 177 86
186 177 86
186 177 86
186 177 86
186 177 86
186 177 86
186 177 86
186 177 86
186 177 86
186 177 86
186 177 86
186 177 86
186 177 86
186 177 86
186 177 86
186 177 86
186 177 86
186 177 86
186 177 86
186 177 86
186 177 86
186 177 86
186 177 86
186 177 86
186 177 86
186 177 86
186 177 86
186 177 86
186 177 86
186 177 86
186 177 86
186 177 86
186 177 86
186 177 86
186 177 86
186 177 86
186 177 86
186 177 86
186 177 86
186 177 86
186 177 86
186 177 86
186 177 86
186 177 86
186 177 86
186 177 86
186 177 86
186 177 86
186 177 86
186 177 86
186 177 86
186 177 86
186 177 86
186 177 86
186 177 86
186 177 86
186 177 86
186 177 86
186 177 86
186 177 86
186 177 86
186 177 86
186 177 86
186 177 86
186 177 86
186 177 86
186 177 86
186 177 86
186 177 86
186 177 86
186 177 86
186 177 86
186 177 86
186 177 86
186 177 86
186 177 86
186 177 86
186 177 86
186 177 86
186 177 86
186 177 86
186 177 86
186 177 86
186 177 86
186 177 86
186 177 86
186 177 86
186 177 86
0 0 0
0 0 0
0 0 0
0 0 0
0 0 0
0 0 0
0 0 0
0 0 0
0 0 0
0 0 0
0 0 0
0 0 0
0 0 0
0 0 0
0 0 0
0 0 0
0 0 0
0 0 0
0 0 0
0 0 0
0 0 0
0 0 0
0 0 0
0 0 0
0 0 0
0 0 0
0 0 0
0 0 0
0 0 0
0 0 0
0 0 0
0 0 0
0 0 0
0 0 0
0 0 0
0 0 0
0 0 0
0 0 0
0 0 0
0 0 0
0 0 0
0 0 0
0 0 0
0 0 0
0 0 0
0 0 0
0 0 0
0 0 0
86 113 186
86 113 186
86 113 186
86 113 186
86 113 186
86 113 186
86 113 186
86 113 186
86 113 186
86 113 186
86 113 186
86 113 186
86 113 186
86 113 186
86 113 186
86 113 186
86 113 186
86 113 186
86 113 186
86 113 186
86 113 186
86 113 186
86 113 186
86 113 186
86 113 186
86 113 186
86 113 186
86 113 186
86 113 186
86 113 186
86 113 186
86 113 186
86 113 186
86 113 186
86 113 186
86 113 186
86 113 186
86 113 186
86 113 186
86 113 186
86 113 186
86 113 186
86 113 186
86 113 186
86 113 186
86 113 186
86 113 186
86 113 186
86 113 186
86 113 186
86 113 186
86 113 186
86 113 186
86 113 186
86 113 186
86 113 186
86 113 186
86 113 186
86 113 186
86 113 186
86 113 186
86 113 186
86 113 186
86 113 186
86 113 186
86 113 186
86 113 186
86 113 186
86 113 186
86 113 186
86 113 186
86 113 186
86 113 186
86 113 186
86 113 186
86 113 186
86 113 186
86 113 186
86 113 186
86 113 186
86 113 186
86 113 186
86 113 186
86 113 186
86 113 186
86 113 186
86 113 186
86 113 186
86 113 186
86 113 186
86 113 186
86 113 186
86 113 186
86 113 186
86 113 186
86 113 186
0 0 0
0 0 0
0 0 0
0 0 0
0 0 0
0 0 0
0 0 0
0 0 0
0 0 0
0 0 0
0 0 0
0 0 0
0 0 0
0 0 0
0 0 0
0 0 0
186 177 86
186 177 86
186 177 86
186 177 86
186 177 86
186 177 86
186 177 86
186 177 86
186 177 86
186 177 86
186 177 86
186 177 86
186 177 86
186 177 86
186 177 86
186 177 86
186 177 86
186 177 86
186 177 86
186 177 86
186 177 86
186 177 86
186 177 86
186 177 86
186 177 86
186 177 86
186 177 86
186 177 86
186 177 86
186 177 86
186 177 86
186 177 86
186 177 86
186 177 86
186 177 86
186 177 86
186 177 86
186 177 86
186 177 86
186 177 86
186 177 86
186 177 86
186 177 86
186 177 86
186 177 86
186 177 86
186 177 86
186 177 86
186 177 86
186 177 86
186 177 86
186 177 86
186 177 86
186 177 86
186 177 86
186 177 86
186 177 86
186 177 86
186 177 86
186 177 86
186 177 86
186 177 86
186 177 86
186 177 86
186 177 86
186 177 86
186 177 86
186 177 86
186 177 86
186 177 86
186 177 86
186 177 86
186 177 86
186 177 86
186 177 86
186 177 86
186 177 86
186 177 86
186 177 86
186 177 86
186 177 86
186 177 86
186 177 86
186 177 86
186 177 86
186 177 86
186 177 86
186 177 86
186 177 86
186 177 86
186 177 86
186 177 86
186 177 86
186 177 86
186 177 86
186 177 86
0 0 0
0 0 0
0 0 0
0 0 0
0 0 0
0 0 0
0 0 0
0 0 0
0 0 0
0 0 0
0 0 0
0 0 0
0 0 0
0 0 0
0 0 0
0 0 0
0 0 0
0 0 0
0 0 0
0 0 0
0 0 0
0 0 0
0 0 0
0 0 0
0 0 0
0 0 0
0 0 0
0 0 0
0 0 0
0 0 0
0 0 0
0 0 0
0 0 0
0 0 0
0 0 0
0 0 0
0 0 0
0 0 0
0 0 0
0 0 0
0 0 0
0 0 0
0 0 0
0 0 0
0 0 0
0 0 0
0 0 0
0 0 0
86 113 186
86 113 186
86 113 186
86 113 186
86 113 186
86 113 186
86 113 186
86 113 186
86 113 186
86 113 186
86 113 186
86 113 186
86 113 186
86 113 186
86 113 186
86 113 186
86 113 186
86 113 186
86 113 186
86 113 186
86 113 186
86 113 186
86 113 186
86 113 186
86 113 186
86 113 186
86 113 186
86 113 186
86 113 186
86 113 186
86 113 186
86 113 186
86 113 186
86 113 186
86 113 186
86 113 186
86 113 186
86 113 186
86 113 186
86 113 186
86 113 186
86 113 186
86 113 186
86 113 186
86 113 186
86 113 186
86 113 186
86 113 186
86 113 186
86 113 186
86 113 186
86 113 186
86 113 186
86 113 186
86 113 186
86 113 186
86 113 186
86 113 186
86 113 186
86 113 186
86 113 186
86 113 186
86 113 186
86 113 186
86 113 186
86 113 186
86 113 186
86 113 186
86 113 186
86 113 186
86 113 186
86 113 186
86 113 186
86 113 186
86 113 186
86 113 186
86 113 186
86 113 186
86 113 186
86 113 186
86 113 186
86 113 186
86 113 186
86 113 186
86 113 186
86 113 186
86 113 186
86 113 186
86 113 186
86 113 186
86 113 186
86 113 186
86 113 186
86 113 186
86 113 186
86 113 186
0 0 0
0 0 0
0 0 0
0 0 0
0 0 0
0 0 0
0 0 0
0 0 0
0 0 0
0 0 0
0 0 0
0 0 0
0 0 0
0 0 0
0 0 0
0 0 0
186 177 86
186 177 86
186 177 86
186 177 86
186 177 86
186 177 86
186 177 86
186 177 86
186 177 86
186 177 86
186 177 86
186 177 86
186 177 86
186 177 86
186 177 86
186 177 86
186 177 86
186 177 86
186 177 86
186 177 86
186 177 86
186 177 86
186 177 86
186 177 86
186 177 86
186 177 86
186 177 86
186 177 86
186 177 86
186 177 86
186 177 86
186 177 86
186 177 86
186 177 86
186 177 86
186 177 86
186 177 86
186 177 86
186 177 86
186 177 86
186 177 86
186 177 86
186 177 86
186 177 86
186 177 86
186 177 86
186 177 86
186 177 86
186 177 86
186 177 86
186 177 86
186 177 86
186 177 86
186 177 86
186 177 86
186 177 86
186 177 86
186 177 86
186 177 86
186 177 86
186 177 86
186 177 86
186 177 86
186 177 86
186 177 86
186 177 86
186 177 86
186 177 86
186 177 86
186 177 86
186 177 86
186 177 86
186 177 86
186 177 86
186 177 86
186 177 86
186 177 86
186 177 86
186 177 86
186 177 86
186 177 86
186 177 86
186 177 86
186 177 86
186 177 86
186 177 86
186 177 86
186 177 86
186 177 86
186 177 86
186 177 86
186 177 86
186 177 86
186 177 86
186 177 86
186 177 86
0 0 0
0 0 0
0 0 0
0 0 0
0 0 0
0 0 0
0 0 0
0 0 0
0 0 0
0 0 0
0 0 0
0 0 0
0 0 0
0 0 0
0 0 0
0 0 0
0 0 0
0 0 0
0 0 0
0 0 0
0 0 0
0 0 0
0 0 0
0 0 0
0 0 0
0 0 0
0 0 0
0 0 0
0 0 0
0 0 0
0 0 0
0 0 0
0 0 0
0 0 0
0 0 0
0 0 0
0 0 0
0 0 0
0 0 0
0 0 0
0 0 0
0 0 0
0 0 0
0 0 0
0 0 0
0 0 0
0 0 0
0 0 0
86 113 186
86 113 186
86 113 186
86 113 186
86 113 186
86 113 186
86 113 186
86 113 186
86 113 186
86 113 186
86 113 186
86 113 186
86 113 186
86 113 186
86 113 186
86 113 186
86 113 186
86 113 186
86 113 186
86 113 186
86 113 186
86 113 186
86 113 186
86 113 186
86 113 186
86 113 186
86 113 186
86 113 186
86 113 186
86 113 186
86 113 186
86 113 186
86 113 186
86 113 186
86 113 186
86 113 186
86 113 186
86 113 186
86 113 186
86 113 186
86 113 186
86 113 186
86 113 186
86 113 186
86 113 186
86 113 186
86 113 186
86 113 186
86 113 186
86 113 186
86 113 186
86 113 186
86 113 186
86 113 186
86 113 186
86 113 186
86 113 186
86 113 186
86 113 186
86 113 186
86 113 186
86 113 186
86 113 186
86 113 186
86 113 186
86 113 186
86 113 186
86 113 186
86 113 186
86 113 186
86 113 186
86 113 186
86 113 186
86 113 186
86 113 186
86 113 186
86 113 186
86 113 186
86 113 186
86 113 186
86 113 186
86 113 186
86 113 186
86 113 186
86 113 186
86 113 186
86 113 186
86 113 186
86 113 186
86 113 186
86 113 186
86 113 186
86 113 186
86 113 186
86 113 186
86 113 186
0 0 0
0 0 0
0 0 0
0 0 0
0 0 0
0 0 0
0 0 0
0 0 0
0 0 0
0 0 0
0 0 0
0 0 0
0 0 0
0 0 0
0 0 0
0 0 0
186 177 86
186 177 86
186 177 86
186 177 86
186 177 86
186 177 86
186 177 86
186 177 86
186 177 86
186 177 86
186 177 86
186 177 86
186 177 86
186 177 86
186 177 86
186 177 86
186 177 86
186 177 86
186 177 86
186 177 86
186 177 86
186 177 86
186 177 86
186 177 86
186 177 86
186 177 86
186 177 86
186 177 86
186 177 86
186 177 86
186 177 86
186 177 86
186 177 86
186 177 86
186 177 86
186 177 86
186 177 86
186 177 86
186 177 86
186 177 86
186 177 86
186 177 86
186 177 86
186 177 86
186 177 86
186 177 86
186 177 86
186 177 86
186 177 86
186 177 86
186 177 86
186 177 86
186 177 86
186 177 86
186 177 86
186 177 86
186 177 86
186 177 86
186 177 86
186 177 86
186 177 86
186 177 86
186 177 86
186 177 86
186 177 86
186 177 86
186 177 86
186 177 86
186 177 86
186 177 86
186 177 86
186 177 86
186 177 86
186 177 86
186 177 86
186 177 86
186 177 86
186 177 86
186 177 86
186 177 86
186 177 86
186 177 86
186 177 86
186 177 86
186 177 86
186 177 86
186 177 86
186 177 86
186 177 86
186 177 86
186 177 86
186 177 86
186 177 86
186 177 86
186 177 86
186 177 86
0 0 0
0 0 0
0 0 0
0 0 0
0 0 0
0 0 0
0 0 0
0 0 0
0 0 0
0 0 0
0 0 0
0 0 0
0 0 0
0 0 0
0 0 0
0 0 0
0 0 0
0 0 0
0 0 0
0 0 0
0 0 0
0 0 0
0 0 0
0 0 0
0 0 0
0 0 0
0 0 0
0 0 0
0 0 0
0 0 0
0 0 0
0 0 0
0 0 0
0 0 0
0 0 0
0 0 0
0 0 0
0 0 0
0 0 0
0 0 0
0 0 0
0 0 0
0 0 0
0 0 0
0 0 0
0 0 0
0 0 0
0 0 0
86 113 186
86 113 186
86 113 186
86 113 186
86 113 186
86 113 186
86 113 186
86 113 186
86 113 186
86 113 186
86 113 186
86 113 186
86 113 186
86 113 186
86 113 186
86 113 186
86 113 186
86 113 186
86 113 186
86 113 186
86 113 186
86 113 186
86 113 186
86 113 186
86 113 186
86 113 186
86 113 186
86 113 186
86 113 186
86 113 186
86 113 186
86 113 186
86 113 186
86 113 186
86 113 186
86 113 186
86 113 186
86 113 186
86 113 186
86 113 186
86 113 186
86 113 186
86 113 186
86 113 186
86 113 186
86 113 186
86 113 186
86 113 186
86 113 186
86 113 186
86 113 186
86 113 186
86 113 186
86 113 186
86 113 186
86 113 186
86 113 186
86 113 186
86 113 186
86 113 186
86 113 186
86 113 186
86 113 186
86 113 186
86 113 186
86 113 186
86 113 186
86 113 186
86 113 186
86 113 186
86 113 186
86 113 186
86 113 186
86 113 186
86 113 186
86 113 186
86 113 186
86 113 186
86 113 186
86 113 186
86 113 186
86 113 186
86 113 186
86 113 186
86 113 186
86 113 186
86 113 186
86 113 186
86 113 186
86 113 186
86 113 186
86 113 186
86 113 186
86 113 186
86 113 186
86 113 186
0 0 0
0 0 0
0 0 0
0 0 0
0 0 0
0 0 0
0 0 0
0 0 0
0 0 0
0 0 0
0 0 0
0 0 0
0 0 0
0 0 0
0 0 0
0 0 0
186 177 86
186 177 86
186 177 86
186 177 86
186 177 86
186 177 86
186 177 86
186 177 86
186 177 86
186 177 86
186 177 86
186 177 86
186 177 86
186 177 86
186 177 86
186 177 86
186 177 86
186 177 86
186 177 86
186 177 86
186 177 86
186 177 86
186 177 86
186 177 86
186 177 86
186 177 86
186 177 86
186 177 86
186 177 86
186 177 86
186 177 86
186 177 86
186 177 86
186 177 86
186 177 86
186 177 86
186 177 86
186 177 86
186 177 86
186 177 86
186 177 86
186 177 86
186 177 86
186 177 86
186 177 86
186 177 86
186 177 86
186 177 86
186 177 86
186 177 86
186 177 86
186 177 86
186 177 86
186 177 86
186 177 86
186 177 86
186 177 86
186 177 86
186 177 86
186 177 86
186 177 86
186 177 86
186 177 86
186 177 86
186 177 86
186 177 86
186 177 86
186 177 86
186 177 86
186 177 86
186 177 86
186 177 86
186 177 86
186 177 86
186 177 86
186 177 86
186 177 86
186 177 86
186 177 86
186 177 86
186 177 86
186 177 86
186 177 86
186 177 86
186 177 86
186 177 86
186 177 86
186 177 86
186 177 86
186 177 86
186 177 86
186 177 86
186 177 86
186 177 86
186 177 86
186 177 86
0 0 0
0 0 0
0 0 0
0 0 0
0 0 0
0 0 0
0 0 0
0 0 0
0 0 0
0 0 0
0 0 0
0 0 0
0 0 0
0 0 0
0 0 0
0 0 0
0 0 0
0 0 0
0 0 0
0 0 0
0 0 0
0 0 0
0 0 0
0 0 0
0 0 0
0 0 0
0 0 0
0 0 0
0 0 0
0 0 0
0 0 0
0 0 0
0 0 0
0 0 0
0 0 0
0 0 0
0 0 0
0 0 0
0 0 0
0 0 0
0 0 0
0 0 0
0 0 0
0 0 0
0 0 0
0 0 0
0 0 0
0 0 0
86 113 186
86 113 186
86 113 186
86 113 186
86 113 186
86 113 186
86 113 186
86 113 186
86 113 186
86 113 186
86 113 186
86 113 186
86 113 186
86 113 186
86 113 186
86 113 186
86 113 186
86 113 186
86 113 186
86 113 186
86 113 186
86 113 186
86 113 186
86 113 186
86 113 186
86 113 186
86 113 186
86 113 186
86 113 186
86 113 186
86 113 186
86 113 186
86 113 186
86 113 186
86 113 186
86 113 186
86 113 186
86 113 186
86 113 186
86 113 186
86 113 186
86 113 186
86 113 186
86 113 186
86 113 186
86 113 186
86 113 186
86 113 186
86 113 186
86 113 186
86 113 186
86 113 186
86 113 186
86 113 186
86 113 186
86 113 186
86 113 186
86 113 186
86 113 186
86 113 186
86 113 186
86 113 186
86 113 186
86 113 186
86 113 186
86 113 186
86 113 186
86 113 186
86 113 186
86 113 186
86 113 186
86 113 186
86 113 186
86 113 186
86 113 186
86 113 186
86 113 186
86 113 186
86 113 186
86 113 186
86 113 186
86 113 186
86 113 186
86 113 186
86 113 186
86 113 186
86 113 186
86 113 186
86 113 186
86 113 186
86 113 186
86 113 186
86 113 186
86 113 186
86 113 186
86 113 186
0 0 0
0 0 0
0 0 0
0 0 0
0 0 0
0 0 0
0 0 0
0 0 0
0 0 0
0 0 0
0 0 0
0 0 0
0 0 0
0 0 0
0 0 0
0 0 0
186 177 86
186 177 86
186 177 86
186 177 86
186 177 86
186 177 86
186 177 86
186 177 86
186 177 86
186 177 86
186 177 86
186 177 86
186 177 86
186 177 86
186 177 86
186 177 86
186 177 86
186 177 86
186 177 86
186 177 86
186 177 86
186 177 86
186 177 86
186 177 86
186 177 86
186 177 86
186 177 86
186 177 86
186 177 86
186 177 86
186 177 86
186 177 86
186 177 86
186 177 86
186 177 86
186 177 86
186 177 86
186 177 86
186 177 86
186 177 86
186 177 86
186 177 86
186 177 86
186 177 86
186 177 86
186 177 86
186 177 86
186 177 86
186 177 86
186 177 86
186 177 86
186 177 86
186 177 86
186 177 86
186 177 86
186 177 86
186 177 86
186 177 86
186 177 86
186 177 86
186 177 86
186 177 86
186 177 86
186 177 86
186 177 86
186 177 86
186 177 86
186 177 86
186 177 86
186 177 86
186 177 86
186 177 86
186 177 86
186 177 86
186 177 86
186 177 86
186 177 86
186 177 86
186 177 86
186 177 86
186 177 86
186 177 86
186 177 86
186 177 86
186 177 86
186 177 86
186 177 86
186 177 86
186 177 86
186 177 86
186 177 86
186 177 86
186 177 86
186 177 86
186 177 86
186 177 86
0 0 0
0 0 0
0 0 0
0 0 0
0 0 0
0 0 0
0 0 0
0 0 0
0 0 0
0 0 0
0 0 0
0 0 0
0 0 0
0 0 0
0 0 0
0 0 0
0 0 0
0 0 0
0 0 0
0 0 0
0 0 0
0 0 0
0 0 0
0 0 0
0 0 0
0 0 0
0 0 0
0 0 0
0 0 0
0 0 0
0 0 0
0 0 0
0 0 0
0 0 0
0 0 0
0 0 0
0 0 0
0 0 0
0 0 0
0 0 0
0 0 0
0 0 0
0 0 0
0 0 0
0 0 0
0 0 0
0 0 0
0 0 0
86 113 186
86 113 186
86 113 186
86 113 186
86 113 186
86 113 186
86 113 186
86 113 186
86 113 186
86 113 186
86 113 186
86 113 186
86 113 186
86 113 186
86 113 186
86 113 186
86 113 186
86 113 186
86 113 186
86 113 186
86 113 186
86 113 186
86 113 186
86 113 186
86 113 186
86 113 186
86 113 186
86 113 186
86 113 186
86 113 186
86 113 186
86 113 186
86 113 186
86 113 186
86 113 186
86 113 186
86 113 186
86 113 186
86 113 186
86 113 186
86 113 186
86 113 186
86 113 186
86 113 186
86 113 186
86 113 186
86 113 186
86 113 186
86 113 186
86 113 186
86 113 186
86 113 186
86 113 186
86 113 186
86 113 186
86 113 186
86 113 186
86 113 186
86 113 186
86 113 186
86 113 186
86 113 186
86 113 186
86 113 186
86 113 186
86 113 186
86 113 186
86 113 186
86 113 186
86 113 186
86 113 186
86 113 186
86 113 186
86 113 186
86 113 186
86 113 186
86 113 186
86 113 186
86 113 186
86 113 186
86 113 186
86 113 186
86 113 186
86 113 186
86 113 186
86 113 186
86 113 186
86 113 186
86 113 186
86 113 186
86 113 186
86 113 186
86 113 186
86 113 186
86 113 186
86 113 186
0 0 0
0 0 0
0 0 0
0 0 0
0 0 0
0 0 0
0 0 0
0 0 0
0 0 0
0 0 0
0 0 0
0 0 0
0 0 0
0 0 0
0 0 0
0 0 0
186 177 86
186 177 86
186 177 86
186 177 86
186 177 86
186 177 86
186 177 86
186 177 86
186 177 86
186 177 86
186 177 86
186 177 86
186 177 86
186 177 86
186 177 86
186 177 86
186 177 86
186 177 86
186 177 86
186 177 86
186 177 86
186 177 86
186 177 86
186 177 86
186 177 86
186 177 86
186 177 86
186 177 86
186 177 86
186 177 86
186 177 86
186 177 86
186 177 86
186 177 86
186 177 86
186 177 86
186 177 86
186 177 86
186 177 86
186 177 86
186 177 86
186 177 86
186 177 86
186 177 86
186 177 86
186 177 86
186 177 86
186 177 86
186 177 86
186 177 86
186 177 86
186 177 86
186 177 86
186 177 86
186 177 86
186 177 86
186 177 86
186 177 86
186 177 86
186 177 86
186 177 86
186 177 86
186 177 86
186 177 86
186 177 86
186 177 86
186 177 86
186 177 86
186 177 86
186 177 86
186 177 86
186 177 86
186 177 86
186 177 86
186 177 86
186 177 86
186 177 86
186 177 86
186 177 86
186 177 86
186 177 86
186 177 86
186 177 86
186 177 86
186 177 86
186 177 86
186 177 86
186 177 86
186 177 86
186 177 86
186 177 86
186 177 86
186 177 86
186 177 86
186 177 86
186 177 86
0 0 0
0 0 0
0 0 0
0 0 0
0 0 0
0 0 0
0 0 0
0 0 0
0 0 0
0 0 0
0 0 0
0 0 0
0 0 0
0 0 0
0 0 0
0 0 0
0 0 0
0 0 0
0 0 0
0 0 0
0 0 0
0 0 0
0 0 0
0 0 0
0 0 0
0 0 0
0 0 0
0 0 0
0 0 0
0 0 0
0 0 0
0 0 0
0 0 0
0 0 0
0 0 0
0 0 0
0 0 0
0 0 0
0 0 0
0 0 0
0 0 0
0 0 0
0 0 0
0 0 0
0 0 0
0 0 0
0 0 0
0 0 0
86 113 186
86 113 186
86 113 186
86 113 186
86 113 186
86 113 186
86 113 186
86 113 186
86 113 186
86 113 186
86 113 186
86 113 186
86 113 186
86 113 186
86 113 186
86 113 186
86 113 186
86 113 186
86 113 186
86 113 186
86 113 186
86 113 186
86 113 186
86 113 186
86 113 186
86 113 186
86 113 186
86 113 186
86 113 186
86 113 186
86 113 186
86 113 186
86 113 186
86 113 186
86 113 186
86 113 186
86 113 186
86 113 186
86 113 186
86 113 186
86 113 186
86 113 186
86 113 186
86 113 186
86 113 186
86 113 186
86 113 186
86 113 186
86 113 186
86 113 186
86 113 186
86 113 186
86 113 186
86 113 186
86 113 186
86 113 186
86 113 186
86 113 186
86 113 186
86 113 186
86 113 186
86 113 186
86 113 186
86 113 186
86 113 186
86 113 186
86 113 186
86 113 186
86 113 186
86 113 186
86 113 186
86 113 186
86 113 186
86 113 186
86 113 186
86 113 186
86 113 186
86 113 186
86 113 186
86 113 186
86 113 186
86 113 186
86 113 186
86 113 186
86 113 186
86 113 186
86 113 186
86 113 186
86 113 186
86 113 186
86 113 186
86 113 186
86 113 186
86 113 186
86 113 186
86 113 186
0 0 0
0 0 0
0 0 0
0 0 0
0 0 0
0 0 0
0 0 0
0 0 0
0 0 0
0 0 0
0 0 0
0 0 0
0 0 0
0 0 0
0 0 0
0 0 0
186 177 86
186 177 86
186 177 86
186 177 86
186 177 86
186 177 86
186 177 86
186 177 86
186 177 86
186 177 86
186 177 86
186 177 86
186 177 86
186 177 86
186 177 86
186 177 86
186 177 86
186 177 86
186 177 86
186 177 86
186 177 86
186 177 86
186 177 86
186 177 86
186 177 86
186 177 86
186 177 86
186 177 86
186 177 86
186 177 86
186 177 86
186 177 86
186 177 86
186 177 86
186 177 86
186 177 86
186 177 86
186 177 86
186 177 86
186 177 86
186 177 86
186 177 86
186 177 86
186 177 86
186 177 86
186 177 86
186 177 86
186 177 86
186 177 86
186 177 86
186 177 86
186 177 86
186 177 86
186 177 86
186 177 86
186 177 86
186 177 86
186 177 86
186 177 86
186 177 86
186 177 86
186 177 86
186 177 86
186 177 86
186 177 86
186 177 86
186 177 86
186 177 86
186 177 86
186 177 86
186 177 86
186 177 86
186 177 86
186 177 86
186 177 86
186 177 86
186 177 86
186 177 86
186 177 86
186 177 86
186 177 86
186 177 86
186 177 86
186 177 86
186 177 86
186 177 86
186 177 86
186 177 86
186 177 86
186 177 86
186 177 86
186 177 86
186 177 86
186 177 86
186 177 86
186 177 86
0 0 0
0 0 0
0 0 0
0 0 0
0 0 0
0 0 0
0 0 0
0 0 0
0 0 0
0 0 0
0 0 0
0 0 0
0 0 0
0 0 0
0 0 0
0 0 0
0 0 0
0 0 0
0 0 0
0 0 0
0 0 0
0 0 0
0 0 0
0 0 0
0 0 0
0 0 0
0 0 0
0 0 0
0 0 0
0 0 0
0 0 0
0 0 0
0 0 0
0 0 0
0 0 0
0 0 0
0 0 0
0 0 0
0 0 0
0 0 0
0 0 0
0 0 0
0 0 0
0 0 0
0 0 0
0 0 0
0 0 0
0 0 0
86 113 186
86 113 186
86 113 186
86 113 186
86 113 186
86 113 186
86 113 186
86 113 186
86 113 186
86 113 186
86 113 186
86 113 186
86 113 186
86 113 186
86 113 186
86 113 186
86 113 186
86 113 186
86 113 186
86 113 186
86 113 186
86 113 186
86 113 186
86 113 186
86 113 186
86 113 186
86 113 186
86 113 186
86 113 186
86 113 186
86 113 186
86 113 186
86 113 186
86 113 186
86 113 186
86 113 186
86 113 186
86 113 186
86 113 186
86 113 186
86 113 186
86 113 186
86 113 186
86 113 186
86 113 186
86 113 186
86 113 186
86 113 186
86 113 186
86 113 186
86 113 186
86 113 186
86 113 186
86 113 186
86 113 186
86 113 186
86 113 186
86 113 186
86 113 186
86 113 186
86 113 186
86 113 186
86 113 186
86 113 186
86 113 186
86 113 186
86 113 186
86 113 186
86 113 186
86 113 186
86 113 186
86 113 186
86 113 186
86 113 186
86 113 186
86 113 186
86 113 186
86 113 186
86 113 186
86 113 186
86 113 186
86 113 186
86 113 186
86 113 186
86 113 186
86 113 186
86 113 186
86 113 186
86 113 186
86 113 186
86 113 186
86 113 186
86 113 186
86 113 186
86 113 186
86 113 186
0 0 0
0 0 0
0 0 0
0 0 0
0 0 0
0 0 0
0 0 0
0 0 0
0 0 0
0 0 0
0 0 0
0 0 0
0 0 0
0 0 0
0 0 0
0 0 0
186 177 86
186 177 86
186 177 86
186 177 86
186 177 86
186 177 86
186 177 86
186 177 86
186 177 86
186 177 86
186 177 86
186 177 86
186 177 86
186 177 86
186 177 86
186 177 86
186 177 86
186 177 86
186 177 86
186 177 86
186 177 86
186 177 86
186 177 86
186 177 86
186 177 86
186 177 86
186 177 86
186 177 86
186 177 86
186 177 86
186 177 86
186 177 86
186 177 86
186 177 86
186 177 86
186 177 86
186 177 86
186 177 86
186 177 86
186 177 86
186 177 86
186 177 86
186 177 86
186 177 86
186 177 86
186 177 86
186 177 86
186 177 86
186 177 86
186 177 86
186 177 86
186 177 86
186 177 86
186 177 86
186 177 86
186 177 86
186 177 86
186 177 86
186 177 86
186 177 86
186 177 86
186 177 86
186 177 86
186 177 86
186 177 86
186 177 86
186 177 86
186 177 86
186 177 86
186 177 86
186 177 86
186 177 86
186 177 86
186 177 86
186 177 86
186 177 86
186 177 86
186 177 86
186 177 86
186 177 86
186 177 86
186 177 86
186 177 86
186 177 86
186 177 86
186 177 86
186 177 86
186 177 86
186 177 86
186 177 86
186 177 86
186 177 86
186 177 86
186 177 86
186 177 86
186 177 86
0 0 0
0 0 0
0 0 0
0 0 0
0 0 0
0 0 0
0 0 0
0 0 0
0 0 0
0 0 0
0 0 0
0 0 0
0 0 0
0 0 0
0 0 0
0 0 0
0 0 0
0 0 0
0 0 0
0 0 0
0 0 0
0 0 0
0 0 0
0 0 0
0 0 0
0 0 0
0 0 0
0 0 0
0 0 0
0 0 0
0 0 0
0 0 0
0 0 0
0 0 0
0 0 0
0 0 0
0 0 0
0 0 0
0 0 0
0 0 0
0 0 0
0 0 0
0 0 0
0 0 0
0 0 0
0 0 0
0 0 0
0 0 0
86 113 186
86 113 186
86 113 186
86 113 186
86 113 186
86 113 186
86 113 186
86 113 186
86 113 186
86 113 186
86 113 186
86 113 186
86 113 186
86 113 186
86 113 186
86 113 186
86 113 186
86 113 186
86 113 186
86 113 186
86 113 186
86 113 186
86 113 186
86 113 186
86 113 186
86 113 186
86 113 186
86 113 186
86 113 186
86 113 186
86 113 186
86 113 186
86 113 186
86 113 186
86 113 186
86 113 186
86 113 186
86 113 186
86 113 186
86 113 186
86 113 186
86 113 186
86 113 186
86 113 186
86 113 186
86 113 186
86 113 186
86 113 186
86 113 186
86 113 186
86 113 186
86 113 186
86 113 186
86 113 186
86 113 186
86 113 186
86 113 186
86 113 186
86 113 186
86 113 186
86 113 186
86 113 186
86 113 186
86 113 186
86 113 186
86 113 186
86 113 186
86 113 186
86 113 186
86 113 186
86 113 186
86 113 186
86 113 186
86 113 186
86 113 186
86 113 186
86 113 186
86 113 186
86 113 186
86 113 186
86 113 186
86 113 186
86 113 186
86 113 186
86 113 186
86 113 186
86 113 186
86 113 186
86 113 186
86 113 186
86 113 186
86 113 186
86 113 186
86 113 186
86 113 186
86 113 186
0 0 0
0 0 0
0 0 0
0 0 0
0 0 0
0 0 0
0 0 0
0 0 0
0 0 0
0 0 0
0 0 0
0 0 0
0 0 0
0 0 0
0 0 0
0 0 0
186 177 86
186 177 86
186 177 86
186 177 86
186 177 86
186 177 86
186 177 86
186 177 86
186 177 86
186 177 86
186 177 86
186 177 86
186 177 86
186 177 86
186 177 86
186 177 86
186 177 86
186 177 86
186 177 86
186 177 86
186 177 86
186 177 86
186 177 86
186 177 86
186 177 86
186 177 86
186 177 86
186 177 86
186 177 86
186 177 86
186 177 86
186 177 86
186 177 86
186 177 86
186 177 86
186 177 86
186 177 86
186 177 86
186 177 86
186 177 86
186 177 86
186 177 86
186 177 86
186 177 86
186 177 86
186 177 86
186 177 86
186 177 86
186 177 86
186 177 86
186 177 86
186 177 86
186 177 86
186 177 86
186 177 86
186 177 86
186 177 86
186 177 86
186 177 86
186 177 86
186 177 86
186 177 86
186 177 86
186 177 86
186 177 86
186 177 86
186 177 86
186 177 86
186 177 86
186 177 86
186 177 86
186 177 86
186 177 86
186 177 86
186 177 86
186 177 86
186 177 86
186 177 86
186 177 86
186 177 86
186 177 86
186 177 86
186 177 86
186 177 86
186 177 86
186 177 86
186 177 86
186 177 86
186 177 86
186 177 86
186 177 86
186 177 86
186 177 86
186 177 86
186 177 86
186 177 86
0 0 0
0 0 0
0 0 0
0 0 0
0 0 0
0 0 0
0 0 0
0 0 0
0 0 0
0 0 0
0 0 0
0 0 0
0 0 0
0 0 0
0 0 0
0 0 0
0 0 0
0 0 0
0 0 0
0 0 0
0 0 0
0 0 0
0 0 0
0 0 0
0 0 0
0 0 0
0 0 0
0 0 0
0 0 0
0 0 0
0 0 0
0 0 0
0 0 0
0 0 0
0 0 0
0 0 0
0 0 0
0 0 0
0 0 0
0 0 0
0 0 0
0 0 0
0 0 0
0 0 0
0 0 0
0 0 0
0 0 0
0 0 0
86 113 186
86 113 186
86 113 186
86 113 186
86 113 186
86 113 186
86 113 186
86 113 186
86 113 186
86 113 186
86 113 186
86 113 186
86 113 186
86 113 186
86 113 186
86 113 186
86 113 186
86 113 186
86 113 186
86 113 186
86 113 186
86 113 186
86 113 186
86 113 186
86 113 186
86 113 186
86 113 186
86 113 186
86 113 186
86 113 186
86 113 186
86 113 186
86 113 186
86 113 186
86 113 186
86 113 186
86 113 186
86 113 186
86 113 186
86 113 186
86 113 186
86 113 186
86 113 186
86 113 186
86 113 186
86 113 186
86 113 186
86 113 186
86 113 186
86 113 186
86 113 186
86 113 186
86 113 186
86 113 186
86 113 186
86 113 186
86 113 186
86 113 186
86 113 186
86 113 186
86 113 186
86 113 186
86 113 186
86 113 186
86 113 186
86 113 186
86 113 186
86 113 186
86 113 186
86 113 186
86 113 186
86 113 186
86 113 186
86 113 186
86 113 186
86 113 186
86 113 186
86 113 186
86 113 186
86 113 186
86 113 186
86 113 186
86 113 186
86 113 186
86 113 186
86 113 186
86 113 186
86 113 186
86 113 186
86 113 186
86 113 186
86 113 186
86 113 186
86 113 186
86 113 186
86 113 186
0 0 0
0 0 0
0 0 0
0 0 0
0 0 0
0 0 0
0 0 0
0 0 0
0 0 0
0 0 0
0 0 0
0 0 0
0 0 0
0 0 0
0 0 0
0 0 0
186 177 86
186 177 86
186 177 86
186 177 86
186 177 86
186 177 86
186 177 86
186 177 86
186 177 86
186 177 86
186 177 86
186 177 86
186 177 86
186 177 86
186 177 86
186 177 86
186 177 86
186 177 86
186 177 86
186 177 86
186 177 86
186 177 86
186 177 86
186 177 86
186 177 86
186 177 86
186 177 86
186 177 86
186 177 86
186 177 86
186 177 86
186 177 86
186 177 86
186 177 86
186 177 86
186 177 86
186 177 86
186 177 86
186 177 86
186 177 86
186 177 86
186 177 86
186 177 86
186 177 86
186 177 86
186 177 86
186 177 86
186 177 86
186 177 86
186 177 86
186 177 86
186 177 86
186 177 86
186 177 86
186 177 86
186 177 86
186 177 86
186 177 86
186 177 86
186 177 86
186 177 86
186 177 86
186 177 86
186 177 86
186 177 86
186 177 86
186 177 86
186 177 86
186 177 86
186 177 86
186 177 86
186 177 86
186 177 86
186 177 86
186 177 86
186 177 86
186 177 86
186 177 86
186 177 86
186 177 86
186 177 86
186 177 86
186 177 86
186 177 86
186 177 86
186 177 86
186 177 86
186 177 86
186 177 86
186 177 86
186 177 86
186 177 86
186 177 86
186 177 86
186 177 86
186 177 86
0 0 0
0 0 0
0 0 0
0 0 0
0 0 0
0 0 0
0 0 0
0 0 0
0 0 0
0 0 0
0 0 0
0 0 0
0 0 0
0 0 0
0 0 0
0 0 0
0 0 0
0 0 0
0 0 0
0 0 0
0 0 0
0 0 0
0 0 0
0 0 0
0 0 0
0 0 0
0 0 0
0 0 0
0 0 0
0 0 0
0 0 0
0 0 0
0 0 0
0 0 0
0 0 0
0 0 0
0 0 0
0 0 0
0 0 0
0 0 0
0 0 0
0 0 0
0 0 0
0 0 0
0 0 0
0 0 0
0 0 0
0 0 0
86 113 186
86 113 186
86 113 186
86 113 186
86 113 186
86 113 186
86 113 186
86 113 186
86 113 186
86 113 186
86 113 186
86 113 186
86 113 186
86 113 186
86 113 186
86 113 186
86 113 186
86 113 186
86 113 186
86 113 186
86 113 186
86 113 186
86 113 186
86 113 186
86 113 186
86 113 186
86 113 186
86 113 186
86 113 186
86 113 186
86 113 186
86 113 186
86 113 186
86 113 186
86 113 186
86 113 186
86 113 186
86 113 186
86 113 186
86 113 186
86 113 186
86 113 186
86 113 186
86 113 186
86 113 186
86 113 186
86 113 186
86 113 186
86 113 186
86 113 186
86 113 186
86 113 186
86 113 186
86 113 186
86 113 186
86 113 186
86 113 186
86 113 186
86 113 186
86 113 186
86 113 186
86 113 186
86 113 186
86 113 186
86 113 186
86 113 186
86 113 186
86 113 186
86 113 186
86 113 186
86 113 186
86 113 186
86 113 186
86 113 186
86 113 186
86 113 186
86 113 186
86 113 186
86 113 186
86 113 186
86 113 186
86 113 186
86 113 186
86 113 186
86 113 186
86 113 186
86 113 186
86 113 186
86 113 186
86 113 186
86 113 186
86 113 186
86 113 186
86 113 186
86 113 186
86 113 186
0 0 0
0 0 0
0 0 0
0 0 0
0 0 0
0 0 0
0 0 0
0 0 0
0 0 0
0 0 0
0 0 0
0 0 0
0 0 0
0 0 0
0 0 0
0 0 0
186 177 86
186 177 86
186 177 86
186 177 86
186 177 86
186 177 86
186 177 86
186 177 86
186 177 86
186 177 86
186 177 86
186 177 86
186 177 86
186 177 86
186 177 86
186 177 86
186 177 86
186 177 86
186 177 86
186 177 86
186 177 86
186 177 86
186 177 86
186 177 86
186 177 86
186 177 86
186 177 86
186 177 86
186 177 86
186 177 86
186 177 86
186 177 86
186 177 86
186 177 86
186 177 86
186 177 86
186 177 86
186 177 86
186 177 86
186 177 86
186 177 86
186 177 86
186 177 86
186 177 86
186 177 86
186 177 86
186 177 86
186 177 86
186 177 86
186 177 86
186 177 86
186 177 86
186 177 86
186 177 86
186 177 86
186 177 86
186 177 86
186 177 86
186 177 86
186 177 86
186 177 86
186 177 86
186 177 86
186 177 86
186 177 86
186 177 86
186 177 86
186 177 86
186 177 86
186 177 86
186 177 86
186 177 86
186 177 86
186 177 86
186 177 86
186 177 86
186 177 86
186 177 86
186 177 86
186 177 86
186 177 86
186 177 86
186 177 86
186 177 86
186 177 86
186 177 86
186 177 86
186 177 86
186 177 86
186 177 86
186 177 86
186 177 86
186 177 86
186 177 86
186 177 86
186 177 86
0 0 0
0 0 0
0 0 0
0 0 0
0 0 0
0 0 0
0 0 0
0 0 0
0 0 0
0 0 0
0 0 0
0 0 0
0 0 0
0 0 0
0 0 0
0 0 0
0 0 0
0 0 0
0 0 0
0 0 0
0 0 0
0 0 0
0 0 0
0 0 0
0 0 0
0 0 0
0 0 0
0 0 0
0 0 0
0 0 0
0 0 0
0 0 0
0 0 0
0 0 0
0 0 0
0 0 0
0 0 0
0 0 0
0 0 0
0 0 0
0 0 0
0 0 0
0 0 0
0 0 0
0 0 0
0 0 0
0 0 0
0 0 0
86 113 186
86 113 186
86 113 186
86 113 186
86 113 186
86 113 186
86 113 186
86 113 186
86 113 186
86 113 186
86 113 186
86 113 186
86 113 186
86 113 186
86 113 186
86 113 186
86 113 186
86 113 186
86 113 186
86 113 186
86 113 186
86 113 186
86 113 186
86 113 186
86 113 186
86 113 186
86 113 186
86 113 186
86 113 186
86 113 186
86 113 186
86 113 186
86 113 186
86 113 186
86 113 186
86 113 186
86 113 186
86 113 186
86 113 186
86 113 186
86 113 186
86 113 186
86 113 186
86 113 186
86 113 186
86 113 186
86 113 186
86 113 186
86 113 186
86 113 186
86 113 186
86 113 186
86 113 186
86 113 186
86 113 186
86 113 186
86 113 186
86 113 186
86 113 186
86 113 186
86 113 186
86 113 186
86 113 186
86 113 186
86 113 186
86 113 186
86 113 186
86 113 186
86 113 186
86 113 186
86 113 186
86 113 186
86 113 186
86 113 186
86 113 186
86 113 186
86 113 186
86 113 186
86 113 186
86 113 186
86 113 186
86 113 186
86 113 186
86 113 186
86 113 186
86 113 186
86 113 186
86 113 186
86 113 186
86 113 186
86 113 186
86 113 186
86 113 186
86 113 186
86 113 186
86 113 186
0 0 0
0 0 0
0 0 0
0 0 0
0 0 0
0 0 0
0 0 0
0 0 0
0 0 0
0 0 0
0 0 0
0 0 0
0 0 0
0 0 0
0 0 0
0 0 0
186 177 86
186 177 86
186 177 86
186 177 86
186 177 86
186 177 86
186 177 86
186 177 86
186 177 86
186 177 86
186 177 86
186 177 86
186 177 86
186 177 86
186 177 86
186 177 86
186 177 86
186 177 86
186 177 86
186 177 86
186 177 86
186 177 86
186 177 86
186 177 86
186 177 86
186 177 86
186 177 86
186 177 86
186 177 86
186 177 86
186 177 86
186 177 86
186 177 86
186 177 86
186 177 86
186 177 86
186 177 86
186 177 86
186 177 86
186 177 86
186 177 86
186 177 86
186 177 86
186 177 86
186 177 86
186 177 86
186 177 86
186 177 86
186 177 86
186 177 86
186 177 86
186 177 86
186 177 86
186 177 86
186 177 86
186 177 86
186 177 86
186 177 86
186 177 86
186 177 86
186 177 86
186 177 86
186 177 86
186 177 86
186 177 86
186 177 86
186 177 86
186 177 86
186 177 86
186 177 86
186 177 86
186 177 86
186 177 86
186 177 86
186 177 86
186 177 86
186 177 86
186 177 86
186 177 86
186 177 86
186 177 86
186 177 86
186 177 86
186 177 86
186 177 86
186 177 86
186 177 86
186 177 86
186 177 86
186 177 86
186 177 86
186 177 86
186 177 86
186 177 86
186 177 86
186 177 86
0 0 0
0 0 0
0 0 0
0 0 0
0 0 0
0 0 0
0 0 0
0 0 0
0 0 0
0 0 0
0 0 0
0 0 0
0 0 0
0 0 0
0 0 0
0 0 0
0 0 0
0 0 0
0 0 0
0 0 0
0 0 0
0 0 0
0 0 0
0 0 0
0 0 0
0 0 0
0 0 0
0 0 0
0 0 0
0 0 0
0 0 0
0 0 0
0 0 0
0 0 0
0 0 0
0 0 0
0 0 0
0 0 0
0 0 0
0 0 0
0 0 0
0 0 0
0 0 0
0 0 0
0 0 0
0 0 0
0 0 0
0 0 0
86 113 186
86 113 186
86 113 186
86 113 186
86 113 186
86 113 186
86 113 186
86 113 186
86 113 186
86 113 186
86 113 186
86 113 186
86 113 186
86 113 186
86 113 186
86 113 186
86 113 186
86 113 186
86 113 186
86 113 186
86 113 186
86 113 186
86 113 186
86 113 186
86 113 186
86 113 186
86 113 186
86 113 186
86 113 186
86 113 186
86 113 186
86 113 186
86 113 186
86 113 186
86 113 186
86 113 186
86 113 186
86 113 186
86 113 186
86 113 186
86 113 186
86 113 186
86 113 186
86 113 186
86 113 186
86 113 186
86 113 186
86 113 186
86 113 186
86 113 186
86 113 186
86 113 186
86 113 186
86 113 186
86 113 186
86 113 186
86 113 186
86 113 186
86 113 186
86 113 186
86 113 186
86 113 186
86 113 186
86 113 186
86 113 186
86 113 186
86 113 186
86 113 186
86 113 186
86 113 186
86 113 186
86 113 186
86 113 186
86 113 186
86 113 186
86 113 186
86 113 186
86 113 186
86 113 186
86 113 186
86 113 186
86 113 186
86 113 186
86 113 186
86 113 186
86 113 186
86 113 186
86 113 186
86 113 186
86 113 186
86 113 186
86 113 186
86 113 186
86 113 186
86 113 186
86 113 186
0 0 0
0 0 0
0 0 0
0 0 0
0 0 0
0 0 0
0 0 0
0 0 0
0 0 0
0 0 0
0 0 0
0 0 0
0 0 0
0 0 0
0 0 0
0 0 0
186 177 86
186 177 86
186 177 86
186 177 86
186 177 86
186 177 86
186 177 86
186 177 86
186 177 86
186 177 86
186 177 86
186 177 86
186 177 86
186 177 86
186 177 86
186 177 86
186 177 86
186 177 86
186 177 86
186 177 86
186 177 86
186 177 86
186 177 86
186 177 86
186 177 86
186 177 86
186 177 86
186 177 86
186 177 86
186 177 86
186 177 86
186 177 86
186 177 86
186 177 86
186 177 86
186 177 86
186 177 86
186 177 86
186 177 86
186 177 86
186 177 86
186 177 86
186 177 86
186 177 86
186 177 86
186 177 86
186 177 86
186 177 86
186 177 86
186 177 86
186 177 86
186 177 86
186 177 86
186 177 86
186 177 86
186 177 86
186 177 86
186 177 86
186 177 86
186 177 86
186 177 86
186 177 86
186 177 86
186 177 86
186 177 86
186 177 86
186 177 86
186 177 86
186 177 86
186 177 86
186 177 86
186 177 86
186 177 86
186 177 86
186 177 86
186 177 86
186 177 86
186 177 86
186 177 86
186 177 86
186 177 86
186 177 86
186 177 86
186 177 86
186 177 86
186 177 86
186 177 86
186 177 86
186 177 86
186 177 86
186 177 86
186 177 86
186 177 86
186 177 86
186 177 86
186 177 86
0 0 0
0 0 0
0 0 0
0 0 0
0 0 0
0 0 0
0 0 0
0 0 0
0 0 0
0 0 0
0 0 0
0 0 0
0 0 0
0 0 0
0 0 0
0 0 0
0 0 0
0 0 0
0 0 0
0 0 0
0 0 0
0 0 0
0 0 0
0 0 0
0 0 0
0 0 0
0 0 0
0 0 0
0 0 0
0 0 0
0 0 0
0 0 0
0 0 0
0 0 0
0 0 0
0 0 0
0 0 0
0 0 0
0 0 0
0 0 0
0 0 0
0 0 0
0 0 0
0 0 0
0 0 0
0 0 0
0 0 0
0 0 0
86 113 186
86 113 186
86 113 186
86 113 186
86 113 186
86 113 186
86 113 186
86 113 186
86 113 186
86 113 186
86 113 186
86 113 186
86 113 186
86 113 186
86 113 186
86 113 186
86 113 186
86 113 186
86 113 186
86 113 186
86 113 186
86 113 186
86 113 186
86 113 186
86 113 186
86 113 186
86 113 186
86 113 186
86 113 186
86 113 186
86 113 186
86 113 186
86 113 186
86 113 186
86 113 186
86 113 186
86 113 186
86 113 186
86 113 186
86 113 186
86 113 186
86 113 186
86 113 186
86 113 186
86 113 186
86 113 186
86 113 186
86 113 186
86 113 186
86 113 186
86 113 186
86 113 186
86 113 186
86 113 186
86 113 186
86 113 186
86 113 186
86 113 186
86 113 186
86 113 186
86 113 186
86 113 186
86 113 186
86 113 186
86 113 186
86 113 186
86 113 186
86 113 186
86 113 186
86 113 186
86 113 186
86 113 186
86 113 186
86 113 186
86 113 186
86 113 186
86 113 186
86 113 186
86 113 186
86 113 186
86 113 186
86 113 186
86 113 186
86 113 186
86 113 186
86 113 186
86 113 186
86 113 186
86 113 186
86 113 186
86 113 186
86 113 186
86 113 186
86 113 186
86 113 186
86 113 186
0 0 0
0 0 0
0 0 0
0 0 0
0 0 0
0 0 0
0 0 0
0 0 0
0 0 0
0 0 0
0 0 0
0 0 0
0 0 0
0 0 0
0 0 0
0 0 0
186 177 86
186 177 86
186 177 86
186 177 86
186 177 86
186 177 86
186 177 86
186 177 86
186 177 86
186 177 86
186 177 86
186 177 86
186 177 86
186 177 86
186 177 86
186 177 86
186 177 86
186 177 86
186 177 86
186 177 86
186 177 86
186 177 86
186 177 86
186 177 86
186 177 86
186 177 86
186 177 86
186 177 86
186 177 86
186 177 86
186 177 86
186 177 86
186 177 86
186 177 86
186 177 86
186 177 86
186 177 86
186 177 86
186 177 86
186 177 86
186 177 86
186 177 86
186 177 86
186 177 86
186 177 86
186 177 86
186 177 86
186 177 86
186 177 86
186 177 86
186 177 86
186 177 86
186 177 86
186 177 86
186 177 86
186 177 86
186 177 86
186 177 86
186 177 86
186 177 86
186 177 86
186 177 86
186 177 86
186 177 86
186 177 86
186 177 86
186 177 86
186 177 86
186 177 86
186 177 86
186 177 86
186 177 86
186 177 86
186 177 86
186 177 86
186 177 86
186 177 86
186 177 86
186 177 86
186 177 86
186 177 86
186 177 86
186 177 86
186 177 86
186 177 86
186 177 86
186 177 86
186 177 86
186 177 86
186 177 86
186 177 86
186 177 86
186 177 86
186 177 86
186 177 86
186 177 86
0 0 0
0 0 0
0 0 0
0 0 0
0 0 0
0 0 0
0 0 0
0 0 0
0 0 0
0 0 0
0 0 0
0 0 0
0 0 0
0 0 0
0 0 0
0 0 0
0 0 0
0 0 0
0 0 0
0 0 0
0 0 0
0 0 0
0 0 0
0 0 0
0 0 0
0 0 0
0 0 0
0 0 0
0 0 0
0 0 0
0 0 0
0 0 0
0 0 0
0 0 0
0 0 0
0 0 0
0 0 0
0 0 0
0 0 0
0 0 0
0 0 0
0 0 0
0 0 0
0 0 0
0 0 0
0 0 0
0 0 0
0 0 0
86 113 186
86 113 186
86 113 186
86 113 186
86 113 186
86 113 186
86 113 186
86 113 186
86 113 186
86 113 186
86 113 186
86 113 186
86 113 186
86 113 186
86 113 186
86 113 186
86 113 186
86 113 186
86 113 186
86 113 186
86 113 186
86 113 186
86 113 186
86 113 186
86 113 186
86 113 186
86 113 186
86 113 186
86 113 186
86 113 186
86 113 186
86 113 186
86 113 186
86 113 186
86 113 186
86 113 186
86 113 186
86 113 186
86 113 186
86 113 186
86 113 186
86 113 186
86 113 186
86 113 186
86 113 186
86 113 186
86 113 186
86 113 186
86 113 186
86 113 186
86 113 186
86 113 186
86 113 186
86 113 186
86 113 186
86 113 186
86 113 186
86 113 186
86 113 186
86 113 186
86 113 186
86 113 186
86 113 186
86 113 186
86 113 186
86 113 186
86 113 186
86 113 186
86 113 186
86 113 186
86 113 186
86 113 186
86 113 186
86 113 186
86 113 186
86 113 186
86 113 186
86 113 186
86 113 186
86 113 186
86 113 186
86 113 186
86 113 186
86 113 186
86 113 186
86 113 186
86 113 186
86 113 186
86 113 186
86 113 186
86 113 186
86 113 186
86 113 186
86 113 186
86 113 186
86 113 186
0 0 0
0 0 0
0 0 0
0 0 0
0 0 0
0 0 0
0 0 0
0 0 0
0 0 0
0 0 0
0 0 0
0 0 0
0 0 0
0 0 0
0 0 0
0 0 0
186 177 86
186 177 86
186 177 86
186 177 86
186 177 86
186 177 86
186 177 86
186 177 86
186 177 86
186 177 86
186 177 86
186 177 86
186 177 86
186 177 86
186 177 86
186 177 86
186 177 86
186 177 86
186 177 86
186 177 86
186 177 86
186 177 86
186 177 86
186 177 86
186 177 86
186 177 86
186 177 86
186 177 86
186 177 86
186 177 86
186 177 86
186 177 86
186 177 86
186 177 86
186 177 86
186 177 86
186 177 86
186 177 86
186 177 86
186 177 86
186 177 86
186 177 86
186 177 86
186 177 86
186 177 86
186 177 86
186 177 86
186 177 86
186 177 86
186 177 86
186 177 86
186 177 86
186 177 86
186 177 86
186 177 86
186 177 86
186 177 86
186 177 86
186 177 86
186 177 86
186 177 86
186 177 86
186 177 86
186 177 86
186 177 86
186 177 86
186 177 86
186 177 86
186 177 86
186 177 86
186 177 86
186 177 86
186 177 86
186 177 86
186 177 86
186 177 86
186 177 86
186 177 86
186 177 86
186 177 86
186 177 86
186 177 86
186 177 86
186 177 86
186 177 86
186 177 86
186 177 86
186 177 86
186 177 86
186 177 86
186 177 86
186 177 86
186 177 86
186 177 86
186 177 86
186 177 86
0 0 0
0 0 0
0 0 0
0 0 0
0 0 0
0 0 0
0 0 0
0 0 0
0 0 0
0 0 0
0 0 0
0 0 0
0 0 0
0 0 0
0 0 0
0 0 0
0 0 0
0 0 0
0 0 0
0 0 0
0 0 0
0 0 0
0 0 0
0 0 0
0 0 0
0 0 0
0 0 0
0 0 0
0 0 0
0 0 0
0 0 0
0 0 0
0 0 0
0 0 0
0 0 0
0 0 0
0 0 0
0 0 0
0 0 0
0 0 0
0 0 0
0 0 0
0 0 0
0 0 0
0 0 0
0 0 0
0 0 0
0 0 0
86 113 186
86 113 186
86 113 186
86 113 186
86 113 186
86 113 186
86 113 186
86 113 186
86 113 186
86 113 186
86 113 186
86 113 186
86 113 186
86 113 186
86 113 186
86 113 186
86 113 186
86 113 186
86 113 186
86 113 186
86 113 186
86 113 186
86 113 186
86 113 186
86 113 186
86 113 186
86 113 186
86 113 186
86 113 186
86 113 186
86 113 186
86 113 186
86 113 186
86 113 186
86 113 186
86 113 186
86 113 186
86 113 186
86 113 186
86 113 186
86 113 186
86 113 186
86 113 186
86 113 186
86 113 186
86 113 186
86 113 186
86 113 186
86 113 186
86 113 186
86 113 186
86 113 186
86 113 186
86 113 186
86 113 186
86 113 186
86 113 186
86 113 186
86 113 186
86 113 186
86 113 186
86 113 186
86 113 186
86 113 186
86 113 186
86 113 186
86 113 186
86 113 186
86 113 186
86 113 186
86 113 186
86 113 186
86 113 186
86 113 186
86 113 186
86 113 186
86 113 186
86 113 186
86 113 186
86 113 186
86 113 186
86 113 186
86 113 186
86 113 186
86 113 186
86 113 186
86 113 186
86 113 186
86 113 186
86 113 186
86 113 186
86 113 186
86 113 186
86 113 186
86 113 186
86 113 186
0 0 0
0 0 0
0 0 0
0 0 0
0 0 0
0 0 0
0 0 0
0 0 0
0 0 0
0 0 0
0 0 0
0 0 0
0 0 0
0 0 0
0 0 0
0 0 0
186 177 86
186 177 86
186 177 86
186 177 86
186 177 86
186 177 86
186 177 86
186 177 86
186 177 86
186 177 86
186 177 86
186 177 86
186 177 86
186 177 86
186 177 86
186 177 86
186 177 86
186 177 86
186 177 86
186 177 86
186 177 86
186 177 86
186 177 86
186 177 86
186 177 86
186 177 86
186 177 86
186 177 86
186 177 86
186 177 86
186 177 86
186 177 86
186 177 86
186 177 86
186 177 86
186 177 86
186 177 86
186 177 86
186 177 86
186 177 86
186 177 86
186 177 86
186 177 86
186 177 86
186 177 86
186 177 86
186 177 86
186 177 86
186 177 86
186 177 86
186 177 86
186 177 86
186 177 86
186 177 86
186 177 86
186 177 86
186 177 86
186 177 86
186 177 86
186 177 86
186 177 86
186 177 86
186 177 86
186 177 86
186 177 86
186 177 86
186 177 86
186 177 86
186 177 86
186 177 86
186 177 86
186 177 86
186 177 86
186 177 86
186 177 86
186 177 86
186 177 86
186 177 86
186 177 86
186 177 86
186 177 86
186 177 86
186 177 86
186 177 86
186 177 86
186 177 86
186 177 86
186 177 86
186 177 86
186 177 86
186 177 86
186 177 86
186 177 86
186 177 86
186 177 86
186 177 86
0 0 0
0 0 0
0 0 0
0 0 0
0 0 0
0 0 0
0 0 0
0 0 0
0 0 0
0 0 0
0 0 0
0 0 0
0 0 0
0 0 0
0 0 0
0 0 0
0 0 0
0 0 0
0 0 0
0 0 0
0 0 0
0 0 0
0 0 0
0 0 0
0 0 0
0 0 0
0 0 0
0 0 0
0 0 0
0 0 0
0 0 0
0 0 0
0 0 0
0 0 0
0 0 0
0 0 0
0 0 0
0 0 0
0 0 0
0 0 0
0 0 0
0 0 0
0 0 0
0 0 0
0 0 0
0 0 0
0 0 0
0 0 0
86 113 186
86 113 186
86 113 186
86 113 186
86 113 186
86 113 186
86 113 186
86 113 186
86 113 186
86 113 186
86 113 186
86 113 186
86 113 186
86 113 186
86 113 186
86 113 186
86 113 186
86 113 186
86 113 186
86 113 186
86 113 186
86 113 186
86 113 186
86 113 186
86 113 186
86 113 186
86 113 186
86 113 186
86 113 186
86 113 186
86 113 186
86 113 186
86 113 186
86 113 186
86 113 186
86 113 186
86 113 186
86 113 186
86 113 186
86 113 186
86 113 186
86 113 186
86 113 186
86 113 186
86 113 186
86 113 186
86 113 186
86 113 186
86 113 186
86 113 186
86 113 186
86 113 186
86 113 186
86 113 186
86 113 186
86 113 186
86 113 186
86 113 186
86 113 186
86 113 186
86 113 186
86 113 186
86 113 186
86 113 186
86 113 186
86 113 186
86 113 186
86 113 186
86 113 186
86 113 186
86 113 186
86 113 186
86 113 186
86 113 186
86 113 186
86 113 186
86 113 186
86 113 186
86 113 186
86 113 186
86 113 186
86 113 186
86 113 186
86 113 186
86 113 186
86 113 186
86 113 186
86 113 186
86 113 186
86 113 186
86 113 186
86 113 186
86 113 186
86 113 186
86 113 186
86 113 186
0 0 0
0 0 0
0 0 0
0 0 0
0 0 0
0 0 0
0 0 0
0 0 0
0 0 0
0 0 0
0 0 0
0 0 0
0 0 0
0 0 0
0 0 0
0 0 0
186 177 86
186 177 86
186 177 86
186 177 86
186 177 86
186 177 86
186 177 86
186 177 86
186 177 86
186 177 86
186 177 86
186 177 86
186 177 86
186 177 86
186 177 86
186 177 86
186 177 86
186 177 86
186 177 86
186 177 86
186 177 86
186 177 86
186 177 86
186 177 86
186 177 86
186 177 86
186 177 86
186 177 86
186 177 86
186 177 86
186 177 86
186 177 86
186 177 86
186 177 86
186 177 86
186 177 86
186 177 86
186 177 86
186 177 86
186 177 86
186 177 86
186 177 86
186 177 86
186 177 86
186 177 86
186 177 86
186 177 86
186 177 86
186 177 86
186 177 86
186 177 86
186 177 86
186 177 86
186 177 86
186 177 86
186 177 86
186 177 86
186 177 86
186 177 86
186 177 86
186 177 86
186 177 86
186 177 86
186 177 86
186 177 86
186 177 86
186 177 86
186 177 86
186 177 86
186 177 86
186 177 86
186 177 86
186 177 86
186 177 86
186 177 86
186 177 86
186 177 86
186 177 86
186 177 86
186 177 86
186 177 86
186 177 86
186 177 86
186 177 86
186 177 86
186 177 86
186 177 86
186 177 86
186 177 86
186 177 86
186 177 86
186 177 86
186 177 86
186 177 86
186 177 86
186 177 86
0 0 0
0 0 0
0 0 0
0 0 0
0 0 0
0 0 0
0 0 0
0 0 0
0 0 0
0 0 0
0 0 0
0 0 0
0 0 0
0 0 0
0 0 0
0 0 0
0 0 0
0 0 0
0 0 0
0 0 0
0 0 0
0 0 0
0 0 0
0 0 0
0 0 0
0 0 0
0 0 0
0 0 0
0 0 0
0 0 0
0 0 0
0 0 0
0 0 0
0 0 0
0 0 0
0 0 0
0 0 0
0 0 0
0 0 0
0 0 0
0 0 0
0 0 0
0 0 0
0 0 0
0 0 0
0 0 0
0 0 0
0 0 0
86 113 186
86 113 186
86 113 186
86 113 186
86 113 186
86 113 186
86 113 186
86 113 186
86 113 186
86 113 186
86 113 186
86 113 186
86 113 186
86 113 186
86 113 186
86 113 186
86 113 186
86 113 186
86 113 186
86 113 186
86 113 186
86 113 186
86 113 186
86 113 186
86 113 186
86 113 186
86 113 186
86 113 186
86 113 186
86 113 186
86 113 186
86 113 186
86 113 186
86 113 186
86 113 186
86 113 186
86 113 186
86 113 186
86 113 186
86 113 186
86 113 186
86 113 186
86 113 186
86 113 186
86 113 186
86 113 186
86 113 186
86 113 186
86 113 186
86 113 186
86 113 186
86 113 186
86 113 186
86 113 186
86 113 186
86 113 186
86 113 186
86 113 186
86 113 186
86 113 186
86 113 186
86 113 186
86 113 186
86 113 186
86 113 186
86 113 186
86 113 186
86 113 186
86 113 186
86 113 186
86 113 186
86 113 186
86 113 186
86 113 186
86 113 186
86 113 186
86 113 186
86 113 186
86 113 186
86 113 186
86 113 186
86 113 186
86 113 186
86 113 186
86 113 186
86 113 186
86 113 186
86 113 186
86 113 186
86 113 186
86 113 186
86 113 186
86 113 186
86 113 186
86 113 186
86 113 186
0 0 0
0 0 0
0 0 0
0 0 0
0 0 0
0 0 0
0 0 0
0 0 0
0 0 0
0 0 0
0 0 0
0 0 0
0 0 0
0 0 0
0 0 0
0 0 0
186 177 86
186 177 86
186 177 86
186 177 86
186 177 86
186 177 86
186 177 86
186 177 86
186 177 86
186 177 86
186 177 86
186 177 86
186 177 86
186 177 86
186 177 86
186 177 86
186 177 86
186 177 86
186 177 86
186 177 86
186 177 86
186 177 86
186 177 86
186 177 86
186 177 86
186 177 86
186 177 86
186 177 86
186 177 86
186 177 86
186 177 86
186 177 86
186 177 86
186 177 86
186 177 86
186 177 86
186 177 86
186 177 86
186 177 86
186 177 86
186 177 86
186 177 86
186 177 86
186 177 86
186 177 86
186 177 86
186 177 86
186 177 86
186 177 86
186 177 86
186 177 86
186 177 86
186 177 86
186 177 86
186 177 86
186 177 86
186 177 86
186 177 86
186 177 86
186 177 86
186 177 86
186 177 86
186 177 86
186 177 86
186 177 86
186 177 86
186 177 86
186 177 86
186 177 86
186 177 86
186 177 86
186 177 86
186 177 86
186 177 86
186 177 86
186 177 86
186 177 86
186 177 86
186 177 86
186 177 86
186 177 86
186 177 86
186 177 86
186 177 86
186 177 86
186 177 86
186 177 86
186 177 86
186 177 86
186 177 86
186 177 86
186 177 86
186 177 86
186 177 86
186 177 86
186 177 86
0 0 0
0 0 0
0 0 0
0 0 0
0 0 0
0 0 0
0 0 0
0 0 0
0 0 0
0 0 0
0 0 0
0 0 0
0 0 0
0 0 0
0 0 0
0 0 0
0 0 0
0 0 0
0 0 0
0 0 0
0 0 0
0 0 0
0 0 0
0 0 0
0 0 0
0 0 0
0 0 0
0 0 0
0 0 0
0 0 0
0 0 0
0 0 0
0 0 0
0 0 0
0 0 0
0 0 0
0 0 0
0 0 0
0 0 0
0 0 0
0 0 0
0 0 0
0 0 0
0 0 0
0 0 0
0 0 0
0 0 0
0 0 0
86 113 186
86 113 186
86 113 186
86 113 186
86 113 186
86 113 186
86 113 186
86 113 186
86 113 186
86 113 186
86 113 186
86 113 186
86 113 186
86 113 186
86 113 186
86 113 186
86 113 186
86 113 186
86 113 186
86 113 186
86 113 186
86 113 186
86 113 186
86 113 186
86 113 186
86 113 186
86 113 186
86 113 186
86 113 186
86 113 186
86 113 186
86 113 186
86 113 186
86 113 186
86 113 186
86 113 186
86 113 186
86 113 186
86 113 186
86 113 186
86 113 186
86 113 186
86 113 186
86 113 186
86 113 186
86 113 186
86 113 186
86 113 186
86 113 186
86 113 186
86 113 186
86 113 186
86 113 186
86 113 186
86 113 186
86 113 186
86 113 186
86 113 186
86 113 186
86 113 186
86 113 186
86 113 186
86 113 186
86 113 186
86 113 186
86 113 186
86 113 186
86 113 186
86 113 186
86 113 186
86 113 186
86 113 186
86 113 186
86 113 186
86 113 186
86 113 186
86 113 186
86 113 186
86 113 186
86 113 186
86 113 186
86 113 186
86 113 186
86 113 186
86 113 186
86 113 186
86 113 186
86 113 186
86 113 186
86 113 186
86 113 186
86 113 186
86 113 186
86 113 186
86 113 186
86 113 186
0 0 0
0 0 0
0 0 0
0 0 0
0 0 0
0 0 0
0 0 0
0 0 0
0 0 0
0 0 0
0 0 0
0 0 0
0 0 0
0 0 0
0 0 0
0 0 0
186 177 86
186 177 86
186 177 86
186 177 86
186 177 86
186 177 86
186 177 86
186 177 86
186 177 86
186 177 86
186 177 86
186 177 86
186 177 86
186 177 86
186 177 86
186 177 86
186 177 86
186 177 86
186 177 86
186 177 86
186 177 86
186 177 86
186 177 86
186 177 86
186 177 86
186 177 86
186 177 86
186 177 86
186 177 86
186 177 86
186 177 86
186 177 86
186 177 86
186 177 86
186 177 86
186 177 86
186 177 86
186 177 86
186 177 86
186 177 86
186 177 86
186 177 86
186 177 86
186 177 86
186 177 86
186 177 86
186 177 86
186 177 86
186 177 86
186 177 86
186 177 86
186 177 86
186 177 86
186 177 86
186 177 86
186 177 86
186 177 86
186 177 86
186 177 86
186 177 86
186 177 86
186 177 86
186 177 86
186 177 86
186 177 86
186 177 86
186 177 86
186 177 86
186 177 86
186 177 86
186 177 86
186 177 86
186 177 86
186 177 86
186 177 86
186 177 86
186 177 86
186 177 86
186 177 86
186 177 86
186 177 86
186 177 86
186 177 86
186 177 86
186 177 86
186 177 86
186 177 86
186 177 86
186 177 86
186 177 86
186 177 86
186 177 86
186 177 86
186 177 86
186 177 86
186 177 86
0 0 0
0 0 0
0 0 0
0 0 0
0 0 0
0 0 0
0 0 0
0 0 0
0 0 0
0 0 0
0 0 0
0 0 0
0 0 0
0 0 0
0 0 0
0 0 0
0 0 0
0 0 0
0 0 0
0 0 0
0 0 0
0 0 0
0 0 0
0 0 0
0 0 0
0 0 0
0 0 0
0 0 0
0 0 0
0 0 0
0 0 0
0 0 0
0 0 0
0 0 0
0 0 0
0 0 0
0 0 0
0 0 0
0 0 0
0 0 0
0 0 0
0 0 0
0 0 0
0 0 0
0 0 0
0 0 0
0 0 0
0 0 0
86 113 186
86 113 186
86 113 186
86 113 186
86 113 186
86 113 186
86 113 186
86 113 186
86 113 186
86 113 186
86 113 186
86 113 186
86 113 186
86 113 186
86 113 186
86 113 186
86 113 186
86 113 186
86 113 186
86 113 186
86 113 186
86 113 186
86 113 186
86 113 186
86 113 186
86 113 186
86 113 186
86 113 186
86 113 186
86 113 186
86 113 186
86 113 186
86 113 186
86 113 186
86 113 186
86 113 186
86 113 186
86 113 186
86 113 186
86 113 186
86 113 186
86 113 186
86 113 186
86 113 186
86 113 186
86 113 186
86 113 186
86 113 186
86 113 186
86 113 186
86 113 186
86 113 186
86 113 186
86 113 186
86 113 186
86 113 186
86 113 186
86 113 186
86 113 186
86 113 186
86 113 186
86 113 186
86 113 186
86 113 186
86 113 186
86 113 186
86 113 186
86 113 186
86 113 186
86 113 186
86 113 186
86 113 186
86 113 186
86 113 186
86 113 186
86 113 186
86 113 186
86 113 186
86 113 186
86 113 186
86 113 186
86 113 186
86 113 186
86 113 186
86 113 186
86 113 186
86 113 186
86 113 186
86 113 186
86 113 186
86 113 186
86 113 186
86 113 186
86 113 186
86 113 186
86 113 186
0 0 0
0 0 0
0 0 0
0 0 0
0 0 0
0 0 0
0 0 0
0 0 0
0 0 0
0 0 0
0 0 0
0 0 0
0 0 0
0 0 0
0 0 0
0 0 0
186 177 86
186 177 86
186 177 86
186 177 86
186 177 86
186 177 86
186 177 86
186 177 86
186 177 86
186 177 86
186 177 86
186 177 86
186 177 86
186 177 86
186 177 86
186 177 86
186 177 86
186 177 86
186 177 86
186 177 86
186 177 86
186 177 86
186 177 86
186 177 86
186 177 86
186 177 86
186 177 86
186 177 86
186 177 86
186 177 86
186 177 86
186 177 86
186 177 86
186 177 86
186 177 86
186 177 86
186 177 86
186 177 86
186 177 86
186 177 86
186 177 86
186 177 86
186 177 86
186 177 86
186 177 86
186 177 86
186 177 86
186 177 86
186 177 86
186 177 86
186 177 86
186 177 86
186 177 86
186 177 86
186 177 86
186 177 86
186 177 86
186 177 86
186 177 86
186 177 86
186 177 86
186 177 86
186 177 86
186 177 86
186 177 86
186 177 86
186 177 86
186 177 86
186 177 86
186 177 86
186 177 86
186 177 86
186 177 86
186 177 86
186 177 86
186 177 86
186 177 86
186 177 86
186 177 86
186 177 86
186 177 86
186 177 86
186 177 86
186 177 86
186 177 86
186 177 86
186 177 86
186 177 86
186 177 86
186 177 86
186 177 86
186 177 86
186 177 86
186 177 86
186 177 86
186 177 86
0 0 0
0 0 0
0 0 0
0 0 0
0 0 0
0 0 0
0 0 0
0 0 0
0 0 0
0 0 0
0 0 0
0 0 0
0 0 0
0 0 0
0 0 0
0 0 0
0 0 0
0 0 0
0 0 0
0 0 0
0 0 0
0 0 0
0 0 0
0 0 0
0 0 0
0 0 0
0 0 0
0 0 0
0 0 0
0 0 0
0 0 0
0 0 0
0 0 0
0 0 0
0 0 0
0 0 0
0 0 0
0 0 0
0 0 0
0 0 0
0 0 0
0 0 0
0 0 0
0 0 0
0 0 0
0 0 0
0 0 0
0 0 0
86 113 186
86 113 186
86 113 186
86 113 186
86 113 186
86 113 186
86 113 186
86 113 186
86 113 186
86 113 186
86 113 186
86 113 186
86 113 186
86 113 186
86 113 186
86 113 186
86 113 186
86 113 186
86 113 186
86 113 186
86 113 186
86 113 186
86 113 186
86 113 186
86 113 186
86 113 186
86 113 186
86 113 186
86 113 186
86 113 186
86 113 186
86 113 186
86 113 186
86 113 186
86 113 186
86 113 186
86 113 186
86 113 186
86 113 186
86 113 186
86 113 186
86 113 186
86 113 186
86 113 186
86 113 186
86 113 186
86 113 186
86 113 186
86 113 186
86 113 186
86 113 186
86 113 186
86 113 186
86 113 186
86 113 186
86 113 186
86 113 186
86 113 186
86 113 186
86 113 186
86 113 186
86 113 186
86 113 186
86 113 186
86 113 186
86 113 186
86 113 186
86 113 186
86 113 186
86 113 186
86 113 186
86 113 186
86 113 186
86 113 186
86 113 186
86 113 186
86 113 186
86 113 186
86 113 186
86 113 186
86 113 186
86 113 186
86 113 186
86 113 186
86 113 186
86 113 186
86 113 186
86 113 186
86 113 186
86 113 186
86 113 186
86 113 186
86 113 186
86 113 186
86 113 186
86 113 186
0 0 0
0 0 0
0 0 0
0 0 0
0 0 0
0 0 0
0 0 0
0 0 0
0 0 0
0 0 0
0 0 0
0 0 0
0 0 0
0 0 0
0 0 0
0 0 0
186 177 86
186 177 86
186 177 86
186 177 86
186 177 86
186 177 86
186 177 86
186 177 86
186 177 86
186 177 86
186 177 86
186 177 86
186 177 86
186 177 86
186 177 86
186 177 86
186 177 86
186 177 86
186 177 86
186 177 86
186 177 86
186 177 86
186 177 86
186 177 86
186 177 86
186 177 86
186 177 86
186 177 86
186 177 86
186 177 86
186 177 86
186 177 86
186 177 86
186 177 86
186 177 86
186 177 86
186 177 86
186 177 86
186 177 86
186 177 86
186 177 86
186 177 86
186 177 86
186 177 86
186 177 86
186 177 86
186 177 86
186 177 86
186 177 86
186 177 86
186 177 86
186 177 86
186 177 86
186 177 86
186 177 86
186 177 86
186 177 86
186 177 86
186 177 86
186 177 86
186 177 86
186 177 86
186 177 86
186 177 86
186 177 86
186 177 86
186 177 86
186 177 86
186 177 86
186 177 86
186 177 86
186 177 86
186 177 86
186 177 86
186 177 86
186 177 86
186 177 86
186 177 86
186 177 86
186 177 86
186 177 86
186 177 86
186 177 86
186 177 86
186 177 86
186 177 86
186 177 86
186 177 86
186 177 86
186 177 86
186 177 86
186 177 86
186 177 86
186 177 86
186 177 86
186 177 86
0 0 0
0 0 0
0 0 0
0 0 0
0 0 0
0 0 0
0 0 0
0 0 0
0 0 0
0 0 0
0 0 0
0 0 0
0 0 0
0 0 0
0 0 0
0 0 0
0 0 0
0 0 0
0 0 0
0 0 0
0 0 0
0 0 0
0 0 0
0 0 0
0 0 0
0 0 0
0 0 0
0 0 0
0 0 0
0 0 0
0 0 0
0 0 0
0 0 0
0 0 0
0 0 0
0 0 0
0 0 0
0 0 0
0 0 0
0 0 0
0 0 0
0 0 0
0 0 0
0 0 0
0 0 0
0 0 0
0 0 0
0 0 0
86 113 186
86 113 186
86 113 186
86 113 186
86 113 186
86 113 186
86 113 186
86 113 186
86 113 186
86 113 186
86 113 186
86 113 186
86 113 186
86 113 186
86 113 186
86 113 186
86 113 186
86 113 186
86 113 186
86 113 186
86 113 186
86 113 186
86 113 186
86 113 186
86 113 186
86 113 186
86 113 186
86 113 186
86 113 186
86 113 186
86 113 186
86 113 186
86 113 186
86 113 186
86 113 186
86 113 186
86 113 186
86 113 186
86 113 186
86 113 186
86 113 186
86 113 186
86 113 186
86 113 186
86 113 186
86 113 186
86 113 186
86 113 186
86 113 186
86 113 186
86 113 186
86 113 186
86 113 186
86 113 186
86 113 186
86 113 186
86 113 186
86 113 186
86 113 186
86 113 186
86 113 186
86 113 186
86 113 186
86 113 186
86 113 186
86 113 186
86 113 186
86 113 186
86 113 186
86 113 186
86 113 186
86 113 186
86 113 186
86 113 186
86 113 186
86 113 186
86 113 186
86 113 186
86 113 186
86 113 186
86 113 186
86 113 186
86 113 186
86 113 186
86 113 186
86 113 186
86 113 186
86 113 186
86 113 186
86 113 186
86 113 186
86 113 186
86 113 186
86 113 186
86 113 186
86 113 186
0 0 0
0 0 0
0 0 0
0 0 0
0 0 0
0 0 0
0 0 0
0 0 0
0 0 0
0 0 0
0 0 0
0 0 0
0 0 0
0 0 0
0 0 0
0 0 0
186 177 86
186 177 86
186 177 86
186 177 86
186 177 86
186 177 86
186 177 86
186 177 86
186 177 86
186 177 86
186 177 86
186 177 86
186 177 86
186 177 86
186 177 86
186 177 86
186 177 86
186 177 86
186 177 86
186 177 86
186 177 86
186 177 86
186 177 86
186 177 86
186 177 86
186 177 86
186 177 86
186 177 86
186 177 86
186 177 86
186 177 86
186 177 86
186 177 86
186 177 86
186 177 86
186 177 86
186 177 86
186 177 86
186 177 86
186 177 86
186 177 86
186 177 86
186 177 86
186 177 86
186 177 86
186 177 86
186 177 86
186 177 86
186 177 86
186 177 86
186 177 86
186 177 86
186 177 86
186 177 86
186 177 86
186 177 86
186 177 86
186 177 86
186 177 86
186 177 86
186 177 86
186 177 86
186 177 86
186 177 86
186 177 86
186 177 86
186 177 86
186 177 86
186 177 86
186 177 86
186 177 86
186 177 86
186 177 86
186 177 86
186 177 86
186 177 86
186 177 86
186 177 86
186 177 86
186 177 86
186 177 86
186 177 86
186 177 86
186 177 86
186 177 86
186 177 86
186 177 86
186 177 86
186 177 86
186 177 86
186 177 86
186 177 86
186 177 86
186 177 86
186 177 86
186 177 86
0 0 0
0 0 0
0 0 0
0 0 0
0 0 0
0 0 0
0 0 0
0 0 0
0 0 0
0 0 0
0 0 0
0 0 0
0 0 0
0 0 0
0 0 0
0 0 0
0 0 0
0 0 0
0 0 0
0 0 0
0 0 0
0 0 0
0 0 0
0 0 0
0 0 0
0 0 0
0 0 0
0 0 0
0 0 0
0 0 0
0 0 0
0 0 0
0 0 0
0 0 0
0 0 0
0 0 0
0 0 0
0 0 0
0 0 0
0 0 0
0 0 0
0 0 0
0 0 0
0 0 0
0 0 0
0 0 0
0 0 0
0 0 0
86 113 186
86 113 186
86 113 186
86 113 186
86 113 186
86 113 186
86 113 186
86 113 186
86 113 186
86 113 186
86 113 186
86 113 186
86 113 186
86 113 186
86 113 186
86 113 186
86 113 186
86 113 186
86 113 186
86 113 186
86 113 186
86 113 186
86 113 186
86 113 186
86 113 186
86 113 186
86 113 186
86 113 186
86 113 186
86 113 186
86 113 186
86 113 186
86 113 186
86 113 186
86 113 186
86 113 186
86 113 186
86 113 186
86 113 186
86 113 186
86 113 186
86 113 186
86 113 186
86 113 186
86 113 186
86 113 186
86 113 186
86 113 186
86 113 186
86 113 186
86 113 186
86 113 186
86 113 186
86 113 186
86 113 186
86 113 186
86 113 186
86 113 186
86 113 186
86 113 186
86 113 186
86 113 186
86 113 186
86 113 186
86 113 186
86 113 186
86 113 186
86 113 186
86 113 186
86 113 186
86 113 186
86 113 186
86 113 186
86 113 186
86 113 186
86 113 186
86 113 186
86 113 186
86 113 186
86 113 186
86 113 186
86 113 186
86 113 186
86 113 186
86 113 186
86 113 186
86 113 186
86 113 186
86 113 186
86 113 186
86 113 186
86 113 186
86 113 186
86 113 186
86 113 186
86 113 186
0 0 0
0 0 0
0 0 0
0 0 0
0 0 0
0 0 0
0 0 0
0 0 0
0 0 0
0 0 0
0 0 0
0 0 0
0 0 0
0 0 0
0 0 0
0 0 0
186 177 86
186 177 86
186 177 86
186 177 86
186 177 86
186 177 86
186 177 86
186 177 86
186 177 86
186 177 86
186 177 86
186 177 86
186 177 86
186 177 86
186 177 86
186 177 86
186 177 86
186 177 86
186 177 86
186 177 86
186 177 86
186 177 86
186 177 86
186 177 86
186 177 86
186 177 86
186 177 86
186 177 86
186 177 86
186 177 86
186 177 86
186 177 86
186 177 86
186 177 86
186 177 86
186 177 86
186 177 86
186 177 86
186 177 86
186 177 86
186 177 86
186 177 86
186 177 86
186 177 86
186 177 86
186 177 86
186 177 86
186 177 86
186 177 86
186 177 86
186 177 86
186 177 86
186 177 86
186 177 86
186 177 86
186 177 86
186 177 86
186 177 86
186 177 86
186 177 86
186 177 86
186 177 86
186 177 86
186 177 86
186 177 86
186 177 86
186 177 86
186 177 86
186 177 86
186 177 86
186 177 86
186 177 86
186 177 86
186 177 86
186 177 86
186 177 86
186 177 86
186 177 86
186 177 86
186 177 86
186 177 86
186 177 86
186 177 86
186 177 86
186 177 86
186 177 86
186 177 86
186 177 86
186 177 86
186 177 86
186 177 86
186 177 86
186 177 86
186 177 86
186 177 86
186 177 86
0 0 0
0 0 0
0 0 0
0 0 0
0 0 0
0 0 0
0 0 0
0 0 0
0 0 0
0 0 0
0 0 0
0 0 0
0 0 0
0 0 0
0 0 0
0 0 0
0 0 0
0 0 0
0 0 0
0 0 0
0 0 0
0 0 0
0 0 0
0 0 0
0 0 0
0 0 0
0 0 0
0 0 0
0 0 0
0 0 0
0 0 0
0 0 0
0 0 0
0 0 0
0 0 0
0 0 0
0 0 0
0 0 0
0 0 0
0 0 0
0 0 0
0 0 0
0 0 0
0 0 0
0 0 0
0 0 0
0 0 0
0 0 0
0 0 0
0 0 0
0 0 0
0 0 0
0 0 0
0 0 0
0 0 0
0 0 0
0 0 0
0 0 0
0 0 0
0 0 0
0 0 0
0 0 0
0 0 0
0 0 0
0 0 0
0 0 0
0 0 0
0 0 0
0 0 0
0 0 0
0 0 0
0 0 0
0 0 0
0 0 0
0 0 0
0 0 0
0 0 0
0 0 0
0 0 0
0 0 0
0 0 0
0 0 0
0 0 0
0 0 0
0 0 0
0 0 0
0 0 0
0 0 0
0 0 0
0 0 0
0 0 0
0 0 0
0 0 0
0 0 0
0 0 0
0 0 0
0 0 0
0 0 0
0 0 0
0 0 0
0 0 0
0 0 0
0 0 0
0 0 0
0 0 0
0 0 0
0 0 0
0 0 0
0 0 0
0 0 0
0 0 0
0 0 0
0 0 0
0 0 0
0 0 0
0 0 0
0 0 0
0 0 0
0 0 0
0 0 0
0 0 0
0 0 0
0 0 0
0 0 0
0 0 0
0 0 0
0 0 0
0 0 0
0 0 0
0 0 0
0 0 0
0 0 0
0 0 0
0 0 0
0 0 0
0 0 0
0 0 0
0 0 0
0 0 0
0 0 0
0 0 0
0 0 0
0 0 0
0 0 0
0 0 0
0 0 0
0 0 0
0 0 0
0 0 0
0 0 0
0 0 0
0 0 0
0 0 0
0 0 0
0 0 0
0 0 0
0 0 0
0 0 0
0 0 0
0 0 0
0 0 0
0 0 0
0 0 0
0 0 0
0 0 0
0 0 0
0 0 0
0 0 0
0 0 0
0 0 0
0 0 0
0 0 0
0 0 0
0 0 0
0 0 0
0 0 0
0 0 0
0 0 0
0 0 0
0 0 0
0 0 0
0 0 0
0 0 0
0 0 0
0 0 0
0 0 0
0 0 0
0 0 0
0 0 0
0 0 0
0 0 0
0 0 0
0 0 0
0 0 0
0 0 0
0 0 0
0 0 0
0 0 0
0 0 0
0 0 0
0 0 0
0 0 0
0 0 0
0 0 0
0 0 0
0 0 0
0 0 0
0 0 0
0 0 0
0 0 0
0 0 0
0 0 0
0 0 0
0 0 0
0 0 0
0 0 0
0 0 0
0 0 0
0 0 0
0 0 0
0 0 0
0 0 0
0 0 0
0 0 0
0 0 0
0 0 0
0 0 0
0 0 0
0 0 0
0 0 0
0 0 0
0 0 0
0 0 0
0 0 0
0 0 0
0 0 0
0 0 0
0 0 0
0 0 0
0 0 0
0 0 0
0 0 0
0 0 0
0 0 0
0 0 0
0 0 0
0 0 0
0 0 0
0 0 0
0 0 0
0 0 0
0 0 0
0 0 0
0 0 0
0 0 0
0 0 0
0 0 0
0 0 0
0 0 0
0 0 0
0 0 0
0 0 0
0 0 0
0 0 0
0 0 0
0 0 0
0 0 0
0 0 0
0 0 0
0 0 0
0 0 0
0 0 0
0 0 0
0 0 0
0 0 0
0 0 0
0 0 0
0 0 0
0 0 0
0 0 0
0 0 0
0 0 0
0 0 0
0 0 0
0 0 0
0 0 0
0 0 0
0 0 0
0 0 0
0 0 0
0 0 0
0 0 0
0 0 0
0 0 0
0 0 0
0 0 0
0 0 0
0 0 0
0 0 0
0 0 0
0 0 0
0 0 0
0 0 0
0 0 0
0 0 0
0 0 0
0 0 0
0 0 0
0 0 0
0 0 0
0 0 0
0 0 0
0 0 0
0 0 0
0 0 0
0 0 0
0 0 0
0 0 0
0 0 0
0 0 0
0 0 0
0 0 0
0 0 0
0 0 0
0 0 0
0 0 0
0 0 0
0 0 0
0 0 0
0 0 0
0 0 0
0 0 0
0 0 0
0 0 0
0 0 0
0 0 0
0 0 0
0 0 0
0 0 0
0 0 0
0 0 0
0 0 0
0 0 0
0 0 0
0 0 0
0 0 0
0 0 0
0 0 0
0 0 0
0 0 0
0 0 0
0 0 0
0 0 0
0 0 0
0 0 0
0 0 0
0 0 0
0 0 0
0 0 0
0 0 0
0 0 0
0 0 0
0 0 0
0 0 0
0 0 0
0 0 0
0 0 0
0 0 0
0 0 0
0 0 0
0 0 0
0 0 0
0 0 0
0 0 0
0 0 0
0 0 0
0 0 0
0 0 0
0 0 0
0 0 0
0 0 0
0 0 0
0 0 0
0 0 0
0 0 0
0 0 0
0 0 0
0 0 0
0 0 0
0 0 0
0 0 0
0 0 0
0 0 0
0 0 0
0 0 0
0 0 0
0 0 0
0 0 0
0 0 0
0 0 0
0 0 0
0 0 0
0 0 0
0 0 0
0 0 0
0 0 0
0 0 0
0 0 0
0 0 0
0 0 0
0 0 0
0 0 0
0 0 0
0 0 0
0 0 0
0 0 0
0 0 0
0 0 0
0 0 0
0 0 0
0 0 0
0 0 0
0 0 0
0 0 0
0 0 0
0 0 0
0 0 0
0 0 0
0 0 0
0 0 0
0 0 0
0 0 0
0 0 0
0 0 0
0 0 0
0 0 0
0 0 0
0 0 0
0 0 0
0 0 0
0 0 0
0 0 0
0 0 0
0 0 0
0 0 0
0 0 0
0 0 0
0 0 0
0 0 0
0 0 0
0 0 0
0 0 0
0 0 0
0 0 0
0 0 0
0 0 0
0 0 0
0 0 0
0 0 0
0 0 0
0 0 0
0 0 0
0 0 0
0 0 0
0 0 0
0 0 0
0 0 0
0 0 0
0 0 0
0 0 0
0 0 0
0 0 0
0 0 0
0 0 0
0 0 0
0 0 0
0 0 0
0 0 0
0 0 0
0 0 0
0 0 0
0 0 0
0 0 0
0 0 0
0 0 0
0 0 0
0 0 0
0 0 0
0 0 0
0 0 0
0 0 0
0 0 0
0 0 0
0 0 0
0 0 0
0 0 0
0 0 0
0 0 0
0 0 0
0 0 0
0 0 0
0 0 0
0 0 0
0 0 0
0 0 0
0 0 0
0 0 0
0 0 0
0 0 0
0 0 0
0 0 0
0 0 0
0 0 0
0 0 0
0 0 0
0 0 0
0 0 0
0 0 0
0 0 0
0 0 0
0 0 0
0 0 0
0 0 0
0 0 0
0 0 0
0 0 0
0 0 0
0 0 0
0 0 0
0 0 0
0 0 0
0 0 0
0 0 0
0 0 0
0 0 0
0 0 0
0 0 0
0 0 0
0 0 0
0 0 0
0 0 0
0 0 0
0 0 0
0 0 0
0 0 0
0 0 0
0 0 0
0 0 0
0 0 0
0 0 0
0 0 0
0 0 0
0 0 0
0 0 0
0 0 0
0 0 0
0 0 0
0 0 0
0 0 0
0 0 0
0 0 0
0 0 0
0 0 0
0 0 0
0 0 0
0 0 0
0 0 0
0 0 0
0 0 0
0 0 0
0 0 0
0 0 0
0 0 0
0 0 0
0 0 0
0 0 0
0 0 0
0 0 0
0 0 0
0 0 0
0 0 0
0 0 0
0 0 0
0 0 0
0 0 0
0 0 0
0 0 0
0 0 0
0 0 0
0 0 0
0 0 0
0 0 0
0 0 0
0 0 0
0 0 0
0 0 0
0 0 0
0 0 0
0 0 0
0 0 0
0 0 0
0 0 0
0 0 0
0 0 0
0 0 0
0 0 0
0 0 0
0 0 0
0 0 0
0 0 0
0 0 0
0 0 0
0 0 0
0 0 0
0 0 0
0 0 0
0 0 0
0 0 0
0 0 0
0 0 0
0 0 0
0 0 0
0 0 0
0 0 0
0 0 0
0 0 0
0 0 0
0 0 0
0 0 0
0 0 0
0 0 0
0 0 0
0 0 0
0 0 0
0 0 0
0 0 0
0 0 0
0 0 0
0 0 0
0 0 0
0 0 0
0 0 0
0 0 0
0 0 0
0 0 0
0 0 0
0 0 0
0 0 0
0 0 0
0 0 0
0 0 0
0 0 0
0 0 0
0 0 0
0 0 0
0 0 0
0 0 0
0 0 0
0 0 0
0 0 0
0 0 0
0 0 0
0 0 0
0 0 0
0 0 0
0 0 0
0 0 0
0 0 0
0 0 0
0 0 0
0 0 0
0 0 0
0 0 0
0 0 0
0 0 0
0 0 0
0 0 0
0 0 0
0 0 0
0 0 0
0 0 0
0 0 0
0 0 0
0 0 0
0 0 0
0 0 0
0 0 0
0 0 0
0 0 0
0 0 0
0 0 0
0 0 0
0 0 0
0 0 0
0 0 0
0 0 0
0 0 0
0 0 0
0 0 0
0 0 0
0 0 0
0 0 0
0 0 0
0 0 0
0 0 0
0 0 0
0 0 0
0 0 0
0 0 0
0 0 0
0 0 0
0 0 0
0 0 0
0 0 0
0 0 0
0 0 0
0 0 0
0 0 0
0 0 0
0 0 0
0 0 0
0 0 0
0 0 0
0 0 0
0 0 0
0 0 0
0 0 0
0 0 0
0 0 0
0 0 0
0 0 0
0 0 0
0 0 0
0 0 0
0 0 0
0 0 0
0 0 0
0 0 0
0 0 0
0 0 0
0 0 0
0 0 0
0 0 0
0 0 0
0 0 0
0 0 0
0 0 0
0 0 0
0 0 0
0 0 0
0 0 0
0 0 0
0 0 0
0 0 0
0 0 0
0 0 0
0 0 0
0 0 0
0 0 0
0 0 0
0 0 0
0 0 0
0 0 0
0 0 0
0 0 0
0 0 0
0 0 0
0 0 0
0 0 0
0 0 0
0 0 0
0 0 0
0 0 0
0 0 0
0 0 0
0 0 0
0 0 0
0 0 0
0 0 0
0 0 0
0 0 0
0 0 0
0 0 0
0 0 0
0 0 0
0 0 0
0 0 0
0 0 0
0 0 0
0 0 0
0 0 0
0 0 0
0 0 0
0 0 0
0 0 0
0 0 0
0 0 0
0 0 0
0 0 0
0 0 0
0 0 0
0 0 0
0 0 0
0 0 0
0 0 0
0 0 0
0 0 0
0 0 0
0 0 0
0 0 0
0 0 0
0 0 0
0 0 0
0 0 0
0 0 0
0 0 0
0 0 0
0 0 0
0 0 0
0 0 0
0 0 0
0 0 0
0 0 0
0 0 0
0 0 0
0 0 0
0 0 0
0 0 0
0 0 0
0 0 0
0 0 0
0 0 0
0 0 0
0 0 0
0 0 0
0 0 0
0 0 0
0 0 0
0 0 0
0 0 0
0 0 0
0 0 0
0 0 0
0 0 0
0 0 0
0 0 0
0 0 0
0 0 0
0 0 0
0 0 0
0 0 0
0 0 0
0 0 0
0 0 0
0 0 0
0 0 0
0 0 0
0 0 0
0 0 0
0 0 0
0 0 0
0 0 0
0 0 0
0 0 0
0 0 0
0 0 0
0 0 0
0 0 0
0 0 0
0 0 0
0 0 0
0 0 0
0 0 0
0 0 0
0 0 0
0 0 0
0 0 0
0 0 0
0 0 0
0 0 0
0 0 0
0 0 0
0 0 0
0 0 0
0 0 0
0 0 0
0 0 0
0 0 0
0 0 0
0 0 0
0 0 0
0 0 0
0 0 0
0 0 0
0 0 0
0 0 0
0 0 0
0 0 0
0 0 0
0 0 0
0 0 0
0 0 0
0 0 0
0 0 0
0 0 0
0 0 0
0 0 0
0 0 0
0 0 0
0 0 0
0 0 0
0 0 0
0 0 0
0 0 0
0 0 0
0 0 0
0 0 0
0 0 0
0 0 0
0 0 0
0 0 0
0 0 0
0 0 0
0 0 0
0 0 0
0 0 0
0 0 0
0 0 0
0 0 0
0 0 0
0 0 0
0 0 0
0 0 0
0 0 0
0 0 0
0 0 0
0 0 0
0 0 0
0 0 0
0 0 0
0 0 0
0 0 0
0 0 0
0 0 0
0 0 0
0 0 0
0 0 0
0 0 0
0 0 0
0 0 0
0 0 0
0 0 0
0 0 0
0 0 0
0 0 0
0 0 0
0 0 0
0 0 0
0 0 0
0 0 0
0 0 0
0 0 0
0 0 0
0 0 0
0 0 0
0 0 0
0 0 0
0 0 0
0 0 0
0 0 0
0 0 0
0 0 0
0 0 0
0 0 0
0 0 0
0 0 0
0 0 0
0 0 0
0 0 0
0 0 0
0 0 0
0 0 0
0 0 0
0 0 0
0 0 0
0 0 0
0 0 0
0 0 0
0 0 0
0 0 0
0 0 0
0 0 0
0 0 0
0 0 0
0 0 0
0 0 0
0 0 0
0 0 0
0 0 0
0 0 0
0 0 0
0 0 0
0 0 0
0 0 0
0 0 0
0 0 0
0 0 0
0 0 0
0 0 0
0 0 0
0 0 0
0 0 0
0 0 0
0 0 0
0 0 0
0 0 0
0 0 0
0 0 0
0 0 0
0 0 0
0 0 0
0 0 0
0 0 0
0 0 0
0 0 0
0 0 0
0 0 0
0 0 0
0 0 0
0 0 0
0 0 0
0 0 0
0 0 0
0 0 0
0 0 0
0 0 0
0 0 0
0 0 0
0 0 0
0 0 0
0 0 0
0 0 0
0 0 0
0 0 0
0 0 0
0 0 0
0 0 0
0 0 0
0 0 0
0 0 0
0 0 0
0 0 0
0 0 0
0 0 0
0 0 0
0 0 0
0 0 0
0 0 0
0 0 0
0 0 0
0 0 0
0 0 0
0 0 0
0 0 0
0 0 0
0 0 0
0 0 0
0 0 0
0 0 0
0 0 0
0 0 0
0 0 0
0 0 0
0 0 0
0 0 0
0 0 0
0 0 0
0 0 0
0 0 0
0 0 0
0 0 0
0 0 0
0 0 0
0 0 0
0 0 0
0 0 0
0 0 0
0 0 0
0 0 0
0 0 0
0 0 0
0 0 0
0 0 0
0 0 0
0 0 0
0 0 0
0 0 0
0 0 0
0 0 0
0 0 0
0 0 0
0 0 0
0 0 0
0 0 0
0 0 0
0 0 0
0 0 0
0 0 0
0 0 0
0 0 0
0 0 0
0 0 0
0 0 0
0 0 0
0 0 0
0 0 0
0 0 0
0 0 0
0 0 0
0 0 0
0 0 0
0 0 0
0 0 0
0 0 0
0 0 0
0 0 0
0 0 0
0 0 0
0 0 0
0 0 0
0 0 0
0 0 0
0 0 0
0 0 0
0 0 0
0 0 0
0 0 0
0 0 0
0 0 0
0 0 0
0 0 0
0 0 0
0 0 0
0 0 0
0 0 0
0 0 0
0 0 0
0 0 0
0 0 0
0 0 0
0 0 0
0 0 0
0 0 0
0 0 0
0 0 0
0 0 0
0 0 0
0 0 0
0 0 0
0 0 0
0 0 0
0 0 0
0 0 0
0 0 0
0 0 0
0 0 0
0 0 0
0 0 0
0 0 0
0 0 0
0 0 0
0 0 0
0 0 0
0 0 0
0 0 0
0 0 0
0 0 0
0 0 0
0 0 0
0 0 0
0 0 0
0 0 0
0 0 0
0 0 0
0 0 0
0 0 0
0 0 0
0 0 0
0 0 0
0 0 0
0 0 0
0 0 0
0 0 0
0 0 0
0 0 0
0 0 0
0 0 0
0 0 0
0 0 0
0 0 0
0 0 0
0 0 0
0 0 0
0 0 0
0 0 0
0 0 0
0 0 0
0 0 0
0 0 0
0 0 0
0 0 0
0 0 0
0 0 0
0 0 0
0 0 0
0 0 0
0 0 0
0 0 0
0 0 0
0 0 0
0 0 0
0 0 0
0 0 0
0 0 0
0 0 0
0 0 0
0 0 0
0 0 0
0 0 0
0 0 0
0 0 0
0 0 0
0 0 0
0 0 0
0 0 0
0 0 0
0 0 0
0 0 0
0 0 0
0 0 0
0 0 0
0 0 0
0 0 0
0 0 0
0 0 0
0 0 0
0 0 0
0 0 0
0 0 0
0 0 0
0 0 0
0 0 0
0 0 0
0 0 0
0 0 0
0 0 0
0 0 0
0 0 0
0 0 0
0 0 0
0 0 0
0 0 0
0 0 0
0 0 0
0 0 0
0 0 0
0 0 0
0 0 0
0 0 0
0 0 0
0 0 0
0 0 0
0 0 0
0 0 0
0 0 0
0 0 0
0 0 0
0 0 0
0 0 0
0 0 0
0 0 0
0 0 0
0 0 0
0 0 0
0 0 0
0 0 0
0 0 0
0 0 0
0 0 0
0 0 0
0 0 0
0 0 0
0 0 0
0 0 0
0 0 0
0 0 0
0 0 0
0 0 0
0 0 0
0 0 0
0 0 0
0 0 0
0 0 0
0 0 0
0 0 0
0 0 0
0 0 0
0 0 0
0 0 0
0 0 0
0 0 0
0 0 0
0 0 0
0 0 0
0 0 0
0 0 0
0 0 0
0 0 0
0 0 0
0 0 0
0 0 0
0 0 0
0 0 0
0 0 0
0 0 0
0 0 0
0 0 0
0 0 0
0 0 0
0 0 0
0 0 0
0 0 0
0 0 0
0 0 0
0 0 0
0 0 0
0 0 0
0 0 0
0 0 0
0 0 0
0 0 0
0 0 0
0 0 0
0 0 0
0 0 0
0 0 0
0 0 0
0 0 0
0 0 0
0 0 0
0 0 0
0 0 0
0 0 0
0 0 0
0 0 0
0 0 0
0 0 0
0 0 0
0 0 0
0 0 0
0 0 0
0 0 0
0 0 0
0 0 0
0 0 0
0 0 0
0 0 0
0 0 0
0 0 0
0 0 0
0 0 0
0 0 0
0 0 0
0 0 0
0 0 0
0 0 0
0 0 0
0 0 0
0 0 0
0 0 0
0 0 0
0 0 0
0 0 0
0 0 0
0 0 0
0 0 0
0 0 0
0 0 0
0 0 0
0 0 0
0 0 0
0 0 0
0 0 0
0 0 0
0 0 0
0 0 0
0 0 0
0 0 0
0 0 0
0 0 0
0 0 0
0 0 0
0 0 0
0 0 0
0 0 0
0 0 0
0 0 0
0 0 0
0 0 0
0 0 0
0 0 0
0 0 0
0 0 0
0 0 0
0 0 0
0 0 0
0 0 0
0 0 0
0 0 0
0 0 0
0 0 0
0 0 0
0 0 0
0 0 0
0 0 0
0 0 0
0 0 0
0 0 0
0 0 0
0 0 0
0 0 0
0 0 0
0 0 0
0 0 0
0 0 0
0 0 0
0 0 0
0 0 0
0 0 0
0 0 0
0 0 0
0 0 0
0 0 0
0 0 0
0 0 0
0 0 0
0 0 0
0 0 0
0 0 0
0 0 0
0 0 0
0 0 0
0 0 0
0 0 0
0 0 0
0 0 0
0 0 0
0 0 0
0 0 0
0 0 0
0 0 0
0 0 0
0 0 0
0 0 0
0 0 0
0 0 0
0 0 0
0 0 0
0 0 0
0 0 0
0 0 0
0 0 0
0 0 0
0 0 0
0 0 0
0 0 0
0 0 0
0 0 0
0 0 0
0 0 0
0 0 0
0 0 0
0 0 0
0 0 0
0 0 0
0 0 0
0 0 0
0 0 0
0 0 0
0 0 0
0 0 0
0 0 0
0 0 0
0 0 0
0 0 0
0 0 0
0 0 0
0 0 0
0 0 0
0 0 0
0 0 0
0 0 0
0 0 0
0 0 0
0 0 0
0 0 0
0 0 0
0 0 0
0 0 0
0 0 0
0 0 0
0 0 0
0 0 0
0 0 0
0 0 0
0 0 0
0 0 0
0 0 0
0 0 0
0 0 0
0 0 0
0 0 0
0 0 0
0 0 0
0 0 0
0 0 0
0 0 0
0 0 0
0 0 0
0 0 0
0 0 0
0 0 0
0 0 0
0 0 0
0 0 0
0 0 0
0 0 0
0 0 0
0 0 0
0 0 0
0 0 0
0 0 0
0 0 0
0 0 0
0 0 0
0 0 0
0 0 0
0 0 0
0 0 0
0 0 0
0 0 0
0 0 0
0 0 0
0 0 0
0 0 0
0 0 0
0 0 0
0 0 0
0 0 0
0 0 0
0 0 0
0 0 0
0 0 0
0 0 0
0 0 0
0 0 0
0 0 0
0 0 0
0 0 0
0 0 0
0 0 0
0 0 0
0 0 0
0 0 0
0 0 0
0 0 0
0 0 0
0 0 0
0 0 0
0 0 0
0 0 0
0 0 0
0 0 0
0 0 0
0 0 0
0 0 0
0 0 0
0 0 0
0 0 0
0 0 0
0 0 0
0 0 0
0 0 0
0 0 0
0 0 0
0 0 0
0 0 0
0 0 0
0 0 0
0 0 0
0 0 0
0 0 0
0 0 0
0 0 0
0 0 0
0 0 0
0 0 0
0 0 0
0 0 0
0 0 0
0 0 0
0 0 0
0 0 0
0 0 0
0 0 0
0 0 0
0 0 0
0 0 0
0 0 0
0 0 0
0 0 0
0 0 0
0 0 0
0 0 0
0 0 0
0 0 0
0 0 0
0 0 0
0 0 0
0 0 0
0 0 0
0 0 0
0 0 0
0 0 0
0 0 0
0 0 0
0 0 0
0 0 0
0 0 0
0 0 0
0 0 0
0 0 0
0 0 0
0 0 0
0 0 0
0 0 0
0 0 0
0 0 0
0 0 0
0 0 0
0 0 0
0 0 0
0 0 0
0 0 0
0 0 0
0 0 0
0 0 0
0 0 0
0 0 0
0 0 0
0 0 0
0 0 0
0 0 0
0 0 0
0 0 0
0 0 0
0 0 0
0 0 0
0 0 0
0 0 0
0 0 0
0 0 0
0 0 0
0 0 0
0 0 0
0 0 0
0 0 0
0 0 0
0 0 0
0 0 0
0 0 0
0 0 0
0 0 0
0 0 0
0 0 0
0 0 0
0 0 0
0 0 0
0 0 0
0 0 0
0 0 0
0 0 0
0 0 0
0 0 0
0 0 0
0 0 0
0 0 0
0 0 0
0 0 0
0 0 0
0 0 0
0 0 0
0 0 0
0 0 0
0 0 0
0 0 0
0 0 0
0 0 0
0 0 0
0 0 0
0 0 0
0 0 0
0 0 0
0 0 0
0 0 0
0 0 0
0 0 0
0 0 0
0 0 0
0 0 0
0 0 0
0 0 0
0 0 0
0 0 0
0 0 0
0 0 0
0 0 0
0 0 0
0 0 0
0 0 0
0 0 0
0 0 0
0 0 0
0 0 0
0 0 0
0 0 0
0 0 0
0 0 0
0 0 0
0 0 0
0 0 0
0 0 0
0 0 0
0 0 0
0 0 0
0 0 0
0 0 0
0 0 0
0 0 0
0 0 0
0 0 0
0 0 0
0 0 0
0 0 0
0 0 0
0 0 0
0 0 0
0 0 0
0 0 0
0 0 0
0 0 0
0 0 0
0 0 0
0 0 0
0 0 0
0 0 0
0 0 0
0 0 0
0 0 0
0 0 0
0 0 0
0 0 0
0 0 0
0 0 0
0 0 0
0 0 0
0 0 0
0 0 0
0 0 0
0 0 0
0 0 0
0 0 0
0 0 0
0 0 0
0 0 0
0 0 0
0 0 0
0 0 0
0 0 0
0 0 0
0 0 0
0 0 0
0 0 0
0 0 0
0 0 0
0 0 0
0 0 0
0 0 0
0 0 0
0 0 0
0 0 0
0 0 0
0 0 0
0 0 0
0 0 0
0 0 0
0 0 0
0 0 0
0 0 0
0 0 0
0 0 0
0 0 0
0 0 0
0 0 0
0 0 0
0 0 0
0 0 0
0 0 0
0 0 0
0 0 0
0 0 0
0 0 0
0 0 0
0 0 0
0 0 0
0 0 0
0 0 0
0 0 0
0 0 0
0 0 0
0 0 0
0 0 0
0 0 0
0 0 0
0 0 0
0 0 0
0 0 0
0 0 0
0 0 0
0 0 0
0 0 0
0 0 0
0 0 0
0 0 0
0 0 0
0 0 0
0 0 0
0 0 0
0 0 0
0 0 0
0 0 0
0 0 0
0 0 0
0 0 0
0 0 0
0 0 0
0 0 0
0 0 0
0 0 0
0 0 0
0 0 0
0 0 0
0 0 0
0 0 0
0 0 0
0 0 0
0 0 0
0 0 0
0 0 0
0 0 0
0 0 0
0 0 0
0 0 0
0 0 0
0 0 0
0 0 0
0 0 0
0 0 0
0 0 0
0 0 0
0 0 0
0 0 0
0 0 0
0 0 0
0 0 0
0 0 0
0 0 0
0 0 0
0 0 0
0 0 0
0 0 0
0 0 0
0 0 0
0 0 0
0 0 0
0 0 0
0 0 0
0 0 0
0 0 0
0 0 0
0 0 0
0 0 0
0 0 0
0 0 0
0 0 0
0 0 0
0 0 0
0 0 0
0 0 0
0 0 0
0 0 0
0 0 0
0 0 0
0 0 0
0 0 0
0 0 0
0 0 0
0 0 0
0 0 0
0 0 0
0 0 0
0 0 0
0 0 0
0 0 0
0 0 0
0 0 0
0 0 0
0 0 0
0 0 0
0 0 0
0 0 0
0 0 0
0 0 0
0 0 0
0 0 0
0 0 0
0 0 0
0 0 0
0 0 0
0 0 0
0 0 0
0 0 0
0 0 0
0 0 0
0 0 0
0 0 0
0 0 0
0 0 0
0 0 0
0 0 0
0 0 0
0 0 0
0 0 0
0 0 0
0 0 0
0 0 0
0 0 0
0 0 0
0 0 0
0 0 0
0 0 0
0 0 0
0 0 0
0 0 0
0 0 0
0 0 0
0 0 0
0 0 0
0 0 0
0 0 0
0 0 0
0 0 0
0 0 0
0 0 0
0 0 0
0 0 0
0 0 0
0 0 0
0 0 0
0 0 0
0 0 0
0 0 0
0 0 0
0 0 0
0 0 0
0 0 0
0 0 0
0 0 0
0 0 0
0 0 0
0 0 0
0 0 0
0 0 0
0 0 0
0 0 0
0 0 0
0 0 0
0 0 0
0 0 0
0 0 0
0 0 0
0 0 0
0 0 0
0 0 0
0 0 0
0 0 0
0 0 0
0 0 0
0 0 0
0 0 0
0 0 0
0 0 0
0 0 0
0 0 0
0 0 0
0 0 0
0 0 0
0 0 0
0 0 0
0 0 0
0 0 0
0 0 0
0 0 0
0 0 0
0 0 0
0 0 0
0 0 0
0 0 0
0 0 0
0 0 0
0 0 0
0 0 0
0 0 0
0 0 0
0 0 0
0 0 0
0 0 0
0 0 0
0 0 0
0 0 0
0 0 0
0 0 0
0 0 0
0 0 0
0 0 0
0 0 0
0 0 0
0 0 0
0 0 0
0 0 0
0 0 0
0 0 0
0 0 0
0 0 0
0 0 0
0 0 0
0 0 0
0 0 0
0 0 0
0 0 0
0 0 0
0 0 0
0 0 0
0 0 0
0 0 0
0 0 0
0 0 0
0 0 0
0 0 0
0 0 0
0 0 0
0 0 0
0 0 0
0 0 0
0 0 0
0 0 0
0 0 0
0 0 0
0 0 0
0 0 0
0 0 0
0 0 0
0 0 0
0 0 0
0 0 0
0 0 0
0 0 0
0 0 0
0 0 0
0 0 0
0 0 0
0 0 0
0 0 0
0 0 0
0 0 0
0 0 0
0 0 0
0 0 0
0 0 0
0 0 0
0 0 0
0 0 0
0 0 0
0 0 0
0 0 0
0 0 0
0 0 0
0 0 0
0 0 0
0 0 0
0 0 0
0 0 0
0 0 0
0 0 0
0 0 0
0 0 0
0 0 0
0 0 0
0 0 0
0 0 0
0 0 0
0 0 0
0 0 0
0 0 0
0 0 0
0 0 0
0 0 0
0 0 0
0 0 0
0 0 0
0 0 0
0 0 0
0 0 0
0 0 0
0 0 0
0 0 0
0 0 0
0 0 0
0 0 0
0 0 0
0 0 0
0 0 0
0 0 0
0 0 0
0 0 0
0 0 0
0 0 0
0 0 0
0 0 0
0 0 0
0 0 0
0 0 0
0 0 0
0 0 0
0 0 0
0 0 0
0 0 0
0 0 0
0 0 0
0 0 0
0 0 0
0 0 0
0 0 0
0 0 0
0 0 0
0 0 0
0 0 0
0 0 0
0 0 0
0 0 0
0 0 0
0 0 0
0 0 0
0 0 0
0 0 0
0 0 0
0 0 0
0 0 0
0 0 0
0 0 0
0 0 0
0 0 0
0 0 0
0 0 0
0 0 0
0 0 0
0 0 0
0 0 0
0 0 0
0 0 0
0 0 0
0 0 0
0 0 0
0 0 0
0 0 0
0 0 0
0 0 0
0 0 0
0 0 0
0 0 0
0 0 0
0 0 0
0 0 0
0 0 0
0 0 0
0 0 0
0 0 0
0 0 0
0 0 0
0 0 0
0 0 0
0 0 0
0 0 0
0 0 0
0 0 0
0 0 0
0 0 0
0 0 0
0 0 0
0 0 0
0 0 0
0 0 0
0 0 0
0 0 0
0 0 0
0 0 0
0 0 0
0 0 0
0 0 0
0 0 0
0 0 0
0 0 0
0 0 0
0 0 0
0 0 0
0 0 0
0 0 0
0 0 0
0 0 0
0 0 0
0 0 0
0 0 0
0 0 0
0 0 0
0 0 0
0 0 0
0 0 0
0 0 0
0 0 0
0 0 0
0 0 0
0 0 0
0 0 0
0 0 0
0 0 0
0 0 0
0 0 0
0 0 0
0 0 0
0 0 0
0 0 0
0 0 0
0 0 0
0 0 0
0 0 0
0 0 0
0 0 0
0 0 0
0 0 0
0 0 0
0 0 0
0 0 0
0 0 0
0 0 0
0 0 0
0 0 0
0 0 0
0 0 0
0 0 0
0 0 0
0 0 0
0 0 0
0 0 0
0 0 0
0 0 0
0 0 0
0 0 0
0 0 0
0 0 0
0 0 0
0 0 0
0 0 0
0 0 0
0 0 0
0 0 0
0 0 0
0 0 0
0 0 0
0 0 0
0 0 0
0 0 0
0 0 0
0 0 0
0 0 0
0 0 0
0 0 0
0 0 0
0 0 0
0 0 0
0 0 0
0 0 0
0 0 0
0 0 0
0 0 0
0 0 0
0 0 0
0 0 0
0 0 0
0 0 0
0 0 0
0 0 0
0 0 0
0 0 0
0 0 0
0 0 0
0 0 0
0 0 0
0 0 0
0 0 0
0 0 0
0 0 0
0 0 0
0 0 0
0 0 0
0 0 0
0 0 0
0 0 0
0 0 0
0 0 0
0 0 0
0 0 0
0 0 0
0 0 0
0 0 0
0 0 0
0 0 0
0 0 0
0 0 0
0 0 0
0 0 0
0 0 0
0 0 0
0 0 0
0 0 0
0 0 0
0 0 0
0 0 0
0 0 0
0 0 0
0 0 0
0 0 0
0 0 0
0 0 0
0 0 0
0 0 0
0 0 0
0 0 0
0 0 0
0 0 0
0 0 0
0 0 0
0 0 0
0 0 0
0 0 0
0 0 0
0 0 0
0 0 0
0 0 0
0 0 0
0 0 0
0 0 0
0 0 0
0 0 0
0 0 0
0 0 0
0 0 0
0 0 0
0 0 0
0 0 0
0 0 0
0 0 0
0 0 0
0 0 0
0 0 0
0 0 0
0 0 0
0 0 0
0 0 0
0 0 0
0 0 0
0 0 0
0 0 0
0 0 0
0 0 0
0 0 0
0 0 0
0 0 0
0 0 0
0 0 0
0 0 0
0 0 0
0 0 0
0 0 0
0 0 0
0 0 0
0 0 0
0 0 0
0 0 0
0 0 0
0 0 0
0 0 0
0 0 0
0 0 0
0 0 0
0 0 0
0 0 0
0 0 0
0 0 0
0 0 0
0 0 0
0 0 0
0 0 0
0 0 0
0 0 0
0 0 0
0 0 0
0 0 0
0 0 0
0 0 0
0 0 0
0 0 0
0 0 0
0 0 0
0 0 0
0 0 0
0 0 0
0 0 0
0 0 0
0 0 0
0 0 0
0 0 0
0 0 0
0 0 0
0 0 0
0 0 0
0 0 0
0 0 0
0 0 0
0 0 0
0 0 0
0 0 0
0 0 0
0 0 0
0 0 0
0 0 0
0 0 0
0 0 0
0 0 0
0 0 0
0 0 0
0 0 0
0 0 0
0 0 0
0 0 0
0 0 0
0 0 0
0 0 0
0 0 0
0 0 0
0 0 0
0 0 0
0 0 0
0 0 0
0 0 0
0 0 0
0 0 0
0 0 0
0 0 0
0 0 0
0 0 0
0 0 0
0 0 0
0 0 0
0 0 0
0 0 0
0 0 0
0 0 0
0 0 0
0 0 0
0 0 0
0 0 0
0 0 0
0 0 0
0 0 0
0 0 0
0 0 0
0 0 0
0 0 0
0 0 0
0 0 0
0 0 0
0 0 0
0 0 0
0 0 0
0 0 0
0 0 0
0 0 0
0 0 0
0 0 0
0 0 0
0 0 0
0 0 0
0 0 0
0 0 0
0 0 0
0 0 0
0 0 0
0 0 0
0 0 0
0 0 0
0 0 0
0 0 0
0 0 0
0 0 0
0 0 0
0 0 0
0 0 0
0 0 0
0 0 0
0 0 0
0 0 0
0 0 0
0 0 0
0 0 0
0 0 0
0 0 0
0 0 0
0 0 0
0 0 0
0 0 0
0 0 0
0 0 0
0 0 0
0 0 0
0 0 0
0 0 0
0 0 0
0 0 0
0 0 0
0 0 0
0 0 0
0 0 0
0 0 0
0 0 0
0 0 0
0 0 0
0 0 0
0 0 0
0 0 0
0 0 0
0 0 0
0 0 0
0 0 0
0 0 0
0 0 0
0 0 0
0 0 0
0 0 0
0 0 0
0 0 0
0 0 0
0 0 0
0 0 0
0 0 0
0 0 0
0 0 0
0 0 0
0 0 0
0 0 0
0 0 0
0 0 0
0 0 0
0 0 0
0 0 0
0 0 0
0 0 0
0 0 0
0 0 0
0 0 0
0 0 0
0 0 0
0 0 0
0 0 0
0 0 0
0 0 0
0 0 0
0 0 0
0 0 0
0 0 0
0 0 0
0 0 0
0 0 0
0 0 0
0 0 0
0 0 0
0 0 0
0 0 0
0 0 0
0 0 0
0 0 0
0 0 0
0 0 0
0 0 0
0 0 0
0 0 0
0 0 0
0 0 0
0 0 0
0 0 0
0 0 0
0 0 0
0 0 0
0 0 0
0 0 0
0 0 0
0 0 0
0 0 0
0 0 0
0 0 0
0 0 0
0 0 0
0 0 0
0 0 0
0 0 0
0 0 0
0 0 0
0 0 0
0 0 0
0 0 0
0 0 0
0 0 0
0 0 0
0 0 0
0 0 0
0 0 0
0 0 0
0 0 0
0 0 0
0 0 0
0 0 0
0 0 0
0 0 0
0 0 0
0 0 0
0 0 0
0 0 0
0 0 0
0 0 0
0 0 0
0 0 0
0 0 0
0 0 0
0 0 0
0 0 0
0 0 0
0 0 0
0 0 0
0 0 0
0 0 0
0 0 0
0 0 0
0 0 0
0 0 0
0 0 0
0 0 0
0 0 0
0 0 0
0 0 0
0 0 0
0 0 0
0 0 0
0 0 0
0 0 0
0 0 0
0 0 0
0 0 0
0 0 0
0 0 0
0 0 0
0 0 0
0 0 0
0 0 0
0 0 0
0 0 0
0 0 0
0 0 0
0 0 0
0 0 0
0 0 0
0 0 0
0 0 0
0 0 0
0 0 0
0 0 0
0 0 0
0 0 0
0 0 0
0 0 0
0 0 0
0 0 0
0 0 0
0 0 0
0 0 0
0 0 0
0 0 0
0 0 0
0 0 0
0 0 0
0 0 0
0 0 0
0 0 0
0 0 0
0 0 0
0 0 0
0 0 0
0 0 0
0 0 0
0 0 0
0 0 0
0 0 0
0 0 0
0 0 0
0 0 0
0 0 0
0 0 0
0 0 0
0 0 0
0 0 0
0 0 0
0 0 0
0 0 0
0 0 0
0 0 0
0 0 0
0 0 0
0 0 0
0 0 0
0 0 0
0 0 0
0 0 0
0 0 0
0 0 0
0 0 0
0 0 0
0 0 0
0 0 0
0 0 0
0 0 0
0 0 0
0 0 0
0 0 0
0 0 0
0 0 0
0 0 0
0 0 0
0 0 0
0 0 0
0 0 0
0 0 0
0 0 0
0 0 0
0 0 0
0 0 0
0 0 0
0 0 0
0 0 0
0 0 0
0 0 0
0 0 0
0 0 0
0 0 0
0 0 0
0 0 0
0 0 0
0 0 0
0 0 0
0 0 0
0 0 0
0 0 0
0 0 0
0 0 0
0 0 0
0 0 0
0 0 0
0 0 0
0 0 0
0 0 0
0 0 0
0 0 0
0 0 0
0 0 0
0 0 0
0 0 0
0 0 0
0 0 0
0 0 0
0 0 0
0 0 0
0 0 0
0 0 0
0 0 0
0 0 0
0 0 0
0 0 0
0 0 0
0 0 0
0 0 0
0 0 0
0 0 0
0 0 0
0 0 0
0 0 0
0 0 0
0 0 0
0 0 0
0 0 0
0 0 0
0 0 0
0 0 0
0 0 0
0 0 0
0 0 0
0 0 0
0 0 0
0 0 0
0 0 0
0 0 0
0 0 0
0 0 0
0 0 0
0 0 0
0 0 0
0 0 0
0 0 0
0 0 0
0 0 0
0 0 0
0 0 0
0 0 0
0 0 0
0 0 0
0 0 0
0 0 0
0 0 0
0 0 0
0 0 0
0 0 0
0 0 0
0 0 0
0 0 0
0 0 0
0 0 0
0 0 0
0 0 0
0 0 0
0 0 0
0 0 0
0 0 0
0 0 0
0 0 0
0 0 0
0 0 0
0 0 0
0 0 0
0 0 0
0 0 0
0 0 0
0 0 0
0 0 0
0 0 0
0 0 0
0 0 0
0 0 0
0 0 0
0 0 0
0 0 0
0 0 0
0 0 0
0 0 0
0 0 0
0 0 0
0 0 0
0 0 0
0 0 0
0 0 0
0 0 0
0 0 0
0 0 0
0 0 0
0 0 0
0 0 0
0 0 0
0 0 0
0 0 0
0 0 0
0 0 0
0 0 0
0 0 0
0 0 0
0 0 0
0 0 0
0 0 0
0 0 0
0 0 0
0 0 0
0 0 0
0 0 0
0 0 0
0 0 0
0 0 0
0 0 0
0 0 0
0 0 0
0 0 0
0 0 0
0 0 0
0 0 0
0 0 0
0 0 0
0 0 0
0 0 0
0 0 0
0 0 0
0 0 0
0 0 0
0 0 0
0 0 0
0 0 0
0 0 0
0 0 0
0 0 0
0 0 0
0 0 0
0 0 0
0 0 0
0 0 0
0 0 0
0 0 0
0 0 0
0 0 0
0 0 0
0 0 0
0 0 0
0 0 0
0 0 0
0 0 0
0 0 0
0 0 0
0 0 0
0 0 0
0 0 0
0 0 0
0 0 0
0 0 0
0 0 0
0 0 0
0 0 0
0 0 0
0 0 0
0 0 0
0 0 0
0 0 0
0 0 0
0 0 0
0 0 0
0 0 0
0 0 0
0 0 0
0 0 0
0 0 0
0 0 0
0 0 0
0 0 0
0 0 0
0 0 0
0 0 0
0 0 0
0 0 0
0 0 0
0 0 0
0 0 0
0 0 0
0 0 0
0 0 0
0 0 0
0 0 0
0 0 0
0 0 0
0 0 0
0 0 0
0 0 0
0 0 0
0 0 0
0 0 0
0 0 0
0 0 0
0 0 0
0 0 0
0 0 0
0 0 0
0 0 0
0 0 0
0 0 0
0 0 0
0 0 0
0 0 0
0 0 0
0 0 0
0 0 0
0 0 0
0 0 0
0 0 0
0 0 0
0 0 0
0 0 0
0 0 0
0 0 0
0 0 0
0 0 0
0 0 0
0 0 0
0 0 0
0 0 0
0 0 0
0 0 0
0 0 0
0 0 0
0 0 0
0 0 0
0 0 0
0 0 0
0 0 0
0 0 0
0 0 0
0 0 0
0 0 0
0 0 0
0 0 0
0 0 0
0 0 0
0 0 0
0 0 0
0 0 0
0 0 0
0 0 0
0 0 0
0 0 0
0 0 0
0 0 0
0 0 0
0 0 0
0 0 0
0 0 0
0 0 0
0 0 0
0 0 0
0 0 0
0 0 0
0 0 0
0 0 0
0 0 0
0 0 0
0 0 0
0 0 0
0 0 0
0 0 0
0 0 0
0 0 0
0 0 0
0 0 0
0 0 0
0 0 0
0 0 0
0 0 0
0 0 0
0 0 0
0 0 0
0 0 0
0 0 0
0 0 0
0 0 0
0 0 0
0 0 0
0 0 0
0 0 0
0 0 0
0 0 0
0 0 0
0 0 0
0 0 0
0 0 0
0 0 0
0 0 0
0 0 0
0 0 0
0 0 0
0 0 0
0 0 0
0 0 0
0 0 0
0 0 0
0 0 0
0 0 0
0 0 0
0 0 0
0 0 0
0 0 0
0 0 0
0 0 0
0 0 0
0 0 0
0 0 0
0 0 0
0 0 0
0 0 0
0 0 0
0 0 0
0 0 0
0 0 0
0 0 0
0 0 0
0 0 0
0 0 0
0 0 0
0 0 0
0 0 0
0 0 0
0 0 0
0 0 0
0 0 0
0 0 0
0 0 0
0 0 0
0 0 0
0 0 0
0 0 0
0 0 0
0 0 0
0 0 0
0 0 0
0 0 0
0 0 0
0 0 0
0 0 0
0 0 0
0 0 0
0 0 0
0 0 0
0 0 0
0 0 0
0 0 0
0 0 0
0 0 0
0 0 0
0 0 0
0 0 0
0 0 0
0 0 0
0 0 0
0 0 0
0 0 0
0 0 0
0 0 0
0 0 0
0 0 0
0 0 0
0 0 0
0 0 0
0 0 0
0 0 0
0 0 0
0 0 0
0 0 0
0 0 0
0 0 0
0 0 0
0 0 0
0 0 0
0 0 0
0 0 0
0 0 0
0 0 0
0 0 0
0 0 0
0 0 0
0 0 0
0 0 0
0 0 0
0 0 0
0 0 0
0 0 0
0 0 0
0 0 0
0 0 0
0 0 0
0 0 0
0 0 0
0 0 0
0 0 0
0 0 0
0 0 0
0 0 0
0 0 0
0 0 0
0 0 0
0 0 0
0 0 0
0 0 0
0 0 0
0 0 0
0 0 0
0 0 0
0 0 0
0 0 0
0 0 0
0 0 0
0 0 0
0 0 0
0 0 0
0 0 0
0 0 0
0 0 0
0 0 0
0 0 0
0 0 0
0 0 0
0 0 0
0 0 0
0 0 0
0 0 0
0 0 0
0 0 0
0 0 0
0 0 0
0 0 0
0 0 0
0 0 0
0 0 0
0 0 0
0 0 0
0 0 0
0 0 0
0 0 0
0 0 0
0 0 0
0 0 0
0 0 0
0 0 0
0 0 0
0 0 0
0 0 0
0 0 0
0 0 0
0 0 0
0 0 0
0 0 0
0 0 0
0 0 0
0 0 0
0 0 0
0 0 0
0 0 0
0 0 0
0 0 0
0 0 0
0 0 0
0 0 0
0 0 0
0 0 0
0 0 0
0 0 0
0 0 0
0 0 0
0 0 0
0 0 0
0 0 0
0 0 0
0 0 0
0 0 0
0 0 0
0 0 0
0 0 0
0 0 0
0 0 0
0 0 0
0 0 0
0 0 0
0 0 0
0 0 0
0 0 0
0 0 0
0 0 0
0 0 0
0 0 0
0 0 0
0 0 0
0 0 0
0 0 0
0 0 0
0 0 0
0 0 0
0 0 0
0 0 0
0 0 0
0 0 0
0 0 0
0 0 0
0 0 0
0 0 0
0 0 0
0 0 0
0 0 0
0 0 0
0 0 0
0 0 0
0 0 0
0 0 0
0 0 0
0 0 0
0 0 0
0 0 0
0 0 0
0 0 0
0 0 0
0 0 0
0 0 0
0 0 0
0 0 0
0 0 0
0 0 0
0 0 0
0 0 0
0 0 0
0 0 0
0 0 0
0 0 0
0 0 0
0 0 0
0 0 0
0 0 0
0 0 0
0 0 0
0 0 0
0 0 0
0 0 0
0 0 0
0 0 0
0 0 0
0 0 0
0 0 0
0 0 0
0 0 0
0 0 0
0 0 0
0 0 0
0 0 0
0 0 0
0 0 0
0 0 0
0 0 0
0 0 0
0 0 0
0 0 0
0 0 0
0 0 0
0 0 0
0 0 0
0 0 0
0 0 0
0 0 0
0 0 0
0 0 0
0 0 0
0 0 0
0 0 0
0 0 0
0 0 0
0 0 0
0 0 0
0 0 0
0 0 0
0 0 0
0 0 0
0 0 0
0 0 0
0 0 0
0 0 0
0 0 0
0 0 0
0 0 0
0 0 0
0 0 0
0 0 0
0 0 0
0 0 0
0 0 0
0 0 0
0 0 0
0 0 0
0 0 0
0 0 0
0 0 0
0 0 0
0 0 0
0 0 0
0 0 0
0 0 0
0 0 0
0 0 0
0 0 0
0 0 0
0 0 0
0 0 0
0 0 0
0 0 0
0 0 0
0 0 0
0 0 0
0 0 0
0 0 0
0 0 0
0 0 0
0 0 0
0 0 0
0 0 0
0 0 0
0 0 0
0 0 0
0 0 0
0 0 0
0 0 0
0 0 0
0 0 0
0 0 0
0 0 0
0 0 0
0 0 0
0 0 0
0 0 0
0 0 0
0 0 0
0 0 0
0 0 0
0 0 0
0 0 0
0 0 0
0 0 0
0 0 0
0 0 0
0 0 0
0 0 0
0 0 0
0 0 0
0 0 0
0 0 0
0 0 0
0 0 0
0 0 0
0 0 0
0 0 0
0 0 0
0 0 0
0 0 0
0 0 0
0 0 0
0 0 0
0 0 0
0 0 0
0 0 0
0 0 0
0 0 0
0 0 0
0 0 0
0 0 0
0 0 0
0 0 0
0 0 0
0 0 0
0 0 0
0 0 0
0 0 0
0 0 0
0 0 0
0 0 0
0 0 0
0 0 0
0 0 0
0 0 0
0 0 0
0 0 0
0 0 0
0 0 0
0 0 0
0 0 0
0 0 0
0 0 0
0 0 0
0 0 0
0 0 0
0 0 0
0 0 0
0 0 0
0 0 0
0 0 0
0 0 0
0 0 0
0 0 0
0 0 0
0 0 0
0 0 0
0 0 0
0 0 0
0 0 0
0 0 0
0 0 0
0 0 0
0 0 0
0 0 0
0 0 0
0 0 0
0 0 0
0 0 0
0 0 0
0 0 0
0 0 0
0 0 0
0 0 0
0 0 0
0 0 0
0 0 0
0 0 0
0 0 0
0 0 0
0 0 0
0 0 0
0 0 0
0 0 0
0 0 0
0 0 0
0 0 0
0 0 0
0 0 0
0 0 0
0 0 0
0 0 0
0 0 0
0 0 0
0 0 0
0 0 0
0 0 0
0 0 0
0 0 0
0 0 0
0 0 0
0 0 0
0 0 0
0 0 0
0 0 0
0 0 0
0 0 0
0 0 0
0 0 0
0 0 0
0 0 0
0 0 0
0 0 0
0 0 0
0 0 0
0 0 0
0 0 0
0 0 0
0 0 0
0 0 0
0 0 0
0 0 0
0 0 0
0 0 0
0 0 0
0 0 0
0 0 0
0 0 0
0 0 0
0 0 0
0 0 0
0 0 0
0 0 0
0 0 0
0 0 0
0 0 0
0 0 0
0 0 0
0 0 0
0 0 0
0 0 0
0 0 0
0 0 0
0 0 0
0 0 0
0 0 0
0 0 0
0 0 0
0 0 0
0 0 0
0 0 0
0 0 0
0 0 0
0 0 0
0 0 0
0 0 0
0 0 0
0 0 0
0 0 0
0 0 0
0 0 0
0 0 0
0 0 0
0 0 0
0 0 0
0 0 0
0 0 0
0 0 0
0 0 0
0 0 0
0 0 0
0 0 0
0 0 0
0 0 0
0 0 0
0 0 0
0 0 0
0 0 0
0 0 0
0 0 0
0 0 0
0 0 0
0 0 0
0 0 0
0 0 0
0 0 0
0 0 0
0 0 0
0 0 0
0 0 0
0 0 0
0 0 0
0 0 0
0 0 0
0 0 0
0 0 0
0 0 0
0 0 0
0 0 0
0 0 0
0 0 0
0 0 0
0 0 0
0 0 0
0 0 0
0 0 0
0 0 0
0 0 0
0 0 0
0 0 0
0 0 0
0 0 0
0 0 0
0 0 0
0 0 0
0 0 0
0 0 0
0 0 0
0 0 0
0 0 0
0 0 0
0 0 0
0 0 0
0 0 0
0 0 0
0 0 0
0 0 0
0 0 0
0 0 0
0 0 0
0 0 0
0 0 0
0 0 0
0 0 0
0 0 0
0 0 0
0 0 0
0 0 0
0 0 0
0 0 0
0 0 0
0 0 0
0 0 0
0 0 0
0 0 0
0 0 0
0 0 0
0 0 0
0 0 0
0 0 0
0 0 0
0 0 0
0 0 0
0 0 0
0 0 0
0 0 0
0 0 0
0 0 0
0 0 0
0 0 0
0 0 0
0 0 0
0 0 0
0 0 0
0 0 0
0 0 0
0 0 0
0 0 0
0 0 0
0 0 0
0 0 0
0 0 0
0 0 0
0 0 0
0 0 0
0 0 0
0 0 0
0 0 0
0 0 0
0 0 0
0 0 0
0 0 0
0 0 0
0 0 0
0 0 0
0 0 0
0 0 0
0 0 0
0 0 0
0 0 0
0 0 0
0 0 0
0 0 0
0 0 0
0 0 0
0 0 0
0 0 0
0 0 0
0 0 0
0 0 0
0 0 0
0 0 0
0 0 0
0 0 0
0 0 0
0 0 0
0 0 0
0 0 0
0 0 0
0 0 0
0 0 0
0 0 0
0 0 0
0 0 0
0 0 0
0 0 0
0 0 0
0 0 0
0 0 0
0 0 0
0 0 0
0 0 0
0 0 0
0 0 0
0 0 0
0 0 0
0 0 0
0 0 0
0 0 0
0 0 0
0 0 0
0 0 0
0 0 0
0 0 0
0 0 0
0 0 0
0 0 0
0 0 0
0 0 0
0 0 0
0 0 0
0 0 0
0 0 0
0 0 0
0 0 0
0 0 0
0 0 0
0 0 0
0 0 0
0 0 0
0 0 0
0 0 0
0 0 0
0 0 0
0 0 0
0 0 0
0 0 0
0 0 0
0 0 0
0 0 0
0 0 0
0 0 0
0 0 0
0 0 0
0 0 0
0 0 0
0 0 0
0 0 0
0 0 0
0 0 0
0 0 0
0 0 0
0 0 0
0 0 0
0 0 0
0 0 0
0 0 0
0 0 0
0 0 0
0 0 0
0 0 0
0 0 0
0 0 0
0 0 0
0 0 0
0 0 0
0 0 0
0 0 0
0 0 0
0 0 0
0 0 0
0 0 0
0 0 0
0 0 0
0 0 0
0 0 0
0 0 0
0 0 0
0 0 0
0 0 0
0 0 0
0 0 0
0 0 0
0 0 0
0 0 0
0 0 0
0 0 0
0 0 0
0 0 0
0 0 0
0 0 0
0 0 0
0 0 0
0 0 0
0 0 0
0 0 0
0 0 0
0 0 0
0 0 0
0 0 0
0 0 0
0 0 0
0 0 0
0 0 0
0 0 0
0 0 0
0 0 0
0 0 0
0 0 0
0 0 0
0 0 0
0 0 0
0 0 0
0 0 0
0 0 0
0 0 0
0 0 0
0 0 0
0 0 0
0 0 0
0 0 0
0 0 0
0 0 0
0 0 0
0 0 0
0 0 0
0 0 0
0 0 0
0 0 0
0 0 0
0 0 0
0 0 0
0 0 0
0 0 0
0 0 0
0 0 0
0 0 0
0 0 0
0 0 0
0 0 0
0 0 0
0 0 0
0 0 0
0 0 0
0 0 0
0 0 0
0 0 0
0 0 0
0 0 0
0 0 0
0 0 0
0 0 0
0 0 0
0 0 0
0 0 0
0 0 0
0 0 0
0 0 0
0 0 0
0 0 0
0 0 0
0 0 0
0 0 0
0 0 0
0 0 0
0 0 0
0 0 0
0 0 0
0 0 0
0 0 0
0 0 0
0 0 0
0 0 0
0 0 0
0 0 0
0 0 0
0 0 0
0 0 0
0 0 0
0 0 0
0 0 0
0 0 0
0 0 0
0 0 0
0 0 0
0 0 0
0 0 0
0 0 0
0 0 0
0 0 0
0 0 0
0 0 0
0 0 0
0 0 0
0 0 0
0 0 0
0 0 0
0 0 0
0 0 0
0 0 0
0 0 0
0 0 0
0 0 0
0 0 0
0 0 0
0 0 0
0 0 0
0 0 0
0 0 0
0 0 0
0 0 0
0 0 0
0 0 0
0 0 0
0 0 0
0 0 0
0 0 0
0 0 0
0 0 0
0 0 0
0 0 0
0 0 0
0 0 0
0 0 0
0 0 0
0 0 0
0 0 0
0 0 0
0 0 0
0 0 0
0 0 0
0 0 0
0 0 0
0 0 0
0 0 0
0 0 0
0 0 0
0 0 0
0 0 0
0 0 0
0 0 0
0 0 0
0 0 0
0 0 0
0 0 0
0 0 0
0 0 0
0 0 0
0 0 0
0 0 0
0 0 0
0 0 0
0 0 0
0 0 0
0 0 0
0 0 0
0 0 0
0 0 0
0 0 0
0 0 0
0 0 0
0 0 0
0 0 0
0 0 0
0 0 0
0 0 0
0 0 0
0 0 0
0 0 0
0 0 0
0 0 0
0 0 0
0 0 0
0 0 0
0 0 0
0 0 0
0 0 0
0 0 0
0 0 0
0 0 0
0 0 0
0 0 0
0 0 0
0 0 0
0 0 0
0 0 0
0 0 0
0 0 0
0 0 0
0 0 0
0 0 0
0 0 0
0 0 0
0 0 0
0 0 0
0 0 0
0 0 0
0 0 0
0 0 0
0 0 0
0 0 0
0 0 0
0 0 0
0 0 0
0 0 0
0 0 0
0 0 0
0 0 0
0 0 0
0 0 0
0 0 0
0 0 0
0 0 0
0 0 0
0 0 0
0 0 0
0 0 0
0 0 0
0 0 0
0 0 0
0 0 0
0 0 0
0 0 0
0 0 0
0 0 0
0 0 0
0 0 0
0 0 0
0 0 0
0 0 0
0 0 0
0 0 0
0 0 0
0 0 0
0 0 0
0 0 0
0 0 0
0 0 0
0 0 0
0 0 0
0 0 0
0 0 0
0 0 0
0 0 0
0 0 0
0 0 0
0 0 0
0 0 0
0 0 0
0 0 0
0 0 0
0 0 0
0 0 0
0 0 0
0 0 0
0 0 0
0 0 0
0 0 0
0 0 0
0 0 0
0 0 0
0 0 0
0 0 0
0 0 0
0 0 0
0 0 0
0 0 0
0 0 0
0 0 0
0 0 0
0 0 0
0 0 0
0 0 0
0 0 0
0 0 0
0 0 0
0 0 0
0 0 0
0 0 0
0 0 0
0 0 0
0 0 0
0 0 0
0 0 0
0 0 0
0 0 0
0 0 0
0 0 0
0 0 0
0 0 0
0 0 0
0 0 0
0 0 0
0 0 0
0 0 0
0 0 0
0 0 0
0 0 0
0 0 0
0 0 0
0 0 0
0 0 0
0 0 0
0 0 0
0 0 0
0 0 0
0 0 0
0 0 0
0 0 0
0 0 0
0 0 0
0 0 0
0 0 0
0 0 0
0 0 0
0 0 0
0 0 0
0 0 0
0 0 0
0 0 0
0 0 0
0 0 0
0 0 0
0 0 0
0 0 0
0 0 0
0 0 0
0 0 0
0 0 0
0 0 0
0 0 0
0 0 0
0 0 0
0 0 0
0 0 0
0 0 0
0 0 0
0 0 0
0 0 0
0 0 0
0 0 0
0 0 0
0 0 0
0 0 0
0 0 0
0 0 0
0 0 0
0 0 0
0 0 0
0 0 0
0 0 0
0 0 0
0 0 0
0 0 0
0 0 0
0 0 0
0 0 0
0 0 0
0 0 0
0 0 0
0 0 0
0 0 0
0 0 0
0 0 0
0 0 0
0 0 0
0 0 0
0 0 0
0 0 0
0 0 0
0 0 0
0 0 0
0 0 0
0 0 0
0 0 0
0 0 0
0 0 0
0 0 0
0 0 0
0 0 0
0 0 0
0 0 0
0 0 0
0 0 0
0 0 0
0 0 0
0 0 0
0 0 0
0 0 0
0 0 0
0 0 0
0 0 0
0 0 0
0 0 0
0 0 0
0 0 0
0 0 0
0 0 0
0 0 0
0 0 0
0 0 0
0 0 0
0 0 0
0 0 0
0 0 0
0 0 0
0 0 0
0 0 0
0 0 0
0 0 0
0 0 0
0 0 0
0 0 0
0 0 0
0 0 0
0 0 0
0 0 0
0 0 0
0 0 0
0 0 0
0 0 0
0 0 0
0 0 0
0 0 0
0 0 0
0 0 0
0 0 0
0 0 0
0 0 0
0 0 0
0 0 0
0 0 0
0 0 0
0 0 0
0 0 0
0 0 0
0 0 0
0 0 0
0 0 0
0 0 0
0 0 0
0 0 0
0 0 0
0 0 0
0 0 0
0 0 0
0 0 0
0 0 0
0 0 0
0 0 0
0 0 0
0 0 0
0 0 0
0 0 0
0 0 0
0 0 0
0 0 0
0 0 0
0 0 0
0 0 0
0 0 0
0 0 0
0 0 0
0 0 0
0 0 0
0 0 0
0 0 0
0 0 0
0 0 0
0 0 0
0 0 0
0 0 0
0 0 0
0 0 0
0 0 0
0 0 0
0 0 0
0 0 0
0 0 0
0 0 0
0 0 0
0 0 0
0 0 0
0 0 0
0 0 0
0 0 0
0 0 0
0 0 0
0 0 0
0 0 0
0 0 0
0 0 0
0 0 0
0 0 0
0 0 0
0 0 0
0 0 0
0 0 0
0 0 0
0 0 0
0 0 0
0 0 0
0 0 0
0 0 0
0 0 0
0 0 0
0 0 0
0 0 0
0 0 0
0 0 0
0 0 0
0 0 0
0 0 0
0 0 0
0 0 0
0 0 0
0 0 0
0 0 0
0 0 0
0 0 0
0 0 0
0 0 0
0 0 0
0 0 0
0 0 0
0 0 0
0 0 0
0 0 0
0 0 0
0 0 0
0 0 0
0 0 0
0 0 0
0 0 0
0 0 0
0 0 0
0 0 0
0 0 0
0 0 0
0 0 0
0 0 0
0 0 0
0 0 0
0 0 0
0 0 0
0 0 0
0 0 0
0 0 0
0 0 0
0 0 0
0 0 0
0 0 0
0 0 0
0 0 0
0 0 0
0 0 0
0 0 0
0 0 0
0 0 0
0 0 0
0 0 0
0 0 0
0 0 0
0 0 0
0 0 0
0 0 0
0 0 0
0 0 0
0 0 0
0 0 0
0 0 0
0 0 0
0 0 0
0 0 0
0 0 0
0 0 0
0 0 0
0 0 0
0 0 0
0 0 0
0 0 0
0 0 0
0 0 0
0 0 0
0 0 0
0 0 0
0 0 0
0 0 0
0 0 0
0 0 0
0 0 0
0 0 0
0 0 0
0 0 0
0 0 0
0 0 0
0 0 0
0 0 0
0 0 0
0 0 0
0 0 0
0 0 0
0 0 0
0 0 0
0 0 0
0 0 0
0 0 0
0 0 0
0 0 0
0 0 0
0 0 0
0 0 0
0 0 0
0 0 0
0 0 0
0 0 0
0 0 0
0 0 0
0 0 0
0 0 0
0 0 0
0 0 0
0 0 0
0 0 0
0 0 0
0 0 0
0 0 0
0 0 0
0 0 0
0 0 0
0 0 0
0 0 0
0 0 0
0 0 0
0 0 0
0 0 0
0 0 0
0 0 0
0 0 0
0 0 0
0 0 0
0 0 0
0 0 0
0 0 0
0 0 0
0 0 0
0 0 0
0 0 0
0 0 0
0 0 0
0 0 0
0 0 0
0 0 0
0 0 0
0 0 0
0 0 0
0 0 0
0 0 0
0 0 0
0 0 0
0 0 0
0 0 0
0 0 0
0 0 0
0 0 0
0 0 0
0 0 0
0 0 0
0 0 0
0 0 0
0 0 0
0 0 0
0 0 0
0 0 0
0 0 0
0 0 0
0 0 0
0 0 0
0 0 0
0 0 0
0 0 0
0 0 0
0 0 0
0 0 0
0 0 0
0 0 0
0 0 0
0 0 0
0 0 0
0 0 0
0 0 0
0 0 0
0 0 0
0 0 0
0 0 0
0 0 0
0 0 0
0 0 0
0 0 0
0 0 0
0 0 0
0 0 0
0 0 0
0 0 0
0 0 0
0 0 0
0 0 0
0 0 0
0 0 0
0 0 0
0 0 0
0 0 0
0 0 0
0 0 0
0 0 0
0 0 0
0 0 0
0 0 0
0 0 0
0 0 0
0 0 0
0 0 0
0 0 0
0 0 0
0 0 0
0 0 0
0 0 0
0 0 0
0 0 0
0 0 0
0 0 0
0 0 0
0 0 0
0 0 0
0 0 0
0 0 0
0 0 0
0 0 0
0 0 0
0 0 0
0 0 0
0 0 0
0 0 0
0 0 0
0 0 0
0 0 0
0 0 0
0 0 0
0 0 0
0 0 0
0 0 0
0 0 0
0 0 0
0 0 0
0 0 0
0 0 0
0 0 0
0 0 0
0 0 0
0 0 0
0 0 0
0 0 0
0 0 0
0 0 0
0 0 0
0 0 0
0 0 0
0 0 0
0 0 0
0 0 0
0 0 0
0 0 0
0 0 0
0 0 0
0 0 0
0 0 0
0 0 0
0 0 0
0 0 0
0 0 0
0 0 0
0 0 0
0 0 0
0 0 0
0 0 0
0 0 0
0 0 0
0 0 0
0 0 0
0 0 0
0 0 0
0 0 0
0 0 0
0 0 0
0 0 0
0 0 0
0 0 0
0 0 0
0 0 0
0 0 0
0 0 0
0 0 0
0 0 0
0 0 0
0 0 0
0 0 0
0 0 0
0 0 0
0 0 0
0 0 0
0 0 0
0 0 0
0 0 0
0 0 0
0 0 0
0 0 0
0 0 0
0 0 0
0 0 0
0 0 0
0 0 0
0 0 0
0 0 0
0 0 0
0 0 0
0 0 0
0 0 0
0 0 0
0 0 0
0 0 0
0 0 0
0 0 0
0 0 0
0 0 0
0 0 0
0 0 0
0 0 0
0 0 0
0 0 0
0 0 0
0 0 0
0 0 0
0 0 0
0 0 0
0 0 0
0 0 0
0 0 0
0 0 0
0 0 0
0 0 0
0 0 0
0 0 0
0 0 0
0 0 0
0 0 0
0 0 0
0 0 0
0 0 0
0 0 0
0 0 0
0 0 0
0 0 0
0 0 0
0 0 0
0 0 0
0 0 0
0 0 0
0 0 0
0 0 0
0 0 0
0 0 0
0 0 0
0 0 0
0 0 0
0 0 0
0 0 0
0 0 0
0 0 0
0 0 0
0 0 0
0 0 0
0 0 0
0 0 0
0 0 0
0 0 0
0 0 0
0 0 0
0 0 0
0 0 0
0 0 0
0 0 0
0 0 0
0 0 0
0 0 0
0 0 0
0 0 0
0 0 0
0 0 0
0 0 0
0 0 0
0 0 0
0 0 0
0 0 0
0 0 0
0 0 0
0 0 0
0 0 0
0 0 0
0 0 0
0 0 0
0 0 0
0 0 0
0 0 0
0 0 0
0 0 0
0 0 0
0 0 0
0 0 0
0 0 0
0 0 0
0 0 0
0 0 0
0 0 0
0 0 0
0 0 0
0 0 0
0 0 0
0 0 0
0 0 0
0 0 0
0 0 0
0 0 0
0 0 0
0 0 0
0 0 0
0 0 0
0 0 0
0 0 0
0 0 0
0 0 0
0 0 0
0 0 0
0 0 0
0 0 0
0 0 0
0 0 0
0 0 0
0 0 0
0 0 0
0 0 0
0 0 0
0 0 0
0 0 0
0 0 0
0 0 0
0 0 0
0 0 0
0 0 0
0 0 0
0 0 0
0 0 0
0 0 0
0 0 0
0 0 0
0 0 0
0 0 0
0 0 0
0 0 0
0 0 0
0 0 0
0 0 0
0 0 0
0 0 0
0 0 0
0 0 0
0 0 0
0 0 0
0 0 0
0 0 0
0 0 0
0 0 0
0 0 0
0 0 0
0 0 0
0 0 0
0 0 0
0 0 0
0 0 0
0 0 0
0 0 0
0 0 0
0 0 0
0 0 0
0 0 0
0 0 0
0 0 0
0 0 0
0 0 0
0 0 0
0 0 0
0 0 0
0 0 0
0 0 0
0 0 0
0 0 0
0 0 0
0 0 0
0 0 0
0 0 0
0 0 0
0 0 0
0 0 0
0 0 0
0 0 0
0 0 0
0 0 0
0 0 0
0 0 0
0 0 0
0 0 0
0 0 0
0 0 0
0 0 0
0 0 0
0 0 0
0 0 0
0 0 0
0 0 0
0 0 0
0 0 0
0 0 0
0 0 0
0 0 0
0 0 0
0 0 0
0 0 0
0 0 0
0 0 0
0 0 0
0 0 0
0 0 0
0 0 0
0 0 0
0 0 0
0 0 0
0 0 0
0 0 0
0 0 0
0 0 0
0 0 0
0 0 0
0 0 0
0 0 0
0 0 0
0 0 0
0 0 0
0 0 0
0 0 0
0 0 0
0 0 0
0 0 0
0 0 0
0 0 0
0 0 0
0 0 0
0 0 0
0 0 0
0 0 0
0 0 0
0 0 0
0 0 0
0 0 0
0 0 0
0 0 0
0 0 0
0 0 0
0 0 0
0 0 0
0 0 0
0 0 0
0 0 0
0 0 0
0 0 0
0 0 0
0 0 0
0 0 0
0 0 0
0 0 0
0 0 0
0 0 0
0 0 0
0 0 0
0 0 0
0 0 0
0 0 0
0 0 0
0 0 0
0 0 0
0 0 0
0 0 0
0 0 0
0 0 0
0 0 0
0 0 0
0 0 0
0 0 0
0 0 0
0 0 0
0 0 0
0 0 0
0 0 0
0 0 0
0 0 0
0 0 0
0 0 0
0 0 0
0 0 0
0 0 0
0 0 0
0 0 0
0 0 0
0 0 0
0 0 0
0 0 0
0 0 0
0 0 0
0 0 0
0 0 0
0 0 0
0 0 0
0 0 0
0 0 0
0 0 0
0 0 0
0 0 0
0 0 0
0 0 0
0 0 0
0 0 0
0 0 0
0 0 0
0 0 0
0 0 0
0 0 0
0 0 0
0 0 0
0 0 0
0 0 0
0 0 0
0 0 0
0 0 0
0 0 0
0 0 0
0 0 0
0 0 0
0 0 0
0 0 0
0 0 0
0 0 0
0 0 0
0 0 0
0 0 0
0 0 0
0 0 0
0 0 0
0 0 0
0 0 0
0 0 0
0 0 0
0 0 0
0 0 0
0 0 0
0 0 0
0 0 0
0 0 0
0 0 0
0 0 0
0 0 0
0 0 0
0 0 0
0 0 0
0 0 0
0 0 0
0 0 0
0 0 0
0 0 0
0 0 0
0 0 0
0 0 0
0 0 0
0 0 0
0 0 0
0 0 0
0 0 0
0 0 0
0 0 0
0 0 0
0 0 0
0 0 0
0 0 0
0 0 0
0 0 0
0 0 0
0 0 0
0 0 0
0 0 0
0 0 0
0 0 0
0 0 0
0 0 0
0 0 0
0 0 0
0 0 0
0 0 0
0 0 0
0 0 0
0 0 0
0 0 0
0 0 0
0 0 0
0 0 0
0 0 0
0 0 0
0 0 0
0 0 0
0 0 0
0 0 0
0 0 0
0 0 0
0 0 0
0 0 0
0 0 0
0 0 0
0 0 0
0 0 0
0 0 0
0 0 0
0 0 0
0 0 0
0 0 0
0 0 0
0 0 0
0 0 0
0 0 0
0 0 0
0 0 0
0 0 0
0 0 0
0 0 0
0 0 0
0 0 0
0 0 0
0 0 0
0 0 0
0 0 0
0 0 0
0 0 0
0 0 0
0 0 0
0 0 0
0 0 0
0 0 0
0 0 0
0 0 0
0 0 0
0 0 0
0 0 0
0 0 0
0 0 0
0 0 0
0 0 0
0 0 0
0 0 0
0 0 0
0 0 0
0 0 0
0 0 0
0 0 0
0 0 0
0 0 0
0 0 0
0 0 0
0 0 0
0 0 0
0 0 0
0 0 0
0 0 0
0 0 0
0 0 0
0 0 0
0 0 0
0 0 0
0 0 0
0 0 0
0 0 0
0 0 0
0 0 0
0 0 0
0 0 0
0 0 0
0 0 0
0 0 0
0 0 0
0 0 0
0 0 0
0 0 0
0 0 0
0 0 0
0 0 0
0 0 0
0 0 0
0 0 0
0 0 0
0 0 0
0 0 0
0 0 0
0 0 0
0 0 0
0 0 0
0 0 0
0 0 0
0 0 0
0 0 0
0 0 0
0 0 0
0 0 0
0 0 0
0 0 0
0 0 0
0 0 0
0 0 0
0 0 0
0 0 0
0 0 0
0 0 0
0 0 0
0 0 0
0 0 0
0 0 0
0 0 0
0 0 0
0 0 0
0 0 0
0 0 0
0 0 0
0 0 0
0 0 0
0 0 0
0 0 0
0 0 0
0 0 0
0 0 0
0 0 0
0 0 0
0 0 0
0 0 0
0 0 0
0 0 0
0 0 0
0 0 0
0 0 0
0 0 0
0 0 0
0 0 0
0 0 0
0 0 0
0 0 0
0 0 0
0 0 0
0 0 0
0 0 0
0 0 0
0 0 0
0 0 0
0 0 0
0 0 0
0 0 0
0 0 0
0 0 0
0 0 0
0 0 0
0 0 0
0 0 0
0 0 0
0 0 0
0 0 0
0 0 0
0 0 0
0 0 0
0 0 0
0 0 0
0 0 0
0 0 0
0 0 0
0 0 0
0 0 0
0 0 0
0 0 0
0 0 0
0 0 0
0 0 0
0 0 0
0 0 0
0 0 0
0 0 0
0 0 0
0 0 0
0 0 0
0 0 0
0 0 0
0 0 0
0 0 0
0 0 0
0 0 0
0 0 0
0 0 0
0 0 0
0 0 0
0 0 0
0 0 0
0 0 0
0 0 0
0 0 0
0 0 0
0 0 0
0 0 0
0 0 0
0 0 0
0 0 0
0 0 0
0 0 0
0 0 0
0 0 0
0 0 0
0 0 0
0 0 0
0 0 0
0 0 0
0 0 0
0 0 0
0 0 0
0 0 0
0 0 0
0 0 0
0 0 0
0 0 0
0 0 0
0 0 0
0 0 0
0 0 0
0 0 0
0 0 0
0 0 0
0 0 0
0 0 0
0 0 0
0 0 0
0 0 0
0 0 0
0 0 0
0 0 0
0 0 0
0 0 0
0 0 0
0 0 0
0 0 0
0 0 0
0 0 0
0 0 0
0 0 0
0 0 0
0 0 0
0 0 0
0 0 0
0 0 0
0 0 0
0 0 0
0 0 0
0 0 0
0 0 0
0 0 0
0 0 0
0 0 0
0 0 0
0 0 0
0 0 0
0 0 0
0 0 0
0 0 0
0 0 0
0 0 0
0 0 0
0 0 0
0 0 0
0 0 0
0 0 0
0 0 0
0 0 0
0 0 0
0 0 0
0 0 0
0 0 0
0 0 0
0 0 0
0 0 0
0 0 0
0 0 0
0 0 0
0 0 0
0 0 0
0 0 0
0 0 0
0 0 0
0 0 0
0 0 0
0 0 0
0 0 0
0 0 0
0 0 0
0 0 0
0 0 0
0 0 0
0 0 0
0 0 0
0 0 0
0 0 0
0 0 0
0 0 0
0 0 0
0 0 0
0 0 0
0 0 0
0 0 0
0 0 0
0 0 0
0 0 0
0 0 0
0 0 0
0 0 0
0 0 0
0 0 0
0 0 0
0 0 0
0 0 0
0 0 0
0 0 0
0 0 0
0 0 0
0 0 0
0 0 0
0 0 0
0 0 0
0 0 0
0 0 0
0 0 0
0 0 0
0 0 0
0 0 0
0 0 0
0 0 0
0 0 0
0 0 0
0 0 0
0 0 0
0 0 0
0 0 0
0 0 0
0 0 0
0 0 0
0 0 0
0 0 0
0 0 0
0 0 0
0 0 0
0 0 0
0 0 0
0 0 0
0 0 0
0 0 0
0 0 0
0 0 0
0 0 0
0 0 0
0 0 0
0 0 0
0 0 0
0 0 0
0 0 0
0 0 0
0 0 0
0 0 0
0 0 0
0 0 0
0 0 0
0 0 0
0 0 0
0 0 0
0 0 0
0 0 0
0 0 0
0 0 0
0 0 0
0 0 0
0 0 0
0 0 0
0 0 0
0 0 0
0 0 0
0 0 0
0 0 0
0 0 0
0 0 0
0 0 0
0 0 0
0 0 0
0 0 0
0 0 0
0 0 0
0 0 0
0 0 0
0 0 0
0 0 0
0 0 0
0 0 0
0 0 0
0 0 0
0 0 0
0 0 0
0 0 0
0 0 0
0 0 0
0 0 0
0 0 0
0 0 0
0 0 0
0 0 0
0 0 0
0 0 0
0 0 0
0 0 0
0 0 0
0 0 0
0 0 0
0 0 0
0 0 0
0 0 0
0 0 0
0 0 0
0 0 0
0 0 0
0 0 0
0 0 0
0 0 0
0 0 0
0 0 0
0 0 0
0 0 0
0 0 0
0 0 0
0 0 0
0 0 0
0 0 0
0 0 0
0 0 0
0 0 0
0 0 0
0 0 0
0 0 0
0 0 0
0 0 0
0 0 0
0 0 0
0 0 0
0 0 0
0 0 0
0 0 0
0 0 0
0 0 0
0 0 0
0 0 0
0 0 0
0 0 0
0 0 0
0 0 0
0 0 0
0 0 0
0 0 0
0 0 0
0 0 0
0 0 0
0 0 0
0 0 0
0 0 0
0 0 0
0 0 0
0 0 0
0 0 0
0 0 0
0 0 0
0 0 0
0 0 0
0 0 0
0 0 0
0 0 0
0 0 0
0 0 0
0 0 0
0 0 0
0 0 0
0 0 0
0 0 0
0 0 0
0 0 0
0 0 0
0 0 0
0 0 0
0 0 0
0 0 0
0 0 0
0 0 0
0 0 0
0 0 0
0 0 0
0 0 0
0 0 0
0 0 0
0 0 0
0 0 0
0 0 0
0 0 0
0 0 0
0 0 0
0 0 0
0 0 0
0 0 0
0 0 0
0 0 0
0 0 0
0 0 0
0 0 0
0 0 0
0 0 0
0 0 0
0 0 0
0 0 0
0 0 0
0 0 0
0 0 0
0 0 0
0 0 0
0 0 0
0 0 0
0 0 0
0 0 0
0 0 0
0 0 0
0 0 0
0 0 0
0 0 0
0 0 0
0 0 0
0 0 0
0 0 0
0 0 0
0 0 0
0 0 0
0 0 0
0 0 0
0 0 0
0 0 0
0 0 0
0 0 0
0 0 0
0 0 0
0 0 0
0 0 0
0 0 0
0 0 0
0 0 0
0 0 0
0 0 0
0 0 0
0 0 0
0 0 0
0 0 0
0 0 0
0 0 0
0 0 0
0 0 0
0 0 0
0 0 0
0 0 0
0 0 0
0 0 0
0 0 0
0 0 0
0 0 0
0 0 0
0 0 0
0 0 0
0 0 0
0 0 0
0 0 0
0 0 0
0 0 0
0 0 0
0 0 0
0 0 0
0 0 0
0 0 0
0 0 0
0 0 0
0 0 0
0 0 0
0 0 0
0 0 0
0 0 0
0 0 0
0 0 0
0 0 0
0 0 0
0 0 0
0 0 0
0 0 0
0 0 0
0 0 0
0 0 0
0 0 0
0 0 0
0 0 0
0 0 0
0 0 0
0 0 0
0 0 0
0 0 0
0 0 0
0 0 0
0 0 0
0 0 0
0 0 0
0 0 0
0 0 0
0 0 0
0 0 0
0 0 0
0 0 0
0 0 0
0 0 0
0 0 0
0 0 0
0 0 0
0 0 0
0 0 0
0 0 0
0 0 0
0 0 0
0 0 0
0 0 0
0 0 0
0 0 0
0 0 0
0 0 0
0 0 0
0 0 0
0 0 0
0 0 0
0 0 0
0 0 0
0 0 0
0 0 0
0 0 0
0 0 0
0 0 0
0 0 0
0 0 0
0 0 0
0 0 0
0 0 0
0 0 0
0 0 0
0 0 0
0 0 0
0 0 0
0 0 0
0 0 0
0 0 0
0 0 0
0 0 0
0 0 0
0 0 0
0 0 0
0 0 0
0 0 0
0 0 0
0 0 0
0 0 0
0 0 0
0 0 0
0 0 0
0 0 0
0 0 0
0 0 0
0 0 0
0 0 0
0 0 0
0 0 0
0 0 0
0 0 0
0 0 0
0 0 0
0 0 0
0 0 0
0 0 0
0 0 0
0 0 0
0 0 0
0 0 0
0 0 0
0 0 0
0 0 0
0 0 0
0 0 0
0 0 0
0 0 0
0 0 0
0 0 0
0 0 0
0 0 0
0 0 0
0 0 0
0 0 0
0 0 0
0 0 0
0 0 0
0 0 0
0 0 0
0 0 0
0 0 0
0 0 0
0 0 0
0 0 0
0 0 0
0 0 0
0 0 0
0 0 0
0 0 0
0 0 0
0 0 0
0 0 0
0 0 0
0 0 0
0 0 0
0 0 0
0 0 0
0 0 0
0 0 0
0 0 0
0 0 0
0 0 0
0 0 0
0 0 0
0 0 0
0 0 0
0 0 0
0 0 0
0 0 0
0 0 0
0 0 0
0 0 0
0 0 0
0 0 0
0 0 0
0 0 0
0 0 0
0 0 0
0 0 0
0 0 0
0 0 0
0 0 0
0 0 0
0 0 0
0 0 0
0 0 0
0 0 0
0 0 0
0 0 0
0 0 0
0 0 0
0 0 0
0 0 0
0 0 0
0 0 0
0 0 0
0 0 0
0 0 0
0 0 0
0 0 0
0 0 0
0 0 0
0 0 0
0 0 0
0 0 0
0 0 0
0 0 0
0 0 0
0 0 0
0 0 0
0 0 0
0 0 0
0 0 0
0 0 0
0 0 0
0 0 0
0 0 0
0 0 0
0 0 0
0 0 0
0 0 0
0 0 0
0 0 0
0 0 0
0 0 0
0 0 0
0 0 0
0 0 0
0 0 0
0 0 0
0 0 0
0 0 0
0 0 0
0 0 0
0 0 0
0 0 0
0 0 0
0 0 0
0 0 0
0 0 0
0 0 0
0 0 0
0 0 0
0 0 0
0 0 0
0 0 0
0 0 0
0 0 0
0 0 0
0 0 0
0 0 0
0 0 0
0 0 0
0 0 0
0 0 0
0 0 0
0 0 0
0 0 0
0 0 0
0 0 0
0 0 0
0 0 0
0 0 0
0 0 0
0 0 0
0 0 0
0 0 0
0 0 0
0 0 0
0 0 0
0 0 0
0 0 0
0 0 0
0 0 0
0 0 0
0 0 0
0 0 0
0 0 0
0 0 0
0 0 0
0 0 0
0 0 0
0 0 0
0 0 0
0 0 0
0 0 0
0 0 0
0 0 0
0 0 0
0 0 0
0 0 0
0 0 0
0 0 0
0 0 0
0 0 0
0 0 0
0 0 0
0 0 0
0 0 0
0 0 0
0 0 0
0 0 0
0 0 0
0 0 0
0 0 0
0 0 0
0 0 0
0 0 0
0 0 0
0 0 0
0 0 0
0 0 0
0 0 0
0 0 0
0 0 0
0 0 0
0 0 0
0 0 0
0 0 0
0 0 0
0 0 0
0 0 0
0 0 0
0 0 0
0 0 0
0 0 0
0 0 0
0 0 0
0 0 0
0 0 0
0 0 0
0 0 0
0 0 0
0 0 0
0 0 0
0 0 0
0 0 0
0 0 0
0 0 0
0 0 0
0 0 0
0 0 0
0 0 0
0 0 0
0 0 0
0 0 0
0 0 0
0 0 0
0 0 0
0 0 0
0 0 0
0 0 0
0 0 0
0 0 0
0 0 0
0 0 0
0 0 0
0 0 0
0 0 0
0 0 0
0 0 0
0 0 0
0 0 0
0 0 0
0 0 0
0 0 0
0 0 0
0 0 0
0 0 0
0 0 0
0 0 0
0 0 0
0 0 0
0 0 0
0 0 0
0 0 0
0 0 0
0 0 0
0 0 0
0 0 0
0 0 0
0 0 0
0 0 0
0 0 0
0 0 0
0 0 0
0 0 0
0 0 0
0 0 0
0 0 0
0 0 0
0 0 0
0 0 0
0 0 0
0 0 0
0 0 0
0 0 0
0 0 0
0 0 0
0 0 0
0 0 0
0 0 0
0 0 0
0 0 0
0 0 0
0 0 0
0 0 0
0 0 0
0 0 0
0 0 0
0 0 0
0 0 0
0 0 0
0 0 0
0 0 0
0 0 0
0 0 0
0 0 0
0 0 0
0 0 0
0 0 0
0 0 0
0 0 0
0 0 0
0 0 0
0 0 0
0 0 0
0 0 0
0 0 0
0 0 0
0 0 0
0 0 0
0 0 0
0 0 0
0 0 0
0 0 0
0 0 0
0 0 0
0 0 0
0 0 0
0 0 0
0 0 0
0 0 0
0 0 0
0 0 0
0 0 0
0 0 0
0 0 0
0 0 0
0 0 0
0 0 0
0 0 0
0 0 0
0 0 0
0 0 0
0 0 0
0 0 0
0 0 0
0 0 0
0 0 0
0 0 0
0 0 0
0 0 0
0 0 0
0 0 0
0 0 0
0 0 0
0 0 0
0 0 0
0 0 0
0 0 0
0 0 0
0 0 0
0 0 0
0 0 0
0 0 0
0 0 0
0 0 0
