P3
# Max error: 2
200 300
255
113 136 102
113 136 102
113 136 102
113 136 102
113 136 102
113 136 102
113 136 102
113 136 102
113 136 102
113 136 103
113 136 103
113 136 103
113 136 103
113 136 103
113 136 103
113 136 103
113 136 103
113 136 103
113 136 103
113 136 103
113 136 103
113 136 103
113 136 103
113 136 103
113 136 103
113 136 103
113 136 103
113 135 103
113 135 103
113 135 103
113 135 103
113 135 103
113 135 103
113 135 104
113 135 104
113 135 104
113 135 104
113 135 104
113 135 104
113 135 104
113 135 104
113 135 104
113 135 104
113 135 104
113 135 104
113 135 104
113 135 104
113 135 104
113 135 104
113 135 104
113 135 104
113 135 104
113 135 104
113 135 104
113 135 104
113 135 104
113 135 104
113 135 104
113 135 104
113 135 104
113 135 104
113 135 104
113 135 104
113 135 104
113 135 104
113 135 104
113 135 104
113 135 104
113 135 104
113 135 104
113 135 104
113 135 104
113 135 104
113 135 104
113 135 105
113 135 105
113 135 105
113 135 105
97 128 107
0 111 112
0 110 112
0 107 110
0 107 110
0 107 110
0 107 110
0 107 110
0 106 109
0 106 109
0 105 109
0 104 108
0 104 108
0 104 108
0 104 108
0 104 108
0 104 108
0 104 108
0 104 108
0 104 108
0 104 108
0 103 108
0 103 108
0 104 108
0 104 108
0 104 108
0 104 108
0 104 108
0 104 108
0 104 108
0 104 108
0 104 108
0 104 108
0 105 109
0 106 109
0 106 109
0 107 110
0 107 110
0 107 110
0 107 110
0 107 110
0 110 112
0 111 112
97 128 107
113 135 105
113 135 105
113 135 105
113 135 105
113 135 105
113 135 104
113 135 104
113 135 104
113 135 104
113 135 104
113 135 104
113 135 104
113 135 104
113 135 104
113 135 104
113 135 104
113 135 104
113 135 104
113 135 104
113 135 104
113 135 104
113 135 104
113 135 104
113 135 104
113 135 104
113 135 104
113 135 104
113 135 104
113 135 104
113 135 104
113 135 104
113 135 104
113 135 104
113 135 104
113 135 104
113 135 104
113 135 104
113 135 104
113 135 104
113 135 104
113 135 104
113 135 104
113 135 104
113 135 104
113 135 104
113 135 104
113 135 103
113 135 103
113 135 103
113 135 103
113 135 103
113 135 103
113 135 103
113 136 103
113 136 103
113 136 103
113 136 103
113 136 103
113 136 103
113 136 103
113 136 103
113 136 103
113 136 103
113 136 103
113 136 103
113 136 103
113 136 103
113 136 103
113 136 103
113 136 102
113 136 102
113 136 102
113 136 102
113 136 102
113 136 102
113 136 102
113 136 102
113 136 102
113 136 102
113 136 102
113 136 102
113 136 102
113 136 102
113 136 102
113 136 102
113 136 102
113 136 102
113 136 102
113 136 102
113 136 102
113 136 103
113 136 103
113 136 103
113 136 103
113 136 103
113 136 103
113 136 103
113 136 103
113 136 103
113 136 103
113 136 103
113 136 103
113 136 103
113 135 103
113 135 103
113 135 103
113 135 103
113 135 103
113 135 103
113 135 103
113 135 103
113 135 103
113 135 103
113 135 103
113 135 103
113 135 103
113 135 104
113 135 104
113 135 104
113 135 104
113 135 104
113 135 104
113 135 104
113 135 104
113 135 104
113 135 104
113 135 104
113 135 104
113 135 104
113 135 104
113 135 104
113 135 104
113 135 104
113 135 104
113 135 104
113 135 104
113 135 104
113 135 104
113 135 104
113 135 104
113 135 104
113 135 104
113 135 104
113 135 104
113 135 104
113 135 104
113 135 104
113 135 104
113 135 104
113 135 104
113 135 104
113 135 104
113 135 104
113 135 104
113 135 104
90 126 108
0 111 112
0 110 111
0 107 110
0 107 110
0 107 110
0 107 110
0 106 109
0 106 109
0 106 109
0 106 109
0 104 108
0 104 108
0 104 108
0 104 108
0 104 108
0 103 108
0 103 108
0 103 108
0 103 108
0 103 108
0 103 108
0 103 108
0 103 108
0 103 108
0 103 108
0 103 108
0 103 108
0 103 108
0 103 108
0 104 108
0 104 108
0 104 108
0 104 108
0 104 108
0 106 109
0 106 109
0 106 109
0 106 109
0 107 109
0 107 110
0 107 110
0 107 110
0 110 111
0 111 112
90 125 108
113 135 104
113 135 104
113 135 104
113 135 104
113 135 104
113 135 104
113 135 104
113 135 104
113 135 104
113 135 104
113 135 104
113 135 104
113 135 104
113 135 104
113 135 104
113 135 104
113 135 104
113 135 104
113 135 104
113 135 104
113 135 104
113 135 104
113 135 104
113 135 104
113 135 104
113 135 104
113 135 104
113 135 104
113 135 104
113 135 104
113 135 104
113 135 104
113 135 104
113 135 104
113 135 104
113 135 104
113 135 104
113 135 104
113 135 104
113 135 104
113 135 104
113 135 103
113 135 103
113 135 103
113 135 103
113 135 103
113 135 103
113 135 103
113 135 103
113 135 103
113 135 103
113 135 103
113 135 103
113 135 103
113 136 103
113 136 103
113 136 103
113 136 103
113 136 103
113 136 103
113 136 103
113 136 103
113 136 103
113 136 103
113 136 103
113 136 103
113 136 102
113 136 102
113 136 102
113 136 102
113 136 102
113 136 102
113 136 102
113 136 102
113 136 102
113 136 102
113 136 102
113 136 102
113 136 102
113 136 102
113 136 102
113 136 102
113 136 102
113 136 102
113 136 102
113 136 102
113 136 102
113 136 102
113 136 102
113 136 102
113 136 102
113 136 102
113 136 103
113 136 103
113 136 103
113 136 103
113 136 103
113 136 103
113 136 103
113 136 103
113 135 103
113 135 103
113 135 103
113 135 103
113 135 103
113 135 103
113 135 103
113 135 103
113 135 103
113 135 103
113 135 103
113 135 103
113 135 103
113 135 103
113 135 103
113 135 103
113 135 103
113 135 103
113 135 103
113 135 104
113 135 104
113 135 104
113 135 104
113 135 104
113 135 104
113 135 104
113 135 104
113 135 104
113 135 104
113 135 104
113 135 104
113 135 104
113 135 104
113 135 104
113 135 104
113 135 104
113 135 104
113 135 104
113 135 104
113 135 104
113 135 104
113 135 104
113 135 104
113 135 104
113 135 104
113 135 104
113 135 104
113 135 104
113 135 104
113 135 104
113 135 104
113 135 104
113 135 104
72 120 110
0 111 112
0 110 112
0 108 110
0 107 110
0 107 109
0 106 109
0 106 109
0 106 109
0 106 109
0 106 109
0 105 108
0 104 108
0 103 108
0 103 108
0 103 108
0 103 108
0 103 108
0 103 108
0 103 108
0 103 107
0 103 107
0 103 107
0 103 107
0 103 107
0 103 107
0 103 107
0 103 107
0 103 107
0 103 108
0 103 108
0 103 108
0 103 108
0 103 108
0 103 108
0 103 108
0 105 108
0 106 109
0 106 109
0 106 109
0 106 109
0 106 109
0 107 109
0 107 109
0 108 110
0 110 112
0 111 112
72 120 110
113 135 104
113 135 104
113 135 104
113 135 104
113 135 104
113 135 104
113 135 104
113 135 104
113 135 104
113 135 104
113 135 104
113 135 104
113 135 104
113 135 104
113 135 104
113 135 104
113 135 104
113 135 104
113 135 104
113 135 104
113 135 104
113 135 104
113 135 104
113 135 104
113 135 104
113 135 104
113 135 104
113 135 104
113 135 104
113 135 104
113 135 104
113 135 104
113 135 104
113 135 104
113 135 104
113 135 103
113 135 103
113 135 103
113 135 103
113 135 103
113 135 103
113 135 103
113 135 103
113 135 103
113 135 103
113 135 103
113 135 103
113 135 103
113 135 103
113 135 103
113 135 103
113 135 103
113 135 103
113 135 103
113 135 103
113 136 103
113 136 103
113 136 103
113 136 103
113 136 103
113 136 103
113 136 103
113 136 102
113 136 102
113 136 102
113 136 102
113 136 102
113 136 102
113 136 102
113 136 102
113 136 102
113 136 102
113 136 102
113 136 102
113 136 102
113 136 102
113 136 102
113 136 102
113 136 102
113 136 102
113 136 102
113 136 102
113 136 102
113 136 102
113 136 102
113 136 102
113 136 102
113 136 102
113 136 102
113 136 102
113 136 102
113 136 102
113 136 102
113 136 102
113 136 103
113 136 103
113 135 103
113 135 103
113 135 103
113 135 103
113 135 103
113 135 103
113 135 103
113 135 103
113 135 103
113 135 103
113 135 103
113 135 103
113 135 103
113 135 103
113 135 103
113 135 103
113 135 103
113 135 103
113 135 103
113 135 103
113 135 103
113 135 103
113 135 103
113 135 103
113 135 103
113 135 103
113 135 103
113 135 104
113 135 104
113 135 104
113 135 104
113 135 104
113 135 104
113 135 104
113 135 104
113 135 104
113 135 104
113 135 104
113 135 104
113 135 104
113 135 104
113 135 104
113 135 104
113 135 104
113 135 104
113 135 104
113 135 104
113 135 104
113 135 104
113 135 104
113 135 104
113 135 104
113 135 104
113 135 104
113 135 104
72 120 109
0 111 112
0 110 111
0 108 110
0 107 109
0 106 109
0 106 109
0 106 109
0 106 109
0 106 109
0 106 109
0 105 109
0 103 107
0 103 107
0 103 107
0 103 107
0 103 107
0 103 107
0 103 107
0 103 107
0 103 107
0 103 107
0 103 107
0 103 107
0 103 107
0 103 107
0 103 107
0 103 107
0 103 107
0 103 107
0 103 107
0 103 107
0 103 107
0 103 107
0 103 107
0 103 107
0 103 107
0 103 107
0 105 109
0 106 109
0 106 109
0 106 109
0 106 109
0 106 109
0 106 109
0 107 109
0 108 110
0 110 111
0 111 112
72 120 109
113 135 104
113 135 104
113 135 104
113 135 104
113 135 104
113 135 104
113 135 104
113 135 104
113 135 104
113 135 104
113 135 104
113 135 104
113 135 104
113 135 104
113 135 104
113 135 104
113 135 104
113 135 104
113 135 104
113 135 104
113 135 104
113 135 104
113 135 104
113 135 104
113 135 104
113 135 104
113 135 104
113 135 104
113 135 104
113 135 103
113 135 103
113 135 103
113 135 103
113 135 103
113 135 103
113 135 103
113 135 103
113 135 103
113 135 103
113 135 103
113 135 103
113 135 103
113 135 103
113 135 103
113 135 103
113 135 103
113 135 103
113 135 103
113 135 103
113 135 103
113 135 103
113 135 103
113 135 103
113 135 103
113 135 103
113 135 103
113 136 103
113 136 103
113 136 102
113 136 102
113 136 102
113 136 102
113 136 102
113 136 102
113 136 102
113 136 102
113 136 102
113 136 102
113 136 102
113 136 102
113 136 102
113 136 102
113 136 102
113 136 102
113 136 102
113 136 101
113 136 101
113 136 102
113 136 102
113 136 102
113 136 102
113 136 102
113 136 102
113 136 102
113 136 102
113 136 102
113 136 102
113 136 102
113 136 102
113 136 102
113 136 102
113 136 102
113 136 102
113 135 102
113 135 102
113 135 102
113 135 103
113 135 103
113 135 103
113 135 103
113 135 103
113 135 103
113 135 103
113 135 103
113 135 103
113 135 103
113 135 103
113 135 103
113 135 103
113 135 103
113 135 103
113 135 103
113 135 103
113 135 103
113 135 103
113 135 103
113 135 103
113 135 103
113 135 103
113 135 103
113 135 103
113 135 103
113 135 103
113 135 103
113 135 103
113 135 103
113 135 103
113 135 103
113 135 104
113 135 104
113 135 104
113 135 104
113 135 104
113 135 104
113 135 104
113 135 104
113 135 104
113 135 104
113 135 104
113 135 104
113 135 104
113 135 104
113 135 104
113 135 104
113 135 104
113 135 104
113 135 104
113 135 104
108 132 105
61 117 110
0 111 111
0 110 111
0 108 110
0 106 109
0 106 109
0 106 109
0 106 109
0 106 109
0 106 109
0 106 109
0 106 109
0 104 108
0 103 107
0 103 107
0 103 107
0 103 107
0 103 107
0 103 107
0 103 107
0 103 107
0 103 107
0 103 107
0 103 107
0 103 107
0 103 107
0 103 107
0 103 107
0 103 107
0 103 107
0 103 107
0 103 107
0 103 107
0 103 107
0 103 107
0 103 107
0 103 107
0 103 107
0 103 107
0 104 108
0 106 109
0 106 109
0 106 109
0 106 109
0 106 109
0 106 109
0 106 109
0 106 109
0 108 110
0 110 111
0 111 111
61 117 110
108 132 105
113 135 104
113 135 104
113 135 104
113 135 104
113 135 104
113 135 104
113 135 104
113 135 104
113 135 104
113 135 104
113 135 104
113 135 104
113 135 104
113 135 104
113 135 104
113 135 104
113 135 104
113 135 104
113 135 104
113 135 104
113 135 104
113 135 104
113 135 103
113 135 103
113 135 103
113 135 103
113 135 103
113 135 103
113 135 103
113 135 103
113 135 103
113 135 103
113 135 103
113 135 103
113 135 103
113 135 103
113 135 103
113 135 103
113 135 103
113 135 103
113 135 103
113 135 103
113 135 103
113 135 103
113 135 103
113 135 103
113 135 103
113 135 103
113 135 103
113 135 103
113 135 103
113 135 103
113 135 102
113 135 102
113 135 102
113 135 102
113 136 102
113 136 102
113 136 102
113 136 102
113 136 102
113 136 102
113 136 102
113 136 102
113 136 102
113 136 102
113 136 102
113 136 102
113 136 102
113 136 102
113 136 102
113 136 101
113 136 101
113 136 101
113 136 101
113 136 101
113 136 101
113 136 102
113 136 102
113 136 102
113 136 102
113 136 102
113 136 102
113 136 102
113 136 102
113 136 102
113 136 102
113 136 102
113 136 102
113 135 102
113 135 102
113 135 102
113 135 102
113 135 102
113 135 102
113 135 102
113 135 102
113 135 102
113 135 103
113 135 103
113 135 103
113 135 103
113 135 103
113 135 103
113 135 103
113 135 103
113 135 103
113 135 103
113 135 103
113 135 103
113 135 103
113 135 103
113 135 103
113 135 103
113 135 103
113 135 103
113 135 103
113 135 103
113 135 103
113 135 103
113 135 103
113 135 103
113 135 103
113 135 103
113 135 103
113 135 103
113 135 103
113 135 103
113 135 103
113 135 103
113 135 103
113 135 104
113 135 104
113 135 104
113 135 104
113 135 104
113 135 104
113 135 104
113 135 104
113 135 104
113 135 104
113 135 104
113 135 104
113 135 104
113 135 104
108 132 105
45 114 111
0 110 111
0 110 111
0 108 110
0 106 109
0 106 109
0 106 109
0 106 109
0 106 109
0 106 109
0 106 108
0 105 107
0 102 105
0 100 103
0 100 103
0 98 102
0 96 100
0 96 99
0 96 99
0 96 99
0 96 99
0 96 99
0 92 95
0 92 95
0 92 95
0 92 95
0 92 95
0 92 95
0 92 95
0 92 95
0 92 95
0 92 95
0 96 99
0 96 99
0 96 99
0 96 99
0 96 99
0 96 100
0 98 102
0 100 103
0 100 103
0 102 105
0 105 107
0 106 108
0 106 109
0 106 109
0 106 109
0 106 109
0 106 109
0 106 109
0 108 110
0 110 111
0 110 111
45 114 111
108 132 105
113 134 104
113 134 104
113 134 104
113 134 104
113 134 104
113 134 104
113 134 104
113 134 104
113 134 104
113 134 104
113 134 104
113 135 104
113 135 104
113 135 104
113 135 104
113 135 104
113 135 103
113 135 103
113 135 103
113 135 103
113 135 103
113 135 103
113 135 103
113 135 103
113 135 103
113 135 103
113 135 103
113 135 103
113 135 103
113 135 103
113 135 103
113 135 103
113 135 103
113 135 103
113 135 103
113 135 103
113 135 103
113 135 103
113 135 103
113 135 103
113 135 103
113 135 103
113 135 103
113 135 103
113 135 103
113 135 103
113 135 103
113 135 103
113 135 102
113 135 102
113 135 102
113 135 102
113 135 102
113 135 102
113 135 102
113 135 102
113 135 102
113 135 102
113 136 102
113 136 102
113 136 102
113 136 102
113 136 102
113 136 102
113 136 102
113 136 102
113 136 102
113 136 102
113 136 101
113 136 101
113 136 101
113 136 101
113 136 101
113 136 101
113 136 101
113 136 101
113 136 101
113 136 101
113 136 102
113 136 102
113 136 102
113 136 102
113 136 102
113 136 102
113 136 102
113 136 102
113 135 102
113 135 102
113 135 102
113 135 102
113 135 102
113 135 102
113 135 102
113 135 102
113 135 102
113 135 102
113 135 102
113 135 102
113 135 102
113 135 102
113 135 102
113 135 103
113 135 103
113 135 103
113 135 103
113 135 103
113 135 103
113 135 103
113 135 103
113 135 103
113 135 103
113 135 103
113 135 103
113 135 103
113 135 103
113 135 103
113 135 103
113 135 103
113 135 103
113 135 103
113 135 103
113 135 103
113 135 103
113 135 103
113 135 103
113 135 103
113 135 103
113 135 103
113 135 103
113 135 103
113 135 103
113 135 103
113 135 103
113 134 103
113 134 103
113 134 103
113 134 104
113 134 104
113 134 104
113 134 104
113 134 104
113 134 104
113 134 104
108 132 105
45 114 111
0 110 111
0 110 111
0 108 110
0 106 109
0 106 109
0 106 109
0 104 106
0 103 105
0 100 102
0 100 101
0 97 98
0 97 97
0 94 96
0 92 95
0 92 95
0 92 95
0 92 95
0 92 95
0 92 95
0 92 95
0 92 95
0 92 95
0 92 95
0 92 95
0 92 95
0 92 95
0 92 95
0 92 95
0 92 95
0 92 95
0 92 95
0 92 95
0 92 95
0 92 95
0 92 95
0 92 95
0 92 95
0 92 95
0 92 95
0 92 95
0 92 95
0 94 96
0 97 97
0 97 98
0 100 101
0 100 102
0 103 105
0 104 106
0 106 109
0 106 109
0 106 109
0 108 110
0 110 111
0 110 111
45 114 111
108 132 105
113 134 104
113 134 104
113 134 104
113 134 104
113 134 104
113 134 104
113 134 104
113 134 104
113 134 104
113 134 103
113 134 103
113 134 103
113 134 103
113 134 103
113 134 103
113 134 103
113 134 103
113 134 103
113 135 103
113 135 103
113 135 103
113 135 103
113 135 103
113 135 103
113 135 103
113 135 103
113 135 103
113 135 103
113 135 103
113 135 103
113 135 103
113 135 103
113 135 103
113 135 103
113 135 103
113 135 103
113 135 103
113 135 103
113 135 103
113 135 103
113 135 103
113 135 103
113 135 103
113 135 102
113 135 102
113 135 102
113 135 102
113 135 102
113 135 102
113 135 102
113 135 102
113 135 102
113 135 102
113 135 102
113 135 102
113 135 102
113 135 102
113 135 102
113 135 102
113 136 102
113 136 102
113 136 102
113 136 102
113 136 102
113 136 102
113 136 101
113 136 101
113 136 101
113 136 101
113 136 101
113 136 101
113 136 101
113 136 101
113 136 101
113 136 101
113 136 101
113 136 101
113 136 101
113 136 101
113 136 101
113 136 102
113 136 102
113 136 102
113 135 102
113 135 102
113 135 102
113 135 102
113 135 102
113 135 102
113 135 102
113 135 102
113 135 102
113 135 102
113 135 102
113 135 102
113 135 102
113 135 102
113 135 102
113 135 102
113 135 102
113 135 102
113 135 102
113 135 102
113 135 103
113 135 103
113 135 103
113 135 103
113 135 103
113 135 103
113 135 103
113 135 103
113 135 103
113 135 103
113 135 103
113 135 103
113 135 103
113 135 103
113 135 103
113 135 103
113 135 103
113 135 103
113 135 103
113 135 103
113 135 103
113 134 103
113 134 103
113 134 103
113 134 103
113 134 103
113 134 103
113 134 103
113 134 103
113 134 103
113 134 103
113 134 103
113 134 103
113 134 103
113 134 103
113 134 103
113 134 103
113 134 103
96 128 106
45 114 110
0 110 111
0 110 111
0 105 106
0 103 104
0 101 102
0 98 99
0 97 98
0 97 98
0 97 98
0 97 98
0 97 98
0 97 98
0 97 97
0 94 96
0 92 95
0 92 95
0 92 95
0 92 95
0 92 95
0 92 95
0 92 95
0 92 95
0 92 95
0 92 95
0 92 95
0 92 95
0 92 95
0 92 95
0 92 95
0 92 95
0 92 95
0 92 95
0 92 95
0 92 95
0 92 95
0 92 95
0 92 95
0 92 95
0 92 95
0 92 95
0 92 95
0 92 95
0 94 96
0 96 97
0 97 98
0 97 98
0 97 98
0 97 98
0 97 98
0 97 98
0 98 99
0 101 102
0 103 104
0 105 106
0 110 111
0 110 111
45 114 110
96 128 106
113 134 104
113 134 103
113 134 103
113 134 103
113 134 103
113 134 103
113 134 103
113 134 103
113 134 103
113 134 103
113 134 103
113 134 103
113 134 103
113 134 103
113 134 103
113 134 103
113 134 103
113 134 103
113 134 103
113 134 103
113 134 103
113 134 103
113 135 103
113 135 103
113 135 103
113 135 103
113 135 103
113 135 103
113 135 103
113 135 103
113 135 103
113 135 103
113 135 103
113 135 103
113 135 103
113 135 103
113 135 103
113 135 103
113 135 102
113 135 102
113 135 102
113 135 102
113 135 102
113 135 102
113 135 102
113 135 102
113 135 102
113 135 102
113 135 102
113 135 102
113 135 102
113 135 102
113 135 102
113 135 102
113 135 102
113 135 102
113 135 102
113 135 102
113 135 102
113 135 102
113 136 102
113 136 101
113 136 101
113 136 101
113 136 101
113 136 101
113 136 101
113 136 101
113 136 101
113 136 101
113 136 101
113 136 101
113 136 101
113 136 101
113 136 101
113 136 101
113 136 101
113 136 101
113 136 101
113 135 101
113 135 101
113 135 101
113 135 102
113 135 102
113 135 102
113 135 102
113 135 102
113 135 102
113 135 102
113 135 102
113 135 102
113 135 102
113 135 102
113 135 102
113 135 102
113 135 102
113 135 102
113 135 102
113 135 102
113 135 102
113 135 102
113 135 102
113 135 102
113 135 102
113 135 102
113 135 102
113 135 102
113 135 103
113 135 103
113 135 103
113 135 103
113 135 103
113 135 103
113 135 103
113 135 103
113 135 103
113 135 103
113 135 103
113 134 103
113 134 103
112 134 103
112 134 103
112 134 103
113 134 103
112 134 103
112 134 103
112 134 103
112 134 103
112 134 103
112 134 103
112 134 103
112 134 103
112 134 103
112 134 103
112 134 103
112 134 103
112 134 103
112 134 103
113 134 103
96 128 106
0 111 111
0 110 110
0 107 106
0 103 101
0 98 98
0 98 98
0 98 98
0 97 98
0 97 98
0 97 98
0 97 98
0 97 98
0 97 98
0 97 97
0 96 97
0 94 96
0 92 95
0 92 95
0 92 95
0 92 95
0 92 95
0 92 95
0 92 95
0 92 95
0 92 95
0 92 95
0 92 95
0 92 95
0 92 95
0 92 95
0 92 95
0 92 95
0 92 95
0 92 95
0 92 95
0 92 95
0 92 95
0 92 95
0 92 95
0 92 95
0 92 95
0 92 95
0 92 95
0 92 95
0 94 96
0 96 97
0 97 97
0 97 98
0 97 98
0 97 98
0 97 98
0 97 98
0 97 98
0 98 98
0 98 98
0 98 98
0 103 101
0 107 106
0 110 110
0 111 111
96 128 106
112 134 103
112 134 103
112 134 103
112 134 103
112 134 103
112 134 103
112 134 103
112 134 103
112 134 103
112 134 103
112 134 103
112 134 103
112 134 103
112 134 103
112 134 103
112 134 103
112 134 103
112 134 103
112 134 103
112 134 103
112 134 103
112 134 103
112 134 103
112 134 103
112 134 103
112 134 103
112 135 103
112 135 103
112 135 103
112 135 103
112 135 103
112 135 103
112 135 103
112 135 102
112 135 102
112 135 102
112 135 102
113 135 102
113 135 102
113 135 102
113 135 102
113 135 102
113 135 102
113 135 102
113 135 102
113 135 102
113 135 102
113 135 102
113 135 102
113 135 102
113 135 102
113 135 102
113 135 102
113 135 102
113 135 102
113 135 102
113 135 102
113 135 102
113 135 101
113 135 101
113 135 101
113 136 101
113 136 101
113 136 101
113 136 101
113 136 101
113 136 101
113 136 101
113 136 101
113 136 101
113 136 101
113 136 101
113 136 101
113 136 101
113 136 101
113 136 101
113 135 101
113 135 101
113 135 101
113 135 101
113 135 101
113 135 101
113 135 101
113 135 102
113 135 102
113 135 102
113 135 102
113 135 102
113 135 102
113 135 102
113 135 102
113 135 102
113 135 102
113 135 102
113 135 102
113 135 102
113 135 102
113 135 102
113 135 102
113 135 102
113 135 102
113 135 102
112 135 102
112 135 102
112 135 102
112 135 102
112 135 102
112 135 102
112 135 102
112 135 102
112 135 103
112 135 103
112 135 103
112 134 103
112 134 103
112 134 103
112 134 103
112 134 103
112 134 103
112 134 103
112 134 103
112 134 103
112 134 103
112 134 103
112 134 103
112 134 103
112 134 103
112 134 103
112 134 103
112 134 103
112 134 103
112 134 103
112 134 103
112 134 103
112 134 103
112 134 103
112 134 103
96 127 106
0 109 109
0 106 105
0 104 102
0 104 101
0 102 100
0 98 98
0 98 98
0 97 98
0 97 98
0 97 98
0 97 98
0 97 98
0 97 98
0 97 98
0 96 97
0 96 97
0 92 95
0 92 95
0 92 95
0 92 95
0 92 95
0 92 95
0 92 95
0 92 95
0 92 95
0 92 95
0 92 95
0 92 95
0 92 95
0 92 95
0 92 95
0 92 95
0 92 95
0 92 95
0 92 95
0 92 95
0 92 95
0 92 95
0 92 95
0 92 95
0 92 95
0 92 95
0 92 95
0 92 95
0 92 95
0 92 95
0 96 97
0 96 97
0 97 98
0 97 98
0 97 98
0 97 98
0 97 98
0 97 98
0 97 98
0 98 98
0 98 98
0 102 100
0 104 101
0 104 102
0 106 105
0 109 109
96 127 106
112 134 103
112 134 103
112 134 103
112 134 103
112 134 103
112 134 103
112 134 103
112 134 103
112 134 103
112 134 103
112 134 103
112 134 103
112 134 103
112 134 103
112 134 103
112 134 103
112 134 103
112 134 103
112 134 103
112 134 103
112 134 103
112 134 103
112 134 103
112 134 103
112 134 103
112 134 103
112 134 103
112 134 103
112 135 102
112 135 102
112 135 102
112 135 102
112 135 102
112 135 102
112 135 102
112 135 102
112 135 102
112 135 102
112 135 102
112 135 102
112 135 102
112 135 102
112 135 102
112 135 102
112 135 102
112 135 102
112 135 102
112 135 102
112 135 102
112 135 102
112 135 102
112 135 102
113 135 102
112 135 102
113 135 101
113 135 101
113 135 101
113 135 101
113 135 101
113 135 101
113 135 101
113 135 101
113 135 101
113 136 101
113 136 101
113 136 101
113 136 101
113 136 101
113 136 101
113 136 101
113 136 101
113 136 101
113 136 101
113 135 101
113 135 101
113 135 101
113 135 101
113 135 101
113 135 101
113 135 101
113 135 101
113 135 101
113 135 101
112 135 101
112 135 101
113 135 102
113 135 102
112 135 102
112 135 102
112 135 102
112 135 102
112 135 102
112 135 102
112 135 102
112 135 102
112 135 102
112 135 102
112 135 102
112 135 102
112 135 102
112 135 102
112 135 102
112 135 102
112 135 102
112 135 102
112 135 102
112 135 102
112 135 102
112 134 102
112 134 102
112 134 102
112 134 102
112 134 102
112 134 102
112 134 103
112 134 103
112 134 103
112 134 103
112 134 103
112 134 103
112 134 103
112 134 103
112 134 103
112 134 103
112 134 103
112 134 103
112 134 103
112 134 103
112 134 103
112 134 103
112 134 103
112 134 103
112 134 103
112 134 103
112 134 103
81 121 105
0 106 104
0 104 102
0 104 102
0 104 102
0 104 101
0 100 99
0 98 98
0 98 98
0 97 98
0 97 98
0 97 98
0 97 98
0 97 98
0 97 98
0 97 97
0 96 97
0 96 97
0 92 95
0 92 95
0 92 95
0 92 95
0 92 95
0 92 95
0 92 95
0 92 95
0 92 95
0 92 95
0 92 95
0 92 95
0 92 95
0 92 95
0 92 95
0 92 95
0 92 95
0 92 95
0 92 95
0 92 95
0 92 95
0 92 95
0 92 95
0 92 95
0 92 95
0 92 95
0 92 95
0 92 95
0 92 95
0 92 95
0 96 97
0 96 97
0 97 97
0 97 98
0 97 98
0 97 98
0 97 98
0 97 98
0 97 98
0 97 98
0 98 98
0 100 99
0 104 101
0 104 102
0 104 102
0 104 102
0 106 104
81 121 105
112 134 103
112 134 103
112 134 103
112 134 103
112 134 103
112 134 103
112 134 103
112 134 103
112 134 103
112 134 103
112 134 103
112 134 103
112 134 103
112 134 103
112 134 103
112 134 103
112 134 103
112 134 103
112 134 103
112 134 103
112 134 103
112 134 103
112 134 102
112 134 102
112 134 102
112 134 102
112 134 102
112 134 102
112 134 102
112 134 102
112 135 102
112 135 102
112 135 102
112 135 102
112 135 102
112 135 102
112 135 102
112 135 102
112 135 102
112 135 102
112 135 102
112 135 102
112 135 102
112 135 102
112 135 102
112 135 102
112 135 102
112 135 102
112 135 102
112 135 102
112 135 101
112 135 101
112 135 101
112 135 101
112 135 101
112 135 101
112 135 101
112 135 101
112 135 101
112 135 101
112 135 101
112 135 101
112 135 101
112 135 101
112 135 101
112 136 101
112 136 101
112 136 100
112 136 101
112 136 101
112 135 101
112 135 101
112 135 101
112 135 101
112 135 101
112 135 101
112 135 101
112 135 101
112 135 101
112 135 101
112 135 101
112 135 101
112 135 101
112 135 101
112 135 101
112 135 101
112 135 101
112 135 101
112 135 102
112 135 102
112 135 102
112 135 102
112 135 102
112 135 102
112 135 102
112 135 102
112 135 102
112 135 102
112 135 102
112 135 102
112 135 102
112 135 102
112 135 102
112 135 102
112 134 102
112 134 102
112 134 102
112 134 102
112 134 102
112 134 102
112 134 102
112 134 102
112 134 102
112 134 102
112 134 102
112 134 102
112 134 102
112 134 102
112 134 103
112 134 103
112 134 103
112 134 103
112 134 103
112 134 103
112 134 103
112 134 103
112 134 103
112 134 103
112 134 103
112 134 103
112 134 103
112 134 103
112 134 103
107 132 103
0 105 102
0 105 102
0 104 102
0 104 102
0 104 101
0 104 101
0 99 99
0 98 98
0 97 98
0 97 98
0 97 98
0 97 98
0 97 98
0 97 98
0 97 98
0 96 97
0 96 97
0 96 97
0 92 95
0 92 95
0 92 95
0 92 95
0 92 95
0 92 95
0 92 95
0 92 95
0 92 95
0 92 95
0 92 95
0 92 95
0 92 95
0 92 95
0 91 95
0 92 95
0 92 95
0 92 95
0 92 95
0 92 95
0 92 95
0 92 95
0 92 95
0 92 95
0 92 95
0 92 95
0 92 95
0 92 95
0 92 95
0 92 95
0 96 97
0 96 97
0 96 97
0 97 98
0 97 98
0 97 98
0 97 98
0 97 98
0 97 98
0 97 98
0 98 98
0 99 99
0 104 101
0 104 101
0 104 102
0 104 102
0 105 102
0 105 102
107 132 103
112 134 103
112 134 103
112 134 103
112 134 103
112 134 103
112 134 103
112 134 103
112 134 103
112 134 103
112 134 103
112 134 103
112 134 103
112 134 103
112 134 103
112 134 103
112 134 103
112 134 102
112 134 102
112 134 102
112 134 102
112 134 102
112 134 102
112 134 102
112 134 102
112 134 102
112 134 102
112 134 102
112 134 102
112 134 102
112 134 102
112 134 102
112 134 102
112 135 102
112 135 102
112 135 102
112 135 102
112 135 102
112 135 102
112 135 102
112 135 102
112 135 102
112 135 102
112 135 102
112 135 102
112 135 102
112 135 102
112 135 101
112 135 101
112 135 101
112 135 101
112 135 101
112 135 101
112 135 101
112 135 101
112 135 101
112 135 101
112 135 101
112 135 101
112 135 101
112 135 101
112 135 101
112 135 101
112 135 101
112 135 101
112 135 101
112 135 100
112 136 100
112 135 100
112 135 100
112 135 101
112 135 101
112 135 101
112 135 101
112 135 101
112 135 101
112 135 101
112 135 101
112 135 101
112 135 101
112 135 101
112 135 101
112 135 101
112 135 101
112 135 101
112 135 101
112 135 101
112 135 101
112 135 101
112 135 101
112 135 101
112 135 102
112 135 102
112 135 102
112 135 102
112 135 102
112 135 102
112 135 102
112 135 102
112 135 102
112 135 102
112 134 102
112 134 102
112 134 102
112 134 102
112 134 102
112 134 102
112 134 102
112 134 102
112 134 102
112 134 102
112 134 102
112 134 102
112 134 102
112 134 102
112 134 102
112 134 102
112 134 102
112 134 102
112 134 102
112 134 102
112 134 102
112 134 102
112 134 102
112 134 103
112 134 103
112 134 103
112 134 103
112 134 103
112 134 103
112 134 103
112 134 103
112 134 103
81 121 103
0 105 102
0 104 102
0 104 102
0 104 102
0 104 101
0 103 101
0 98 98
0 97 98
0 97 98
0 97 98
0 97 98
0 97 98
0 97 98
0 97 98
0 97 97
0 96 97
0 96 97
0 95 97
0 92 95
0 92 95
0 92 95
0 92 95
0 92 95
0 92 95
0 92 95
0 92 95
0 92 95
0 92 95
0 92 95
0 92 95
0 92 95
0 92 95
0 91 95
0 91 95
0 92 95
0 92 95
0 92 95
0 92 95
0 92 95
0 92 95
0 92 95
0 92 95
0 92 95
0 92 95
0 92 95
0 92 95
0 92 95
0 92 95
0 95 97
0 96 97
0 96 97
0 97 97
0 97 98
0 97 98
0 97 98
0 97 98
0 97 98
0 97 98
0 97 98
0 98 98
0 103 101
0 104 101
0 104 102
0 104 102
0 104 102
0 105 102
81 121 103
112 134 103
112 134 103
112 134 103
112 134 103
112 134 103
112 134 103
112 134 103
112 134 103
112 134 103
112 134 103
112 134 102
112 134 102
112 134 102
112 134 102
112 134 102
112 134 102
112 134 102
112 134 102
112 134 102
112 134 102
112 134 102
112 134 102
112 134 102
112 134 102
112 134 102
112 134 102
112 134 102
112 134 102
112 134 102
112 134 102
112 134 102
112 134 102
112 134 102
112 134 102
112 135 102
112 135 102
112 135 102
112 135 102
112 135 102
112 135 102
112 135 102
112 135 102
112 135 101
112 135 101
112 135 101
112 135 101
112 135 101
112 135 101
112 135 101
112 135 101
112 135 101
112 135 101
112 135 101
112 135 101
112 135 101
112 135 101
112 135 101
112 135 101
112 135 101
112 135 101
112 135 101
112 135 101
112 135 101
112 135 100
112 135 100
112 135 100
112 135 100
112 135 100
112 135 100
112 135 100
112 135 100
112 135 101
112 135 101
112 135 101
112 135 101
112 135 101
112 135 101
112 135 101
112 135 101
112 135 101
112 135 101
112 135 101
112 135 101
112 135 101
112 135 101
112 135 101
112 135 101
112 135 101
112 135 101
112 135 101
112 135 101
112 135 101
112 135 101
112 135 101
112 135 102
112 135 102
112 134 102
112 134 102
112 134 102
112 134 102
112 134 102
112 134 102
112 134 102
112 134 102
112 134 102
112 134 102
112 134 102
112 134 102
112 134 102
112 134 102
112 134 102
112 134 102
112 134 102
112 134 102
112 134 102
112 134 102
112 134 102
112 134 102
112 134 102
112 134 102
112 134 102
112 134 102
112 134 102
112 134 102
112 134 102
112 134 102
112 134 102
112 134 102
112 134 103
112 134 103
112 134 103
112 134 103
44 110 103
0 105 102
0 104 102
0 104 102
0 104 101
0 104 101
0 102 100
0 98 98
0 97 98
0 97 98
0 97 98
0 97 98
0 97 98
0 97 98
0 97 98
0 96 97
0 96 97
0 96 97
0 95 97
0 92 95
0 92 95
0 92 95
0 92 95
0 92 95
0 92 95
0 92 95
0 92 95
0 92 95
0 92 95
0 92 95
0 92 95
0 92 95
0 91 95
0 91 95
0 91 95
0 91 95
0 92 95
0 92 95
0 92 95
0 92 95
0 92 95
0 92 95
0 92 95
0 92 95
0 92 95
0 92 95
0 92 95
0 92 95
0 92 95
0 95 97
0 96 97
0 96 97
0 96 97
0 97 98
0 97 98
0 97 98
0 97 98
0 97 98
0 97 98
0 97 98
0 98 98
0 102 100
0 104 101
0 104 101
0 104 102
0 104 102
0 105 102
44 110 103
112 134 103
112 134 103
112 134 103
112 134 103
112 134 103
112 134 102
112 134 102
112 134 102
112 134 102
112 134 102
112 134 102
112 134 102
112 134 102
112 134 102
112 134 102
112 134 102
112 134 102
112 134 102
112 134 102
112 134 102
112 134 102
112 134 102
112 134 102
112 134 102
112 134 102
112 134 102
112 134 102
112 134 102
112 134 102
112 134 102
112 134 102
112 134 102
112 134 102
112 134 102
112 134 102
112 134 102
112 134 102
112 135 102
112 135 102
112 135 101
112 135 101
112 135 101
112 135 101
112 135 101
112 135 101
112 135 101
112 135 101
112 135 101
112 135 101
112 135 101
112 135 101
112 135 101
112 135 101
112 135 101
112 135 101
112 135 101
112 135 101
112 135 101
112 135 101
112 135 101
112 135 101
112 135 100
112 135 100
112 135 100
112 135 100
112 135 100
112 135 100
112 135 100
112 135 100
112 135 100
112 135 100
112 135 100
112 135 100
112 135 100
112 135 101
112 135 101
112 135 101
112 135 101
112 135 101
112 135 101
112 135 101
112 135 101
112 135 101
112 135 101
112 135 101
112 135 101
112 135 101
112 135 101
112 135 101
112 135 101
112 135 101
112 135 101
112 135 101
112 135 101
112 134 101
112 134 101
112 134 101
112 134 102
112 134 102
112 134 102
112 134 102
112 134 102
112 134 102
112 134 102
112 134 102
112 134 102
112 134 102
112 134 102
112 134 102
112 134 102
112 134 102
112 134 102
112 134 102
112 134 102
112 134 102
112 134 102
112 134 102
112 134 102
112 134 102
112 134 102
112 134 102
112 134 102
112 134 102
112 134 102
112 134 102
112 134 102
112 134 102
112 134 102
112 134 102
112 134 102
112 134 102
96 127 103
0 105 102
0 104 102
0 104 102
0 104 102
0 104 101
0 103 101
0 101 100
0 97 98
0 97 98
0 97 98
0 97 98
0 97 98
0 97 98
0 97 98
0 97 97
0 96 97
0 96 97
0 96 97
0 94 96
0 92 95
0 92 95
0 92 95
0 92 95
0 92 95
0 92 95
0 92 95
0 92 95
0 92 95
0 92 95
0 92 95
0 92 95
0 91 95
0 91 95
0 91 95
0 91 95
0 91 95
0 92 95
0 92 95
0 92 95
0 92 95
0 92 95
0 92 95
0 92 95
0 92 95
0 92 95
0 92 95
0 92 95
0 92 95
0 92 95
0 94 96
0 96 97
0 96 97
0 96 97
0 97 97
0 97 98
0 97 98
0 97 98
0 97 98
0 97 98
0 97 98
0 97 98
0 101 100
0 103 101
0 104 101
0 104 102
0 104 102
0 104 102
0 105 102
96 127 103
112 134 102
112 134 102
112 134 102
112 134 102
112 134 102
112 134 102
112 134 102
112 134 102
112 134 102
112 134 102
112 134 102
112 134 102
112 134 102
112 134 102
112 134 102
112 134 102
112 134 102
112 134 102
112 134 102
112 134 102
112 134 102
112 134 102
112 134 102
112 134 102
112 134 102
112 134 102
112 134 102
112 134 102
112 134 102
112 134 102
112 134 102
112 134 102
112 134 102
112 134 101
112 134 101
112 134 101
112 134 101
112 134 101
112 134 101
112 135 101
112 135 101
112 135 101
112 135 101
112 135 101
112 135 101
112 135 101
112 135 101
112 135 101
112 135 101
112 135 101
112 135 101
112 135 101
112 135 101
112 135 101
112 135 101
112 135 101
112 135 101
112 135 100
112 135 100
112 135 100
112 135 100
112 135 100
112 135 100
112 135 100
112 135 100
112 135 100
112 135 100
112 135 100
112 135 100
112 135 100
112 135 100
112 135 100
112 135 100
112 135 100
112 135 100
112 135 100
112 135 101
112 135 101
112 135 101
112 135 101
112 135 101
112 135 101
112 135 101
112 135 101
112 135 101
112 135 101
112 135 101
112 135 101
112 135 101
112 135 101
112 134 101
112 134 101
112 134 101
112 134 101
112 134 101
112 134 101
112 134 101
112 134 101
112 134 101
112 134 101
112 134 101
112 134 102
112 134 102
112 134 102
112 134 102
112 134 102
112 134 102
112 134 102
112 134 102
112 134 102
112 134 102
112 134 102
112 134 102
112 134 102
112 134 102
112 134 102
112 134 102
112 134 102
112 134 102
112 134 102
112 134 102
112 134 102
112 134 102
112 134 102
112 134 102
112 134 102
112 134 102
112 134 102
112 134 102
112 134 102
81 121 103
0 105 102
0 104 102
0 104 102
0 104 101
0 104 101
0 103 101
0 99 99
0 97 98
0 97 98
0 97 98
0 97 98
0 97 98
0 97 98
0 97 98
0 96 97
0 96 97
0 96 97
0 96 97
0 93 96
0 92 95
0 92 95
0 92 95
0 92 95
0 92 95
0 92 95
0 92 95
0 92 95
0 92 95
0 92 95
0 92 95
0 91 95
0 91 95
0 91 95
0 91 95
0 91 95
0 91 95
0 91 95
0 92 95
0 92 95
0 92 95
0 92 95
0 92 95
0 92 95
0 92 95
0 92 95
0 92 95
0 92 95
0 92 95
0 92 95
0 93 96
0 96 97
0 96 97
0 96 97
0 96 97
0 97 98
0 97 98
0 97 98
0 97 98
0 97 98
0 97 98
0 97 98
0 99 99
0 103 101
0 104 101
0 104 101
0 104 102
0 104 102
0 105 102
81 121 103
112 134 102
112 134 102
112 134 102
112 134 102
112 134 102
112 134 102
112 134 102
112 134 102
112 134 102
112 134 102
112 134 102
112 134 102
112 134 102
112 134 102
112 134 102
112 134 102
112 134 102
112 134 102
112 134 102
112 134 102
112 134 102
112 134 102
112 134 102
112 134 102
112 134 102
112 134 102
112 134 102
112 134 102
112 134 102
112 134 101
112 134 101
112 134 101
112 134 101
112 134 101
112 134 101
112 134 101
112 134 101
112 134 101
112 134 101
112 134 101
112 134 101
112 134 101
112 135 101
112 135 101
112 135 101
112 135 101
112 135 101
112 135 101
112 135 101
112 135 101
112 135 101
112 135 101
112 135 101
112 135 101
112 135 101
112 135 100
112 135 100
112 135 100
112 135 100
112 135 100
112 135 100
112 135 100
112 135 100
112 135 100
112 135 100
112 135 100
112 135 100
112 135 100
112 135 100
112 135 100
112 135 100
112 135 100
112 135 100
112 135 100
112 135 100
112 135 100
112 135 100
112 135 100
112 135 101
112 135 101
112 135 101
112 135 101
112 135 101
112 135 101
112 135 101
112 135 101
112 135 101
112 135 101
112 134 101
112 134 101
112 134 101
112 134 101
112 134 101
112 134 101
112 134 101
112 134 101
112 134 101
112 134 101
112 134 101
112 134 101
112 134 101
112 134 101
112 134 101
112 134 101
112 134 101
112 134 101
112 134 102
112 134 102
112 134 102
112 134 102
112 134 102
112 134 102
112 134 102
112 134 102
112 134 102
112 134 102
112 134 102
112 134 102
112 134 102
112 134 102
112 134 102
112 134 102
112 134 102
112 134 102
112 134 102
112 134 102
112 134 102
112 134 102
112 134 102
112 134 102
44 111 103
0 104 102
0 104 102
0 104 102
0 104 101
0 103 101
0 103 101
0 98 98
0 97 98
0 97 98
0 97 98
0 97 98
0 97 98
0 97 98
0 96 97
0 96 97
0 96 97
0 96 97
0 96 97
0 93 96
0 92 95
0 92 95
0 92 95
0 92 95
0 92 95
0 92 95
0 92 95
0 92 95
0 92 95
0 92 95
0 91 95
0 91 95
0 91 95
0 91 95
0 91 95
0 91 95
0 91 95
0 91 95
0 91 95
0 92 95
0 92 95
0 92 95
0 92 95
0 92 95
0 92 95
0 92 95
0 92 95
0 92 95
0 92 95
0 92 95
0 93 96
0 96 97
0 96 97
0 96 97
0 96 97
0 96 97
0 97 98
0 97 98
0 97 98
0 97 98
0 97 98
0 97 98
0 98 98
0 103 101
0 103 101
0 104 101
0 104 102
0 104 102
0 104 102
44 111 103
112 134 102
112 134 102
112 134 102
112 134 102
112 134 102
112 134 102
112 134 102
112 134 102
112 134 102
112 134 102
112 134 102
112 134 102
112 134 102
112 134 102
112 134 102
112 134 102
112 134 102
112 134 102
112 134 102
112 134 102
112 134 102
112 134 102
112 134 102
112 134 102
112 134 102
112 134 101
112 134 101
112 134 101
112 134 101
112 134 101
112 134 101
112 134 101
112 134 101
112 134 101
112 134 101
112 134 101
112 134 101
112 134 101
112 134 101
112 134 101
112 134 101
112 134 101
112 134 101
112 134 101
112 134 101
112 135 101
112 135 101
112 135 101
112 135 101
112 135 101
112 135 101
112 135 100
112 135 100
112 135 100
112 135 100
112 135 100
112 135 100
112 135 100
112 135 100
112 135 100
112 135 100
112 135 100
112 135 100
112 135 100
112 135 100
112 135 100
112 135 100
112 135 100
112 135 100
112 135 100
112 135 100
112 135 100
112 135 100
112 135 100
112 135 100
112 135 100
112 135 100
112 135 100
112 135 100
112 135 100
112 135 100
112 135 101
112 135 101
112 135 101
112 135 101
112 134 101
112 134 101
112 134 101
112 134 101
112 134 101
112 134 101
112 134 101
112 134 101
112 134 101
112 134 101
112 134 101
112 134 101
112 134 101
112 134 101
112 134 101
112 134 101
112 134 101
112 134 101
112 134 101
112 134 101
112 134 101
112 134 101
112 134 101
112 134 101
112 134 101
112 134 101
112 134 102
112 134 102
112 134 102
112 134 102
112 134 102
112 134 102
112 134 102
112 134 102
112 134 102
112 134 102
112 134 102
112 134 102
112 134 102
112 134 102
112 134 102
112 134 102
112 134 102
112 134 102
107 132 102
0 106 103
0 104 102
0 104 102
0 104 101
0 104 101
0 103 101
0 102 101
0 97 98
0 97 98
0 97 98
0 97 98
0 97 98
0 97 98
0 97 98
0 96 97
0 96 97
0 96 97
0 96 97
0 96 97
0 92 95
0 92 95
0 92 95
0 92 95
0 92 95
0 92 95
0 92 95
0 92 95
0 92 95
0 92 95
0 92 95
0 91 95
0 91 95
0 91 95
0 91 95
0 91 95
0 91 95
0 91 95
0 91 95
0 91 95
0 91 95
0 92 95
0 92 95
0 92 95
0 92 95
0 92 95
0 92 95
0 92 95
0 92 95
0 92 95
0 92 95
0 92 95
0 96 97
0 96 97
0 96 97
0 96 97
0 96 97
0 97 98
0 97 98
0 97 98
0 97 98
0 97 98
0 97 98
0 97 98
0 102 101
0 103 101
0 104 101
0 104 101
0 104 102
0 104 102
0 106 103
107 131 102
112 134 102
112 134 102
112 134 102
112 134 102
112 134 102
112 134 102
112 134 102
112 134 102
112 134 102
112 134 102
112 134 102
112 134 102
112 134 102
112 134 102
112 134 102
112 134 102
112 134 102
112 134 102
112 134 102
112 134 101
112 134 101
112 134 101
112 134 101
112 134 101
112 134 101
112 134 101
112 134 101
112 134 101
112 134 101
112 134 101
112 134 101
112 134 101
112 134 101
112 134 101
112 134 101
112 134 101
112 134 101
112 134 101
112 134 101
112 134 101
112 134 101
112 134 101
112 134 101
112 134 101
112 134 101
112 134 101
112 134 101
112 135 100
112 135 100
112 135 100
112 135 100
112 135 100
112 135 100
112 135 100
112 135 100
112 135 100
112 135 100
112 135 100
112 135 100
112 135 100
112 135 100
112 135 100
112 135 100
112 135 100
112 135 100
112 135 100
112 135 100
112 135 100
112 135 100
112 135 100
112 135 100
112 135 100
112 135 100
112 135 100
112 135 100
112 135 100
112 135 100
112 135 100
112 135 100
112 135 100
112 135 100
112 135 100
112 134 100
112 134 100
112 134 101
112 134 101
112 134 101
112 134 101
112 134 101
112 134 101
112 134 101
112 134 101
112 134 101
112 134 101
112 134 101
112 134 101
112 134 101
112 134 101
112 134 101
112 134 101
112 134 101
112 134 101
112 134 101
112 134 101
112 134 101
112 134 101
112 134 101
112 134 101
112 134 101
112 134 101
112 134 101
112 134 101
112 134 101
112 134 101
112 134 101
112 134 102
112 134 102
112 134 102
112 134 102
112 134 102
112 134 102
112 134 102
112 134 102
112 134 102
112 134 102
112 134 102
112 134 102
112 134 102
95 127 103
0 105 102
0 104 102
0 104 102
0 104 101
0 103 101
0 103 101
0 101 100
0 97 98
0 97 98
0 97 98
0 97 98
0 97 98
0 97 98
0 96 97
0 96 97
0 96 97
0 96 97
0 96 97
0 96 97
0 92 95
0 92 95
0 92 95
0 92 95
0 92 95
0 92 95
0 92 95
0 92 95
0 92 95
0 91 95
0 91 95
0 91 95
0 91 95
0 91 95
0 91 95
0 91 95
0 91 95
0 91 95
0 91 95
0 91 95
0 91 95
0 91 95
0 91 95
0 92 95
0 92 95
0 92 95
0 92 95
0 92 95
0 92 95
0 92 95
0 92 95
0 92 95
0 96 97
0 96 97
0 96 97
0 96 97
0 96 97
0 96 97
0 97 98
0 97 98
0 97 98
0 97 98
0 97 98
0 97 98
0 101 100
0 103 101
0 103 101
0 104 101
0 104 102
0 104 102
0 105 102
95 127 103
112 134 102
112 134 102
112 134 102
112 134 102
112 134 102
112 134 102
112 134 102
112 134 102
112 134 102
112 134 102
112 134 102
112 134 102
112 134 102
112 134 102
112 134 101
112 134 101
112 134 101
112 134 101
112 134 101
112 134 101
112 134 101
112 134 101
112 134 101
112 134 101
112 134 101
112 134 101
112 134 101
112 134 101
112 134 101
112 134 101
112 134 101
112 134 101
112 134 101
112 134 101
112 134 101
112 134 101
112 134 101
112 134 101
112 134 101
112 134 101
112 134 101
112 134 101
112 134 101
112 134 101
112 134 100
112 134 100
112 134 100
112 134 100
112 134 100
112 134 100
112 135 100
112 135 100
112 135 100
112 135 100
112 135 100
112 135 100
112 135 100
112 135 100
112 135 100
112 135 100
112 135 100
112 135 100
112 135 100
112 135 100
112 135 99
112 135 100
112 135 100
112 135 100
112 135 100
112 135 100
112 135 100
112 135 100
112 135 100
112 135 100
112 135 100
112 135 100
112 135 100
112 135 100
112 135 100
112 134 100
112 134 100
112 134 100
112 134 100
112 134 100
112 134 100
112 134 100
112 134 100
112 134 101
112 134 101
112 134 101
112 134 101
112 134 101
112 134 101
112 134 101
112 134 101
112 134 101
112 134 101
112 134 101
112 134 101
112 134 101
112 134 101
112 134 101
112 134 101
112 134 101
112 134 101
112 134 101
112 134 101
112 134 101
112 134 101
112 134 101
112 134 101
112 134 101
112 134 101
112 134 101
112 134 101
112 134 101
112 134 101
112 134 101
112 134 101
112 134 101
112 134 102
112 134 102
112 134 102
112 134 102
112 134 102
112 134 102
112 134 102
112 134 102
71 118 103
0 104 102
0 104 102
0 104 101
0 103 101
0 103 101
0 103 101
0 100 99
0 97 98
0 97 98
0 97 98
0 97 98
0 97 98
0 96 98
0 96 97
0 96 97
0 96 97
0 96 97
0 96 97
0 96 97
0 92 95
0 92 95
0 92 95
0 92 95
0 92 95
0 92 95
0 92 95
0 91 95
0 91 95
0 91 95
0 91 95
0 91 95
0 91 95
0 91 95
0 91 95
0 91 95
0 91 95
0 91 95
0 91 95
0 91 95
0 91 95
0 91 95
0 91 95
0 91 95
0 92 95
0 92 95
0 92 95
0 92 95
0 92 95
0 92 95
0 92 95
0 92 95
0 96 97
0 96 97
0 96 97
0 96 97
0 96 97
0 96 97
0 96 98
0 97 98
0 97 98
0 97 98
0 97 98
0 97 98
0 100 99
0 103 101
0 103 101
0 103 101
0 104 101
0 104 102
0 104 102
71 118 103
112 133 102
112 134 102
112 134 102
112 134 102
112 134 102
112 134 102
112 134 102
112 134 102
112 134 102
112 134 101
112 134 101
112 134 101
112 134 101
112 134 101
112 134 101
112 134 101
112 134 101
112 134 101
112 134 101
112 134 101
112 134 101
112 134 101
112 134 101
112 134 101
112 134 101
112 134 101
112 134 101
112 134 101
112 134 101
112 134 101
112 134 101
112 134 101
112 134 101
112 134 101
112 134 101
112 134 101
112 134 101
112 134 101
112 134 101
112 134 101
112 134 101
112 134 100
112 134 100
112 134 100
112 134 100
112 134 100
112 134 100
112 134 100
112 134 100
112 134 100
112 134 100
112 134 100
112 135 100
112 135 100
112 135 100
112 135 100
112 135 100
112 135 100
112 135 100
112 135 100
112 135 100
112 135 100
112 135 100
112 135 99
112 135 99
112 135 99
112 135 99
112 135 100
112 135 100
112 135 100
112 135 100
112 135 100
112 135 100
112 135 100
112 135 100
112 135 100
112 135 100
112 134 100
112 134 100
112 134 100
112 134 100
112 134 100
112 134 100
112 134 100
112 134 100
112 134 100
112 134 100
112 134 100
112 134 100
112 134 100
112 134 100
112 134 101
112 134 101
112 134 101
112 134 101
112 134 101
112 134 101
112 134 101
112 134 101
112 134 101
112 134 101
112 134 101
112 134 101
112 134 101
112 134 101
112 134 101
112 134 101
112 134 101
112 134 101
112 134 101
112 134 101
112 134 101
112 134 101
112 134 101
112 134 101
112 134 101
112 134 101
112 134 101
112 134 101
112 134 101
112 134 101
112 134 101
112 134 101
112 134 101
112 133 101
112 133 101
112 133 102
112 133 102
0 107 103
0 104 102
0 104 101
0 104 101
0 103 101
0 103 101
0 103 101
0 99 99
0 97 98
0 97 98
0 97 98
0 97 98
0 96 98
0 96 97
0 96 97
0 96 97
0 96 97
0 96 97
0 96 97
0 94 96
0 92 95
0 92 95
0 92 95
0 92 95
0 92 95
0 91 95
0 91 95
0 91 95
0 91 95
0 91 95
0 91 95
0 91 95
0 91 95
0 91 95
0 91 95
0 91 95
0 91 95
0 91 95
0 91 95
0 91 95
0 91 95
0 91 95
0 91 95
0 91 95
0 91 95
0 91 95
0 91 95
0 92 95
0 92 95
0 92 95
0 92 95
0 92 95
0 94 96
0 96 97
0 96 97
0 96 97
0 96 97
0 96 97
0 96 97
0 96 98
0 97 98
0 97 98
0 97 98
0 97 98
0 99 99
0 103 101
0 103 101
0 103 101
0 104 101
0 104 101
0 104 102
0 107 103
111 133 102
111 133 102
111 133 102
111 133 101
111 133 101
111 133 101
111 133 101
111 133 101
111 134 101
111 134 101
111 134 101
111 134 101
111 134 101
111 134 101
111 134 101
111 134 101
111 134 101
111 134 101
111 134 101
111 134 101
112 134 101
112 134 101
112 134 101
112 134 101
112 134 101
112 134 101
112 134 101
112 134 101
112 134 101
112 134 101
112 134 101
112 134 101
112 134 101
112 134 101
112 134 101
112 134 101
112 134 101
112 134 100
112 134 100
112 134 100
112 134 100
112 134 100
112 134 100
112 134 100
112 134 100
112 134 100
112 134 100
112 134 100
112 134 100
112 134 100
112 134 100
112 134 100
112 134 100
112 134 100
112 134 100
112 135 100
112 135 100
112 135 100
112 135 100
112 135 100
112 135 99
112 135 99
112 135 99
112 135 99
112 135 99
112 135 99
112 135 99
112 135 99
112 135 99
112 135 99
112 135 100
112 135 100
112 135 100
112 135 100
112 135 100
112 134 100
112 134 100
112 134 100
112 134 100
112 134 100
112 134 100
112 134 100
112 134 100
112 134 100
112 134 100
112 134 100
112 134 100
112 134 100
112 134 100
112 134 100
112 134 100
112 134 100
112 134 100
112 134 100
112 134 100
112 134 101
112 134 101
112 134 101
112 134 101
112 134 101
112 134 101
112 134 101
112 134 101
112 134 101
112 134 101
112 134 101
112 134 101
112 134 101
112 134 101
112 134 101
112 134 101
111 134 101
111 134 101
111 134 101
111 134 101
111 134 101
111 133 101
111 133 101
111 133 101
111 133 101
111 133 101
111 133 101
111 133 101
111 133 101
111 133 101
111 133 101
111 133 101
101 129 102
0 106 103
0 104 102
0 104 101
0 103 101
0 103 101
0 103 101
0 103 101
0 97 98
0 97 98
0 97 98
0 97 98
0 96 98
0 96 97
0 96 97
0 96 97
0 96 97
0 96 97
0 96 97
0 96 97
0 94 96
42 92 89
50 93 86
50 93 86
50 93 86
50 93 86
50 92 86
50 92 86
56 93 83
67 93 75
67 93 75
67 93 75
67 93 75
67 93 75
67 93 75
67 93 75
76 94 66
76 94 66
67 93 75
67 93 75
67 93 75
67 93 75
67 93 75
67 94 75
67 94 75
56 93 83
50 92 86
50 93 86
50 93 86
50 93 86
50 93 86
50 93 86
41 92 89
0 94 96
0 96 97
0 96 97
0 96 97
0 96 97
0 96 97
0 96 97
0 96 97
0 96 98
0 97 98
0 97 98
0 97 98
0 97 98
0 103 101
0 103 101
0 103 101
0 103 101
0 104 101
0 104 102
0 106 103
101 129 102
111 133 101
111 133 101
111 133 101
111 133 101
111 133 101
111 133 101
111 133 101
111 133 101
111 133 101
111 133 101
111 133 101
111 133 101
111 133 101
111 134 101
111 134 101
111 134 101
111 134 101
111 134 101
111 134 101
111 134 101
111 134 101
111 134 101
111 134 101
111 134 101
111 134 101
111 134 101
111 134 101
112 134 101
112 134 101
111 134 101
112 134 101
112 134 101
112 134 100
112 134 100
112 134 100
112 134 100
112 134 100
112 134 100
112 134 100
112 134 100
112 134 100
112 134 100
112 134 100
112 134 100
112 134 100
112 134 100
112 134 100
112 134 100
112 134 100
112 134 100
112 134 100
112 134 100
112 134 100
112 134 100
112 134 100
112 134 100
112 134 100
112 135 99
112 135 99
112 135 99
112 135 99
112 135 99
112 135 99
112 135 99
112 135 99
112 135 99
112 135 99
112 135 99
112 135 99
112 135 99
112 135 99
112 134 99
112 134 100
112 134 100
112 134 100
112 134 100
112 134 100
112 134 100
112 134 100
112 134 100
112 134 100
112 134 100
112 134 100
112 134 100
112 134 100
112 134 100
112 134 100
112 134 100
112 134 100
112 134 100
112 134 100
112 134 100
112 134 100
112 134 100
112 134 100
112 134 100
112 134 100
112 134 100
111 134 101
111 134 101
111 134 101
111 134 101
111 134 101
111 134 101
111 134 101
111 134 101
111 134 101
111 134 101
111 134 101
111 134 101
111 133 101
111 133 101
111 133 101
111 133 101
111 133 101
111 133 101
111 133 101
111 133 101
111 133 101
111 133 101
111 133 101
111 133 101
111 133 101
111 133 101
109 130 98
103 123 91
91 118 92
50 101 91
50 101 91
50 101 91
50 101 91
50 100 91
68 98 78
68 98 78
68 96 77
68 96 77
68 96 77
68 96 77
68 95 76
72 95 72
80 95 61
80 95 61
80 95 61
80 95 61
80 95 61
80 95 61
80 95 61
80 95 61
80 95 61
80 95 61
80 95 61
80 95 61
80 95 61
80 95 61
80 95 61
80 95 61
80 95 61
80 95 61
80 95 61
80 95 61
80 95 61
80 95 61
80 95 61
80 95 61
80 95 61
80 95 61
80 95 61
80 95 61
80 95 61
80 95 61
80 95 61
80 95 61
80 95 61
80 95 61
80 95 61
80 95 61
80 95 61
80 95 61
80 95 61
80 95 61
80 95 61
80 95 61
80 95 61
80 95 61
80 95 61
80 95 61
72 95 72
67 96 77
67 96 77
67 96 77
67 96 77
67 96 77
67 98 78
67 98 78
50 101 91
50 101 91
50 101 91
50 101 91
50 101 91
90 118 92
103 123 91
109 130 98
111 133 101
111 133 101
111 133 101
111 133 101
111 133 101
111 133 101
111 133 101
111 133 101
111 133 101
111 133 101
111 133 101
111 133 101
111 133 101
111 133 101
111 133 101
111 133 101
111 133 101
111 134 101
111 134 101
111 134 101
111 134 101
111 134 101
111 134 101
111 134 101
111 134 101
111 134 100
111 134 100
111 134 100
111 134 100
111 134 100
111 134 100
111 134 100
112 134 100
112 134 100
112 134 100
112 134 100
112 134 100
112 134 100
112 134 100
112 134 100
112 134 100
112 134 100
112 134 100
112 134 100
112 134 100
112 134 100
112 134 100
112 134 100
112 134 100
112 134 100
112 134 100
112 134 100
112 134 99
112 134 99
112 134 99
112 134 99
112 134 99
112 135 99
112 135 99
112 135 99
112 135 99
111 135 99
111 135 99
111 135 99
111 135 99
111 135 99
111 135 99
111 134 99
111 134 99
111 134 99
111 134 99
112 134 99
112 134 99
111 134 100
111 134 100
112 134 100
112 134 100
111 134 100
111 134 100
112 134 100
111 134 100
111 134 100
111 134 100
111 134 100
111 134 100
111 134 100
111 134 100
111 134 100
111 134 100
111 134 100
111 134 100
111 134 100
111 134 100
111 134 100
111 134 100
111 134 100
111 134 100
111 134 100
111 134 100
111 134 100
111 134 100
111 134 101
111 134 101
111 133 101
111 133 101
111 133 101
111 133 101
109 130 98
103 124 91
101 120 87
94 112 79
93 111 79
93 111 79
93 111 79
93 111 79
81 96 62
81 96 62
81 96 62
81 96 62
81 96 62
81 96 62
81 95 62
81 95 62
81 95 62
81 95 62
81 95 62
81 95 62
81 95 62
81 95 62
81 95 62
81 95 62
81 95 62
81 95 62
81 95 61
81 95 61
81 95 61
81 95 61
81 95 61
81 95 61
81 95 61
81 95 61
80 95 61
80 95 61
80 95 61
80 95 61
80 95 61
80 95 61
80 95 61
80 95 61
80 95 61
80 95 61
80 95 61
80 95 61
80 95 61
80 95 61
80 95 61
80 95 61
80 95 61
80 95 61
80 95 61
80 95 61
80 95 61
80 95 61
80 95 61
80 95 61
80 95 61
80 95 61
80 95 61
80 95 61
80 95 61
80 95 61
80 95 61
80 95 61
80 95 61
80 95 61
80 95 61
80 95 61
80 95 61
80 95 61
80 95 61
80 95 61
80 95 61
80 95 61
80 95 61
80 95 61
80 95 61
80 95 61
80 95 61
80 95 61
80 95 62
80 95 62
80 95 62
80 95 62
80 95 62
80 96 62
80 96 62
80 96 62
80 96 62
80 96 62
80 96 62
80 96 62
80 96 62
80 96 62
80 96 62
80 96 62
80 96 62
80 96 62
93 112 79
93 112 79
93 112 79
93 112 79
93 112 79
100 120 87
103 124 91
109 130 98
111 133 101
111 133 101
111 133 101
111 133 101
111 133 101
111 133 100
111 134 100
111 134 100
111 134 100
111 134 100
111 134 100
111 134 100
111 134 100
111 134 100
111 134 100
111 134 100
111 134 100
111 134 100
111 134 100
111 134 100
111 134 100
112 134 100
112 134 100
112 134 100
112 134 100
112 134 100
112 134 100
112 134 100
112 134 100
112 134 100
112 134 100
112 134 100
112 134 100
112 134 100
112 134 99
112 134 99
112 134 99
112 134 99
112 134 99
112 134 99
112 134 99
111 134 99
112 134 99
111 134 99
111 135 99
111 135 99
111 135 99
111 135 99
111 135 99
111 135 99
111 134 99
111 134 99
111 134 99
111 134 99
111 134 99
111 134 99
111 134 99
111 134 99
111 134 99
111 134 99
111 134 99
111 134 100
111 134 100
111 134 100
111 134 100
111 134 100
111 134 100
111 134 100
111 134 100
111 134 100
111 134 100
111 134 100
111 134 100
111 134 100
111 134 100
111 134 100
111 134 100
111 134 100
111 134 100
111 134 100
111 134 100
111 134 100
111 134 100
111 134 100
111 134 100
111 133 100
106 127 94
104 124 91
98 117 83
94 113 79
87 103 69
83 98 64
83 98 64
83 98 64
83 98 64
83 97 64
82 97 63
82 96 62
82 96 62
82 96 62
81 96 62
81 96 62
81 96 62
81 96 62
81 96 62
81 96 62
81 96 62
81 96 62
81 96 62
81 96 62
81 96 62
81 95 62
81 95 62
81 95 62
81 95 62
81 95 62
81 95 62
81 95 62
81 95 61
81 95 61
81 95 61
81 95 61
81 95 61
81 95 61
81 95 61
81 95 61
81 95 61
81 95 61
81 95 61
81 95 61
81 95 61
81 95 61
80 95 61
80 95 61
80 95 61
80 95 61
80 95 61
80 95 61
80 95 61
80 95 61
80 95 61
80 95 61
80 95 61
80 95 61
80 95 61
80 95 61
80 95 61
80 95 61
80 95 61
80 95 61
80 95 61
80 95 61
80 95 61
80 95 61
80 95 61
80 95 61
80 95 61
80 95 61
80 95 61
80 95 61
80 95 61
80 95 61
80 95 61
80 95 61
80 95 61
80 95 61
80 95 61
80 95 61
80 95 61
80 95 61
80 95 61
80 95 61
80 95 61
80 95 61
80 95 62
80 96 62
80 96 62
80 96 62
80 96 62
80 96 62
80 96 62
80 96 62
80 96 62
80 96 62
80 96 62
80 96 62
80 96 62
80 96 62
81 96 62
81 96 62
81 96 62
81 96 62
81 96 62
81 96 62
81 96 62
82 97 63
82 98 63
82 98 64
82 98 64
82 98 64
82 98 64
86 103 69
94 113 79
97 117 83
103 124 91
106 127 94
111 133 100
111 133 100
111 133 100
111 133 100
111 134 100
111 134 100
111 134 100
111 134 100
111 134 100
111 134 100
111 134 100
111 134 100
111 134 100
111 134 100
111 134 100
111 134 100
111 134 100
111 134 100
111 134 100
111 134 100
111 134 100
111 134 100
111 134 100
111 134 100
111 134 99
111 134 99
111 134 99
111 134 99
111 134 99
111 134 99
111 134 99
111 134 99
111 134 99
111 134 99
111 134 99
111 134 99
111 134 99
111 134 99
111 134 99
111 134 99
111 135 99
111 135 99
111 134 99
111 134 99
111 134 99
111 134 99
111 134 99
111 134 99
111 134 99
111 134 99
111 134 99
111 134 99
111 134 99
111 134 99
111 134 99
111 134 99
111 134 99
111 134 99
111 134 100
111 134 100
111 134 100
111 134 100
111 134 100
111 134 100
111 134 100
111 134 100
111 134 100
111 134 100
111 134 100
111 134 100
111 134 100
111 134 100
111 134 100
111 134 100
104 124 91
104 124 91
95 113 79
95 113 79
88 104 70
84 98 64
84 98 64
84 98 64
84 98 64
84 98 64
84 98 64
83 98 64
83 98 64
83 98 64
83 98 64
83 98 64
83 98 63
83 97 63
82 96 62
82 96 62
82 96 62
82 96 62
82 96 62
82 96 62
82 96 62
81 96 62
81 96 62
81 96 62
81 96 62
81 96 62
81 96 62
81 96 62
81 96 62
81 96 62
81 96 62
81 95 62
81 95 62
81 95 62
81 95 62
81 95 61
81 95 61
81 95 61
81 95 61
81 95 61
81 95 61
81 95 61
81 95 61
81 95 61
81 95 61
81 95 61
81 95 61
81 95 61
81 95 61
81 95 61
81 95 61
81 95 61
81 95 61
80 95 61
80 95 61
80 95 61
80 95 61
80 95 61
80 95 61
80 95 61
80 95 61
80 95 61
80 95 61
80 95 61
80 95 61
80 95 61
80 95 61
80 95 61
80 95 61
80 95 61
80 95 61
80 95 61
80 95 61
80 95 61
80 95 61
80 95 61
80 95 61
80 95 61
80 95 61
80 95 61
80 95 61
80 95 61
80 95 61
80 95 61
80 95 61
80 95 61
80 95 61
80 96 61
80 96 61
80 96 61
80 96 62
80 96 62
80 96 62
80 96 62
80 96 62
80 96 62
80 96 62
80 96 62
80 96 62
81 96 62
81 96 62
81 96 62
81 96 62
81 96 62
81 96 62
81 96 62
81 96 62
81 96 62
81 96 62
81 96 62
82 97 63
82 98 63
82 98 63
82 98 64
82 98 64
82 98 64
82 98 64
82 98 64
82 98 64
83 99 64
83 99 64
83 99 64
83 99 64
87 104 70
94 113 79
94 113 79
103 124 91
103 124 91
111 133 100
111 133 100
111 134 100
111 134 100
111 134 100
111 134 100
111 134 100
111 134 100
111 134 100
111 134 100
111 134 100
111 134 100
111 134 100
111 134 100
111 134 100
111 134 99
111 134 99
111 134 99
111 134 99
111 134 99
111 134 99
111 134 99
111 134 99
111 134 99
111 134 99
111 134 99
111 134 99
111 134 99
111 134 99
111 134 99
111 134 99
111 134 99
111 134 99
111 134 99
111 134 99
111 134 99
111 134 99
111 134 99
111 134 99
111 134 99
111 134 99
111 134 99
111 134 99
111 134 99
111 134 99
111 134 99
111 134 99
111 134 99
111 134 99
111 134 99
111 134 99
111 134 99
111 134 99
111 134 99
111 134 99
111 134 99
111 134 100
111 134 100
111 134 100
111 134 100
111 134 100
109 131 97
104 124 91
104 124 91
95 113 79
95 113 79
85 99 65
84 99 65
84 99 64
84 99 64
84 99 64
84 99 64
84 99 64
84 99 64
84 98 64
84 98 64
84 98 64
84 98 64
84 98 64
84 98 64
84 98 64
84 98 64
83 98 64
83 98 64
83 98 63
83 98 63
83 97 63
82 96 62
82 96 62
82 96 62
82 96 62
82 96 62
82 96 62
82 96 62
82 96 62
82 96 62
82 96 62
81 96 62
81 96 62
81 96 62
81 96 62
81 96 62
81 96 62
81 96 62
81 96 62
81 96 62
81 96 62
81 96 61
81 95 61
81 95 61
81 95 61
81 95 61
81 95 61
81 95 61
81 95 61
81 95 61
81 95 61
81 95 61
81 95 61
81 95 61
81 95 61
81 95 61
81 95 61
81 95 61
81 95 61
81 95 61
81 95 61
81 95 61
81 95 61
81 95 61
81 95 61
80 95 61
80 95 61
80 95 61
80 95 61
80 95 61
80 95 61
80 95 61
80 95 61
80 95 61
80 95 61
80 95 61
80 95 61
80 95 61
80 95 61
80 95 61
80 95 61
80 95 61
80 95 61
80 95 61
80 95 61
80 95 61
80 95 61
80 96 61
80 95 61
80 96 61
80 96 61
80 96 61
80 96 61
80 96 61
80 96 61
80 96 61
81 96 62
80 96 62
81 96 62
81 96 62
81 96 62
81 96 62
81 96 62
81 96 62
81 96 62
81 96 62
81 96 62
81 96 62
81 96 62
81 96 62
81 96 62
81 96 62
81 96 62
81 96 62
81 97 62
82 98 63
82 98 63
82 98 63
82 98 63
82 98 64
82 98 64
82 98 64
82 99 64
83 99 64
83 99 64
83 99 64
83 99 64
83 99 64
83 99 64
83 99 64
83 99 64
83 99 64
83 99 64
83 99 64
83 100 64
83 100 64
94 113 79
94 114 79
104 124 90
104 124 90
109 131 97
111 134 100
111 134 100
111 134 100
111 134 100
111 134 99
111 134 99
111 134 99
111 134 99
111 134 99
111 134 99
111 134 99
111 134 99
111 134 99
111 134 99
111 134 99
111 134 99
111 134 99
111 134 99
111 134 99
111 134 99
111 134 99
111 134 99
111 134 99
111 134 99
111 134 99
111 134 99
111 134 99
111 134 99
111 134 99
111 134 99
111 134 99
111 134 99
111 134 99
111 134 99
111 134 99
111 134 99
111 134 99
111 134 99
111 134 99
111 134 99
111 134 99
111 134 99
111 134 99
111 134 99
111 134 99
111 134 99
111 134 99
111 134 99
109 131 97
104 125 90
101 121 87
95 114 79
92 109 75
85 100 65
85 100 65
85 100 65
85 99 65
85 99 65
85 99 65
85 99 65
85 99 65
85 99 64
85 99 64
84 99 64
84 99 64
84 99 64
84 99 64
84 99 64
84 99 64
84 98 64
84 98 64
84 98 64
84 98 64
84 98 64
84 98 64
84 98 64
84 98 64
84 98 64
83 98 63
83 98 63
83 98 63
82 96 62
82 96 62
82 96 62
82 96 62
82 96 62
82 96 62
82 96 62
82 96 62
82 96 62
82 96 62
82 96 62
82 96 62
82 96 62
82 96 62
82 96 62
81 96 62
81 96 62
81 96 62
81 96 61
81 96 61
81 96 61
81 96 61
81 96 61
81 96 61
81 96 61
81 96 61
81 95 61
81 95 61
81 95 61
81 95 61
81 95 61
81 95 61
81 95 61
81 95 61
81 95 61
81 95 61
81 95 61
81 95 61
81 95 61
81 95 61
81 95 61
81 95 61
81 95 61
81 95 61
81 95 61
81 95 61
80 95 61
80 95 61
80 95 61
80 95 61
81 95 61
80 95 61
80 95 61
81 95 61
80 95 61
81 95 61
80 95 61
81 95 61
81 95 61
81 95 61
81 95 61
81 95 61
81 96 61
81 96 61
81 96 61
81 96 61
81 96 61
81 96 61
81 96 61
81 96 61
81 96 61
81 96 61
81 96 61
81 96 61
81 96 62
81 96 62
81 96 62
81 96 62
81 96 62
81 96 62
81 96 62
81 96 62
81 96 62
81 96 62
81 96 62
81 96 62
81 96 62
81 96 62
81 96 62
81 97 62
81 97 62
81 97 62
82 98 63
82 98 63
82 98 63
82 98 63
82 98 63
82 98 64
83 99 64
83 99 64
83 99 64
83 99 64
83 99 64
83 99 64
83 99 64
83 99 64
83 99 64
83 99 64
83 99 64
83 99 64
83 100 64
83 100 64
83 100 64
83 100 64
84 100 64
84 100 64
84 100 64
84 100 65
84 100 65
84 100 65
91 110 75
95 114 79
101 121 87
104 125 90
109 131 96
111 134 99
111 134 99
111 134 99
111 134 99
111 134 99
111 134 99
111 134 99
111 134 99
111 134 99
111 134 99
111 134 99
111 134 99
111 134 99
111 134 99
111 134 99
111 134 99
111 134 99
111 134 99
111 134 99
111 134 99
111 134 98
111 134 98
111 134 98
111 134 98
111 134 99
111 134 99
111 134 99
111 134 99
111 134 99
111 134 99
111 134 99
111 134 99
111 134 99
111 134 99
111 134 99
111 134 99
106 128 93
104 125 90
99 118 83
96 114 79
89 105 71
86 100 66
86 100 65
86 100 65
86 100 65
86 100 65
85 100 65
85 100 65
85 100 65
85 100 65
85 100 65
85 100 65
85 99 65
85 99 65
85 99 65
85 99 65
85 99 64
85 99 64
85 99 64
85 99 64
84 99 64
84 99 64
84 99 64
84 99 64
84 99 64
84 98 64
84 98 64
84 98 64
84 98 64
84 98 64
84 98 64
84 98 64
84 98 63
84 98 63
84 98 63
83 98 63
82 96 62
82 96 62
82 96 62
82 96 62
82 96 62
82 96 62
82 96 62
82 96 62
82 96 62
82 96 62
82 96 62
82 96 62
82 96 62
82 96 62
82 96 62
82 96 62
82 96 62
82 96 61
82 96 61
82 96 61
81 96 61
81 96 61
81 96 61
81 96 61
81 96 61
81 96 61
81 96 61
81 96 61
81 96 61
81 96 61
81 95 61
81 95 61
81 95 61
81 95 61
81 95 61
81 95 61
81 95 61
81 95 61
81 95 61
81 95 61
81 95 61
81 95 61
81 95 61
81 95 61
81 95 61
81 95 61
81 95 61
81 95 61
81 95 61
81 95 61
81 95 61
81 95 61
81 95 61
81 95 61
81 95 61
81 96 61
81 96 61
81 96 61
81 96 61
81 96 61
81 96 61
81 96 61
81 96 61
81 96 61
81 96 61
81 96 61
81 96 61
81 96 61
81 96 61
81 96 61
81 96 61
81 96 61
81 96 61
81 96 62
81 96 62
81 96 62
81 96 62
81 96 62
81 96 62
81 96 62
81 96 62
81 96 62
81 96 62
81 96 62
81 96 62
81 97 62
81 97 62
81 97 62
81 97 62
81 97 62
82 98 63
82 98 63
82 98 63
82 98 63
83 98 63
83 99 63
83 99 64
83 99 64
83 99 64
83 99 64
83 99 64
83 99 64
83 99 64
83 99 64
83 99 64
83 99 64
83 100 64
83 100 64
83 100 64
83 100 64
84 100 64
84 100 64
84 100 64
84 100 64
84 100 64
84 100 65
84 100 65
84 100 65
84 101 65
84 101 65
84 101 65
84 101 65
84 101 65
84 101 65
84 101 65
88 106 70
95 114 79
98 118 83
104 125 90
106 128 93
111 134 99
111 134 99
111 134 99
111 134 99
111 134 99
111 134 99
111 134 99
111 134 99
111 134 99
111 134 99
111 134 99
111 134 98
111 134 98
111 134 98
111 134 98
111 134 98
111 134 98
111 134 98
111 134 98
111 134 98
111 134 98
111 134 99
111 134 99
111 134 99
111 134 99
111 134 99
111 134 99
105 126 90
94 112 76
88 102 67
87 101 66
86 101 66
86 101 66
86 101 66
86 101 66
86 101 66
86 101 65
86 100 65
86 100 65
86 100 65
86 100 65
86 100 65
86 100 65
85 100 65
85 100 65
85 100 65
85 100 65
85 100 65
85 99 65
85 99 65
85 99 64
85 99 64
85 99 64
85 99 64
85 99 64
85 99 64
85 99 64
84 99 64
84 99 64
84 99 64
84 99 64
84 98 64
84 98 64
84 98 64
84 98 64
84 98 64
84 98 63
84 98 63
84 98 63
84 98 63
84 98 63
83 97 62
82 96 62
82 96 62
82 96 62
82 96 62
82 96 62
82 96 62
82 96 62
82 96 62
82 96 62
82 96 62
82 96 62
82 96 62
82 96 62
82 96 62
82 96 61
82 96 61
82 96 61
82 96 61
82 96 61
82 96 61
82 96 61
82 96 61
82 96 61
81 96 61
81 96 61
81 96 61
81 96 61
81 96 61
81 96 61
81 96 61
81 96 61
81 96 61
81 96 61
81 96 61
81 96 61
81 96 61
81 95 61
81 96 61
81 95 61
81 95 61
81 95 61
81 95 61
81 95 61
81 95 61
81 95 61
81 95 61
81 95 61
81 95 61
81 96 61
81 96 61
81 96 61
81 96 61
81 96 61
81 96 61
81 96 61
81 96 61
81 96 61
81 96 61
81 96 61
81 96 61
81 96 61
81 96 61
81 96 61
81 96 61
81 96 61
81 96 61
81 96 61
81 96 61
81 96 61
81 96 61
81 96 61
81 96 62
81 96 62
81 96 62
81 96 62
81 96 62
81 96 62
81 96 62
81 96 62
81 96 62
81 97 62
81 97 62
81 97 62
81 97 62
81 97 62
81 97 62
82 97 62
82 98 63
82 98 63
83 98 63
83 99 63
83 99 63
83 99 63
83 99 63
83 99 64
83 99 64
83 99 64
83 99 64
83 99 64
83 99 64
83 99 64
83 99 64
83 100 64
83 100 64
84 100 64
84 100 64
84 100 64
84 100 64
84 100 64
84 100 64
84 100 64
84 100 64
84 100 64
84 101 65
84 101 65
84 101 65
84 101 65
84 101 65
84 101 65
84 101 65
84 101 65
85 101 65
85 101 65
85 101 65
85 102 65
85 102 65
85 102 66
85 102 66
86 103 67
93 112 76
104 126 90
111 134 99
111 134 99
111 134 99
111 134 99
111 134 99
111 134 99
111 134 98
111 134 98
111 134 98
111 134 98
111 134 98
111 134 98
111 134 98
111 134 98
111 134 98
111 134 98
111 134 98
111 134 98
111 134 98
111 134 98
111 134 98
111 134 99
102 123 87
92 108 72
89 104 68
89 104 68
89 104 68
88 103 68
88 102 67
87 101 66
86 101 66
86 101 66
86 101 66
86 101 66
86 101 65
86 101 65
86 100 65
86 100 65
86 100 65
86 100 65
86 100 65
86 100 65
86 100 65
85 100 65
85 100 65
85 100 65
85 100 65
85 100 64
85 99 64
85 99 64
85 99 64
85 99 64
85 99 64
85 99 64
85 99 64
85 99 64
85 99 64
85 99 64
84 99 64
84 99 64
84 98 64
84 98 64
84 98 64
84 98 64
84 98 63
84 98 63
84 98 63
84 98 63
84 98 63
83 97 62
82 97 62
82 96 62
82 96 62
82 96 62
82 96 62
82 96 62
82 96 62
82 96 62
82 96 62
82 96 62
82 96 62
82 96 62
82 96 62
82 96 61
82 96 61
82 96 61
82 96 61
82 96 61
82 96 61
82 96 61
82 96 61
82 96 61
82 96 61
82 96 61
82 96 61
82 96 61
82 96 61
82 96 61
81 96 61
81 96 61
81 96 61
81 96 61
81 96 61
81 96 61
81 96 61
81 96 61
81 96 61
81 96 61
81 96 61
81 96 61
81 96 61
81 96 61
81 96 61
81 96 61
81 96 61
81 96 61
81 96 61
81 96 61
81 96 61
81 96 61
81 96 61
81 96 61
81 96 61
81 96 61
81 96 61
81 96 61
81 96 61
81 96 61
81 96 61
81 96 61
81 96 61
81 96 61
81 96 61
81 96 61
81 96 61
81 96 61
81 96 61
81 96 61
81 96 61
81 96 61
81 96 61
81 96 62
81 96 62
81 96 62
81 96 62
81 97 62
81 97 62
81 97 62
81 97 62
81 97 62
81 97 62
81 97 62
81 97 62
81 97 62
82 97 62
83 98 63
83 98 63
83 99 63
83 99 63
83 99 63
83 99 63
83 99 63
83 99 63
83 99 64
83 99 64
83 99 64
83 99 64
83 99 64
83 99 64
83 100 64
83 100 64
84 100 64
84 100 64
84 100 64
84 100 64
84 100 64
84 100 64
84 100 64
84 100 64
84 100 64
84 101 64
84 101 65
84 101 65
84 101 65
84 101 65
84 101 65
84 101 65
84 101 65
85 101 65
85 101 65
85 101 65
85 102 65
85 102 65
85 102 65
85 102 66
86 103 67
87 104 67
87 104 67
87 104 68
87 104 68
91 109 72
102 123 87
111 134 99
111 134 98
111 134 98
111 134 98
111 134 98
111 134 98
111 134 98
111 134 98
111 134 98
111 134 98
111 134 98
111 134 98
111 134 98
111 134 98
111 134 98
111 134 98
111 134 98
111 134 98
102 123 87
92 109 73
89 104 68
89 104 68
89 104 68
89 104 68
89 104 68
89 104 68
89 104 67
89 103 67
88 103 67
87 102 66
86 101 66
86 101 66
86 101 65
86 101 65
86 101 65
86 101 65
86 100 65
86 100 65
86 100 65
86 100 65
86 100 65
86 100 65
86 100 65
86 100 65
86 100 65
85 100 65
85 100 64
85 100 64
85 99 64
85 99 64
85 99 64
85 99 64
85 99 64
85 99 64
85 99 64
85 99 64
85 99 64
85 99 64
85 99 64
85 99 64
84 99 64
84 98 64
84 98 63
84 98 63
84 98 63
84 98 63
84 98 63
84 98 63
83 97 62
83 97 62
83 97 62
83 97 62
82 96 62
82 96 62
82 96 62
82 96 62
82 96 62
82 96 62
82 96 62
82 96 62
82 96 62
82 96 61
82 96 61
82 96 61
82 96 61
82 96 61
82 96 61
82 96 61
82 96 61
82 96 61
82 96 61
82 96 61
82 96 61
82 96 61
82 96 61
82 96 61
82 96 61
82 96 61
82 96 61
82 96 61
82 96 61
82 96 61
82 96 61
81 96 61
81 96 61
81 96 61
81 96 61
81 96 61
81 96 61
81 96 61
81 96 61
81 96 61
81 96 61
81 96 61
81 96 61
81 96 61
81 96 61
81 96 61
81 96 61
81 96 61
81 96 61
81 96 61
81 96 61
81 96 61
81 96 61
81 96 61
81 96 61
81 96 61
81 96 61
81 96 61
81 96 61
81 96 61
81 96 61
81 96 61
81 96 61
81 96 61
81 96 61
81 96 61
81 96 61
81 96 62
81 97 62
81 97 62
81 97 62
81 97 62
81 97 62
81 97 62
81 97 62
81 97 62
81 97 62
81 97 62
81 97 62
82 98 62
83 98 63
83 99 63
83 99 63
83 99 63
83 99 63
83 99 63
83 99 63
83 99 63
83 99 63
83 99 64
83 99 64
83 99 64
83 100 64
84 100 64
84 100 64
84 100 64
84 100 64
84 100 64
84 100 64
84 100 64
84 100 64
84 100 64
84 100 64
84 101 64
84 101 64
84 101 64
84 101 65
84 101 65
84 101 65
84 101 65
84 101 65
85 101 65
85 101 65
85 101 65
85 102 65
85 102 65
85 102 65
85 102 65
85 102 66
86 103 67
87 104 67
87 104 67
87 104 67
87 104 68
87 105 68
87 105 68
88 105 68
88 105 68
91 109 73
102 123 87
111 134 98
111 134 98
111 134 98
111 134 98
111 134 98
111 134 98
111 134 98
111 134 98
111 134 98
111 134 98
111 134 98
111 134 98
111 134 98
111 134 98
102 123 87
93 109 73
90 105 68
90 105 68
90 105 68
89 104 68
89 104 68
89 104 68
89 104 68
89 104 68
89 104 68
89 104 67
89 104 67
89 103 67
88 103 67
87 102 66
87 101 66
86 101 65
86 101 65
86 101 65
86 101 65
86 101 65
86 101 65
86 100 65
86 100 65
86 100 65
86 100 65
86 100 65
86 100 65
86 100 65
86 100 64
86 100 64
85 100 64
85 100 64
85 99 64
85 99 64
85 99 64
85 99 64
85 99 64
85 99 64
85 99 64
85 99 64
85 99 64
85 99 64
85 99 64
85 99 64
85 99 63
84 98 63
84 98 63
84 98 63
84 98 63
84 98 63
84 98 63
84 98 63
83 97 62
83 97 62
83 97 62
83 97 62
83 97 62
83 96 62
83 96 62
83 96 62
82 96 62
82 96 62
82 96 61
82 96 61
82 96 61
82 96 61
82 96 61
82 96 61
82 96 61
82 96 61
82 96 61
82 96 61
82 96 61
82 96 61
82 96 61
82 96 61
82 96 61
82 96 61
82 96 61
82 96 61
82 96 61
82 96 61
82 96 61
82 96 61
82 96 61
82 96 61
82 96 61
82 96 61
82 96 61
82 96 61
81 96 61
81 96 61
81 96 61
81 96 61
81 96 61
81 96 61
81 96 61
81 96 61
81 96 61
81 96 61
81 96 61
81 96 61
81 96 61
81 96 61
81 96 61
81 96 61
81 96 61
81 96 61
81 96 61
81 96 61
81 96 61
81 96 61
81 96 61
81 96 61
81 96 61
81 96 61
81 96 61
81 96 61
81 97 61
81 97 61
81 97 61
81 97 61
81 97 62
81 97 62
81 97 62
81 97 62
82 97 62
82 97 62
82 97 62
82 97 62
82 97 62
82 97 62
82 98 63
83 99 63
83 99 63
83 99 63
83 99 63
83 99 63
83 99 63
83 99 63
83 99 63
83 99 63
83 99 63
83 100 64
84 100 64
84 100 64
84 100 64
84 100 64
84 100 64
84 100 64
84 100 64
84 100 64
84 100 64
84 100 64
84 101 64
84 101 64
84 101 64
84 101 64
84 101 64
84 101 64
84 101 65
84 101 65
84 101 65
85 101 65
85 101 65
85 101 65
85 102 65
85 102 65
85 102 65
85 102 65
85 102 66
86 104 67
87 104 67
87 104 67
87 104 67
87 104 67
87 105 68
87 105 68
88 105 68
88 105 68
88 105 68
88 105 68
88 105 68
88 105 68
91 109 73
102 123 87
111 134 98
111 134 98
111 134 98
111 134 98
111 134 98
111 134 98
111 134 98
111 134 98
111 134 98
109 131 95
100 120 84
90 106 69
90 105 69
90 105 69
90 105 68
90 105 68
90 105 68
90 105 68
90 105 68
90 104 68
89 104 68
89 104 68
89 104 68
89 104 68
89 104 67
89 104 67
89 104 67
89 103 67
88 103 67
88 102 66
87 101 65
87 101 65
87 101 65
86 101 65
86 101 65
86 101 65
86 100 65
86 100 65
86 100 65
86 100 65
86 100 65
86 100 65
86 100 65
86 100 64
86 100 64
86 100 64
86 100 64
85 100 64
85 99 64
85 99 64
85 99 64
85 99 64
85 99 64
85 99 64
85 99 64
85 99 64
85 99 64
85 99 64
85 99 63
85 99 63
85 99 63
85 98 63
84 98 63
84 98 63
84 98 63
84 98 63
84 98 63
83 97 62
83 97 62
83 97 62
83 97 62
83 97 62
83 97 62
83 97 62
83 96 62
83 96 62
83 96 61
83 96 61
83 96 61
83 96 61
83 96 61
82 96 61
82 96 61
82 96 61
82 96 61
82 96 61
82 96 61
82 96 61
82 96 61
82 96 61
82 96 61
82 96 61
82 96 61
82 96 61
82 96 61
82 96 61
82 96 61
82 96 61
82 96 61
82 96 61
82 96 61
82 96 61
82 96 61
82 96 61
82 96 61
82 96 61
82 96 61
82 96 61
82 96 61
82 96 61
82 96 61
82 96 61
82 96 61
82 96 61
82 96 61
82 96 61
82 96 61
82 96 61
82 96 61
82 96 61
82 96 61
82 96 61
82 96 61
82 96 61
82 96 61
82 96 61
82 96 61
82 96 61
82 97 61
82 97 61
82 97 61
82 97 61
82 97 61
82 97 61
82 97 61
82 97 61
82 97 61
82 97 61
82 97 62
82 97 62
82 97 62
82 97 62
82 97 62
82 97 62
82 97 62
83 98 62
83 99 63
83 99 63
83 99 63
83 99 63
83 99 63
83 99 63
83 99 63
83 99 63
84 99 63
84 100 63
84 100 63
84 100 63
84 100 64
84 100 64
84 100 64
84 100 64
84 100 64
84 100 64
84 100 64
84 100 64
84 101 64
84 101 64
84 101 64
84 101 64
84 101 64
84 101 64
84 101 64
84 101 65
85 101 65
85 101 65
85 101 65
85 101 65
85 102 65
85 102 65
85 102 65
85 102 65
86 103 66
87 104 67
87 104 67
87 104 67
87 104 67
87 104 67
87 105 67
87 105 68
88 105 68
88 105 68
88 105 68
88 105 68
88 105 68
88 105 68
88 105 68
88 106 69
88 106 69
88 106 69
89 106 69
100 120 84
109 131 95
111 134 98
111 134 98
111 134 98
110 134 98
109 131 95
101 120 84
91 106 69
91 106 69
91 106 69
91 106 69
90 106 69
90 105 69
90 105 68
90 105 68
90 105 68
90 105 68
90 105 68
90 105 68
90 104 68
90 104 68
89 104 68
89 104 67
89 104 67
89 104 67
89 104 67
89 104 67
89 103 67
88 103 67
88 102 66
87 101 65
87 101 65
87 101 65
87 101 65
86 101 65
86 101 65
86 101 65
86 100 65
86 100 65
86 100 65
86 100 65
86 100 64
86 100 64
86 100 64
86 100 64
86 100 64
86 100 64
86 100 64
86 99 64
86 99 64
85 99 64
85 99 64
85 99 64
85 99 64
85 99 64
85 99 64
85 99 63
85 99 63
85 99 63
85 99 63
85 99 63
85 98 63
85 98 63
85 98 63
84 98 63
84 98 63
83 97 62
83 97 62
83 97 62
83 97 62
83 97 62
83 97 62
83 97 62
83 97 61
83 97 61
83 97 61
83 97 61
83 96 61
83 96 61
83 96 61
83 96 61
83 96 61
83 96 61
83 96 61
83 96 61
83 96 61
83 96 61
82 96 61
82 96 61
82 96 61
82 96 61
82 96 61
82 96 61
82 96 61
82 96 61
82 96 61
82 96 61
82 96 61
82 96 61
82 96 61
82 96 61
82 96 61
82 96 61
82 96 61
82 96 61
82 96 61
82 96 61
82 96 61
82 96 61
82 96 61
82 96 61
82 96 61
82 96 61
82 96 61
82 96 61
82 96 61
82 96 61
82 96 61
82 96 61
82 96 61
82 96 61
82 96 61
82 97 61
82 97 61
82 97 61
82 97 61
82 97 61
82 97 61
82 97 61
82 97 61
82 97 61
82 97 61
82 97 61
82 97 61
82 97 61
82 97 61
82 97 61
82 97 61
82 97 62
82 97 62
82 97 62
82 97 62
83 98 62
83 99 63
83 99 63
83 99 63
83 99 63
83 99 63
83 99 63
84 99 63
84 100 63
84 100 63
84 100 63
84 100 63
84 100 63
84 100 64
84 100 64
84 100 64
84 100 64
84 100 64
84 100 64
84 101 64
84 101 64
84 101 64
84 101 64
84 101 64
84 101 64
84 101 64
84 101 64
85 101 64
85 101 65
85 101 65
85 101 65
85 102 65
85 102 65
85 102 65
85 102 65
85 102 65
86 103 66
87 104 67
87 104 67
87 104 67
87 104 67
87 104 67
87 105 67
87 105 68
88 105 68
88 105 68
88 105 68
88 105 68
88 105 68
88 105 68
88 105 68
88 106 68
88 106 69
88 106 69
89 106 69
89 106 69
89 106 69
89 106 69
89 106 69
100 120 84
108 131 95
110 134 98
101 121 84
91 107 70
91 107 69
91 106 69
91 106 69
91 106 69
91 106 69
91 106 69
91 106 69
90 106 69
90 105 68
90 105 68
90 105 68
90 105 68
90 105 68
90 105 68
90 105 68
90 104 68
90 104 68
89 104 67
89 104 67
89 104 67
89 104 67
89 104 67
89 104 67
89 103 67
89 103 67
88 102 66
87 101 65
87 101 65
87 101 65
87 101 65
87 101 65
87 101 65
86 101 65
86 100 65
86 100 65
86 100 64
86 100 64
86 100 64
86 100 64
86 100 64
86 100 64
86 100 64
86 100 64
86 100 64
86 99 64
86 99 64
86 99 64
85 99 64
85 99 64
85 99 64
85 99 63
85 99 63
85 99 63
85 99 63
85 99 63
85 99 63
85 99 63
85 99 63
85 98 63
85 98 63
84 98 63
83 97 62
83 97 62
83 97 62
83 97 62
83 97 62
83 97 61
83 97 61
83 97 61
83 97 61
83 97 61
83 97 61
83 97 61
83 97 61
83 97 61
83 96 61
83 96 61
83 96 61
83 96 61
83 96 61
83 96 61
83 96 61
83 96 61
83 96 61
83 96 61
83 96 61
83 96 61
83 96 61
82 96 61
82 96 61
82 96 61
82 96 61
82 96 61
82 96 61
82 96 61
82 96 61
82 96 61
82 96 61
82 96 61
82 96 61
82 96 61
82 96 61
82 96 61
82 96 61
82 96 61
82 96 61
82 96 61
82 96 61
82 96 61
82 96 61
82 96 61
82 96 61
82 96 61
82 97 61
82 97 61
82 97 61
82 97 61
82 97 61
82 97 61
82 97 61
82 97 61
82 97 61
82 97 61
82 97 61
82 97 61
82 97 61
82 97 61
82 97 61
82 97 61
82 97 61
82 97 61
82 97 61
82 97 61
82 97 61
82 98 62
83 99 62
83 99 63
83 99 63
83 99 63
84 99 63
84 99 63
84 99 63
84 100 63
84 100 63
84 100 63
84 100 63
84 100 63
84 100 63
84 100 63
84 100 64
84 100 64
84 100 64
84 100 64
84 101 64
84 101 64
84 101 64
84 101 64
84 101 64
84 101 64
85 101 64
85 101 64
85 101 64
85 101 64
85 101 65
85 101 65
85 102 65
85 102 65
85 102 65
85 102 65
85 102 65
86 103 66
87 104 67
87 104 67
87 104 67
87 104 67
87 104 67
87 105 67
87 105 67
87 105 68
88 105 68
88 105 68
88 105 68
88 105 68
88 105 68
88 105 68
88 106 68
88 106 69
88 106 69
89 106 69
89 106 69
89 106 69
89 106 69
89 106 69
89 107 70
89 107 70
89 107 70
89 107 70
100 121 84
92 108 70
92 107 70
91 107 70
91 107 69
91 107 69
91 106 69
91 106 69
91 106 69
91 106 69
91 106 69
91 106 69
91 106 68
91 105 68
90 105 68
90 105 68
90 105 68
90 105 68
90 105 68
90 105 68
90 104 68
90 104 67
90 104 67
89 104 67
89 104 67
89 104 67
89 104 67
89 104 67
89 103 67
89 103 67
88 102 66
87 101 65
87 101 65
87 101 65
87 101 65
87 101 65
87 101 65
87 100 65
87 100 64
86 100 64
86 100 64
86 100 64
86 100 64
86 100 64
86 100 64
86 100 64
86 100 64
86 100 64
86 100 64
86 99 64
86 99 64
86 99 64
86 99 64
86 99 63
85 99 63
85 99 63
85 99 63
85 99 63
85 99 63
85 99 63
85 99 63
85 99 63
85 99 63
85 98 63
85 98 63
84 97 62
84 97 62
84 97 62
83 97 62
83 97 61
83 97 61
83 97 61
83 97 61
83 97 61
83 97 61
83 97 61
83 97 61
83 97 61
83 97 61
83 97 61
83 97 61
83 97 61
83 97 61
83 96 61
83 96 61
83 96 61
83 96 61
83 96 61
83 96 61
83 96 61
83 96 61
83 96 61
83 96 61
83 96 61
83 96 61
83 96 61
83 96 61
83 96 61
82 96 61
82 96 61
82 96 61
82 96 61
82 96 61
82 96 61
82 96 61
82 96 61
82 96 61
82 96 61
82 96 61
82 96 61
82 96 61
82 96 61
82 97 61
82 97 61
82 97 61
82 97 61
82 97 61
82 97 61
82 97 61
82 97 61
82 97 61
82 97 61
82 97 61
82 97 61
82 97 61
82 97 61
82 97 61
82 97 61
82 97 61
82 97 61
82 97 61
82 97 61
82 97 61
82 97 61
82 97 61
82 98 61
83 98 62
83 99 62
84 99 63
84 99 63
84 99 63
84 99 63
84 99 63
84 100 63
84 100 63
84 100 63
84 100 63
84 100 63
84 100 63
84 100 63
84 100 63
84 100 63
84 100 64
84 100 64
84 101 64
84 101 64
85 101 64
85 101 64
85 101 64
85 101 64
85 101 64
85 101 64
85 101 64
85 101 64
85 101 64
85 101 65
85 102 65
85 102 65
85 102 65
85 102 65
85 102 65
86 103 66
87 104 67
87 104 67
87 104 67
87 104 67
87 104 67
87 105 67
87 105 67
88 105 67
88 105 68
88 105 68
88 105 68
88 105 68
88 105 68
88 105 68
88 106 68
88 106 69
88 106 69
89 106 69
89 106 69
89 106 69
89 106 69
89 106 69
89 106 69
89 107 70
89 107 70
89 107 70
90 107 70
90 107 70
90 108 71
93 109 71
93 109 71
93 108 70
92 108 70
91 107 69
91 107 69
91 107 69
91 106 69
91 106 69
91 106 69
91 106 69
91 106 69
91 106 68
91 106 68
91 105 68
90 105 68
90 105 68
90 105 68
90 105 68
90 105 68
90 105 67
90 104 67
90 104 67
90 104 67
90 104 67
90 104 67
89 104 67
89 104 67
89 104 67
89 103 67
89 103 66
89 103 66
88 101 65
87 101 65
87 101 65
87 101 65
87 101 65
87 101 64
87 100 64
87 100 64
87 100 64
87 100 64
87 100 64
86 100 64
86 100 64
86 100 64
86 100 64
86 100 64
86 100 64
86 100 64
86 99 64
86 99 64
86 99 63
86 99 63
86 99 63
86 99 63
86 99 63
86 99 63
85 99 63
85 99 63
85 99 63
85 99 63
85 99 63
85 99 63
85 98 63
84 97 62
84 97 62
84 97 61
84 97 61
84 97 61
84 97 61
84 97 61
84 97 61
84 97 61
84 97 61
84 97 61
83 97 61
83 97 61
83 97 61
83 97 61
83 97 61
83 97 61
83 97 61
83 97 61
83 97 61
83 97 61
83 97 61
83 97 61
83 96 61
83 96 61
83 96 61
83 96 61
83 96 61
83 96 61
83 96 61
83 96 61
83 96 61
83 96 61
83 96 61
83 96 61
83 96 61
83 96 61
83 96 61
83 96 61
83 96 61
83 96 61
83 96 61
83 97 61
83 97 61
83 97 61
83 97 61
83 97 61
83 97 61
83 97 61
83 97 61
83 97 61
83 97 61
83 97 61
83 97 61
83 97 61
83 97 61
83 97 61
83 97 61
83 97 61
83 97 61
83 97 61
83 97 61
83 97 61
83 97 61
83 97 61
83 97 61
83 98 61
83 98 61
83 98 61
83 98 61
84 99 62
84 99 62
84 99 62
84 99 63
84 99 63
84 100 63
84 100 63
84 100 63
84 100 63
84 100 63
84 100 63
84 100 63
84 100 63
84 100 63
84 100 63
85 100 64
85 101 64
85 101 64
85 101 64
85 101 64
85 101 64
85 101 64
85 101 64
85 101 64
85 101 64
85 101 64
85 101 64
85 102 64
85 102 65
85 102 65
85 102 65
85 102 65
85 102 65
86 104 66
87 104 67
87 104 67
87 104 67
87 104 67
87 104 67
87 105 67
87 105 67
88 105 67
88 105 68
88 105 68
88 105 68
88 105 68
88 105 68
88 105 68
88 106 68
88 106 68
88 106 69
89 106 69
89 106 69
89 106 69
89 106 69
89 106 69
89 106 69
89 107 69
89 107 70
89 107 70
90 107 70
90 108 70
91 108 71
92 109 71
92 109 72
96 113 75
94 110 71
93 109 71
93 109 71
93 109 71
93 108 70
92 107 70
91 107 69
91 107 69
91 106 69
91 106 69
91 106 69
91 106 68
91 106 68
91 106 68
91 106 68
91 105 68
91 105 68
90 105 68
90 105 68
90 105 68
90 105 67
90 105 67
90 104 67
90 104 67
90 104 67
90 104 67
90 104 67
90 104 67
89 104 67
89 103 67
89 103 66
89 103 66
89 103 66
88 101 65
87 101 65
87 101 65
87 101 64
87 101 64
87 101 64
87 101 64
87 100 64
87 100 64
87 100 64
87 100 64
87 100 64
87 100 64
87 100 64
86 100 64
86 100 64
86 100 64
86 100 64
86 100 63
86 99 63
86 99 63
86 99 63
86 99 63
86 99 63
86 99 63
86 99 63
86 99 63
86 99 63
85 99 63
85 99 63
85 99 63
85 98 62
84 98 62
84 97 61
84 97 61
84 97 61
84 97 61
84 97 61
84 97 61
84 97 61
84 97 61
84 97 61
84 97 61
84 97 61
84 97 61
84 97 61
84 97 61
84 97 61
84 97 61
84 97 61
84 97 61
84 97 61
84 97 61
83 97 61
83 97 61
83 97 61
83 97 61
83 97 61
83 97 61
83 97 61
83 96 61
83 96 61
83 96 61
83 96 61
83 96 61
83 96 61
83 96 61
83 96 61
83 97 61
83 97 61
83 97 61
83 97 61
83 97 61
83 97 61
83 97 61
83 97 61
83 97 61
83 97 61
83 97 61
83 97 61
83 97 61
83 97 61
83 97 61
83 97 61
83 97 61
83 97 61
83 97 61
83 97 61
83 97 61
83 97 61
83 97 61
83 97 61
83 97 61
83 97 61
83 98 61
83 98 61
83 98 61
83 98 61
83 98 61
83 98 62
84 99 62
84 99 62
84 99 62
84 99 62
84 100 62
84 100 63
84 100 63
84 100 63
84 100 63
85 100 63
85 100 63
85 100 63
85 100 63
85 100 63
85 100 63
85 101 64
85 101 64
85 101 64
85 101 64
85 101 64
85 101 64
85 101 64
85 101 64
85 101 64
85 101 64
85 101 64
85 101 64
85 102 65
85 102 65
85 102 65
85 102 65
86 102 65
87 103 66
87 104 66
87 104 67
87 104 67
87 104 67
87 104 67
87 105 67
87 105 67
88 105 67
88 105 67
88 105 68
88 105 68
88 105 68
88 105 68
88 105 68
88 106 68
88 106 68
88 106 68
89 106 69
89 106 69
89 106 69
89 106 69
89 106 69
89 106 69
89 107 69
89 107 69
89 107 70
90 108 70
91 108 71
91 109 71
92 109 71
92 109 71
92 110 72
94 113 75
103 124 87
94 110 72
94 110 71
94 110 71
94 109 71
93 109 71
93 109 71
93 109 70
93 108 70
92 107 69
92 107 69
91 106 69
91 106 69
91 106 68
91 106 68
91 106 68
91 106 68
91 106 68
91 105 68
91 105 68
91 105 68
91 105 67
90 105 67
90 105 67
90 105 67
90 104 67
90 104 67
90 104 67
90 104 67
90 104 67
90 104 67
90 104 66
89 103 66
89 103 66
89 103 66
89 103 66
88 102 65
87 101 64
87 101 64
87 101 64
87 101 64
87 101 64
87 100 64
87 100 64
87 100 64
87 100 64
87 100 64
87 100 64
87 100 64
87 100 64
87 100 64
87 100 64
86 100 63
86 100 63
86 99 63
86 99 63
86 99 63
86 99 63
86 99 63
86 99 63
86 99 63
86 99 63
86 99 63
86 99 63
86 99 63
86 99 63
86 99 63
85 98 62
84 97 61
84 97 61
84 97 61
84 97 61
84 97 61
84 97 61
84 97 61
84 97 61
84 97 61
84 97 61
84 97 61
84 97 61
84 97 61
84 97 61
84 97 61
84 97 61
84 97 61
84 97 61
84 97 61
84 97 61
84 97 61
84 97 61
84 97 61
84 97 61
84 97 61
84 97 61
84 97 61
84 97 61
83 97 61
83 97 61
83 97 61
83 97 61
83 97 61
83 97 61
83 97 61
83 97 61
83 97 61
83 97 61
83 97 61
83 97 61
83 97 61
83 97 61
83 97 61
83 97 61
83 97 61
83 97 61
83 97 61
83 97 61
83 97 61
83 97 61
83 97 61
83 97 61
83 97 61
83 97 61
83 97 61
83 97 61
83 97 61
83 97 61
83 98 61
83 98 61
83 98 61
83 98 61
83 98 61
83 98 61
84 98 61
84 99 62
84 99 62
84 99 62
84 100 62
85 100 62
85 100 62
85 100 63
85 100 63
85 100 63
85 100 63
85 100 63
85 100 63
85 100 63
85 100 63
85 101 63
85 101 63
85 101 64
85 101 64
85 101 64
85 101 64
85 101 64
85 101 64
85 101 64
85 101 64
85 101 64
85 102 64
85 102 64
85 102 65
85 102 65
85 102 65
86 103 65
87 104 66
87 104 66
87 104 67
87 104 67
87 104 67
87 104 67
87 105 67
88 105 67
88 105 67
88 105 67
88 105 68
88 105 68
88 105 68
88 105 68
88 105 68
88 105 68
88 106 68
89 106 68
89 106 68
89 106 69
89 106 69
89 106 69
89 106 69
89 106 69
89 107 69
90 107 69
90 107 70
91 108 70
91 109 71
92 109 71
92 109 71
92 109 71
92 110 71
92 110 72
92 110 72
103 124 87
110 133 97
98 116 79
94 110 72
94 110 71
94 110 71
94 110 71
94 109 71
93 109 71
93 109 71
93 109 70
93 109 70
93 108 70
92 107 69
92 107 69
91 106 68
91 106 68
91 106 68
91 106 68
91 106 68
91 106 68
91 105 68
91 105 68
91 105 67
91 105 67
91 105 67
90 105 67
90 105 67
90 104 67
90 104 67
90 104 67
90 104 67
90 104 67
90 104 66
90 104 66
90 103 66
90 103 66
89 103 66
89 103 66
88 102 65
88 101 64
87 101 64
87 101 64
87 101 64
87 101 64
87 100 64
87 100 64
87 100 64
87 100 64
87 100 64
87 100 64
87 100 64
87 100 64
87 100 63
87 100 63
87 100 63
87 100 63
87 99 63
87 99 63
86 99 63
86 99 63
86 99 63
86 99 63
86 99 63
86 99 63
86 99 63
86 99 63
86 99 62
86 99 62
85 98 62
85 97 61
85 97 61
85 97 61
85 97 61
85 97 61
84 97 61
84 97 61
84 97 61
84 97 61
84 97 61
84 97 61
84 97 61
84 97 61
84 97 61
84 97 61
84 97 61
84 97 61
84 97 61
84 97 61
84 97 61
84 97 61
84 97 61
84 97 61
84 97 61
84 97 61
84 97 61
84 97 61
84 97 61
84 97 61
84 97 61
84 97 61
84 97 60
84 97 60
84 97 60
84 97 60
84 97 61
84 97 61
84 97 61
84 97 61
84 97 61
84 97 61
84 97 61
84 97 61
84 97 61
84 97 61
84 97 61
84 97 61
84 97 61
84 97 61
84 97 61
84 97 61
84 97 61
84 97 61
84 98 61
84 98 61
84 98 61
84 98 61
84 98 61
84 98 61
84 98 61
84 98 61
84 98 61
84 98 61
85 99 62
85 99 62
85 100 62
85 100 62
85 100 62
85 100 62
85 100 63
85 100 63
85 100 63
85 100 63
85 100 63
85 100 63
85 100 63
85 101 63
85 101 63
85 101 63
85 101 64
85 101 64
85 101 64
85 101 64
85 101 64
85 101 64
85 101 64
85 101 64
85 102 64
85 102 64
85 102 64
85 102 65
85 102 65
86 103 65
87 104 66
87 104 66
87 104 67
87 104 67
87 104 67
87 104 67
88 104 67
88 105 67
88 105 67
88 105 67
88 105 67
88 105 68
88 105 68
88 105 68
88 105 68
88 105 68
88 106 68
89 106 68
89 106 68
89 106 68
89 106 69
89 106 69
89 106 69
89 106 69
90 107 69
90 107 70
91 108 70
91 109 71
91 109 71
92 109 71
92 109 71
92 109 71
92 110 71
92 110 72
93 110 72
93 110 72
97 116 79
110 133 97
110 133 97
107 129 92
94 111 72
94 111 72
94 110 72
94 110 71
94 110 71
94 110 71
94 109 71
94 109 71
93 109 70
93 109 70
93 109 70
93 108 70
93 108 69
92 107 69
92 106 68
91 106 68
91 106 68
91 106 68
91 106 68
91 106 68
91 105 68
91 105 67
91 105 67
91 105 67
91 105 67
91 105 67
91 105 67
90 104 67
90 104 67
90 104 67
90 104 66
90 104 66
90 104 66
90 104 66
90 103 66
90 103 66
90 103 66
90 103 66
89 102 65
88 101 64
88 101 64
88 101 64
88 101 64
88 101 64
88 100 64
87 100 64
87 100 64
87 100 64
87 100 64
87 100 63
87 100 63
87 100 63
87 100 63
87 100 63
87 100 63
87 100 63
87 99 63
87 99 63
87 99 63
87 99 63
87 99 63
87 99 63
86 99 63
86 99 63
86 99 62
86 99 62
86 99 62
86 98 62
85 97 61
85 97 61
85 97 61
85 97 61
85 97 61
85 97 61
85 97 61
85 97 61
85 97 61
85 97 61
85 97 61
85 97 61
85 97 61
85 97 61
85 97 61
85 97 61
85 97 61
85 97 61
85 97 61
84 97 61
84 97 61
84 97 61
84 97 61
84 97 61
84 97 61
84 97 61
84 97 61
84 97 61
84 97 61
84 97 60
84 97 60
84 97 60
84 97 60
84 97 60
84 97 60
84 97 60
84 97 60
84 97 61
84 97 61
84 97 61
84 97 61
84 97 61
84 97 61
84 97 61
84 97 61
84 97 61
84 97 61
84 97 61
84 97 61
84 97 61
84 98 61
84 98 61
84 98 61
84 98 61
84 98 61
84 98 61
84 98 61
84 98 61
84 98 61
84 98 61
84 99 61
85 99 62
85 100 62
85 100 62
85 100 62
85 100 62
85 100 62
85 100 62
85 100 63
85 100 63
85 100 63
85 100 63
85 100 63
85 101 63
85 101 63
85 101 63
85 101 63
86 101 64
86 101 64
86 101 64
86 101 64
86 101 64
86 101 64
86 101 64
86 102 64
86 102 64
86 102 64
86 102 65
86 102 65
87 103 66
87 104 66
87 104 66
87 104 66
87 104 67
88 104 67
88 104 67
88 104 67
88 105 67
88 105 67
88 105 67
88 105 67
88 105 67
88 105 68
88 105 68
88 105 68
88 105 68
89 106 68
89 106 68
89 106 68
89 106 68
89 106 68
89 106 69
89 106 69
89 107 69
90 107 69
91 108 70
91 108 70
91 109 70
92 109 71
92 109 71
92 109 71
92 109 71
92 110 71
93 110 71
93 110 72
93 110 72
93 110 72
93 111 72
107 129 92
110 133 97
110 133 97
110 133 97
98 117 79
94 111 72
94 111 72
94 111 72
94 110 72
94 110 71
94 110 71
94 110 71
94 110 71
94 109 71
94 109 70
93 109 70
93 109 70
93 108 70
93 108 70
93 108 69
92 107 69
92 106 68
91 106 68
91 106 68
91 106 68
91 106 67
91 105 67
91 105 67
91 105 67
91 105 67
91 105 67
91 105 67
91 105 67
91 104 67
91 104 66
90 104 66
90 104 66
90 104 66
90 104 66
90 104 66
90 103 66
90 103 66
90 103 66
90 103 66
89 102 65
88 101 64
88 101 64
88 101 64
88 101 64
88 101 64
88 100 64
88 100 64
88 100 64
88 100 63
88 100 63
88 100 63
87 100 63
87 100 63
87 100 63
87 100 63
87 100 63
87 99 63
87 99 63
87 99 63
87 99 63
87 99 63
87 99 63
87 99 62
87 99 62
87 99 62
87 99 62
87 99 62
86 98 62
85 97 61
85 97 61
85 97 61
85 97 61
85 97 61
85 97 61
85 97 61
85 97 61
85 97 61
85 97 61
85 97 61
85 97 61
85 97 61
85 97 61
85 97 61
85 97 61
85 97 61
85 97 61
85 97 61
85 97 61
85 97 61
85 97 61
85 97 61
85 97 61
85 97 61
85 97 60
85 97 60
85 97 60
85 97 60
84 97 60
84 97 60
84 97 60
84 97 60
84 97 60
84 97 60
85 97 60
84 97 60
85 97 60
85 97 60
85 97 60
85 97 60
85 97 61
85 97 61
85 97 61
85 97 61
84 97 61
84 97 61
84 98 61
84 98 61
84 98 61
84 98 61
84 98 61
84 98 61
84 98 61
84 98 61
84 98 61
84 98 61
84 98 61
85 99 61
85 100 62
85 100 62
85 100 62
85 100 62
86 100 62
86 100 62
86 100 62
86 100 63
86 100 63
86 100 63
86 100 63
86 101 63
86 101 63
86 101 63
86 101 63
86 101 63
86 101 64
86 101 64
86 101 64
86 101 64
86 101 64
86 101 64
86 102 64
86 102 64
86 102 64
86 102 64
86 102 65
87 103 65
87 104 66
88 104 66
88 104 66
88 104 67
88 104 67
88 104 67
88 104 67
88 105 67
88 105 67
88 105 67
88 105 67
88 105 67
88 105 67
88 105 68
89 105 68
89 105 68
89 105 68
89 106 68
89 106 68
89 106 68
89 106 68
89 106 68
89 106 69
90 107 69
91 108 70
91 108 70
91 108 70
92 109 70
92 109 70
92 109 71
92 109 71
92 109 71
92 110 71
93 110 71
93 110 71
93 110 72
93 110 72
93 111 72
94 111 72
98 117 79
110 133 97
110 133 97
110 133 97
110 133 97
110 133 97
107 129 92
102 122 85
96 114 76
94 111 72
94 111 72
94 110 71
94 110 71
94 110 71
94 110 71
94 110 71
94 109 70
94 109 70
94 109 70
93 109 70
93 109 70
93 108 69
93 108 69
93 108 69
92 107 68
92 106 68
92 106 68
91 106 67
91 105 67
91 105 67
91 105 67
91 105 67
91 105 67
91 105 67
91 105 67
91 104 67
91 104 66
91 104 66
91 104 66
91 104 66
91 104 66
90 104 66
90 103 66
90 103 66
90 103 66
90 103 66
90 103 65
90 102 65
89 101 64
88 101 64
88 101 64
88 101 64
88 100 64
88 100 64
88 100 63
88 100 63
88 100 63
88 100 63
88 100 63
88 100 63
88 100 63
88 100 63
88 100 63
88 100 63
87 99 63
87 99 63
87 99 63
87 99 63
87 99 62
87 99 62
87 99 62
87 99 62
87 99 62
87 99 62
86 98 62
86 97 61
86 97 61
86 97 61
86 97 61
86 97 61
86 97 61
86 97 61
86 97 61
86 97 61
86 97 61
86 97 61
85 97 61
85 97 61
85 97 61
85 97 61
85 97 61
85 97 61
85 97 61
85 97 61
85 97 61
85 97 61
85 97 60
85 97 60
85 97 60
85 97 60
85 97 60
85 97 60
85 97 60
85 97 60
85 97 60
85 97 60
85 97 60
85 97 60
85 97 60
85 97 60
85 97 60
85 97 60
85 97 60
85 97 60
85 97 60
85 97 60
85 97 60
85 97 60
85 98 60
85 98 60
85 98 60
85 98 61
85 98 61
85 98 61
85 98 61
85 98 61
85 98 61
85 98 61
85 98 61
85 98 61
85 98 61
85 99 61
86 100 62
86 100 62
86 100 62
86 100 62
86 100 62
86 100 62
86 100 62
86 100 63
86 100 63
86 100 63
86 100 63
86 101 63
86 101 63
86 101 63
86 101 63
86 101 63
86 101 64
86 101 64
86 101 64
86 101 64
86 101 64
86 101 64
86 102 64
86 102 64
86 102 64
86 102 65
87 103 66
88 104 66
88 104 66
88 104 66
88 104 66
88 104 67
88 104 67
88 104 67
88 104 67
88 105 67
88 105 67
88 105 67
88 105 67
89 105 67
89 105 67
89 105 68
89 105 68
89 105 68
89 106 68
89 106 68
89 106 68
89 106 68
90 106 69
90 107 69
91 108 69
91 108 70
91 108 70
92 108 70
92 109 70
92 109 70
92 109 71
92 109 71
92 109 71
93 110 71
93 110 71
93 110 71
93 110 72
93 111 72
93 111 72
96 114 76
101 122 85
107 129 92
110 133 97
110 133 97
110 133 97
110 133 97
110 133 97
110 133 97
110 133 97
110 133 97
110 133 97
107 129 92
102 122 85
97 114 75
94 111 72
94 110 71
94 110 71
94 110 71
94 110 71
94 110 71
94 109 70
94 109 70
94 109 70
94 109 70
94 108 70
93 108 69
93 108 69
93 108 69
93 108 69
93 107 68
92 106 68
92 106 67
92 105 67
92 105 67
91 105 67
91 105 67
91 105 67
91 105 67
91 105 66
91 104 66
91 104 66
91 104 66
91 104 66
91 104 66
91 104 66
91 104 66
91 103 66
91 103 66
90 103 65
90 103 65
90 103 65
90 102 65
89 101 64
89 101 64
88 101 64
88 101 63
88 100 63
88 100 63
88 100 63
88 100 63
88 100 63
88 100 63
88 100 63
88 100 63
88 100 63
88 100 63
88 100 63
88 99 63
88 99 63
88 99 62
88 99 62
88 99 62
88 99 62
87 99 62
87 99 62
87 99 62
87 99 62
87 98 62
86 98 61
86 97 61
86 97 61
86 97 61
86 97 61
86 97 61
86 97 61
86 97 61
86 97 61
86 97 61
86 97 61
86 97 61
86 97 61
86 97 61
86 97 61
86 97 61
86 97 60
86 97 60
86 97 60
86 97 60
86 97 60
86 97 60
86 97 60
86 97 60
86 97 60
86 97 60
86 97 60
85 97 60
85 97 60
85 97 60
86 97 60
86 97 60
86 97 60
86 97 60
86 97 60
86 97 60
86 97 60
86 97 60
86 97 60
86 97 60
86 98 60
86 98 60
86 98 60
86 98 60
86 98 60
86 98 60
86 98 60
85 98 61
85 98 61
85 98 61
85 98 61
85 98 61
85 98 61
85 98 61
86 99 62
86 100 62
86 100 62
86 100 62
86 100 62
86 100 62
86 100 62
86 100 62
86 100 63
86 100 63
86 100 63
87 101 63
87 101 63
87 101 63
87 101 63
87 101 63
87 101 63
87 101 64
87 101 64
87 101 64
87 101 64
87 101 64
86 101 64
86 102 64
86 102 64
87 102 65
88 103 66
88 104 66
88 104 66
88 104 66
88 104 66
88 104 66
88 104 67
88 104 67
88 104 67
89 105 67
89 105 67
89 105 67
89 105 67
89 105 67
89 105 67
89 105 67
89 105 68
89 105 68
89 106 68
89 106 68
89 106 68
90 106 68
90 107 69
91 108 69
91 108 70
91 108 70
92 108 70
92 108 70
92 109 70
92 109 70
92 109 70
92 109 71
93 110 71
93 110 71
93 110 71
93 110 71
93 110 71
94 111 72
96 114 76
102 122 85
107 129 92
110 133 97
110 133 97
110 133 97
110 133 97
110 133 97
110 133 97
109 133 96
109 133 96
109 133 96
109 133 96
109 133 97
109 133 97
109 133 97
109 133 97
109 133 97
107 129 92
102 122 85
97 114 75
95 111 72
94 110 71
94 110 71
94 110 71
94 110 70
94 109 70
94 109 70
94 109 70
94 109 70
94 109 70
94 108 69
94 108 69
94 108 69
93 108 69
93 107 68
93 107 68
92 106 67
92 105 67
92 105 67
92 105 67
92 105 67
92 105 66
92 105 66
91 104 66
91 104 66
91 104 66
91 104 66
91 104 66
91 104 66
91 104 66
91 104 66
91 103 65
91 103 65
91 103 65
91 103 65
91 103 65
90 103 65
90 102 64
89 101 63
89 101 63
89 100 63
89 100 63
89 100 63
89 100 63
89 100 63
89 100 63
89 100 63
89 100 63
88 100 63
88 100 63
88 100 63
88 100 62
88 99 62
88 99 62
88 99 62
88 99 62
88 99 62
88 99 62
88 99 62
88 99 62
88 99 62
88 99 62
87 98 61
87 97 61
87 97 61
87 97 61
87 97 61
87 97 61
87 97 61
87 97 61
87 97 61
87 97 61
87 97 61
87 97 60
87 97 60
86 97 60
86 97 60
86 97 60
86 97 60
86 97 60
86 97 60
86 97 60
86 97 60
86 97 60
86 97 60
86 97 60
86 97 60
86 97 60
86 97 60
86 97 60
86 97 60
86 97 60
86 97 60
86 97 60
86 97 60
86 97 60
86 97 60
86 97 60
86 97 60
86 98 60
86 98 60
86 98 60
86 98 60
86 98 60
86 98 60
86 98 60
86 98 60
86 98 60
86 98 61
86 98 61
86 98 61
86 98 61
86 98 61
86 98 61
87 99 62
87 100 62
87 100 62
87 100 62
87 100 62
87 100 62
87 100 62
87 100 62
87 100 63
87 100 63
87 100 63
87 100 63
87 101 63
87 101 63
87 101 63
87 101 63
87 101 63
87 101 64
87 101 64
87 101 64
87 101 64
87 101 64
87 101 64
87 102 64
88 102 65
88 103 66
89 104 66
89 104 66
89 104 66
89 104 66
89 104 66
89 104 66
89 104 67
89 104 67
89 104 67
89 105 67
89 105 67
89 105 67
89 105 67
89 105 67
89 105 67
89 105 67
89 105 67
89 105 68
90 106 68
90 106 68
90 107 68
91 107 69
91 108 69
92 108 69
92 108 69
92 108 70
92 109 70
92 109 70
92 109 70
92 109 70
93 109 70
93 110 71
93 110 71
93 110 71
93 110 71
94 111 72
96 114 76
102 122 85
107 129 92
109 133 97
109 133 97
109 133 97
109 133 97
109 133 96
109 133 96
109 133 96
109 133 96
109 133 96
109 133 96
109 133 96
109 133 96
109 133 96
109 133 96
109 133 96
109 133 96
109 133 96
109 133 97
109 133 97
109 133 97
109 133 97
107 129 92
102 122 85
97 115 75
95 111 71
94 111 71
94 110 71
94 110 70
94 109 70
94 109 70
94 109 70
94 109 70
94 108 69
94 108 69
94 108 69
94 108 69
94 108 69
94 107 68
93 107 68
93 106 68
92 106 67
92 105 67
92 105 67
92 105 66
92 105 66
92 105 66
92 104 66
92 104 66
92 104 66
92 104 66
92 104 66
92 104 66
91 104 65
91 103 65
91 103 65
91 103 65
91 103 65
91 103 65
91 103 65
91 102 65
90 102 64
89 101 63
89 101 63
89 100 63
89 100 63
89 100 63
89 100 63
89 100 63
89 100 63
89 100 63
89 100 63
89 100 63
89 100 62
89 100 62
89 99 62
89 99 62
89 99 62
89 99 62
89 99 62
88 99 62
88 99 62
88 99 62
88 99 62
88 99 62
87 98 61
87 97 61
87 97 61
87 97 61
87 97 61
87 97 61
87 97 60
87 97 60
87 97 60
87 97 60
87 97 60
87 97 60
87 97 60
87 97 60
87 97 60
87 97 60
87 97 60
87 97 60
87 97 60
87 97 60
87 97 60
87 97 60
87 97 60
87 97 60
87 97 60
87 97 60
87 97 60
87 97 60
87 97 60
87 97 60
87 97 60
87 97 60
87 97 60
87 97 60
87 97 60
87 98 60
87 98 60
87 98 60
87 98 60
87 98 60
87 98 60
87 98 60
87 98 60
87 98 60
87 98 61
87 98 61
87 98 61
87 98 61
87 98 61
87 98 61
87 99 62
88 100 62
88 100 62
88 100 62
88 100 62
88 100 62
88 100 62
88 100 62
88 100 62
88 100 63
88 100 63
88 100 63
88 101 63
88 101 63
88 101 63
88 101 63
88 101 63
88 101 64
88 101 64
88 101 64
88 101 64
88 101 64
88 101 64
88 102 65
89 103 66
89 104 66
89 104 66
89 104 66
89 104 66
89 104 66
89 104 66
89 104 66
89 104 66
89 104 67
89 104 67
89 105 67
89 105 67
90 105 67
90 105 67
90 105 67
90 105 67
90 105 67
90 105 67
90 106 68
91 107 68
91 107 69
92 108 69
92 108 69
92 108 69
92 108 69
92 108 69
92 109 70
92 109 70
92 109 70
93 109 70
93 109 70
93 110 70
93 110 71
93 110 71
94 111 72
96 115 76
102 122 85
106 129 92
109 132 97
109 132 97
109 133 97
109 133 96
109 133 96
109 133 96
109 133 96
109 133 96
109 133 96
109 133 96
109 133 96
109 133 96
109 133 96
109 133 96
109 133 96
109 133 96
109 133 96
109 133 96
109 133 96
109 133 96
109 133 96
109 133 96
109 133 96
109 133 96
109 133 96
109 133 96
109 132 97
106 129 92
103 124 87
99 117 78
95 112 71
95 111 71
94 110 70
94 109 70
94 109 70
94 109 70
94 109 69
94 108 69
94 108 69
94 108 69
94 108 69
94 108 69
94 107 68
94 107 68
94 107 68
93 106 67
93 106 67
92 105 66
92 105 66
92 105 66
92 104 66
92 104 66
92 104 66
92 104 66
92 104 66
92 104 65
92 104 65
92 103 65
92 103 65
92 103 65
92 103 65
92 103 65
91 103 65
91 103 65
91 103 65
91 102 64
90 101 63
90 100 63
90 100 63
90 100 63
90 100 63
90 100 63
90 100 63
89 100 63
89 100 62
89 100 62
89 100 62
89 100 62
89 99 62
89 99 62
89 99 62
89 99 62
89 99 62
89 99 62
89 99 62
89 99 62
89 99 62
89 99 61
88 98 61
88 97 60
88 97 60
88 97 60
88 97 60
88 97 60
88 97 60
88 97 60
88 97 60
88 97 60
88 97 60
88 97 60
88 97 60
88 97 60
88 97 60
88 97 60
88 97 60
88 97 60
88 97 60
88 97 60
88 97 60
88 97 60
88 97 60
88 97 60
87 97 60
88 97 60
88 97 60
88 97 60
88 97 60
88 97 60
88 97 60
88 97 60
88 97 60
88 97 60
88 98 60
88 98 60
88 98 60
88 98 60
88 98 60
88 98 60
88 98 60
88 98 60
88 98 60
88 98 61
88 98 61
88 98 61
87 98 61
88 99 61
88 99 62
88 100 62
88 100 62
88 100 62
88 100 62
88 100 62
88 100 62
88 100 62
88 100 62
88 100 63
88 100 63
88 100 63
88 101 63
88 101 63
88 101 63
88 101 63
88 101 63
88 101 64
88 101 64
88 101 64
88 101 64
88 102 64
89 102 65
90 103 66
90 103 66
90 104 66
90 104 66
90 104 66
90 104 66
90 104 66
90 104 66
90 104 66
90 104 66
90 104 67
90 104 67
90 105 67
90 105 67
90 105 67
90 105 67
90 105 67
90 105 67
91 106 68
91 106 68
92 107 68
92 107 69
92 108 69
92 108 69
92 108 69
92 108 69
92 108 69
93 108 69
93 109 70
93 109 70
93 109 70
93 109 70
93 110 71
94 111 71
94 111 72
98 117 79
103 124 87
106 128 92
109 132 97
109 132 96
109 132 96
109 132 96
109 132 96
109 132 96
109 132 96
109 133 96
109 133 96
109 133 96
109 133 96
109 133 96
109 133 96
109 133 96
109 133 96
109 133 96
109 133 96
109 133 96
109 133 96
109 133 96
109 133 96
109 133 96
109 133 96
109 133 96
109 133 96
109 133 96
109 132 96
109 132 96
109 132 96
109 132 96
109 132 96
109 132 96
109 132 96
108 130 94
103 124 87
100 120 81
95 112 71
95 111 71
95 110 70
94 109 70
94 109 70
94 109 69
94 108 69
94 108 69
94 108 69
94 108 69
94 108 68
94 107 68
94 107 68
94 107 68
94 107 68
94 106 67
93 105 67
93 105 66
93 105 66
93 104 66
92 104 66
92 104 66
92 104 65
92 104 65
92 104 65
92 104 65
92 103 65
92 103 65
92 103 65
92 103 65
92 103 65
92 103 65
92 103 64
92 102 64
91 102 64
90 101 63
90 100 63
90 100 63
90 100 63
90 100 63
90 100 62
90 100 62
90 100 62
90 100 62
90 100 62
90 99 62
90 99 62
90 99 62
90 99 62
90 99 62
90 99 62
90 99 62
90 99 62
90 99 62
90 99 61
89 99 61
89 98 61
88 97 60
88 97 60
88 97 60
88 97 60
89 97 60
89 97 60
89 97 60
89 97 60
89 97 60
89 97 60
89 97 60
89 97 60
89 97 60
89 97 60
89 97 60
89 97 60
88 97 60
88 97 60
88 97 60
88 97 60
88 97 60
88 97 60
88 97 60
88 97 60
88 97 60
88 97 60
89 97 60
89 97 60
89 97 60
89 97 60
89 97 60
89 97 60
89 98 60
89 98 60
89 98 60
89 98 60
89 98 60
89 98 60
89 98 60
89 98 60
89 98 60
88 98 61
88 98 61
88 98 61
89 99 61
89 99 62
89 100 62
89 100 62
89 100 62
89 100 62
89 100 62
89 100 62
89 100 62
89 100 62
89 100 63
89 100 63
89 100 63
89 100 63
89 101 63
89 101 63
89 101 63
89 101 63
89 101 63
89 101 64
89 101 64
89 101 64
90 102 65
90 103 65
90 103 65
90 103 66
91 103 66
91 104 66
91 104 66
91 104 66
91 104 66
91 104 66
91 104 66
91 104 66
91 104 66
91 104 67
91 105 67
91 105 67
91 105 67
91 105 67
91 106 67
91 106 68
92 107 68
92 107 68
92 107 68
92 107 69
92 108 69
93 108 69
93 108 69
93 108 69
93 108 69
93 109 70
93 109 70
93 109 70
94 110 71
94 111 71
94 111 72
100 119 81
103 124 87
108 130 94
109 132 96
109 132 96
109 132 96
109 132 96
109 132 96
109 132 96
109 132 96
109 132 96
109 132 96
109 132 96
109 132 96
109 132 96
109 133 96
109 133 96
109 133 96
109 133 96
109 133 96
109 133 96
109 133 96
109 133 96
109 133 96
109 133 96
109 133 96
109 133 96
109 133 96
109 133 96
109 133 96
109 133 96
109 132 96
109 132 96
109 132 96
109 132 96
109 132 96
109 132 96
109 132 96
109 132 96
109 132 96
109 132 96
109 132 96
109 132 96
106 128 92
103 124 87
100 119 81
95 111 71
95 110 70
95 110 70
95 109 69
95 108 69
95 108 69
95 108 69
95 108 68
95 108 68
95 107 68
95 107 68
95 107 68
94 107 68
94 106 67
94 106 67
93 105 66
93 104 66
93 104 66
93 104 66
93 104 65
93 104 65
93 104 65
93 104 65
93 103 65
93 103 65
93 103 65
93 103 65
93 103 65
93 103 64
93 103 64
92 102 64
92 102 64
92 102 64
91 101 63
91 100 63
91 100 62
91 100 62
91 100 62
91 100 62
91 100 62
91 100 62
91 100 62
91 99 62
91 99 62
91 99 62
91 99 62
91 99 62
90 99 62
90 99 62
90 99 61
90 99 61
90 99 61
90 99 61
90 98 61
89 97 60
89 97 60
89 97 60
89 97 60
89 97 60
89 97 60
89 97 60
89 97 60
89 97 60
89 97 60
89 97 60
89 97 60
89 97 60
89 97 60
89 97 60
89 97 60
89 97 60
89 97 60
89 97 60
89 97 60
89 97 60
89 97 60
89 97 60
89 97 60
90 97 60
90 97 60
90 97 60
90 97 60
90 97 60
90 97 60
90 97 60
90 98 60
90 98 60
90 98 60
90 98 60
90 98 60
90 98 60
90 98 60
90 98 60
90 98 60
90 98 61
89 98 61
90 99 61
90 99 62
90 99 62
90 100 62
90 100 62
90 100 62
90 100 62
90 100 62
90 100 62
90 100 62
90 100 62
90 100 63
90 100 63
90 100 63
90 101 63
90 101 63
90 101 63
90 101 63
90 101 63
90 101 63
90 102 64
91 103 65
91 103 65
91 103 65
91 103 65
91 103 66
91 103 66
91 104 66
91 104 66
91 104 66
91 104 66
91 104 66
91 104 66
91 104 66
91 104 66
91 104 66
91 105 66
91 105 67
92 105 67
92 106 67
93 107 68
93 107 68
93 107 68
93 107 68
93 107 68
93 108 69
93 108 69
93 108 69
93 108 69
93 108 69
93 109 70
94 109 70
94 110 70
94 111 71
100 119 81
103 124 87
106 128 92
109 132 96
109 132 96
109 132 96
109 132 96
109 132 96
109 132 96
109 132 96
109 132 96
109 132 96
109 132 96
109 132 96
109 132 96
109 132 96
109 132 96
109 132 96
109 132 96
109 132 96
109 132 96
109 133 96
109 133 96
109 133 96
109 133 96
109 133 96
109 133 96
109 133 96
109 133 96
109 133 96
109 133 96
109 133 96
109 132 96
109 132 96
109 132 96
109 132 96
109 132 96
109 132 96
109 132 96
109 132 96
109 132 96
109 132 96
109 132 96
109 132 96
109 132 96
109 132 96
109 132 96
109 132 96
109 132 96
109 132 96
109 132 96
106 128 92
103 124 87
100 119 81
95 111 70
95 110 70
95 109 69
95 108 69
95 108 69
95 108 68
95 107 68
95 107 68
95 107 68
95 107 68
95 107 67
95 106 67
95 106 67
94 106 66
94 105 66
94 104 65
93 104 65
94 104 65
93 104 65
93 104 65
93 103 65
93 103 65
93 103 65
93 103 64
93 103 64
93 103 64
93 103 64
93 102 64
93 102 64
93 102 64
93 102 63
92 101 63
91 100 62
91 100 62
91 100 62
91 100 62
91 100 62
91 100 62
91 100 62
91 99 62
91 99 62
91 99 62
91 99 62
91 99 61
91 99 61
91 99 61
91 99 61
91 99 61
91 99 61
91 99 61
91 98 61
90 97 60
90 97 60
90 97 60
90 97 60
90 97 60
90 97 60
90 97 60
90 97 60
90 97 60
90 97 60
90 97 60
90 97 60
91 97 60
90 97 60
90 97 60
90 97 60
90 97 60
90 97 60
90 97 60
90 97 60
90 97 60
90 97 60
91 97 60
91 97 60
91 97 60
91 97 60
91 97 60
91 97 60
91 97 60
91 97 60
91 98 60
91 98 60
91 98 60
91 98 60
91 98 60
91 98 60
91 98 60
91 98 60
91 98 60
91 98 60
91 99 61
92 99 61
92 99 62
92 99 62
92 100 62
92 100 62
92 100 62
92 100 62
92 100 62
92 100 62
92 100 62
92 100 62
92 100 63
92 100 63
92 100 63
91 101 63
91 101 63
91 101 63
91 101 63
91 101 64
92 102 65
92 103 65
93 103 65
93 103 65
93 103 65
93 103 65
93 103 66
92 103 66
92 104 66
92 104 66
92 104 66
92 104 66
92 104 66
92 104 66
92 104 66
92 104 66
92 105 67
93 106 67
93 106 68
93 107 68
93 107 68
93 107 68
93 107 68
93 107 68
93 108 68
93 108 69
93 108 69
93 108 69
94 109 69
94 110 70
94 110 70
100 119 81
103 124 87
106 128 92
109 132 96
109 132 96
109 132 96
109 132 96
109 132 96
109 132 96
109 132 96
109 132 96
109 132 96
109 132 96
109 132 96
109 132 96
109 132 96
109 132 96
109 132 96
109 132 96
109 132 96
109 132 96
109 132 96
109 132 96
109 132 96
109 132 96
109 132 96
109 132 96
109 133 96
109 133 96
109 133 96
109 133 96
109 133 96
109 133 96
109 133 96
109 132 96
109 132 96
109 132 96
109 132 96
109 132 96
109 132 96
109 132 96
109 132 96
109 132 96
109 132 96
109 132 96
109 132 96
109 132 96
109 132 96
109 132 96
109 132 96
109 132 96
109 132 96
109 132 96
109 132 96
109 132 96
109 132 96
109 132 96
109 132 96
109 132 96
106 128 92
103 123 86
100 118 80
96 110 70
95 109 69
95 108 69
95 108 68
95 107 68
96 107 68
96 107 68
96 107 67
96 106 67
96 106 67
96 106 67
96 106 67
95 105 66
95 105 66
94 104 65
94 104 65
94 103 65
94 103 65
94 103 65
94 103 64
94 103 64
94 103 64
94 103 64
94 103 64
94 102 64
94 102 64
94 102 64
94 102 64
94 102 63
93 101 63
92 100 62
92 100 62
92 100 62
92 100 62
92 99 62
92 99 62
92 99 62
92 99 61
92 99 61
92 99 61
92 99 61
92 99 61
92 99 61
92 99 61
92 99 61
92 99 61
92 99 61
92 98 61
91 97 60
91 97 60
91 97 60
91 97 60
91 97 60
91 97 60
91 97 60
92 97 60
92 97 60
92 97 60
92 97 60
92 97 60
92 97 60
92 97 60
92 97 60
92 97 60
92 97 60
92 97 60
92 97 60
92 97 60
92 97 60
92 97 60
92 97 60
92 97 60
92 97 60
92 97 60
92 97 60
92 97 60
92 97 60
92 97 60
92 98 60
92 98 60
92 98 60
92 98 60
92 98 60
92 98 60
92 98 60
92 98 60
93 99 61
93 99 61
93 99 61
93 99 62
93 99 62
93 99 62
93 100 62
93 100 62
93 100 62
93 100 62
93 100 62
93 100 62
93 100 62
93 100 63
93 100 63
93 100 63
93 100 63
93 101 63
93 101 64
94 102 64
94 103 65
94 103 65
94 103 65
94 103 65
94 103 65
94 103 65
94 103 66
94 103 66
94 103 66
93 104 66
93 104 66
93 104 66
93 104 66
93 104 66
93 105 67
94 106 67
94 106 67
94 106 67
94 106 68
94 107 68
94 107 68
94 107 68
94 107 68
94 107 68
94 108 68
94 108 69
94 109 69
94 110 70
100 118 80
103 123 86
106 128 92
109 132 96
109 132 96
109 132 96
109 132 96
109 132 96
109 132 96
109 132 96
109 132 96
109 132 96
109 132 96
109 132 96
109 132 96
109 132 96
109 132 96
109 132 96
109 132 96
109 132 96
109 132 96
109 132 96
109 132 96
109 132 96
109 132 96
109 132 96
109 132 96
109 132 96
109 132 96
109 132 96
109 132 96
109 132 96
109 132 96
109 133 96
109 133 96
109 133 96
109 132 96
109 132 96
109 132 96
109 132 96
109 132 96
109 132 96
109 132 96
109 132 96
109 132 96
109 132 96
109 132 96
109 132 96
109 132 96
109 132 96
109 132 96
109 132 96
109 132 96
109 132 96
109 132 96
109 132 96
109 132 96
109 132 96
109 132 96
109 132 96
109 132 96
109 132 96
109 132 96
109 132 96
109 132 96
109 132 96
109 131 96
106 127 91
102 121 83
99 115 77
96 109 69
96 108 68
96 108 68
96 107 68
96 107 68
96 107 67
96 106 67
96 106 67
96 106 67
96 106 67
96 106 66
96 105 66
96 104 65
95 104 65
95 103 65
95 103 64
95 103 64
95 103 64
95 103 64
95 103 64
95 102 64
95 102 64
95 102 64
95 102 64
95 102 63
95 102 63
94 101 63
94 101 62
93 100 62
93 100 62
93 100 62
93 99 62
93 99 61
93 99 61
93 99 61
93 99 61
93 99 61
93 99 61
93 99 61
93 99 61
93 99 61
93 99 61
93 98 61
93 98 61
93 98 60
92 97 60
92 97 60
92 97 60
93 97 60
93 97 60
93 97 60
93 97 60
93 97 60
93 97 60
93 97 60
93 97 60
93 97 60
93 97 60
93 97 60
93 97 60
93 97 60
93 97 60
93 97 60
93 97 60
93 97 60
93 97 60
94 97 60
94 97 60
94 97 60
94 97 60
94 97 60
94 97 60
94 97 60
94 97 60
94 97 60
94 97 60
94 98 60
94 98 60
94 98 60
94 98 60
94 98 60
94 99 61
95 99 61
95 99 61
95 99 61
95 99 62
95 99 62
95 99 62
95 99 62
95 100 62
95 100 62
95 100 62
95 100 62
95 100 62
95 100 62
95 100 63
95 100 63
94 100 63
95 101 63
95 102 64
96 102 64
96 102 65
95 102 65
95 103 65
95 103 65
95 103 65
95 103 65
95 103 65
95 103 65
95 103 66
95 103 66
94 104 66
94 104 66
95 104 66
95 105 67
95 106 67
95 106 67
95 106 67
95 106 67
95 106 68
95 107 68
95 107 68
94 107 68
95 108 68
95 108 69
95 109 69
98 115 77
101 121 83
106 127 91
109 131 96
109 131 96
109 131 96
109 131 96
109 131 96
109 132 96
109 132 96
109 132 96
109 132 96
109 132 96
109 132 96
109 132 96
109 132 96
109 132 96
109 132 96
109 132 96
109 132 96
109 132 96
109 132 96
109 132 96
109 132 96
109 132 96
109 132 96
109 132 96
109 132 96
109 132 96
109 132 96
109 132 96
109 132 96
109 132 96
109 132 96
109 132 96
109 132 96
109 132 96
109 133 95
109 132 96
109 132 96
109 132 96
109 132 96
109 132 96
109 132 96
109 132 96
109 132 96
109 132 96
109 132 96
109 132 96
109 132 96
109 132 96
109 132 96
109 132 96
109 132 96
109 132 96
109 132 96
109 132 96
109 132 96
109 132 96
109 132 96
109 132 96
109 132 96
109 132 96
109 132 96
109 132 96
109 132 96
109 132 96
109 132 96
109 131 96
109 131 96
109 131 96
109 131 96
109 131 96
109 131 96
109 131 96
105 125 89
102 120 83
100 115 76
97 108 68
97 107 68
97 107 68
97 106 67
97 106 67
97 106 67
97 106 67
97 105 66
97 105 66
97 105 66
97 105 66
97 104 65
96 103 65
96 103 64
96 103 64
96 103 64
96 103 64
96 102 64
96 102 64
96 102 63
96 102 63
96 102 63
96 102 63
96 102 63
96 101 63
95 101 62
94 100 62
94 99 61
94 99 61
94 99 61
94 99 61
94 99 61
95 99 61
95 99 61
95 99 61
95 99 61
95 99 61
95 98 61
95 98 61
94 98 61
95 98 61
94 98 60
94 97 60
94 97 59
94 97 59
94 97 59
94 97 59
94 97 59
94 97 59
94 97 59
94 97 59
95 97 59
95 97 59
95 97 59
95 97 59
95 97 59
95 97 59
95 97 59
95 97 59
95 97 59
95 97 59
95 97 60
95 97 60
96 97 60
96 97 60
96 97 60
96 97 60
96 97 60
96 97 60
96 97 60
96 97 60
96 97 60
96 97 60
96 97 60
96 98 60
96 98 60
97 98 61
97 99 61
97 99 61
97 99 61
97 99 61
97 99 61
97 99 62
97 99 62
97 99 62
97 99 62
97 99 62
97 100 62
97 100 62
97 100 62
97 100 62
97 100 63
97 101 63
98 102 64
98 102 64
98 102 64
97 102 64
97 102 65
97 102 65
97 102 65
97 103 65
97 103 65
97 103 65
96 103 65
96 103 65
96 103 66
96 104 66
96 105 66
96 105 67
96 105 67
96 106 67
96 106 67
96 106 67
96 106 67
95 106 67
95 107 68
95 108 68
95 108 69
99 115 76
102 120 83
104 125 89
109 131 96
109 131 96
109 131 96
109 131 96
109 131 96
109 131 96
109 131 96
109 131 96
109 131 96
109 131 96
109 131 96
109 131 96
109 132 96
109 132 96
109 132 96
109 132 96
109 132 96
109 132 96
109 132 96
109 132 96
109 132 96
109 132 96
109 132 96
109 132 96
109 132 96
109 132 96
109 132 96
109 132 96
109 132 96
109 132 96
109 132 96
109 132 96
109 132 96
109 132 96
109 132 96
109 132 96
109 132 95
109 132 95
109 132 95
109 132 95
109 132 95
109 132 95
109 132 95
109 132 95
109 132 95
109 132 95
109 132 96
109 132 96
109 132 96
109 132 96
109 132 96
109 132 96
109 132 96
109 132 96
109 132 96
109 132 96
109 132 96
109 132 96
109 132 96
109 132 96
109 132 96
109 132 96
109 132 96
109 132 96
109 132 96
109 132 96
109 132 96
109 131 96
109 131 96
109 131 96
109 131 96
109 131 96
109 131 96
109 131 96
109 131 96
109 131 96
109 131 96
109 131 96
109 131 96
109 131 96
105 125 88
103 120 83
100 114 76
98 107 68
98 107 67
98 106 67
98 106 67
99 105 67
99 105 66
99 105 66
99 105 66
99 105 66
98 104 65
98 104 65
97 103 64
97 103 64
97 102 64
97 102 64
97 102 63
97 102 63
97 102 63
97 102 63
97 101 63
97 101 63
97 101 63
97 101 63
96 100 62
96 99 61
96 99 61
96 99 61
96 99 61
96 99 61
96 99 61
96 99 61
96 99 61
96 98 61
96 98 61
96 98 60
96 98 60
96 98 60
96 98 60
96 98 60
95 97 59
95 97 59
96 97 59
96 97 59
96 97 59
96 97 59
96 97 59
96 97 59
96 97 59
96 97 59
96 97 59
96 97 59
97 97 59
97 97 59
97 97 59
97 97 59
97 97 59
97 97 59
97 97 59
97 97 59
98 97 60
98 97 60
98 97 60
98 97 60
98 97 60
98 97 60
98 97 60
98 97 60
98 97 60
98 97 60
98 97 60
98 97 60
99 98 61
99 98 61
100 99 61
100 99 61
100 99 61
100 99 61
100 99 61
100 99 61
100 99 62
100 99 62
100 99 62
99 99 62
99 99 62
99 99 62
99 100 62
100 101 63
100 101 64
100 101 64
100 102 64
100 102 64
100 102 64
100 102 64
99 102 65
99 102 65
99 102 65
99 102 65
98 103 65
98 103 65
98 104 66
98 104 66
98 105 66
98 105 66
98 105 67
97 105 67
97 106 67
97 106 67
97 106 67
96 107 68
96 108 68
99 114 76
102 120 83
105 125 88
109 131 96
109 131 96
109 131 96
109 131 96
109 131 96
109 131 96
109 131 96
109 131 96
109 131 96
109 131 96
109 131 96
109 131 96
109 131 96
109 131 96
109 131 96
109 131 96
109 131 96
109 131 96
109 131 96
109 132 96
109 132 96
109 132 96
109 132 96
109 132 96
109 132 96
109 132 96
109 132 96
109 132 96
109 132 96
109 132 96
109 132 96
109 132 96
109 132 96
109 132 96
109 132 95
109 132 95
109 132 95
109 132 95
109 132 95
109 132 95
109 132 95
109 132 95
109 132 95
109 132 95
109 132 95
109 132 95
109 132 95
109 132 95
109 132 95
109 132 95
109 132 95
108 132 95
109 132 95
108 132 95
109 132 95
108 132 95
108 132 95
108 132 95
108 132 96
108 132 96
108 132 96
108 132 96
108 132 96
108 132 96
108 132 96
108 132 96
108 132 96
108 132 96
108 131 96
108 131 96
108 131 96
108 131 96
108 131 96
108 131 96
108 131 96
108 131 96
108 131 96
108 131 96
108 131 96
108 131 96
108 131 96
108 131 96
108 131 96
108 131 96
108 131 96
108 131 96
108 131 96
108 131 96
105 124 88
103 119 82
102 113 75
100 106 67
100 106 67
100 105 66
100 105 66
100 105 66
100 104 66
100 104 66
100 104 65
100 104 65
99 103 64
99 103 64
99 102 64
99 102 63
99 102 63
99 102 63
99 101 63
99 101 63
99 101 63
99 101 63
99 101 62
99 101 62
98 100 62
97 99 61
97 99 61
97 99 61
97 99 61
98 98 61
98 98 60
98 98 60
98 98 60
98 98 60
98 98 60
98 98 60
99 98 60
100 98 60
100 98 60
100 97 59
100 97 59
101 97 59
101 97 59
101 97 59
103 98 59
104 98 60
104 98 60
105 98 60
105 98 60
105 98 60
105 98 60
106 98 60
106 98 60
106 98 60
106 98 60
106 98 60
107 98 60
107 98 60
107 98 60
107 98 60
107 98 60
107 98 60
107 98 60
106 98 60
105 98 60
105 98 60
104 98 60
104 98 60
104 98 60
105 98 61
105 99 61
103 98 61
102 98 61
103 98 61
103 98 61
103 98 61
103 99 61
103 99 61
103 99 61
102 99 62
102 99 62
102 99 62
102 100 62
103 100 63
103 101 63
103 101 63
103 101 64
103 101 64
102 101 64
102 101 64
102 102 64
102 102 64
101 102 64
101 102 65
101 103 65
101 103 65
101 104 66
100 104 66
100 104 66
100 105 66
99 105 66
99 105 66
98 105 67
98 106 67
97 107 67
100 114 75
102 119 82
105 124 88
108 131 96
108 131 96
108 131 96
108 131 96
108 131 96
108 131 96
108 131 96
108 131 96
108 131 96
108 131 96
108 131 96
108 131 96
108 131 96
108 131 96
108 131 96
108 131 96
108 131 96
108 131 96
108 131 96
108 131 96
108 131 96
108 131 96
108 131 96
108 131 96
109 131 96
108 132 96
108 132 96
109 132 96
109 132 96
109 132 96
109 132 95
109 132 95
109 132 95
109 132 95
109 132 95
109 132 95
109 132 95
109 132 95
109 132 95
109 132 95
109 132 95
109 132 95
109 132 95
109 132 95
109 132 95
109 132 95
108 132 95
108 132 95
108 132 95
108 132 95
108 132 95
108 132 95
108 132 95
108 132 95
108 132 95
108 132 95
108 132 95
108 132 95
108 132 95
108 132 95
108 132 95
108 132 95
108 132 95
108 132 95
108 132 95
108 132 95
108 132 95
108 132 95
108 132 95
108 132 95
108 131 95
108 131 96
108 131 96
108 131 96
108 131 96
108 131 96
108 131 96
108 131 96
108 131 96
108 131 96
108 131 96
108 131 96
108 131 96
108 131 96
108 131 96
108 131 96
108 131 96
108 131 96
108 131 96
108 131 96
108 131 96
108 131 96
108 131 96
108 131 96
108 131 96
108 131 96
106 124 88
104 119 82
103 112 75
102 105 67
102 105 66
102 104 66
102 104 66
102 104 65
102 104 65
102 104 65
102 103 65
101 103 64
101 102 64
100 101 63
101 101 63
101 101 63
101 101 63
101 101 63
101 101 62
101 101 62
101 101 62
100 100 62
102 100 63
116 114 88
210 210 209
213 213 212
213 213 212
213 213 212
213 213 212
213 213 212
213 213 212
213 213 212
214 213 212
214 213 212
214 213 212
214 213 212
214 213 212
214 213 212
214 213 212
214 213 212
214 213 212
214 213 212
214 213 212
214 213 212
214 213 212
214 213 212
214 213 212
214 213 212
214 213 212
214 213 212
214 213 212
214 213 212
214 213 212
214 213 212
214 213 212
214 213 212
214 213 212
214 213 212
214 213 212
214 213 212
214 213 212
214 213 212
214 213 212
214 213 212
214 213 212
214 213 212
214 213 212
214 213 212
214 213 212
214 213 212
214 213 212
214 213 212
214 213 212
214 213 212
213 213 212
210 210 209
121 114 89
108 100 64
106 100 63
106 101 63
106 101 63
106 101 63
106 101 64
105 101 64
105 101 64
105 101 64
104 101 64
104 102 64
104 103 65
103 103 65
103 104 66
102 104 66
102 104 66
101 104 66
101 105 66
100 105 66
99 106 67
101 113 75
103 119 82
105 124 88
108 131 96
108 131 96
108 131 96
108 131 96
108 131 96
108 131 96
108 131 96
108 131 96
108 131 96
108 131 96
108 131 96
108 131 96
108 131 96
108 131 96
108 131 96
108 131 96
108 131 96
108 131 96
108 131 96
108 131 96
108 131 96
108 131 96
108 131 96
108 131 96
108 131 95
108 131 95
108 131 95
108 131 95
108 131 95
108 131 95
108 131 95
108 132 95
108 132 95
108 132 95
108 132 95
108 132 95
108 132 95
108 132 95
108 132 95
108 132 95
108 132 95
108 132 95
108 132 95
108 132 95
108 132 95
108 132 95
108 132 95
108 132 95
108 132 95
108 132 95
108 132 95
108 132 95
108 132 95
108 132 95
108 132 95
108 132 95
108 132 95
108 132 95
108 132 95
108 132 95
108 132 95
108 132 95
108 132 95
108 132 95
108 132 95
108 132 95
108 132 95
108 132 95
108 132 95
108 132 95
108 132 95
108 132 95
108 131 95
108 131 95
108 131 95
108 131 95
108 131 95
108 131 95
108 131 95
108 131 95
108 131 95
108 131 95
108 131 95
108 131 95
108 131 95
108 131 95
108 131 95
108 131 95
108 131 95
108 131 95
108 131 95
108 131 95
108 131 96
108 131 96
108 131 96
108 131 96
108 131 96
108 131 96
108 131 96
108 131 96
108 131 96
108 131 96
108 131 96
107 128 93
106 124 88
105 115 78
104 108 71
105 104 66
105 104 66
104 103 65
105 103 65
105 103 65
104 103 65
104 103 64
103 102 64
103 101 63
103 101 63
104 101 62
105 100 62
107 100 61
108 100 61
110 100 62
112 101 64
120 109 81
229 228 227
236 235 235
236 235 235
236 235 235
236 235 235
236 235 235
236 235 235
236 235 235
236 235 235
236 235 235
236 235 235
236 235 235
236 235 235
236 235 235
236 235 235
236 235 235
236 235 235
236 235 235
236 235 235
236 235 235
236 235 235
236 235 235
236 235 235
236 235 235
236 235 235
236 235 235
236 235 235
236 235 235
236 235 235
236 235 235
236 235 235
236 235 235
236 235 235
236 235 235
236 235 235
236 235 235
236 235 235
236 235 235
236 235 235
236 235 235
236 235 235
236 235 235
236 235 235
236 235 235
236 235 235
236 235 235
236 235 235
236 235 235
236 235 235
236 235 235
236 235 235
229 228 227
127 109 81
120 100 65
118 99 63
116 99 62
114 99 62
111 100 63
110 100 63
108 101 64
107 101 64
107 102 64
107 103 65
106 103 65
106 103 65
105 103 65
104 104 65
103 104 66
102 105 66
102 109 71
103 116 78
105 124 88
107 128 93
108 131 96
108 131 96
108 131 96
108 131 96
108 131 96
108 131 96
108 131 96
108 131 96
108 131 96
108 131 96
108 131 96
108 131 96
108 131 96
108 131 95
108 131 95
108 131 95
108 131 95
108 131 95
108 131 95
108 131 95
108 131 95
108 131 95
108 131 95
108 131 95
108 131 95
108 131 95
108 131 95
108 131 95
108 131 95
108 131 95
108 131 95
108 131 95
108 131 95
108 131 95
108 131 95
108 131 95
108 132 95
108 132 95
108 132 95
108 132 95
108 132 95
108 132 95
108 132 95
108 132 95
108 132 95
108 132 95
108 132 95
108 132 95
108 132 95
108 132 95
108 132 95
108 132 95
108 132 95
108 132 95
108 132 95
108 132 95
108 132 95
108 132 95
108 132 95
108 132 95
108 132 95
108 132 95
108 132 95
108 132 95
108 132 95
108 132 95
108 132 95
108 132 95
108 132 95
108 132 95
108 132 95
108 132 95
108 131 95
108 131 95
108 131 95
108 131 95
108 131 95
108 131 95
108 131 95
108 131 95
108 131 95
108 131 95
108 131 95
108 131 95
108 131 95
108 131 95
108 131 95
108 131 95
108 131 95
108 131 95
108 131 95
108 131 95
108 131 95
108 131 95
108 131 95
108 131 95
108 131 95
108 131 95
108 131 95
108 131 95
108 131 95
108 131 95
108 131 95
108 131 95
108 131 95
108 131 95
108 130 95
108 130 95
108 130 95
108 130 95
108 128 93
107 123 87
107 114 78
108 107 70
108 103 65
107 103 65
107 102 65
107 102 64
108 102 64
111 100 61
112 99 61
113 99 61
114 99 61
115 99 61
117 99 62
118 99 63
120 101 67
181 175 169
234 234 233
236 235 235
236 235 235
236 235 235
236 235 235
236 235 235
236 235 235
236 235 235
236 235 235
236 235 235
236 235 235
236 235 235
236 235 235
236 235 235
236 235 235
236 235 235
236 235 235
236 235 235
236 235 235
236 235 235
236 235 235
236 235 235
236 235 235
236 235 235
236 235 235
236 235 235
236 235 235
236 235 235
236 235 235
236 235 235
236 235 235
236 235 235
236 235 235
236 235 235
236 235 235
236 235 235
236 235 235
236 235 235
236 235 235
236 235 235
236 235 235
236 235 235
236 235 235
236 235 235
236 235 235
236 235 235
236 235 235
236 235 235
236 235 235
234 234 233
183 175 170
127 101 67
125 99 63
123 98 62
122 98 61
120 98 61
119 99 61
117 99 61
116 99 62
111 102 64
109 102 65
108 103 65
107 103 65
106 104 65
105 108 70
105 115 78
106 123 88
107 128 93
108 130 95
108 130 95
108 130 95
108 130 95
108 130 95
108 130 95
108 130 95
108 130 95
108 130 95
108 131 95
108 131 95
108 131 95
108 131 95
108 131 95
108 131 95
108 131 95
108 131 95
108 131 95
108 131 95
108 131 95
108 131 95
108 131 95
108 131 95
108 131 95
108 131 95
108 131 95
108 131 95
108 131 95
108 131 95
108 131 95
108 131 95
108 131 95
108 131 95
108 131 95
108 131 95
108 131 95
108 131 95
108 131 95
108 131 95
108 131 95
108 131 95
108 131 95
108 131 95
108 132 95
108 132 95
108 132 95
108 132 95
108 132 95
108 132 95
108 132 95
108 132 95
108 132 95
108 132 95
108 132 95
108 132 95
108 132 95
108 132 95
108 132 95
108 132 95
108 132 95
108 132 95
108 132 95
108 132 95
108 132 95
108 132 95
108 132 95
108 132 95
108 132 95
108 132 95
108 132 95
108 132 95
108 132 95
108 132 95
108 132 95
108 131 95
108 131 95
108 131 95
108 131 95
108 131 95
108 131 95
108 131 95
108 131 95
108 131 95
108 131 95
108 131 95
108 131 95
108 131 95
108 131 95
108 131 95
108 131 95
108 131 95
108 131 95
108 131 95
108 131 95
108 131 95
108 131 95
108 131 95
108 131 95
108 131 95
108 131 95
108 131 95
108 131 95
108 131 95
108 131 95
108 131 95
108 131 95
108 131 95
108 130 95
108 130 95
108 130 95
108 130 95
108 130 95
108 130 95
108 130 95
108 130 95
108 130 95
108 130 95
108 130 95
108 128 93
109 123 87
110 114 78
111 106 70
114 100 63
116 99 61
117 98 61
118 98 61
120 98 61
121 98 62
122 98 62
123 98 62
125 98 64
129 102 71
214 212 210
236 235 235
236 235 235
236 235 235
236 235 235
236 235 235
236 235 235
236 235 235
236 235 235
236 235 235
236 235 235
236 235 235
236 235 235
236 235 235
236 235 235
236 235 235
236 235 235
236 235 235
237 235 235
237 235 235
237 235 235
237 235 235
237 235 235
237 235 235
237 235 235
237 235 235
237 235 235
237 235 235
237 235 235
237 235 235
237 235 235
237 235 235
237 235 235
237 235 235
237 235 235
237 235 235
236 235 235
236 235 235
236 235 235
236 235 235
236 235 235
236 235 235
236 235 235
236 235 235
236 235 235
236 235 235
236 235 235
236 235 235
236 235 235
215 212 210
131 103 71
127 99 64
125 98 62
124 98 61
122 98 61
121 98 61
119 99 61
118 99 61
116 99 61
113 101 62
108 107 70
107 114 78
107 123 87
107 128 93
108 130 95
108 130 95
108 130 95
108 130 95
108 130 95
108 130 95
108 130 95
108 130 95
108 130 95
108 130 95
108 130 95
108 130 95
108 130 95
108 130 95
108 130 95
108 130 95
108 131 95
108 131 95
108 131 95
108 131 95
108 131 95
108 131 95
108 131 95
108 131 95
108 131 95
108 131 95
108 131 95
108 131 95
108 131 95
108 131 95
108 131 95
108 131 95
108 131 95
108 131 95
108 131 95
108 131 95
108 131 95
108 131 95
108 131 95
108 131 95
108 131 95
108 131 95
108 131 95
108 131 95
108 131 95
108 131 95
108 131 95
108 131 95
108 131 95
108 132 95
108 132 95
108 132 95
108 132 95
108 132 95
108 132 95
108 132 95
108 132 95
108 132 95
108 132 95
108 132 95
108 132 95
108 132 95
108 132 95
108 132 95
108 132 95
108 132 95
108 132 95
108 132 95
108 132 95
108 132 95
108 132 95
108 132 95
108 132 95
108 132 95
108 132 95
108 132 95
108 131 95
108 131 95
108 131 95
108 131 95
108 131 95
108 131 95
108 131 95
108 131 95
108 131 95
108 131 95
108 131 95
108 131 95
108 131 95
108 131 95
108 131 95
108 131 95
108 131 95
108 131 95
108 131 95
108 131 95
108 131 95
108 131 95
108 131 95
108 131 95
108 131 95
108 131 95
108 131 95
108 131 95
108 131 95
108 131 95
108 131 95
108 131 95
108 130 95
108 130 95
108 130 95
108 130 95
108 130 95
108 130 95
108 130 95
108 130 95
108 130 95
108 130 95
108 130 95
108 130 95
108 130 95
108 130 95
108 130 95
108 130 95
108 130 95
108 130 95
109 128 93
111 122 87
115 112 76
119 103 67
122 98 61
123 98 61
124 98 62
125 98 62
127 98 63
128 99 65
136 109 84
232 231 230
236 235 235
236 235 235
236 235 235
236 235 235
236 235 235
236 235 235
236 235 235
236 235 235
236 235 235
236 235 235
236 235 235
236 235 235
236 235 235
236 235 235
236 235 235
237 235 235
237 235 235
237 235 235
237 235 235
237 235 235
237 235 235
237 235 235
237 235 235
237 235 235
237 235 235
237 235 235
237 235 235
237 235 235
237 235 235
236 235 235
236 235 235
236 235 235
236 235 235
236 235 235
236 235 235
236 235 235
236 235 235
236 235 235
236 235 235
236 235 235
236 235 235
236 235 235
236 235 235
236 235 235
236 235 235
236 235 235
232 231 230
133 111 84
124 100 65
122 99 62
121 99 62
120 99 61
118 99 61
117 99 61
115 104 66
112 112 76
109 122 87
108 128 93
108 130 95
108 130 95
108 130 95
108 130 95
108 130 95
108 130 95
108 130 95
108 130 95
108 130 95
108 130 95
108 130 95
108 130 95
108 130 95
108 130 95
108 130 95
108 130 95
108 130 95
108 130 95
108 130 95
108 130 95
108 130 95
108 130 95
108 131 95
108 131 95
108 131 95
108 131 95
108 131 95
108 131 95
108 131 95
108 131 95
108 131 95
108 131 95
108 131 95
108 131 95
108 131 95
108 131 95
108 131 95
108 131 95
108 131 95
108 131 95
108 131 95
108 131 95
108 131 95
108 131 95
108 131 95
108 131 95
108 131 95
108 131 95
108 131 95
108 131 95
108 131 95
108 131 95
108 131 95
108 131 95
108 132 95
108 132 95
108 132 95
108 132 95
108 132 95
108 132 95
108 132 95
108 132 95
108 132 95
108 132 95
108 132 95
108 132 95
108 132 95
108 132 95
108 132 95
108 132 95
108 132 95
108 132 95
108 132 95
108 132 95
108 132 95
108 132 95
108 132 95
108 132 95
108 131 95
108 131 95
108 131 95
108 131 95
108 131 95
108 131 95
108 131 95
108 131 95
108 131 95
108 131 95
108 131 95
108 131 95
108 131 95
108 131 95
108 131 95
108 131 95
108 131 95
108 131 95
108 131 95
108 131 95
108 131 95
108 131 95
108 131 95
108 131 95
108 131 95
108 131 95
108 131 95
108 131 95
108 131 95
108 131 95
108 131 95
108 130 95
108 130 95
108 130 95
108 130 95
108 130 95
108 130 95
108 130 95
108 130 95
108 130 95
108 130 95
108 130 95
108 130 95
108 130 95
108 130 95
108 130 95
108 130 95
108 130 95
108 130 95
108 130 95
108 130 95
108 130 95
108 130 95
108 130 95
108 130 95
108 130 95
108 130 95
113 121 86
113 121 86
117 115 79
119 111 76
121 107 72
126 101 67
184 177 172
236 235 235
236 235 235
236 235 235
236 235 235
236 235 235
236 235 235
236 235 235
236 235 235
236 235 235
236 235 235
236 235 235
236 235 235
236 235 235
236 235 235
236 235 235
236 235 235
236 235 235
236 235 235
236 235 235
236 235 235
236 235 235
236 235 235
236 235 235
236 235 235
236 235 235
236 235 235
236 235 235
236 235 235
236 235 235
236 235 235
236 235 235
236 235 235
236 235 235
236 235 235
236 235 235
236 235 235
236 235 235
236 235 235
236 235 235
236 235 235
236 235 235
236 235 235
236 235 235
236 235 235
236 235 235
236 235 235
182 178 172
119 103 67
116 109 72
114 112 76
112 115 79
110 122 86
110 122 86
108 130 95
108 130 95
108 130 95
108 130 95
108 130 95
108 130 95
108 130 95
108 130 95
108 130 95
108 130 95
108 130 95
108 130 95
108 130 95
108 130 95
108 130 95
108 130 95
108 130 95
108 130 95
108 130 95
108 130 95
108 130 95
108 130 95
108 130 95
108 130 95
108 130 95
108 130 95
108 130 95
108 130 95
108 130 95
108 130 95
108 130 95
108 131 95
108 131 95
108 131 95
108 131 95
108 131 95
108 131 95
108 131 95
108 131 95
108 131 95
108 131 95
108 131 95
108 131 95
108 131 95
108 131 95
108 131 95
108 131 95
108 131 95
108 131 95
108 131 95
108 131 95
108 131 95
108 131 95
108 131 95
108 131 95
108 131 95
108 131 95
108 131 95
108 131 95
108 131 95
108 131 95
108 131 95
108 132 95
108 132 95
108 132 95
108 132 95
108 132 95
108 132 95
108 132 95
108 132 95
108 132 94
108 132 94
108 132 94
108 132 94
108 132 94
108 132 94
108 132 95
108 132 95
108 132 95
108 132 95
108 132 95
108 132 95
108 131 95
108 131 95
108 131 95
108 131 95
108 131 95
108 131 95
108 131 95
108 131 95
108 131 95
108 131 95
108 131 95
108 131 95
108 131 95
108 131 95
108 131 95
108 131 95
108 131 95
108 131 95
108 131 95
108 131 95
108 131 95
108 131 95
108 131 95
108 131 95
108 131 95
108 131 95
108 131 95
108 131 95
108 131 95
108 130 95
108 130 95
108 130 95
108 130 95
108 130 95
108 130 95
108 130 95
108 130 95
108 130 95
108 130 95
108 130 95
108 130 95
108 130 95
108 130 95
108 130 95
108 130 95
108 130 95
108 130 95
108 130 95
108 130 95
108 130 95
108 130 95
108 130 95
108 130 95
108 130 95
108 130 95
108 130 95
108 130 95
108 130 95
108 130 95
108 130 95
108 130 95
108 130 95
108 130 95
108 130 95
108 130 95
197 199 194
210 211 208
210 211 208
210 211 208
211 211 208
211 210 208
211 210 208
211 210 208
211 210 208
211 210 208
211 209 207
211 209 207
211 209 207
211 209 207
211 209 207
211 209 207
211 209 207
211 209 207
211 209 207
211 209 207
211 209 207
211 209 207
211 209 207
211 209 207
211 209 207
211 209 207
211 209 207
211 209 207
211 209 207
211 209 207
211 209 207
211 209 207
211 209 207
211 209 207
211 209 207
211 210 207
211 210 208
211 210 208
211 210 208
210 210 208
210 210 208
210 211 208
210 211 208
210 211 208
210 211 208
197 199 194
108 130 95
108 130 95
108 130 95
108 130 95
108 130 95
108 130 95
108 130 95
108 130 95
108 130 95
108 130 95
108 130 95
108 130 95
108 130 95
108 130 95
108 130 95
108 130 95
108 130 95
108 130 95
108 130 95
108 130 95
108 130 95
108 130 95
108 130 95
108 130 95
108 130 95
108 130 95
108 130 95
108 130 95
108 130 95
108 130 95
108 130 95
108 130 95
108 130 95
108 130 95
108 130 95
108 130 95
108 130 95
108 130 95
108 130 95
108 130 95
108 131 95
108 131 95
108 131 95
108 131 95
108 131 95
108 131 95
108 131 95
108 131 95
108 131 95
108 131 95
108 131 95
108 131 95
108 131 95
108 131 95
108 131 95
108 131 95
108 131 95
108 131 95
108 131 95
108 131 95
108 131 95
108 131 95
108 131 95
108 131 95
108 131 95
108 131 95
108 131 95
108 131 95
108 131 95
108 131 95
108 132 95
108 132 95
108 132 94
108 132 94
108 132 94
108 132 94
108 132 94
108 132 94
108 132 94
108 132 94
108 132 94
108 132 94
108 132 94
108 132 94
108 132 94
108 132 94
108 131 94
108 131 94
108 131 94
108 131 94
108 131 94
108 131 94
108 131 94
108 131 94
108 131 94
108 131 94
108 131 94
108 131 94
108 131 95
108 131 95
108 131 95
108 131 95
108 131 95
108 131 95
108 131 95
108 131 95
108 131 95
108 131 95
108 131 95
108 131 95
108 131 95
108 131 95
108 131 95
108 131 95
108 131 95
108 130 95
108 130 95
108 130 95
108 130 95
108 130 95
108 130 95
108 130 95
108 130 95
108 130 95
108 130 95
108 130 95
108 130 95
108 130 95
108 130 95
108 130 95
108 130 95
108 130 95
108 130 95
108 130 95
108 130 95
108 130 95
108 130 95
108 130 95
108 130 95
108 130 95
108 130 95
108 130 95
108 130 95
107 130 95
108 130 95
108 130 95
108 130 95
108 130 95
108 130 95
108 130 95
108 130 95
108 130 95
108 130 95
108 130 95
108 130 95
108 130 95
108 130 95
108 130 95
108 130 95
108 130 95
108 130 95
108 130 95
108 130 95
108 130 95
108 130 95
108 130 95
108 130 95
108 130 95
108 130 95
108 130 95
108 130 95
108 130 95
108 130 95
108 130 95
108 130 95
108 130 95
108 130 95
108 130 95
108 130 95
108 130 95
108 130 95
108 130 95
108 130 95
108 130 95
108 130 95
108 130 95
108 130 95
108 130 95
108 130 95
108 130 95
108 130 95
108 130 95
108 130 95
108 130 95
108 130 95
108 130 95
108 130 95
108 130 95
108 130 95
108 130 95
108 130 95
108 130 95
108 130 95
108 130 95
108 130 95
108 130 95
108 130 95
108 130 95
108 130 95
108 130 95
108 130 95
108 130 95
108 130 95
108 130 95
108 130 95
108 130 95
108 130 95
108 130 95
108 130 95
108 130 95
108 130 95
108 130 95
108 130 95
108 130 95
108 130 95
108 130 95
108 130 95
108 130 95
108 130 95
108 130 95
108 130 95
108 130 95
108 130 95
108 130 95
108 130 95
108 130 95
108 130 95
108 130 95
108 130 95
108 130 95
108 130 95
108 130 95
108 130 95
108 131 95
108 131 95
108 131 95
108 131 95
108 131 95
108 131 95
108 131 95
108 131 95
108 131 95
108 131 95
108 131 95
108 131 95
108 131 95
108 131 95
108 131 95
108 131 94
108 131 94
108 131 94
108 131 94
108 131 94
108 131 94
108 131 94
108 131 94
108 131 94
108 131 94
108 131 94
108 131 94
108 131 94
108 131 94
108 132 94
108 132 94
108 132 94
108 132 94
108 132 94
108 132 94
108 132 94
108 132 94
108 132 94
108 132 94
108 132 94
108 132 94
108 132 94
108 131 94
108 131 94
108 131 94
108 131 94
108 131 94
108 131 94
108 131 94
108 131 94
108 131 94
108 131 94
108 131 94
108 131 94
108 131 94
108 131 94
108 131 94
108 131 94
108 131 94
108 131 94
108 131 94
108 131 94
108 131 94
108 131 94
108 131 94
108 131 94
107 131 94
108 131 94
107 131 94
107 131 94
107 130 94
107 130 94
107 130 94
107 130 94
107 130 94
107 130 94
107 130 94
107 130 94
107 130 94
107 130 94
107 130 94
107 130 94
107 130 94
107 130 94
107 130 94
107 130 94
107 130 94
107 130 94
107 130 94
107 130 94
107 130 94
107 130 94
107 130 94
107 130 94
107 130 94
107 130 94
107 130 94
107 130 94
107 130 94
107 130 94
107 130 94
107 130 94
107 130 94
107 130 94
107 130 94
107 130 94
107 130 94
107 130 94
107 130 95
107 130 94
107 130 95
107 130 95
107 130 95
107 130 94
107 130 95
107 130 95
107 130 95
107 130 95
107 130 95
107 130 95
107 130 95
107 130 95
107 130 95
107 130 95
107 129 95
107 129 95
107 129 95
107 129 95
107 129 95
107 129 95
107 129 95
107 129 95
107 129 95
107 129 95
107 129 95
107 129 95
107 129 95
107 129 95
107 129 95
107 129 95
107 129 95
107 129 95
107 129 95
107 129 95
107 129 95
107 129 95
107 129 95
107 129 95
107 129 95
107 129 95
107 129 95
107 130 95
107 130 95
107 130 95
107 130 95
107 130 95
107 130 95
107 130 95
107 130 95
107 130 95
107 130 95
107 130 95
107 130 95
107 130 95
107 130 95
107 130 95
107 130 95
107 130 95
107 130 95
107 130 95
107 130 95
107 130 95
107 130 95
107 130 95
107 130 95
107 130 94
107 130 95
107 130 95
107 130 95
107 130 94
107 130 94
107 130 94
107 130 94
107 130 94
107 130 94
108 130 94
108 130 94
108 130 94
108 130 94
108 130 94
108 130 94
108 130 94
108 130 94
108 130 94
108 130 94
108 130 94
108 130 94
108 130 94
108 130 94
108 130 94
108 130 94
108 130 94
108 131 94
108 131 94
108 131 94
108 131 94
108 131 94
108 131 94
108 131 94
108 131 94
108 131 94
108 131 94
108 131 94
108 131 94
108 131 94
108 131 94
108 131 94
108 131 94
108 131 94
108 131 94
108 131 94
108 131 94
108 131 94
108 131 94
108 131 94
108 131 94
108 131 94
108 131 94
108 131 94
108 131 94
108 131 94
108 132 94
108 132 94
108 132 94
108 132 94
108 132 94
108 132 94
108 132 94
108 132 94
108 132 94
108 131 94
108 131 94
108 131 94
108 131 94
108 131 94
108 131 94
108 131 94
108 131 94
108 131 94
108 131 94
108 131 94
108 131 94
107 131 94
107 131 94
107 131 94
107 131 94
107 131 94
107 131 94
107 131 94
107 131 94
107 131 94
107 131 94
107 131 94
107 131 94
107 131 94
107 131 94
107 131 94
107 130 94
107 130 94
107 130 94
107 130 94
107 130 94
107 130 94
107 130 94
107 130 94
107 130 94
107 130 94
107 130 94
107 130 94
107 130 94
107 130 94
107 130 94
107 130 94
107 130 94
107 130 94
107 130 94
107 130 94
107 130 94
107 130 94
107 130 94
107 130 94
107 130 94
107 130 94
107 130 94
107 130 94
107 130 94
107 130 94
107 130 94
107 130 94
107 130 94
107 130 94
107 130 94
107 130 94
107 130 94
107 130 94
107 130 94
107 130 94
107 130 94
107 130 94
107 130 94
107 130 94
107 129 94
107 129 94
107 129 94
107 129 94
107 129 94
107 129 94
107 129 94
107 129 94
107 129 94
107 129 94
107 129 94
107 129 94
107 129 94
107 129 94
107 129 94
107 129 94
107 129 94
107 129 94
107 129 94
107 129 94
107 129 94
107 129 94
107 129 94
107 129 94
107 129 94
107 129 94
107 129 94
107 129 94
107 129 94
107 129 94
107 129 94
107 129 94
107 129 94
107 129 94
107 129 94
107 129 94
107 129 94
107 129 94
107 129 94
107 129 94
107 129 94
107 129 94
107 129 94
107 129 94
107 129 94
107 129 94
107 129 94
107 129 94
107 130 94
107 130 94
107 130 94
107 130 94
107 130 94
107 130 94
107 130 94
107 130 94
107 130 94
107 130 94
107 130 94
107 130 94
107 130 94
107 130 94
107 130 94
107 130 94
107 130 94
107 130 94
107 130 94
107 130 94
107 130 94
107 130 94
107 130 94
107 130 94
107 130 94
107 130 94
107 130 94
107 130 94
107 130 94
107 130 94
107 130 94
107 130 94
107 130 94
107 130 94
107 130 94
107 130 94
107 130 94
107 130 94
107 130 94
107 130 94
107 130 94
107 130 94
107 130 94
107 130 94
107 130 94
107 131 94
107 131 94
107 131 94
108 131 94
108 131 94
108 131 94
108 131 94
108 131 94
108 131 94
108 131 94
108 131 94
108 131 94
108 131 94
108 131 94
108 131 94
108 131 94
108 131 94
108 131 94
108 131 94
108 131 94
108 131 94
108 131 94
108 131 94
108 131 94
108 131 94
108 131 94
108 131 94
108 131 94
108 132 94
108 132 94
108 132 94
108 132 94
108 132 94
108 132 94
108 131 94
108 131 94
108 131 94
107 131 94
107 131 94
107 131 94
107 131 94
107 131 94
107 131 94
107 131 94
107 131 94
107 131 94
107 131 94
107 131 94
107 131 94
107 131 94
107 131 94
107 131 94
107 131 94
107 131 94
107 131 94
107 131 94
107 131 94
107 131 94
107 131 94
107 131 94
107 131 94
107 131 94
107 130 94
107 130 94
107 130 94
107 130 94
107 130 94
107 130 94
107 130 94
107 130 94
107 130 94
107 130 94
107 130 94
107 130 94
107 130 94
107 130 94
107 130 94
107 130 94
107 130 94
107 130 94
107 130 94
107 130 94
107 130 94
107 130 94
107 130 94
107 130 94
107 130 94
107 130 94
107 130 94
107 130 94
107 130 94
107 130 94
107 130 94
107 130 94
107 130 94
107 130 94
107 130 94
107 130 94
107 130 94
107 130 94
107 130 94
107 129 94
107 129 94
107 129 94
107 129 94
107 129 94
107 129 94
107 129 94
107 129 94
107 129 94
107 129 94
107 129 94
107 129 94
107 129 94
107 129 94
107 129 94
107 129 94
107 129 94
107 129 94
107 129 94
107 129 94
107 129 94
107 129 94
107 129 94
107 129 94
107 129 94
107 129 94
107 129 94
107 129 94
107 129 94
107 129 94
107 129 94
107 129 94
107 129 94
107 129 94
107 129 94
107 129 94
107 129 94
107 129 94
107 129 94
107 129 94
107 129 94
107 129 94
107 129 94
107 129 94
107 129 94
107 129 94
107 129 94
107 129 94
107 129 94
107 129 94
107 129 94
107 129 94
107 129 94
107 129 94
107 129 94
107 129 94
107 129 94
107 129 94
107 129 94
107 129 94
107 130 94
107 129 94
107 130 94
107 130 94
107 130 94
107 130 94
107 130 94
107 130 94
107 130 94
107 130 94
107 130 94
107 130 94
107 130 94
107 130 94
107 130 94
107 130 94
107 130 94
107 130 94
107 130 94
107 130 94
107 130 94
107 130 94
107 130 94
107 130 94
107 130 94
107 130 94
107 130 94
107 130 94
107 130 94
107 130 94
107 130 94
107 130 94
107 130 94
107 130 94
107 130 94
107 130 94
107 130 94
107 130 94
107 130 94
107 130 94
107 130 94
107 130 94
107 131 94
107 131 94
107 131 94
107 131 94
107 131 94
107 131 94
107 131 94
107 131 94
107 131 94
107 131 94
107 131 94
107 131 94
107 131 94
107 131 94
108 131 94
108 131 94
108 131 94
108 131 94
108 131 94
108 131 94
108 131 94
108 131 94
108 131 94
108 131 94
108 131 94
108 131 94
108 131 94
107 132 94
107 132 94
107 131 94
107 131 94
107 131 94
107 131 94
107 131 94
107 131 94
107 131 94
107 131 94
107 131 94
107 131 94
107 131 94
107 131 94
107 131 94
107 131 94
107 131 94
107 131 94
107 131 94
107 131 94
107 131 94
107 131 94
107 131 94
107 131 94
107 131 94
107 131 94
107 131 94
107 131 94
107 131 94
107 131 94
107 130 94
107 130 94
107 130 94
107 130 94
107 130 94
107 130 94
107 130 94
107 130 94
107 130 94
107 130 94
107 130 94
107 130 94
107 130 94
107 130 94
107 130 94
107 130 94
107 130 94
107 130 94
107 130 94
107 130 94
107 130 94
107 130 94
107 130 94
107 130 94
107 130 94
107 130 94
107 130 94
107 130 94
107 130 94
107 130 94
107 130 94
107 130 94
107 130 94
107 130 94
107 130 94
107 130 94
107 130 94
107 129 94
107 129 94
107 129 94
107 129 94
107 129 94
107 129 94
107 129 94
107 129 94
107 129 94
107 129 94
107 129 94
107 129 94
107 129 94
107 129 94
107 129 94
107 129 94
107 129 94
107 129 94
107 129 94
107 129 94
107 129 94
107 129 94
107 129 94
107 129 94
107 129 94
107 129 94
107 129 94
107 129 94
107 129 94
107 129 94
107 129 94
107 129 94
107 129 94
107 129 94
107 129 94
107 129 94
107 129 94
107 129 94
107 129 94
107 129 94
107 129 94
107 129 94
107 129 94
107 129 94
107 129 94
107 129 94
107 129 94
107 129 94
107 129 94
107 129 94
107 129 94
107 129 94
107 129 94
107 129 94
107 129 94
107 129 94
107 129 94
107 129 94
107 129 94
107 129 94
107 129 94
107 129 94
107 129 94
107 129 94
107 129 94
107 129 94
107 129 94
107 129 94
107 129 94
107 129 94
107 130 94
107 130 94
107 130 94
107 130 94
107 130 94
107 130 94
107 130 94
107 130 94
107 130 94
107 130 94
107 130 94
107 130 94
107 130 94
107 130 94
107 130 94
107 130 94
107 130 94
107 130 94
107 130 94
107 130 94
107 130 94
107 130 94
107 130 94
107 130 94
107 130 94
107 130 94
107 130 94
107 130 94
107 130 94
107 130 94
107 130 94
107 130 94
107 130 94
107 130 94
107 130 94
107 130 94
107 130 94
107 130 94
107 131 94
107 131 94
107 131 94
107 131 94
107 131 94
107 131 94
107 131 94
107 131 94
107 131 94
107 131 94
107 131 94
107 131 94
107 131 94
107 131 94
107 131 94
107 131 94
107 131 94
107 131 94
107 131 94
107 131 94
108 131 94
108 131 94
108 131 94
108 131 94
108 131 94
107 132 94
107 131 94
107 131 94
107 131 94
107 131 94
107 131 94
107 131 94
107 131 94
107 131 94
107 131 94
107 131 94
107 131 94
107 131 94
107 131 94
107 131 94
107 131 94
107 131 94
107 131 94
107 131 94
107 131 94
107 131 94
107 131 94
107 131 94
107 131 94
107 131 94
107 131 94
107 131 94
107 130 94
107 130 94
107 130 94
107 130 94
107 130 94
107 130 94
107 130 94
107 130 94
107 130 94
107 130 94
107 130 94
107 130 94
107 130 94
107 130 94
107 130 94
107 130 94
107 130 94
107 130 94
107 130 94
107 130 94
107 130 94
107 130 94
107 130 94
107 130 94
107 130 94
107 130 94
107 130 94
107 130 94
107 130 94
107 130 94
107 130 94
107 130 94
107 130 94
107 130 94
107 130 94
107 130 94
107 129 94
107 129 94
107 129 94
107 129 94
107 129 94
107 129 94
107 129 94
107 129 94
107 129 94
107 129 94
107 129 94
107 129 94
107 129 94
107 129 94
107 129 94
107 129 94
107 129 94
107 129 94
107 129 94
107 129 94
107 129 94
107 129 94
107 129 94
107 129 94
107 129 94
107 129 94
107 129 94
107 129 94
107 129 94
107 129 94
107 129 94
107 129 94
107 129 94
107 129 94
107 129 94
107 129 94
107 129 94
107 129 94
107 129 94
107 129 94
107 129 94
107 129 94
107 129 94
107 129 94
107 129 94
107 129 94
107 129 94
107 129 94
107 129 94
107 129 94
107 129 94
107 129 94
107 129 94
107 129 94
107 129 94
107 129 94
107 129 94
107 129 94
107 129 94
107 129 94
107 129 94
107 129 94
107 129 94
107 129 94
107 129 94
107 129 94
107 129 94
107 129 94
107 129 94
107 129 94
107 129 94
107 129 94
107 129 94
107 129 94
107 129 94
107 129 94
107 129 94
107 129 94
107 130 94
107 130 94
107 130 94
107 130 94
107 130 94
107 130 94
107 130 94
107 130 94
107 130 94
107 130 94
107 130 94
107 130 94
107 130 94
107 130 94
107 130 94
107 130 94
107 130 94
107 130 94
107 130 94
107 130 94
107 130 94
107 130 94
107 130 94
107 130 94
107 130 94
107 130 94
107 130 94
107 130 94
107 130 94
107 130 94
107 130 94
107 130 94
107 130 94
107 130 94
107 130 94
107 131 94
107 131 94
107 131 94
107 131 94
107 131 94
107 131 94
107 131 94
107 131 94
107 131 94
107 131 94
107 131 94
107 131 94
107 131 94
107 131 94
107 131 94
107 131 94
107 131 94
107 131 94
107 131 94
107 131 94
107 131 94
107 131 94
107 131 94
107 131 94
107 131 94
107 131 94
107 131 94
107 131 94
107 131 94
107 131 94
107 131 94
107 131 94
107 131 94
107 131 94
107 131 94
107 131 94
107 131 94
107 131 94
107 131 94
107 131 94
107 131 94
107 131 94
107 131 94
107 131 94
107 131 94
107 131 94
107 131 94
107 131 94
107 131 94
107 130 94
107 130 94
107 130 94
107 130 94
107 130 94
107 130 94
107 130 94
107 130 94
107 130 94
107 130 94
107 130 94
107 130 94
107 130 94
107 130 94
107 130 94
107 130 94
107 130 94
107 130 94
107 130 94
107 130 94
107 130 94
107 130 94
107 130 94
107 130 94
107 130 94
107 130 94
107 130 94
107 130 94
107 130 94
107 130 94
107 130 94
107 130 94
107 130 94
107 130 94
107 129 94
107 129 94
107 129 94
107 129 94
107 129 94
107 129 94
107 129 94
107 129 94
107 129 94
107 129 94
107 129 94
107 129 94
107 129 94
107 129 94
107 129 94
107 129 94
107 129 94
107 129 94
107 129 94
107 129 94
107 129 94
107 129 94
107 129 94
107 129 94
107 129 94
107 129 94
107 129 94
107 129 94
107 129 94
107 129 94
107 129 94
107 129 94
107 129 94
107 129 94
107 129 94
107 129 94
107 129 94
107 129 94
107 129 94
107 129 94
107 129 94
107 129 94
107 129 94
107 129 94
107 129 94
107 129 94
107 129 94
107 129 94
107 129 94
107 129 94
107 129 94
107 129 94
107 129 94
107 129 94
107 129 94
107 129 94
107 129 94
107 129 94
107 129 94
107 129 94
107 129 94
107 129 94
107 129 94
107 129 94
107 129 94
107 129 94
107 129 94
107 129 94
107 129 94
107 129 94
107 129 94
107 129 94
107 129 94
107 129 94
107 129 94
107 129 94
107 129 94
107 129 94
107 129 94
107 129 94
107 129 94
107 129 94
107 129 94
107 129 94
107 129 94
107 130 94
107 130 94
107 130 94
107 130 94
107 130 94
107 130 94
107 130 94
107 130 94
107 130 94
107 130 94
107 130 94
107 130 94
107 130 94
107 130 94
107 130 94
107 130 94
107 130 94
107 130 94
107 130 94
107 130 94
107 130 94
107 130 94
107 130 94
107 130 94
107 130 94
107 130 94
107 130 94
107 130 94
107 130 94
107 130 94
107 130 94
107 130 94
107 130 94
107 130 94
107 130 94
107 131 94
107 131 94
107 131 94
107 131 94
107 131 94
107 131 94
107 131 94
107 131 94
107 131 94
107 131 94
107 131 94
107 131 94
107 131 94
107 131 94
107 131 94
107 131 94
107 131 94
107 131 94
107 131 94
107 131 94
107 131 94
107 131 94
107 131 94
107 131 94
107 131 94
107 131 94
107 131 94
107 131 94
107 131 94
107 131 94
107 131 94
107 131 94
107 131 94
107 131 94
107 131 94
107 131 94
107 131 94
107 131 94
107 131 94
107 131 94
107 131 94
107 131 94
107 131 94
107 131 94
107 130 94
107 130 94
107 130 94
107 130 94
107 130 94
107 130 94
107 130 94
107 130 94
107 130 94
107 130 94
107 130 94
107 130 94
107 130 94
107 130 94
107 130 94
107 130 94
107 130 94
107 130 94
107 130 94
107 130 94
107 130 94
107 130 94
107 130 94
107 130 94
107 130 94
107 130 94
107 130 94
107 130 94
107 130 94
107 130 93
107 130 94
107 130 94
107 130 94
107 129 93
107 129 93
107 129 93
107 129 93
107 129 93
107 129 93
107 129 93
107 129 93
107 129 93
107 129 93
107 129 93
107 129 93
107 129 93
107 129 93
107 129 93
107 129 93
107 129 93
107 129 93
107 129 93
107 129 93
107 129 93
107 129 93
107 129 93
107 129 93
107 129 93
107 129 93
107 129 93
107 129 93
107 129 93
107 129 93
107 129 93
107 129 93
107 129 93
107 129 93
107 129 93
107 129 93
107 129 93
107 129 93
107 129 93
107 129 93
107 129 93
107 129 93
107 129 93
107 129 93
107 129 93
107 129 93
107 129 93
107 129 93
107 129 93
107 129 93
107 129 93
107 129 93
107 129 93
107 129 93
107 129 93
107 129 93
107 129 93
107 129 93
107 129 93
107 129 93
107 129 93
107 129 93
107 129 93
107 129 93
107 129 94
107 129 94
107 129 94
107 129 93
107 129 94
107 129 94
107 129 94
107 129 94
107 129 94
107 129 94
107 129 94
107 129 94
107 129 94
107 129 94
107 129 94
107 129 94
107 129 94
107 129 94
107 129 94
107 129 94
107 129 94
107 129 94
107 129 94
107 129 94
107 129 94
107 129 94
107 129 94
107 129 94
107 130 94
107 130 94
107 130 94
107 130 94
107 130 94
107 130 94
107 130 94
107 130 94
107 130 94
107 130 94
107 130 94
107 130 94
107 130 94
107 130 94
107 130 94
107 130 94
107 130 94
107 130 94
107 130 94
107 130 94
107 130 94
107 130 94
107 130 94
107 130 94
107 130 94
107 130 94
107 130 94
107 130 94
107 130 94
107 130 94
107 130 94
107 130 94
107 130 94
107 131 94
107 131 94
107 131 94
107 131 94
107 131 94
107 131 94
107 131 94
107 131 94
107 131 94
107 131 94
107 131 94
107 131 94
107 131 94
107 131 94
107 131 94
107 131 94
107 131 94
107 131 94
107 131 94
107 131 93
107 131 93
107 131 93
107 131 93
107 131 93
107 131 93
107 131 93
107 131 93
107 131 93
107 131 93
107 131 93
107 131 93
107 131 93
107 131 93
107 131 93
107 131 93
107 131 93
107 131 93
107 131 93
107 131 93
107 131 93
107 130 93
107 130 93
107 130 93
107 130 93
107 130 93
107 130 93
107 130 93
107 130 93
107 130 93
107 130 93
107 130 93
107 130 93
107 130 93
107 130 93
107 130 93
107 130 93
107 130 93
107 130 93
107 130 93
107 130 93
107 130 93
107 130 93
107 130 93
107 130 93
107 130 93
107 130 93
107 130 93
107 130 93
107 130 93
107 130 93
107 130 93
107 129 93
107 129 93
107 129 93
107 129 93
107 129 93
107 129 93
107 129 93
107 129 93
107 129 93
107 129 93
107 129 93
107 129 93
107 129 93
107 129 93
107 129 93
107 129 93
107 129 93
107 129 93
107 129 93
107 129 93
107 129 93
107 129 93
107 129 93
107 129 93
107 129 93
107 129 93
107 129 93
107 129 93
107 129 93
107 129 93
107 129 93
107 129 93
107 129 93
107 129 93
107 129 93
107 129 93
107 129 93
107 129 93
107 129 93
107 129 93
107 129 93
107 129 93
107 129 93
107 129 93
107 129 93
107 129 93
107 129 93
107 129 93
107 129 93
107 129 93
107 129 93
107 129 93
107 129 93
107 129 93
107 129 93
107 129 93
107 129 93
107 129 93
107 129 93
107 129 93
107 129 93
107 129 93
107 129 93
107 129 93
107 129 93
107 129 93
107 129 93
107 129 93
107 129 93
107 129 93
107 129 93
107 129 93
107 129 93
107 129 93
107 129 93
107 129 93
107 129 93
107 129 93
107 129 93
107 129 93
107 129 93
107 129 93
107 129 93
107 129 93
107 129 93
107 129 93
107 129 93
107 129 93
107 129 93
107 129 93
107 129 93
107 129 93
107 129 93
107 129 93
107 129 93
107 129 93
107 129 93
107 129 93
107 129 93
107 130 93
107 130 93
107 130 93
107 130 93
107 130 93
107 130 93
107 130 93
107 130 93
107 130 93
107 130 93
107 130 93
107 130 93
107 130 93
107 130 93
107 130 93
107 130 93
107 130 93
107 130 93
107 130 93
107 130 93
107 130 93
107 130 93
107 130 93
107 130 93
107 130 93
107 130 93
107 130 93
107 130 93
107 130 93
107 130 93
107 130 93
107 131 93
107 131 93
107 131 93
107 131 93
107 131 93
107 131 93
107 131 93
107 131 93
107 131 93
107 131 93
107 131 93
107 131 93
107 131 93
107 131 93
107 131 93
107 131 93
107 131 93
107 131 93
107 131 93
107 131 93
107 131 93
107 131 93
107 131 93
107 131 93
107 131 93
107 131 93
107 131 93
107 131 93
107 131 93
107 131 93
107 131 93
107 131 93
107 131 93
107 131 93
107 131 93
107 131 93
107 131 93
107 131 93
107 130 93
107 130 93
107 130 93
107 130 93
107 130 93
107 130 93
107 130 93
107 130 93
107 130 93
107 130 93
107 130 93
107 130 93
107 130 93
107 130 93
107 130 93
107 130 93
107 130 93
107 130 93
107 130 93
107 130 93
107 130 93
107 130 93
107 130 93
107 130 93
107 130 93
107 130 93
107 130 93
107 130 93
107 130 93
107 130 93
107 129 93
107 129 93
107 129 93
107 129 93
107 129 93
107 129 93
107 129 93
107 129 93
107 129 93
107 129 93
107 129 93
107 129 93
107 129 93
107 129 93
107 129 93
107 129 93
107 129 93
107 129 93
107 129 93
107 129 93
107 129 93
107 129 93
107 129 93
107 129 93
107 129 93
107 129 93
107 129 93
107 129 93
107 129 93
107 129 93
107 129 93
107 129 93
107 129 93
107 129 93
107 129 93
107 129 93
107 129 93
107 129 93
107 129 93
107 129 93
107 129 93
107 129 93
107 129 93
107 129 93
107 129 93
107 129 93
107 129 93
107 129 93
107 129 93
107 129 93
107 129 93
107 129 93
107 129 93
107 129 93
107 129 93
107 129 93
107 129 93
107 129 93
107 129 93
107 129 93
107 129 93
107 129 93
107 129 93
107 129 93
107 129 93
107 129 93
107 129 93
107 129 93
107 129 93
107 129 93
107 129 93
107 129 93
107 129 93
107 129 93
107 129 93
107 129 93
107 129 93
107 129 93
107 129 93
107 129 93
107 129 93
107 129 93
107 129 93
107 129 93
107 129 93
107 129 93
107 129 93
107 129 93
107 129 93
107 129 93
107 129 93
107 129 93
107 129 93
107 129 93
107 129 93
107 129 93
107 129 93
107 129 93
107 129 93
107 129 93
107 129 93
107 129 93
107 129 93
107 130 93
107 130 93
107 130 93
107 130 93
107 130 93
107 130 93
107 130 93
107 130 93
107 130 93
107 130 93
107 130 93
107 130 93
107 130 93
107 130 93
107 130 93
107 130 93
107 130 93
107 130 93
107 130 93
107 130 93
107 130 93
107 130 93
107 130 93
107 130 93
107 130 93
107 130 93
107 130 93
107 130 93
107 130 93
107 130 93
107 130 93
107 131 93
107 131 93
107 131 93
107 131 93
107 131 93
107 131 93
107 131 93
107 131 93
107 131 93
107 131 93
107 131 93
107 131 93
107 131 93
107 131 93
107 131 93
107 131 93
107 131 93
107 131 93
107 131 93
107 131 93
107 131 93
107 131 93
107 131 93
107 131 93
107 131 93
107 131 93
107 131 93
107 131 93
107 131 93
107 131 93
107 131 93
107 131 93
107 131 93
107 131 93
107 130 93
107 130 93
107 130 93
107 130 93
107 130 93
107 130 93
107 130 93
107 130 93
107 130 93
107 130 93
107 130 93
107 130 93
107 130 93
107 130 93
107 130 93
107 130 93
107 130 93
107 130 93
107 130 93
107 130 93
107 130 93
107 130 93
107 130 93
107 130 93
107 130 93
107 130 93
107 130 93
106 130 93
107 130 93
106 129 93
106 129 93
106 129 93
106 129 93
106 129 93
106 129 93
106 129 93
106 129 93
106 129 93
106 129 93
106 129 93
106 129 93
106 129 93
106 129 93
106 129 93
106 129 93
106 129 93
106 129 93
106 129 93
106 129 93
106 129 93
106 129 93
106 129 93
106 129 93
106 129 93
106 129 93
106 129 93
106 129 93
106 129 93
106 129 93
106 129 93
106 129 93
106 129 93
106 129 93
106 129 93
106 129 93
106 129 93
106 129 93
106 129 93
106 129 93
106 129 93
106 129 93
107 129 93
106 129 93
107 129 93
106 129 93
106 129 93
107 129 93
107 129 93
107 129 93
107 129 93
107 129 93
107 129 93
107 129 93
107 129 93
107 129 93
107 129 93
107 129 93
107 129 93
107 129 93
107 129 93
107 129 93
107 129 93
107 129 93
107 129 93
107 129 93
107 129 93
107 129 93
107 129 93
107 129 93
107 129 93
107 129 93
106 129 93
107 129 93
107 129 93
107 129 93
107 129 93
107 129 93
107 129 93
107 129 93
107 129 93
107 129 93
107 129 93
107 129 93
107 129 93
107 129 93
107 129 93
107 129 93
107 129 93
107 129 93
107 129 93
107 129 93
107 129 93
107 129 93
107 129 93
107 129 93
107 129 93
107 129 93
107 129 93
107 129 93
107 129 93
107 129 93
107 129 93
107 129 93
107 129 93
107 129 93
107 129 93
107 129 93
107 129 93
107 130 93
107 130 93
107 130 93
107 130 93
107 130 93
107 130 93
107 130 93
107 130 93
107 130 93
107 130 93
107 130 93
107 130 93
107 130 93
107 130 93
107 130 93
107 130 93
107 130 93
107 130 93
107 130 93
107 130 93
107 130 93
107 130 93
107 130 93
107 130 93
107 130 93
107 130 93
107 130 93
107 130 93
107 130 93
107 131 93
107 131 93
107 131 93
107 131 93
107 131 93
107 131 93
107 131 93
107 131 93
107 131 93
107 131 93
107 131 93
107 131 93
107 131 93
107 131 93
107 131 93
107 131 93
107 131 93
107 131 93
107 131 93
107 131 93
107 131 93
107 131 93
107 131 93
107 131 93
107 131 93
107 131 93
107 131 93
107 131 93
107 131 93
107 131 93
107 131 93
107 131 93
107 131 93
107 130 93
107 130 93
107 130 93
107 130 93
107 130 93
107 130 93
107 130 93
107 130 93
107 130 93
107 130 93
107 130 93
107 130 93
107 130 93
107 130 93
107 130 93
107 130 93
107 130 93
107 130 93
107 130 93
107 130 93
107 130 93
107 130 93
107 130 93
107 130 93
107 130 93
107 130 93
106 130 93
106 130 93
106 130 93
106 129 93
106 129 93
106 129 93
106 129 93
106 129 93
106 129 93
106 129 93
106 129 93
106 129 93
106 129 93
106 129 93
106 129 93
106 129 93
106 129 93
106 129 93
106 129 93
106 129 93
106 129 93
106 129 93
106 129 93
106 129 93
106 129 93
106 129 93
106 129 93
106 129 93
106 129 93
106 129 93
106 129 93
106 129 93
106 129 93
106 129 93
106 129 93
106 129 93
106 129 93
106 129 93
106 129 93
106 129 93
106 129 93
106 129 93
106 129 93
106 129 93
106 129 93
106 129 93
106 129 93
106 129 93
107 129 93
107 129 93
107 129 93
107 129 93
107 129 93
107 129 93
107 129 93
107 129 93
107 129 93
107 129 93
107 129 93
107 129 93
107 129 93
107 129 93
107 129 93
107 129 93
107 129 93
107 129 93
107 129 93
107 129 93
107 129 93
107 129 93
107 129 93
107 129 93
107 129 93
107 129 93
107 129 93
107 129 93
107 129 93
107 129 93
107 129 93
107 129 93
106 129 93
107 129 93
107 129 93
107 129 93
106 129 93
107 129 93
107 129 93
107 129 93
107 129 93
107 129 93
107 129 93
107 129 93
107 129 93
107 129 93
107 129 93
107 129 93
107 129 93
107 129 93
107 129 93
107 129 93
107 129 93
107 129 93
107 129 93
107 129 93
107 129 93
107 129 93
107 129 93
107 129 93
107 129 93
107 129 93
107 129 93
107 130 93
107 130 93
107 130 93
107 130 93
107 130 93
107 130 93
107 130 93
107 130 93
107 130 93
107 130 93
107 130 93
107 130 93
107 130 93
107 130 93
107 130 93
107 130 93
107 130 93
107 130 93
107 130 93
107 130 93
107 130 93
107 130 93
107 130 93
107 130 93
107 130 93
107 130 93
107 130 93
107 130 93
107 130 93
107 130 93
107 130 93
107 131 93
107 131 93
107 131 93
107 131 93
107 131 93
107 131 93
107 131 93
107 131 93
107 131 93
107 131 93
107 131 93
107 131 93
107 131 93
107 131 93
107 131 93
107 131 93
107 131 93
107 131 93
107 131 93
107 131 93
107 131 93
107 131 93
107 131 93
107 131 93
107 131 93
107 131 93
107 131 93
107 131 93
107 131 93
107 131 93
107 131 93
107 131 93
107 130 93
107 130 93
107 130 93
107 130 93
107 130 93
107 130 93
107 130 93
107 130 93
107 130 93
107 130 93
107 130 93
107 130 93
107 130 93
107 130 93
107 130 93
107 130 93
107 130 93
107 130 93
107 130 93
107 130 93
107 130 93
107 130 93
106 130 93
106 130 93
106 130 93
106 130 93
106 130 93
106 130 93
106 130 93
106 129 93
106 129 93
106 129 93
106 129 93
106 129 93
106 129 93
106 129 93
106 129 93
106 129 93
106 129 93
106 129 93
106 129 93
106 129 93
106 129 93
106 129 93
106 129 93
106 129 93
106 129 93
106 129 93
106 129 93
106 129 93
106 129 93
106 129 93
106 129 93
106 129 93
106 129 93
106 129 93
106 129 93
106 129 93
106 129 93
106 129 93
106 129 93
106 129 93
106 129 93
106 129 93
106 129 93
107 129 93
107 129 93
107 129 93
107 129 93
107 129 93
107 129 93
107 129 93
107 129 93
107 129 93
107 129 93
107 129 93
107 129 93
107 129 93
107 129 93
107 129 93
107 129 93
107 129 93
107 129 93
107 129 93
107 129 93
107 129 93
107 129 93
107 129 93
107 129 93
107 129 93
107 129 93
107 129 93
107 129 93
107 129 93
107 129 93
107 129 93
107 129 93
107 129 93
107 129 93
107 129 93
107 129 93
107 129 93
107 129 93
107 129 93
107 129 93
107 129 93
107 129 93
107 129 93
107 129 93
107 129 93
107 129 93
107 129 93
107 129 93
107 129 93
107 129 93
107 129 93
107 129 93
107 129 93
107 129 93
107 129 93
107 129 93
107 129 93
107 129 93
107 129 93
107 129 93
107 129 93
107 129 93
107 129 93
107 129 93
107 129 93
107 129 93
107 129 93
107 129 93
107 129 93
107 129 93
107 129 93
107 129 93
107 130 93
107 130 93
107 130 93
107 130 93
107 130 93
107 130 93
107 130 93
107 130 93
107 130 93
107 130 93
107 130 93
107 130 93
107 130 93
107 130 93
107 130 93
107 130 93
107 130 93
107 130 93
107 130 93
107 130 93
107 130 93
107 130 93
107 130 93
107 130 93
107 130 93
107 130 93
107 130 93
107 130 93
107 130 93
107 130 93
107 130 93
107 131 93
107 131 93
107 131 93
107 131 93
107 131 93
107 131 93
107 131 93
107 131 93
107 131 93
107 131 93
107 131 93
107 131 93
107 131 93
107 131 93
107 131 93
107 131 93
107 131 93
107 131 93
107 131 93
107 131 93
107 131 93
107 131 93
107 131 93
107 131 93
107 131 93
107 131 93
107 131 93
107 131 93
107 131 93
107 131 93
107 131 93
107 130 93
107 130 93
107 130 93
107 130 93
107 130 93
107 130 93
107 130 93
107 130 93
107 130 93
107 130 93
107 130 93
107 130 93
107 130 93
107 130 93
107 130 93
107 130 93
107 130 93
107 130 93
107 130 93
107 130 93
107 130 93
107 130 93
107 130 93
107 130 93
107 130 93
106 130 93
106 130 93
106 130 93
106 130 93
106 130 93
106 129 93
106 129 93
106 129 93
106 129 93
106 129 93
106 129 93
106 129 93
106 129 93
106 129 93
106 129 93
106 129 93
106 129 93
106 129 93
106 129 93
106 129 93
106 129 93
106 129 93
106 129 93
106 129 93
106 129 93
106 129 93
106 129 93
106 129 93
106 129 93
106 129 93
106 129 93
106 129 93
106 129 93
106 129 93
106 129 93
107 129 93
107 129 93
107 129 93
107 129 93
107 129 93
107 129 93
107 129 93
107 129 93
107 129 93
107 129 93
107 129 93
107 129 93
107 129 93
107 129 93
107 129 93
107 129 93
107 129 93
107 129 93
107 129 93
107 129 93
107 129 93
107 129 93
107 129 93
107 129 93
107 129 93
107 129 93
107 129 93
107 129 93
107 129 93
107 129 93
107 129 93
107 129 93
107 129 93
107 129 93
107 129 93
107 129 93
107 129 93
107 129 93
107 129 93
107 129 93
107 129 93
107 129 93
107 129 93
107 129 93
107 129 93
107 129 93
107 129 93
107 129 93
107 129 93
107 129 93
107 129 93
107 129 93
107 129 93
107 129 93
107 129 93
107 129 93
107 129 93
107 129 93
107 129 93
107 129 93
107 129 93
107 129 93
107 129 93
107 129 93
107 129 93
107 129 93
107 129 93
107 129 93
107 129 93
107 129 93
107 129 93
107 129 93
107 129 93
107 129 93
107 129 93
107 129 93
107 129 93
107 129 93
107 130 93
107 130 93
107 130 93
107 130 93
107 130 93
107 130 93
107 130 93
107 130 93
107 130 93
107 130 93
107 130 93
107 130 93
107 130 93
107 130 93
107 130 93
107 130 93
107 130 93
107 130 93
107 130 93
107 130 93
107 130 93
107 130 93
107 130 93
107 130 93
107 130 93
107 130 93
107 130 93
107 130 93
107 130 93
107 130 93
107 130 93
107 131 93
107 131 93
107 131 93
107 131 93
107 131 93
107 131 93
107 131 93
107 131 93
107 131 93
107 131 93
107 131 93
107 131 93
107 131 93
107 131 93
107 131 93
107 131 93
107 131 93
107 131 93
107 131 93
107 131 93
107 131 93
107 131 93
107 131 93
107 131 93
107 131 93
107 131 93
107 131 93
107 131 93
107 131 93
107 131 93
107 130 93
107 130 93
107 130 93
107 130 93
107 130 93
107 130 93
107 130 93
107 130 93
107 130 93
107 130 93
107 130 93
107 130 93
107 130 93
107 130 93
107 130 93
107 130 93
107 130 93
107 130 93
107 130 93
107 130 93
107 130 93
106 130 93
106 130 93
106 130 93
106 130 93
106 130 93
106 130 93
106 130 93
106 130 93
106 130 93
106 130 93
106 130 93
106 129 93
106 129 93
106 129 93
106 129 93
106 129 93
106 129 93
106 129 93
106 129 93
106 129 93
106 129 93
106 129 93
106 129 93
106 129 93
106 129 93
106 129 93
106 129 93
106 129 93
106 129 93
106 129 93
106 129 93
106 129 93
106 129 93
107 129 93
107 129 93
107 129 93
107 129 93
107 129 93
107 129 93
107 129 93
107 129 93
107 129 93
107 129 93
107 129 93
107 129 93
107 129 93
107 129 93
107 129 93
107 129 93
107 129 93
107 129 93
107 129 93
107 129 93
107 129 93
107 129 93
107 129 93
107 129 93
107 129 93
107 129 93
107 129 93
107 129 93
107 129 93
107 129 93
107 129 93
107 129 93
107 129 93
107 129 93
107 129 93
107 129 93
107 129 93
107 129 93
107 129 93
107 129 93
107 129 93
107 129 93
107 129 93
107 129 93
107 129 93
107 129 93
107 129 93
107 129 93
107 129 93
107 129 93
107 129 93
107 129 93
107 129 93
107 129 93
107 129 93
107 129 93
107 129 93
107 129 93
107 129 93
107 129 93
107 129 93
107 129 93
107 129 93
107 129 93
107 129 93
107 129 93
107 129 93
107 129 93
107 129 93
107 129 93
107 129 93
107 129 93
107 129 93
107 129 93
107 129 93
107 129 93
107 129 93
107 129 93
107 129 93
107 129 93
107 129 93
107 129 93
107 129 93
107 129 93
107 130 93
107 130 93
107 130 93
107 130 93
107 130 93
107 130 93
107 130 93
107 130 93
107 130 93
107 130 93
107 130 93
107 130 93
107 130 93
107 130 93
107 130 93
107 130 93
107 130 93
107 130 93
107 130 93
107 130 93
107 130 93
107 130 93
107 130 93
107 130 93
107 130 93
107 130 93
107 130 93
107 130 93
107 130 93
107 130 93
107 130 93
107 130 93
107 130 93
107 131 93
107 131 93
107 131 93
107 131 93
107 131 93
107 131 93
107 131 93
107 131 93
107 131 93
107 131 93
107 131 93
107 131 93
107 131 93
107 131 93
107 131 93
107 131 93
107 131 93
107 131 93
107 131 93
107 131 93
107 131 93
107 131 93
107 131 93
107 131 93
107 131 93
107 131 93
107 131 93
107 131 93
107 131 93
107 130 93
107 130 93
107 130 93
107 130 93
107 130 93
107 130 93
107 130 93
107 130 93
107 130 93
107 130 93
107 130 93
107 130 93
107 130 93
107 130 93
107 130 93
107 130 93
106 130 93
107 130 93
106 130 93
106 130 93
106 130 93
106 130 93
106 130 93
106 130 93
106 130 93
106 130 93
106 130 93
106 130 93
106 130 93
106 130 93
106 130 93
106 130 93
106 129 93
106 129 93
106 129 93
106 129 93
106 129 93
106 129 93
106 129 93
106 129 93
106 129 93
106 129 93
106 129 93
106 129 93
106 129 93
106 129 93
107 129 93
107 129 93
107 129 93
107 129 93
107 129 93
107 129 93
107 129 93
107 129 93
107 129 93
107 129 93
107 129 93
107 129 93
107 129 93
107 129 93
107 129 93
107 129 93
107 129 93
107 129 93
107 129 93
107 129 93
107 129 93
107 129 93
107 129 93
107 129 93
107 129 93
107 129 93
107 129 93
107 129 93
107 129 93
107 129 93
107 129 93
107 129 93
107 129 93
107 129 93
107 129 93
107 129 93
107 129 93
107 129 93
107 129 93
107 129 93
107 129 93
107 129 93
107 129 93
107 129 93
107 129 93
107 129 93
107 129 93
107 129 93
107 129 93
107 129 93
107 129 93
107 129 93
107 129 93
107 129 93
107 129 93
107 129 93
107 129 93
107 129 93
107 129 93
107 129 93
107 129 93
107 129 93
107 129 93
107 129 93
107 129 93
107 129 93
107 129 93
107 129 93
107 129 93
107 129 93
107 129 93
107 129 93
107 129 93
107 129 93
107 129 93
107 129 93
107 129 93
107 129 93
107 129 93
107 129 93
107 129 93
107 129 93
107 129 93
107 129 93
107 129 93
107 129 93
107 129 93
107 129 93
107 129 93
107 129 93
107 129 93
107 129 93
107 129 93
107 130 93
107 130 93
107 130 93
107 130 93
107 130 93
107 130 93
107 130 93
107 130 93
107 130 93
107 130 93
107 130 93
107 130 93
107 130 93
107 130 93
107 130 93
107 130 93
107 130 93
107 130 93
107 130 93
107 130 93
107 130 93
107 130 93
107 130 93
107 130 93
107 130 93
107 130 93
107 130 93
107 130 93
107 130 93
107 130 93
107 130 93
107 130 93
107 131 93
107 131 93
107 131 93
107 131 93
107 131 93
107 131 93
107 131 93
107 131 93
107 131 93
107 131 93
107 131 93
107 131 93
107 131 93
107 131 93
107 131 93
107 131 93
107 131 93
107 131 93
107 131 93
107 131 93
107 131 93
107 131 93
107 131 93
107 131 93
107 131 93
107 131 93
107 131 93
107 131 93
107 131 93
107 130 93
107 130 93
107 130 93
107 130 93
107 130 93
107 130 93
107 130 93
107 130 93
107 130 93
107 130 93
107 130 93
107 130 93
107 130 93
106 130 93
106 130 93
107 130 93
106 130 93
106 130 93
107 130 93
106 130 93
106 130 93
106 130 93
106 130 93
106 130 93
106 130 93
106 130 93
106 130 93
106 130 93
106 130 93
106 130 93
106 130 93
106 130 93
106 129 93
106 130 93
106 129 93
106 129 93
106 129 93
106 129 93
106 129 93
106 129 93
107 129 93
106 129 93
107 129 93
118 124 89
107 129 93
107 129 93
107 129 93
107 129 93
107 129 93
107 129 93
107 129 93
107 129 93
107 129 93
107 129 93
107 129 93
107 129 93
107 129 93
107 129 93
107 129 93
107 129 93
107 129 93
107 129 93
107 129 93
107 129 93
107 129 93
107 129 93
107 129 93
107 129 93
107 129 93
107 129 93
107 129 93
107 129 93
107 129 93
107 129 93
107 129 93
107 129 93
107 129 93
107 129 93
107 129 93
107 129 93
107 129 93
107 129 93
107 129 93
107 129 93
107 129 93
107 129 93
107 129 93
107 129 93
107 129 93
107 129 93
107 129 93
107 129 93
107 129 93
107 129 93
107 129 93
107 129 93
107 129 93
107 129 93
107 129 93
107 129 93
107 129 93
107 129 93
107 129 93
107 129 93
107 129 93
107 129 93
107 129 93
107 129 93
107 129 93
107 129 93
107 129 93
107 129 93
107 129 93
107 129 93
107 129 93
107 129 93
107 129 93
107 129 93
107 129 93
107 129 93
107 129 93
107 129 93
107 129 93
107 129 93
107 129 93
107 129 93
107 129 93
107 129 93
107 129 93
107 129 93
107 129 93
107 129 93
107 129 93
107 129 93
107 129 93
107 129 93
107 129 93
107 129 93
107 130 93
107 130 93
107 130 93
107 130 93
107 130 93
107 130 93
107 130 93
107 130 93
107 130 93
107 130 93
107 130 93
107 130 93
107 130 93
107 130 93
107 130 93
107 130 93
107 130 93
107 130 93
107 130 93
107 130 93
107 130 93
107 130 93
107 130 93
107 130 93
107 130 93
107 130 93
107 130 93
107 130 93
107 130 93
107 130 93
107 130 93
107 130 93
107 130 93
107 131 93
107 131 93
107 131 93
107 131 93
107 131 93
107 131 93
107 131 93
107 131 93
107 131 93
107 131 93
107 131 93
107 131 93
107 131 93
107 131 93
107 131 93
107 131 93
107 131 93
107 131 93
107 131 93
107 131 93
107 131 93
107 131 93
107 131 93
107 131 93
107 131 93
107 131 93
107 131 93
107 131 93
107 131 93
107 130 93
107 130 93
107 130 93
107 130 93
107 130 93
107 130 93
107 130 93
107 130 93
107 130 93
107 130 93
107 130 93
107 130 93
106 130 93
107 130 93
106 130 93
106 130 93
106 130 93
106 130 93
106 130 93
106 130 93
106 130 93
106 130 93
106 130 93
106 130 93
106 130 93
106 130 93
106 130 93
106 130 93
106 130 93
106 130 93
106 130 93
106 130 93
106 130 93
106 130 93
106 129 93
106 129 93
106 129 93
106 129 93
107 129 93
107 129 93
107 129 93
107 129 93
107 129 93
143 104 73
107 129 93
107 129 93
117 124 89
131 118 84
107 129 93
107 129 93
107 129 93
107 129 93
107 129 93
107 129 93
107 129 93
107 129 93
107 129 93
107 129 93
107 129 93
107 129 93
107 129 93
107 129 93
107 129 93
107 129 93
107 129 93
107 129 93
107 129 93
107 129 93
107 129 93
107 129 93
107 129 93
107 129 93
107 129 93
107 129 93
107 129 93
107 129 93
107 129 93
107 129 93
107 129 93
107 129 93
107 129 93
107 129 93
107 129 93
107 129 93
107 129 93
107 129 93
107 129 93
107 129 93
107 129 93
107 129 93
107 129 93
107 129 93
107 129 93
107 129 93
107 129 93
107 129 93
107 129 93
107 129 93
107 129 93
107 129 93
107 129 93
107 129 93
107 129 93
107 129 93
107 129 93
107 129 93
107 129 93
107 129 93
107 129 93
107 129 93
107 129 93
107 129 93
107 129 93
107 129 93
107 129 93
107 129 93
107 129 93
107 129 93
107 129 93
107 129 93
107 129 93
107 129 93
107 129 93
107 129 93
107 129 93
107 129 93
107 129 93
107 129 93
107 129 93
107 129 93
107 129 93
107 129 93
107 129 93
107 129 93
107 129 93
107 129 93
107 129 93
107 130 93
107 130 93
107 130 93
107 130 93
107 130 93
107 130 93
107 130 93
107 130 93
107 130 93
107 130 93
107 130 93
107 130 93
107 130 93
107 130 93
107 130 93
107 130 93
107 130 93
107 130 93
107 130 93
107 130 93
107 130 93
107 130 93
107 130 93
107 130 93
107 130 93
107 130 93
107 130 93
107 130 93
107 130 93
107 130 93
107 130 93
107 130 93
107 130 93
107 130 93
107 130 93
107 131 93
107 131 93
107 131 93
107 131 93
107 131 93
107 131 93
107 131 93
107 131 93
107 131 93
107 131 93
107 131 93
107 131 93
107 131 93
107 131 93
107 131 93
107 131 93
107 131 93
107 131 93
107 131 93
107 131 93
107 131 93
107 131 93
107 131 93
107 131 93
107 131 93
107 131 93
107 131 93
107 130 93
107 130 93
107 130 93
107 130 93
107 130 93
107 130 93
107 130 93
107 130 93
106 130 93
107 130 93
106 130 93
107 130 93
106 130 93
106 130 93
106 130 93
106 130 93
106 130 93
106 130 93
106 130 93
106 130 93
106 130 93
106 130 93
106 130 93
106 130 93
106 130 93
106 130 93
106 130 93
106 130 93
106 130 93
106 130 93
106 130 93
106 130 93
106 130 93
106 130 93
106 130 93
107 130 93
106 129 93
107 129 93
107 129 93
107 129 93
107 129 93
107 129 93
107 129 93
107 129 93
159 71 49
107 129 93
107 129 93
146 95 66
174 0 0
141 111 79
107 129 93
107 129 93
107 129 93
107 129 93
107 129 93
107 129 93
107 129 93
107 129 93
107 129 93
107 129 93
107 129 93
107 129 93
107 129 93
107 129 93
107 129 93
107 129 93
107 129 93
107 129 93
107 129 93
107 129 93
107 129 93
107 129 93
107 129 93
107 129 93
107 129 93
107 129 93
107 129 93
107 129 93
107 129 93
107 129 93
107 129 93
107 129 93
107 129 93
107 129 93
107 129 93
107 129 93
107 129 93
107 129 93
107 129 93
107 129 93
107 129 93
107 129 93
107 129 93
107 129 93
107 129 93
107 129 93
107 129 93
107 129 93
107 129 93
107 129 93
107 129 93
107 129 93
107 129 93
107 129 93
107 129 93
107 129 93
107 129 93
131 124 89
156 111 79
139 118 84
107 129 93
107 129 93
107 129 93
107 129 93
107 129 93
107 129 93
107 129 93
107 129 93
107 129 93
107 129 93
107 129 93
107 129 93
107 129 93
107 129 93
107 129 93
107 129 93
107 129 93
107 129 93
107 129 93
107 129 93
107 129 93
107 129 93
107 129 93
107 129 93
107 129 93
107 129 93
107 130 93
107 130 93
107 130 93
107 130 93
107 130 93
107 130 93
107 130 93
107 130 93
107 130 93
107 130 93
107 130 93
107 130 93
107 130 93
107 130 93
107 130 93
107 130 93
107 130 93
107 130 93
107 130 93
107 130 93
107 130 93
107 130 93
107 130 93
107 130 93
107 130 93
107 130 93
107 130 93
107 130 93
107 130 93
107 130 93
107 130 93
107 130 93
107 130 93
107 130 93
107 130 93
107 130 93
107 130 93
107 131 93
107 131 93
107 131 93
107 131 93
107 131 93
107 131 93
107 131 93
107 131 93
107 131 93
107 131 93
107 131 93
107 131 93
107 131 93
107 131 93
107 131 93
107 131 93
107 131 93
107 131 93
107 131 93
107 131 93
107 131 93
107 131 93
107 131 93
107 131 93
107 131 93
107 131 93
107 130 93
107 130 93
107 130 93
107 130 93
107 130 93
107 130 93
107 130 93
106 130 93
107 130 93
106 130 93
106 130 93
106 130 93
106 130 93
106 130 93
106 130 93
106 130 93
106 130 93
106 130 93
106 130 93
106 130 93
106 130 93
106 130 93
106 130 93
106 130 93
106 130 93
106 130 93
106 130 93
106 130 93
106 130 93
106 130 93
106 130 93
106 130 93
106 130 93
106 130 93
106 130 93
106 130 93
107 130 93
107 129 93
107 129 93
107 129 93
107 129 93
107 129 93
107 129 93
107 129 93
119 124 88
168 0 0
107 129 93
117 124 89
165 0 0
174 0 0
172 53 36
107 129 93
107 129 93
107 129 93
107 129 93
107 129 93
107 129 93
107 129 93
107 129 93
107 129 93
107 129 93
107 129 93
107 129 93
107 129 93
107 129 93
107 129 93
107 129 93
107 129 93
107 129 93
107 129 93
107 129 93
107 129 93
107 129 93
107 129 93
107 129 93
107 129 93
107 129 93
107 129 93
107 129 93
107 129 93
107 129 93
107 129 93
107 129 93
107 129 93
107 129 93
107 129 93
107 129 93
107 129 93
107 129 93
107 129 93
107 129 93
107 129 93
107 129 93
107 129 93
107 129 93
107 129 93
142 124 89
181 104 73
191 84 58
203 0 0
187 84 58
186 84 58
171 104 73
163 111 79
165 111 79
180 95 66
185 84 58
198 0 0
196 0 0
191 0 0
184 0 0
182 0 0
171 71 49
151 84 58
112 124 89
107 129 93
107 129 93
107 129 93
107 129 93
107 129 93
107 129 93
107 129 93
107 129 93
107 129 93
107 129 93
107 129 93
107 129 93
107 129 93
107 129 93
107 129 93
107 129 93
107 129 93
107 129 93
107 129 93
107 129 93
107 129 93
107 129 93
107 129 93
107 130 93
107 130 93
107 130 93
107 130 93
107 130 93
107 130 93
107 130 93
107 130 93
107 130 93
107 130 93
107 130 93
107 130 93
107 130 93
107 130 93
107 130 93
107 130 93
107 130 93
107 130 93
107 130 93
107 130 93
107 130 93
107 130 93
107 130 93
107 130 93
107 130 93
107 130 93
107 130 93
107 130 93
107 130 93
107 130 93
107 130 93
107 130 93
107 130 93
107 130 93
107 130 93
107 130 93
107 131 93
107 131 93
107 131 93
107 131 93
107 131 93
107 131 93
107 131 93
107 131 93
107 131 93
107 131 93
107 131 93
107 131 93
107 131 93
107 131 93
107 131 93
107 131 93
107 131 93
107 131 93
107 131 93
107 131 93
107 131 93
107 131 93
107 131 93
107 131 93
107 131 93
107 131 93
107 130 93
107 130 93
107 130 93
107 130 93
106 130 93
106 130 93
106 130 93
106 130 93
106 130 93
106 130 93
106 130 93
106 130 93
106 130 93
106 130 93
106 130 93
106 130 93
106 130 93
106 130 93
106 130 93
106 130 93
106 130 93
106 130 93
106 130 93
106 130 93
106 130 93
106 130 93
106 130 93
106 130 93
106 130 93
106 130 93
106 130 93
106 130 93
107 130 93
107 130 93
106 130 93
107 130 93
107 130 93
107 129 93
107 130 93
107 129 93
107 129 93
107 129 93
113 112 78
135 0 0
155 0 0
159 0 0
163 0 0
163 0 0
168 0 0
171 0 0
126 118 84
107 129 93
107 129 93
107 129 93
107 129 93
107 129 93
107 129 93
107 129 93
107 129 93
107 129 93
107 129 93
107 129 93
107 129 93
107 129 93
107 129 93
107 129 93
107 129 93
107 129 93
163 111 79
188 95 66
171 111 79
140 124 89
107 129 93
107 129 93
107 129 93
107 129 93
107 129 93
107 129 93
107 129 93
107 129 93
107 129 93
107 129 93
107 129 93
176 111 79
175 111 79
175 111 79
175 111 79
177 111 79
178 111 79
178 111 79
107 129 93
107 129 93
142 124 89
176 111 79
196 84 58
203 53 36
203 0 0
204 0 0
203 0 0
204 0 0
204 0 0
204 0 0
204 0 0
203 0 0
201 0 0
200 0 0
198 0 0
195 0 0
193 0 0
188 0 0
173 0 0
160 0 0
143 0 0
141 0 0
130 84 58
107 129 93
107 129 93
107 129 93
107 129 93
107 129 93
107 129 93
107 129 93
107 129 93
107 129 93
107 129 93
107 129 93
107 129 93
107 129 93
107 129 93
107 129 93
107 129 93
107 129 93
107 129 93
107 129 93
107 129 93
107 129 93
107 129 93
107 130 93
107 130 93
107 130 93
107 130 93
107 130 93
107 130 93
107 130 93
107 130 93
107 130 93
107 130 93
107 130 93
107 130 93
107 130 93
107 130 93
107 130 93
107 130 93
107 130 93
107 130 93
107 130 93
107 130 93
107 130 93
107 130 93
107 130 93
107 130 93
107 130 93
107 130 93
107 130 93
107 130 93
107 130 93
107 130 93
107 130 93
107 130 93
107 130 93
107 130 93
107 130 93
107 130 93
107 130 93
107 131 93
107 131 93
107 131 93
107 131 93
107 131 93
107 131 93
107 131 93
107 131 93
107 131 93
107 131 93
107 131 93
107 131 93
107 131 93
107 131 93
107 131 93
107 131 93
107 131 93
107 131 93
107 131 93
107 131 93
107 131 93
107 131 93
107 131 93
107 131 93
107 131 93
107 131 93
107 130 93
106 130 93
106 130 93
107 130 93
106 130 93
106 130 93
106 130 93
106 130 93
106 130 93
106 130 93
106 130 93
106 130 93
106 130 93
106 130 93
106 130 93
106 130 93
106 130 93
106 130 93
106 130 93
106 130 93
106 130 93
106 130 93
106 130 93
106 130 93
106 130 93
106 130 93
106 130 93
106 130 93
106 130 93
106 130 93
106 130 93
106 130 93
106 130 93
106 130 93
107 130 93
107 130 93
107 130 93
107 130 93
107 130 93
107 129 93
107 129 93
113 85 58
123 0 0
135 0 0
153 0 0
156 0 0
161 0 0
165 0 0
171 0 0
169 53 36
132 118 84
107 129 93
107 129 93
107 129 93
107 129 93
107 129 93
107 129 93
107 129 93
107 129 93
107 129 93
107 129 93
107 129 93
107 129 93
107 129 93
129 124 89
157 111 79
182 84 58
195 0 0
204 0 0
205 0 0
206 0 0
208 0 0
210 0 0
198 84 58
185 104 73
161 118 84
141 124 89
173 111 79
172 111 79
197 84 58
197 84 58
211 0 0
210 0 0
210 0 0
210 0 0
210 0 0
210 0 0
210 0 0
209 0 0
209 0 0
210 0 0
210 0 0
209 0 0
207 0 0
206 0 0
207 0 0
206 0 0
205 0 0
204 0 0
203 0 0
202 0 0
201 0 0
200 0 0
198 0 0
197 0 0
195 0 0
193 0 0
189 0 0
184 0 0
179 0 0
169 0 0
157 0 0
148 0 0
139 0 0
137 0 0
119 104 73
107 129 93
107 129 93
107 129 93
107 129 93
107 129 93
107 129 93
107 129 93
107 129 93
107 129 93
107 129 93
107 129 93
107 129 93
107 129 93
107 129 93
107 129 93
107 129 93
107 129 93
107 129 93
107 129 93
107 130 93
107 130 93
107 130 93
107 130 93
107 130 93
107 130 93
107 130 93
107 130 93
107 130 93
107 130 93
107 130 93
107 130 93
107 130 93
107 130 93
107 130 93
107 130 93
107 130 93
107 130 93
107 130 93
107 130 93
107 130 93
107 130 93
107 130 93
107 130 93
107 130 93
107 130 93
107 130 93
107 130 93
107 130 93
107 130 93
107 130 93
107 130 93
107 130 93
107 130 93
107 130 93
107 130 93
107 130 93
107 130 93
107 130 93
107 130 93
107 131 93
107 131 93
107 131 93
107 131 93
107 131 93
107 131 93
107 131 93
107 131 93
107 131 93
107 131 93
107 131 93
107 131 93
107 131 93
107 131 93
107 131 93
107 131 93
107 131 93
107 131 93
107 131 93
107 131 93
107 131 93
107 131 93
106 131 93
106 131 93
106 130 93
106 130 93
106 130 93
106 130 93
106 130 93
106 130 93
106 130 93
106 130 93
106 130 93
106 130 93
106 130 93
106 130 93
106 130 93
106 130 93
106 130 93
106 130 93
106 130 93
106 130 93
106 130 93
106 130 93
106 130 93
106 130 93
106 130 93
106 130 93
106 130 93
106 130 93
106 130 93
106 130 93
106 130 93
106 130 93
106 130 93
106 130 93
107 130 93
106 130 93
107 130 93
107 130 93
107 130 93
107 130 93
107 130 93
107 130 93
107 130 93
105 118 84
105 0 0
113 0 0
130 0 0
153 0 0
156 0 0
158 0 0
162 0 0
168 0 0
173 0 0
176 0 0
169 71 49
135 118 84
107 129 93
107 129 93
107 129 93
107 129 93
107 129 93
107 129 93
107 129 93
107 129 93
138 118 84
167 95 66
176 71 49
181 0 0
177 0 0
173 0 0
184 0 0
185 0 0
186 0 0
187 0 0
195 0 0
196 0 0
195 0 0
200 0 0
204 0 0
203 0 0
204 0 0
204 0 0
204 0 0
204 0 0
204 0 0
204 0 0
204 0 0
204 0 0
204 0 0
204 0 0
204 0 0
203 0 0
203 0 0
203 0 0
202 0 0
201 0 0
201 0 0
200 0 0
199 0 0
195 0 0
193 0 0
192 0 0
190 0 0
189 0 0
188 0 0
185 0 0
184 0 0
181 0 0
179 0 0
172 0 0
173 0 0
173 0 0
175 0 0
173 0 0
169 0 0
165 0 0
160 0 0
151 0 0
142 0 0
110 124 89
107 129 93
107 129 93
107 129 93
107 129 93
107 129 93
107 129 93
107 129 93
107 129 93
107 129 93
107 129 93
107 129 93
107 129 93
107 129 93
107 129 93
107 129 93
107 129 93
107 130 93
107 130 93
107 130 93
107 130 93
107 130 93
107 130 93
107 130 93
107 130 93
107 130 93
107 130 93
107 130 93
107 130 93
107 130 93
107 130 93
107 130 93
107 130 93
107 130 93
107 130 93
107 130 93
107 130 93
107 130 93
107 130 93
107 130 93
107 130 93
107 130 93
107 130 93
107 130 93
107 130 93
107 130 93
107 130 93
107 130 93
107 130 93
107 130 93
107 130 93
107 130 93
107 130 93
107 130 93
107 130 93
107 130 93
107 130 93
107 130 93
107 130 93
107 131 93
107 131 93
107 131 93
107 131 93
107 131 93
107 131 93
107 131 93
107 131 93
107 131 93
107 131 93
107 131 93
107 131 93
107 131 93
107 131 93
107 131 93
107 131 93
107 131 93
107 131 93
107 131 93
106 131 93
106 131 93
106 131 93
106 131 93
106 131 93
106 130 93
106 130 93
106 130 93
106 130 93
106 130 93
106 130 93
106 130 93
106 130 93
106 130 93
106 130 93
106 130 93
106 130 93
106 130 93
106 130 93
106 130 93
106 130 93
106 130 93
106 130 93
106 130 93
106 130 93
106 130 93
106 130 93
106 130 93
106 130 93
106 130 93
106 130 93
106 130 93
106 130 93
106 130 93
106 130 93
106 130 93
106 130 93
106 130 93
106 130 93
107 130 93
107 130 93
107 130 93
107 130 93
107 130 93
107 130 93
107 130 93
102 95 66
105 0 0
108 0 0
115 0 0
127 0 0
136 0 0
148 0 0
156 0 0
163 0 0
167 0 0
175 0 0
179 0 0
176 0 0
173 0 0
170 71 49
167 85 58
148 111 78
149 111 79
142 111 79
162 85 58
173 0 0
170 0 0
163 0 0
165 0 0
167 0 0
169 0 0
175 0 0
181 0 0
183 0 0
184 0 0
182 0 0
180 0 0
177 0 0
176 0 0
174 0 0
186 0 0
191 0 0
192 0 0
192 0 0
192 0 0
192 0 0
193 0 0
193 0 0
192 0 0
193 0 0
194 0 0
193 0 0
192 0 0
192 0 0
191 0 0
190 0 0
190 0 0
189 0 0
188 0 0
187 0 0
186 0 0
184 0 0
183 0 0
181 0 0
180 0 0
177 0 0
176 0 0
174 0 0
172 0 0
169 0 0
167 0 0
164 0 0
162 0 0
160 0 0
159 0 0
157 0 0
155 0 0
141 0 0
137 0 0
136 0 0
118 0 0
112 71 49
107 129 93
107 129 93
107 129 93
107 129 93
107 129 93
107 129 93
107 129 93
107 129 93
107 129 93
107 129 93
107 129 93
107 129 93
107 129 93
107 129 93
107 129 93
107 129 93
107 130 93
107 130 93
107 130 93
107 130 93
107 130 93
107 130 93
107 130 93
107 130 93
107 130 93
107 130 93
107 130 93
107 130 93
107 130 93
107 130 93
107 130 93
107 130 93
107 130 93
107 130 93
107 130 93
107 130 93
107 130 93
107 130 93
107 130 93
107 130 93
107 130 93
107 130 93
107 130 93
107 130 93
107 130 93
107 130 93
107 130 93
107 130 93
107 130 93
107 130 93
107 130 93
107 130 93
107 130 93
107 130 93
107 130 93
107 130 93
107 130 93
107 130 93
107 131 93
107 131 93
107 131 93
107 131 93
107 131 93
107 131 93
107 131 93
107 131 93
107 131 93
107 131 93
107 131 93
107 131 93
107 131 93
107 131 93
107 131 93
107 131 93
107 131 93
107 131 93
106 131 93
106 131 93
106 131 93
106 131 93
106 131 93
106 131 93
106 130 93
106 130 93
106 130 93
106 130 93
106 130 93
106 130 93
106 130 93
106 130 93
106 130 93
106 130 93
106 130 93
106 130 93
106 130 93
106 130 93
106 130 93
106 130 93
106 130 93
106 130 93
106 130 93
106 130 93
106 130 93
106 130 93
106 130 93
106 130 93
106 130 93
106 130 93
106 130 93
106 130 93
106 130 93
106 130 93
106 130 93
106 130 93
106 130 93
107 130 93
107 130 93
106 130 93
107 130 93
107 130 93
107 130 93
107 130 93
121 118 84
143 53 36
120 0 0
104 0 0
121 0 0
127 0 0
129 0 0
131 0 0
132 0 0
134 0 0
148 0 0
157 0 0
174 0 0
172 0 0
171 0 0
175 0 0
178 0 0
172 0 0
161 0 0
155 0 0
154 0 0
157 0 0
159 0 0
161 0 0
163 0 0
165 0 0
167 0 0
176 0 0
177 0 0
174 0 0
171 0 0
172 0 0
173 0 0
174 0 0
172 0 0
172 0 0
172 0 0
179 0 0
188 0 0
190 0 0
190 0 0
190 0 0
190 0 0
190 0 0
191 0 0
191 0 0
191 0 0
190 0 0
190 0 0
189 0 0
188 0 0
185 0 0
186 0 0
184 0 0
183 0 0
181 0 0
180 0 0
179 0 0
178 0 0
177 0 0
175 0 0
174 0 0
172 0 0
171 0 0
168 0 0
166 0 0
164 0 0
161 0 0
159 0 0
154 0 0
143 0 0
124 0 0
118 0 0
111 0 0
105 0 0
116 0 0
116 0 0
115 0 0
106 118 84
107 129 93
107 129 93
107 129 93
107 129 93
107 129 93
107 129 93
107 129 93
107 129 93
107 129 93
107 129 93
107 129 93
107 129 93
107 130 93
107 129 93
107 130 93
107 130 93
107 130 93
107 130 93
107 130 93
107 130 93
107 130 93
107 130 93
107 130 93
107 130 93
107 130 93
107 130 93
107 130 93
107 130 93
107 130 93
107 130 93
107 130 93
107 130 93
107 130 93
107 130 93
107 130 93
107 130 93
107 130 93
107 130 93
107 130 93
107 130 93
107 130 93
107 130 93
107 130 93
107 130 93
107 130 93
107 130 93
107 130 93
107 130 93
107 130 93
107 130 93
107 130 93
107 130 93
107 130 93
107 130 93
107 130 93
107 130 93
107 130 93
107 130 93
107 131 93
107 131 93
107 131 93
107 131 93
107 131 93
107 131 93
107 131 93
107 131 93
107 131 93
107 131 93
107 131 93
107 131 93
107 131 93
106 131 93
106 131 93
106 131 93
106 131 93
106 131 93
106 131 93
106 131 93
106 131 93
106 131 93
106 131 93
106 130 93
106 130 93
106 130 93
106 130 93
106 130 93
106 130 93
106 130 93
106 130 93
106 130 93
106 130 93
106 130 93
106 130 93
106 130 93
106 130 93
106 130 93
106 130 93
106 130 93
106 130 93
106 130 93
106 130 93
106 130 93
106 130 93
106 130 93
106 130 93
106 130 93
106 130 93
106 130 93
106 130 93
106 130 93
106 130 93
106 130 93
106 130 93
106 130 93
107 130 93
106 130 93
107 130 93
107 130 93
107 130 93
107 130 93
114 124 88
136 85 58
136 0 0
112 0 0
109 0 0
126 0 0
127 0 0
128 0 0
130 0 0
132 0 0
134 0 0
135 0 0
135 0 0
139 0 0
149 0 0
158 0 0
161 0 0
154 0 0
143 0 0
145 0 0
147 0 0
150 0 0
152 0 0
154 0 0
156 0 0
151 0 0
150 0 0
137 0 0
145 0 0
157 0 0
162 0 0
169 0 0
170 0 0
171 0 0
172 0 0
169 0 0
169 0 0
169 0 0
170 0 0
172 0 0
184 0 0
187 0 0
187 0 0
187 0 0
188 0 0
188 0 0
188 0 0
188 0 0
182 0 0
177 0 0
171 0 0
171 0 0
181 0 0
186 0 0
183 0 0
179 0 0
178 0 0
177 0 0
176 0 0
175 0 0
173 0 0
172 0 0
171 0 0
169 0 0
166 0 0
164 0 0
163 0 0
163 0 0
163 0 0
139 0 0
119 0 0
118 0 0
117 0 0
116 0 0
109 0 0
96 0 0
103 0 0
114 0 0
113 0 0
107 71 49
107 129 93
107 129 93
107 129 93
107 129 93
107 129 93
107 129 93
107 129 93
107 129 93
107 129 93
107 129 93
107 130 93
107 130 93
107 130 93
107 130 93
107 130 93
107 130 93
107 130 93
107 130 93
107 130 93
107 130 93
107 130 93
107 130 93
107 130 93
107 130 93
107 130 93
107 130 93
107 130 93
107 130 93
107 130 93
107 130 93
107 130 93
107 130 93
107 130 93
107 130 93
107 130 93
107 130 93
107 130 93
107 130 93
107 130 93
107 130 93
107 130 93
107 130 93
107 130 93
107 130 93
107 130 93
107 130 93
107 130 93
107 130 93
107 130 93
107 130 93
107 130 93
107 130 93
107 130 93
107 130 93
107 130 93
107 130 93
107 130 93
107 130 93
107 131 93
107 131 93
107 131 93
107 131 93
107 131 93
107 131 93
107 131 93
107 131 93
107 131 93
107 131 93
107 131 93
107 131 93
106 131 93
106 131 93
106 131 93
106 131 93
106 131 93
106 131 93
106 131 93
106 131 92
106 131 92
106 131 92
106 130 92
106 130 92
106 130 93
106 130 92
106 130 92
106 130 92
106 130 92
106 130 92
106 130 92
106 130 92
106 130 92
106 130 92
106 130 92
106 130 92
106 130 92
106 130 92
106 130 92
106 130 92
106 130 93
106 130 93
106 130 93
106 130 92
106 130 93
106 130 93
106 130 93
106 130 93
106 130 93
106 130 93
106 130 93
106 130 93
106 130 93
106 130 93
106 130 93
106 130 93
106 130 93
107 130 93
107 130 93
107 130 93
107 130 93
107 130 93
107 130 93
101 71 49
98 0 0
98 0 0
135 0 0
139 0 0
128 0 0
128 0 0
128 0 0
128 0 0
128 0 0
131 0 0
136 0 0
138 0 0
141 0 0
153 0 0
159 0 0
145 0 0
142 0 0
144 0 0
146 0 0
138 0 0
136 0 0
128 0 0
109 0 0
109 0 0
110 0 0
111 0 0
123 0 0
124 0 0
125 0 0
126 0 0
140 0 0
150 0 0
159 0 0
159 0 0
162 0 0
167 0 0
167 0 0
167 0 0
167 0 0
176 0 0
184 0 0
185 0 0
180 0 0
175 0 0
170 0 0
164 0 0
163 0 0
163 0 0
168 0 0
177 0 0
176 0 0
177 0 0
187 0 0
185 0 0
179 0 0
174 0 0
173 0 0
171 0 0
170 0 0
169 0 0
167 0 0
164 0 0
163 0 0
167 0 0
171 0 0
169 0 0
152 0 0
144 0 0
127 0 0
116 0 0
115 0 0
114 0 0
107 0 0
95 0 0
95 0 0
97 0 0
110 0 0
108 0 0
106 124 88
107 129 93
107 129 93
107 129 93
107 129 93
107 129 93
107 129 93
107 130 93
107 129 93
107 130 93
107 130 93
107 130 93
107 130 93
107 130 93
107 130 93
107 130 93
107 130 93
107 130 93
107 130 93
107 130 93
107 130 93
107 130 93
107 130 93
107 130 93
107 130 93
107 130 93
107 130 93
107 130 93
107 130 93
107 130 93
107 130 93
107 130 93
107 130 93
107 130 93
107 130 93
107 130 93
107 130 93
107 130 93
107 130 93
107 130 93
107 130 93
107 130 93
107 130 93
107 130 92
107 130 93
107 130 93
107 130 93
107 130 93
107 130 93
107 130 92
107 130 93
107 130 93
107 130 92
107 130 92
107 130 93
107 130 92
107 130 93
107 130 93
107 131 93
107 131 93
107 131 93
107 131 93
107 131 93
107 131 93
107 131 93
107 131 93
107 131 93
107 131 93
106 131 93
106 131 93
106 131 93
106 131 92
106 131 92
106 131 92
106 131 92
106 131 92
106 131 92
106 131 92
106 131 92
106 131 92
106 130 92
106 130 92
106 130 92
106 130 92
106 130 92
106 130 92
106 130 92
106 130 92
106 130 92
106 130 92
106 130 92
106 130 92
106 130 92
106 130 92
106 130 92
106 130 92
106 130 92
106 130 92
106 130 92
106 130 92
106 130 92
106 130 92
106 130 92
106 130 92
106 130 92
106 130 92
106 130 92
106 130 92
106 130 93
106 130 93
106 130 93
106 130 93
106 130 93
106 130 93
106 130 93
107 130 93
107 130 93
107 130 93
107 130 93
107 130 93
106 124 88
98 0 0
106 0 0
147 0 0
151 0 0
150 0 0
96 0 0
99 0 0
105 0 0
115 0 0
120 0 0
124 0 0
126 0 0
128 0 0
133 0 0
142 0 0
148 0 0
129 0 0
123 0 0
115 0 0
104 0 0
105 0 0
106 0 0
107 0 0
108 0 0
108 0 0
109 0 0
110 0 0
121 0 0
122 0 0
123 0 0
124 0 0
126 0 0
133 0 0
138 0 0
136 0 0
138 0 0
138 0 0
138 0 0
138 0 0
138 0 0
138 0 0
144 0 0
138 0 0
151 0 0
158 0 0
161 0 0
161 0 0
161 0 0
162 0 0
173 0 0
174 0 0
173 0 0
172 0 0
173 0 0
182 0 0
183 0 0
181 0 0
175 0 0
170 0 0
167 0 0
165 0 0
167 0 0
171 0 0
176 0 0
174 0 0
167 0 0
150 0 0
149 0 0
145 0 0
135 0 0
128 0 0
113 0 0
112 0 0
106 0 0
94 0 0
94 0 0
94 0 0
96 0 0
108 0 0
105 104 73
107 130 93
107 130 93
107 130 93
107 130 93
107 130 93
107 129 93
107 130 93
107 130 93
107 130 93
107 130 93
107 130 93
107 130 93
107 130 93
107 130 93
107 130 93
107 130 93
107 130 93
107 130 93
107 130 93
107 130 93
107 130 93
107 130 93
107 130 93
107 130 93
107 130 93
107 130 93
107 130 93
107 130 93
107 130 93
107 130 93
107 130 92
107 130 93
107 130 93
107 130 93
107 130 92
107 130 92
107 130 92
107 130 92
107 130 92
107 130 92
107 130 92
107 130 92
107 130 92
107 130 92
107 130 92
107 130 92
107 130 92
107 130 92
107 130 92
107 130 92
107 130 92
107 130 92
107 130 92
107 130 92
107 130 92
107 130 92
107 130 92
107 130 92
107 131 92
107 131 92
107 131 92
107 131 92
107 131 92
107 131 92
107 131 92
107 131 93
107 131 93
106 131 92
106 131 92
106 131 92
106 131 92
106 131 92
106 131 92
106 131 92
106 131 92
106 131 92
106 131 92
106 131 92
106 130 92
106 130 92
106 130 92
106 130 92
106 130 92
106 130 92
106 130 92
106 130 92
106 130 92
106 130 92
106 130 92
106 130 92
106 130 92
106 130 92
106 130 92
106 130 92
106 130 92
106 130 92
106 130 92
106 130 92
106 130 92
106 130 92
106 130 92
106 130 92
106 130 92
106 130 92
106 130 92
106 130 92
106 130 92
106 130 92
106 130 92
106 130 92
106 130 92
106 130 92
106 130 93
106 130 93
106 130 93
107 130 93
107 130 93
107 130 93
107 130 93
101 71 49
110 0 0
142 0 0
147 0 0
147 0 0
125 0 0
82 0 0
87 0 0
99 0 0
105 0 0
107 0 0
103 0 0
100 0 0
100 0 0
101 0 0
102 0 0
100 0 0
99 0 0
102 0 0
103 0 0
104 0 0
105 0 0
105 0 0
106 0 0
107 0 0
107 0 0
108 0 0
109 0 0
120 0 0
121 0 0
123 0 0
129 0 0
135 0 0
137 0 0
135 0 0
133 0 0
133 0 0
135 0 0
136 0 0
136 0 0
136 0 0
124 0 0
117 0 0
117 0 0
116 0 0
116 0 0
115 0 0
136 0 0
142 0 0
162 0 0
153 0 0
153 0 0
151 0 0
150 0 0
141 0 0
105 0 0
129 0 0
140 0 0
139 0 0
138 0 0
130 0 0
141 0 0
143 0 0
141 0 0
139 0 0
137 0 0
129 0 0
133 0 0
146 0 0
145 0 0
133 0 0
132 0 0
128 0 0
112 0 0
104 0 0
93 0 0
93 0 0
93 0 0
93 0 0
94 0 0
104 71 49
107 130 93
107 130 93
107 130 93
107 130 93
107 130 93
107 130 93
107 130 93
107 130 93
107 130 93
107 130 93
107 130 93
107 130 93
107 130 93
107 130 93
107 130 93
107 130 93
107 130 93
107 130 93
107 130 93
107 130 93
107 130 93
107 130 93
107 130 93
107 130 93
107 130 93
107 130 92
107 130 93
107 130 93
107 130 92
107 130 92
107 130 92
107 130 92
107 130 92
107 130 92
107 130 92
107 130 92
107 130 92
106 130 92
107 130 92
106 130 92
107 130 92
107 130 92
106 130 92
106 130 92
107 130 92
107 130 92
107 130 92
106 130 92
107 130 92
106 130 92
106 130 92
107 130 92
107 130 92
107 130 92
107 130 92
107 130 92
107 130 92
107 131 92
107 131 92
107 131 92
107 131 92
107 131 92
107 131 92
107 131 92
107 131 92
107 131 92
107 131 92
106 131 92
106 131 92
106 131 92
106 131 92
106 131 92
106 131 92
106 131 92
106 131 92
106 131 92
106 131 92
106 131 92
106 130 92
106 130 92
106 130 92
106 130 92
106 130 92
106 130 92
106 130 92
106 130 92
106 130 92
106 130 92
106 130 92
106 130 92
106 130 92
106 130 92
106 130 92
106 130 92
106 130 92
106 130 92
106 130 92
106 130 92
106 130 92
106 130 92
106 130 92
106 130 92
106 130 92
106 130 92
106 130 92
106 130 92
106 130 92
106 130 92
106 130 92
106 130 92
106 130 92
106 130 92
106 130 92
106 130 92
107 130 93
107 130 93
107 130 93
107 130 93
105 112 78
98 0 0
94 0 0
140 0 0
145 0 0
136 0 0
88 0 0
86 0 0
85 0 0
86 0 0
94 0 0
103 0 0
108 0 0
106 0 0
101 0 0
100 0 0
101 0 0
98 0 0
97 0 0
99 0 0
103 0 0
103 0 0
104 0 0
105 0 0
105 0 0
106 0 0
107 0 0
107 0 0
108 0 0
117 0 0
124 0 0
130 0 0
133 0 0
134 0 0
134 0 0
133 0 0
131 0 0
131 0 0
131 0 0
132 0 0
133 0 0
122 0 0
117 0 0
119 0 0
120 0 0
123 0 0
124 0 0
126 0 0
126 0 0
132 0 0
138 0 0
137 0 0
136 0 0
133 0 0
120 0 0
109 0 0
98 0 0
92 0 0
91 0 0
91 0 0
86 0 0
99 0 0
107 0 0
106 0 0
105 0 0
108 0 0
93 0 0
82 0 0
82 0 0
81 0 0
80 0 0
101 0 0
101 0 0
106 0 0
114 0 0
98 0 0
88 0 0
87 0 0
85 0 0
85 0 0
83 0 0
88 0 0
105 118 84
107 130 93
107 130 93
107 130 93
107 130 93
107 130 93
107 130 93
107 130 93
107 130 93
107 130 93
107 130 93
107 130 93
107 130 93
107 130 93
107 130 93
107 130 93
107 130 93
107 130 93
107 130 93
107 130 93
107 130 93
107 130 93
107 130 93
107 130 92
107 130 92
107 130 92
107 130 92
107 130 92
107 130 92
107 130 92
107 130 92
107 130 92
107 130 92
107 130 92
107 130 92
106 130 92
107 130 92
106 130 92
107 130 92
107 130 92
106 130 92
106 130 92
106 130 92
106 130 92
106 130 92
106 130 92
106 130 92
106 130 92
106 130 92
106 130 92
106 130 92
106 130 92
106 130 92
106 130 92
106 130 92
106 130 92
106 130 92
107 130 92
107 131 92
107 131 92
107 131 92
107 131 92
107 131 92
107 131 92
107 131 92
107 131 92
107 131 92
106 131 92
106 131 92
106 131 92
106 131 92
106 131 92
106 131 92
106 131 92
106 131 92
106 131 92
106 131 92
106 131 92
106 130 92
106 130 92
106 130 92
106 130 92
106 130 92
106 130 92
106 130 92
106 130 92
106 130 92
106 130 92
106 130 92
106 130 92
106 130 92
106 130 92
106 130 92
106 130 92
106 130 92
106 130 92
106 130 92
106 130 92
106 130 92
106 130 92
106 130 92
106 130 92
106 130 92
106 130 92
106 130 92
106 130 92
106 130 92
106 130 92
106 130 92
106 130 92
106 130 92
106 130 92
106 130 92
106 130 92
106 130 92
106 130 92
107 130 92
107 130 92
99 53 36
96 0 0
94 0 0
98 0 0
141 0 0
100 0 0
88 0 0
87 0 0
85 0 0
86 0 0
87 0 0
87 0 0
90 0 0
97 0 0
104 0 0
103 0 0
99 0 0
97 0 0
97 0 0
97 0 0
99 0 0
102 0 0
103 0 0
104 0 0
104 0 0
103 0 0
104 0 0
103 0 0
102 0 0
111 0 0
122 0 0
130 0 0
131 0 0
132 0 0
132 0 0
131 0 0
129 0 0
129 0 0
129 0 0
121 0 0
108 0 0
114 0 0
121 0 0
126 0 0
125 0 0
125 0 0
125 0 0
125 0 0
125 0 0
133 0 0
136 0 0
135 0 0
125 0 0
110 0 0
109 0 0
108 0 0
92 0 0
91 0 0
90 0 0
84 0 0
83 0 0
102 0 0
106 0 0
105 0 0
109 0 0
110 0 0
89 0 0
82 0 0
81 0 0
80 0 0
79 0 0
77 0 0
76 0 0
76 0 0
77 0 0
78 0 0
81 0 0
81 0 0
81 0 0
82 0 0
82 0 0
85 0 0
102 104 73
107 130 93
107 130 93
107 130 93
107 130 93
107 130 93
107 130 93
107 130 93
107 130 93
107 130 93
107 130 93
107 130 93
107 130 93
107 130 93
107 130 93
107 130 93
107 130 93
107 130 93
84 117 72
102 127 88
107 130 92
107 130 92
107 130 92
107 130 92
107 130 92
107 130 92
107 130 92
107 130 92
107 130 92
107 130 92
107 130 92
107 130 92
107 130 92
106 130 92
106 130 92
106 130 92
106 130 92
106 130 92
106 130 92
106 130 92
106 130 92
106 130 92
106 130 92
106 130 92
106 130 92
106 130 92
106 130 92
106 130 92
106 130 92
106 130 92
106 130 92
106 130 92
106 130 92
106 130 92
106 130 92
106 130 92
102 128 88
57 108 48
68 119 58
106 131 92
106 131 92
107 131 92
107 131 92
107 131 92
107 131 92
107 131 92
107 131 92
106 131 92
106 131 92
106 131 92
106 131 92
106 131 92
106 131 92
106 131 92
106 131 92
106 131 92
106 131 92
106 130 92
106 130 92
106 130 92
106 130 92
106 130 92
106 130 92
106 130 92
106 130 92
106 130 92
106 130 92
106 130 92
106 130 92
106 130 92
106 130 92
106 130 92
106 130 92
106 130 92
106 130 92
106 130 92
106 130 92
106 130 92
106 130 92
106 130 92
106 130 92
106 130 92
106 130 92
106 130 92
106 130 92
106 130 92
106 130 92
106 130 92
106 130 92
106 130 92
106 130 92
106 130 92
106 130 92
106 130 92
107 130 92
106 130 92
107 130 92
103 104 72
96 0 0
96 0 0
96 0 0
88 0 0
91 0 0
89 0 0
87 0 0
89 0 0
88 0 0
86 0 0
87 0 0
87 0 0
87 0 0
87 0 0
87 0 0
90 0 0
96 0 0
94 0 0
95 0 0
94 0 0
93 0 0
94 0 0
98 0 0
98 0 0
98 0 0
98 0 0
98 0 0
99 0 0
102 0 0
104 0 0
105 0 0
103 0 0
113 0 0
122 0 0
130 0 0
129 0 0
124 0 0
116 0 0
103 0 0
99 0 0
99 0 0
101 0 0
101 0 0
107 0 0
119 0 0
124 0 0
123 0 0
123 0 0
125 0 0
134 0 0
130 0 0
113 0 0
110 0 0
109 0 0
108 0 0
106 0 0
91 0 0
88 0 0
84 0 0
83 0 0
84 0 0
103 0 0
104 0 0
108 0 0
110 0 0
109 0 0
82 0 0
81 0 0
80 0 0
79 0 0
79 0 0
77 0 0
77 0 0
77 0 0
77 0 0
78 0 0
82 0 0
82 0 0
81 0 0
82 0 0
82 0 0
86 0 0
97 85 58
107 130 93
107 130 93
107 130 93
107 130 93
107 130 93
107 130 93
107 130 93
107 130 93
107 130 93
107 130 93
107 130 93
107 130 93
107 130 93
107 130 93
107 130 93
107 130 93
68 108 58
0 93 0
0 100 0
57 110 49
97 125 83
107 130 92
107 130 92
107 130 92
107 130 92
107 130 92
107 130 92
107 130 92
107 130 92
106 130 92
106 130 92
106 130 92
106 130 92
106 130 92
106 130 92
106 130 92
106 130 92
106 130 92
106 130 92
106 130 92
106 130 92
106 130 92
106 130 92
106 130 92
106 130 92
106 130 92
106 130 92
106 130 92
106 130 92
106 130 92
106 130 92
106 130 92
106 130 92
106 130 92
91 122 78
0 98 0
0 99 0
0 106 0
91 126 78
106 131 92
106 131 92
106 131 92
106 131 92
107 131 92
107 131 92
107 131 92
106 131 92
106 131 92
106 131 92
106 131 92
106 131 92
106 131 92
106 131 92
106 131 92
106 131 92
106 131 92
106 130 92
106 130 92
106 130 92
106 130 92
106 130 92
106 130 92
106 130 92
106 130 92
106 130 92
106 130 92
106 130 92
106 130 92
106 130 92
106 130 92
106 130 92
106 130 92
106 130 92
106 130 92
106 130 92
106 130 92
106 130 92
106 130 92
106 130 92
106 130 92
106 130 92
106 130 92
106 130 92
106 130 92
106 130 92
106 130 92
106 130 92
106 130 92
106 130 92
106 130 92
106 130 92
106 130 92
106 130 92
106 130 92
106 130 92
105 124 88
97 0 0
96 0 0
96 0 0
96 0 0
94 0 0
93 0 0
89 0 0
87 0 0
87 0 0
88 0 0
88 0 0
88 0 0
88 0 0
88 0 0
88 0 0
88 0 0
89 0 0
90 0 0
90 0 0
90 0 0
90 0 0
90 0 0
93 0 0
94 0 0
97 0 0
97 0 0
98 0 0
98 0 0
101 0 0
101 0 0
103 0 0
104 0 0
104 0 0
103 0 0
102 0 0
102 0 0
112 0 0
98 0 0
98 0 0
98 0 0
98 0 0
99 0 0
100 0 0
100 0 0
100 0 0
99 0 0
102 0 0
113 0 0
121 0 0
126 0 0
119 0 0
110 0 0
109 0 0
108 0 0
107 0 0
107 0 0
101 0 0
87 0 0
83 0 0
83 0 0
82 0 0
89 0 0
103 0 0
107 0 0
109 0 0
109 0 0
105 0 0
81 0 0
80 0 0
79 0 0
79 0 0
79 0 0
77 0 0
77 0 0
77 0 0
77 0 0
78 0 0
82 0 0
82 0 0
82 0 0
82 0 0
83 0 0
86 0 0
89 0 0
107 130 93
107 130 93
107 130 93
107 130 93
107 130 93
107 130 93
107 130 93
107 130 93
107 130 93
107 130 93
107 130 93
107 130 93
107 130 93
107 130 92
107 130 93
107 130 92
91 121 78
42 101 36
0 95 0
0 101 0
68 117 58
107 130 92
107 130 92
107 130 92
107 130 92
107 130 92
107 130 92
107 130 92
106 130 92
107 130 92
106 130 92
106 130 92
106 130 92
106 130 92
106 130 92
106 130 92
106 130 92
106 130 92
106 130 92
106 130 92
106 130 92
106 130 92
106 130 92
106 130 92
106 130 92
106 130 92
106 130 92
106 130 92
106 130 92
106 130 92
106 130 92
106 130 92
106 130 92
106 130 92
102 128 88
57 106 48
0 98 0
0 98 0
42 120 36
106 131 92
106 131 92
106 131 92
106 131 92
106 131 92
106 131 92
107 131 92
106 131 92
106 131 92
106 131 92
106 131 92
106 131 92
106 131 92
106 131 92
106 131 92
106 131 92
106 131 92
106 130 92
106 130 92
106 130 92
106 130 92
106 130 92
106 130 92
106 130 92
106 130 92
106 130 92
106 130 92
106 130 92
106 130 92
106 130 92
106 130 92
106 130 92
106 130 92
106 130 92
106 130 92
106 130 92
106 130 92
106 130 92
106 130 92
106 130 92
106 130 92
106 130 92
106 130 92
106 130 92
106 130 92
106 130 92
106 130 92
106 130 92
106 130 92
106 130 92
106 130 92
106 130 92
106 130 92
106 130 92
106 130 92
106 130 92
105 124 88
96 0 0
96 0 0
96 0 0
96 0 0
96 0 0
96 0 0
89 0 0
87 0 0
87 0 0
87 0 0
87 0 0
88 0 0
89 0 0
89 0 0
89 0 0
89 0 0
89 0 0
90 0 0
90 0 0
89 0 0
90 0 0
91 0 0
93 0 0
93 0 0
94 0 0
97 0 0
98 0 0
100 0 0
100 0 0
101 0 0
102 0 0
103 0 0
103 0 0
103 0 0
103 0 0
101 0 0
101 0 0
98 0 0
97 0 0
97 0 0
97 0 0
98 0 0
99 0 0
99 0 0
99 0 0
99 0 0
98 0 0
98 0 0
96 0 0
97 0 0
97 0 0
96 0 0
96 0 0
95 0 0
95 0 0
94 0 0
87 0 0
80 0 0
81 0 0
82 0 0
82 0 0
95 0 0
106 0 0
103 0 0
101 0 0
92 0 0
82 0 0
74 0 0
76 0 0
76 0 0
77 0 0
77 0 0
76 0 0
77 0 0
77 0 0
77 0 0
79 0 0
82 0 0
82 0 0
82 0 0
79 0 0
84 0 0
86 0 0
86 0 0
103 112 78
107 130 93
107 130 93
107 130 93
107 130 93
107 130 93
107 130 93
107 130 93
107 130 93
107 130 93
107 130 93
107 130 93
107 130 92
107 130 92
107 130 92
107 130 92
107 130 92
102 127 88
57 109 49
0 100 0
68 113 58
107 130 92
107 130 92
107 130 92
107 130 92
107 130 92
107 130 92
107 130 92
106 130 92
106 130 92
106 130 92
106 130 92
106 130 92
106 130 92
106 130 92
106 130 92
106 130 92
106 130 92
106 130 92
106 130 92
106 130 92
106 130 92
106 130 92
106 130 92
106 130 92
106 130 92
106 130 92
106 130 92
106 130 92
106 130 92
106 130 92
106 130 92
106 130 92
106 130 92
106 130 92
106 130 92
68 113 58
0 101 0
0 105 0
106 131 92
106 131 92
106 131 92
106 131 92
106 131 92
106 131 92
106 131 92
106 131 92
106 131 92
106 131 92
106 131 92
106 131 92
106 131 92
106 131 92
106 131 92
106 131 92
106 130 92
106 130 92
106 130 92
106 130 92
106 130 92
106 130 92
106 130 92
106 130 92
106 130 92
106 130 92
106 130 92
106 130 92
106 130 92
106 130 92
106 130 92
106 130 92
106 130 92
106 130 92
106 130 92
106 130 92
106 130 92
106 130 92
106 130 92
106 130 92
106 130 92
106 130 92
106 130 92
106 130 92
106 130 92
106 130 92
106 130 92
106 130 92
106 130 92
106 130 92
106 130 92
106 130 92
106 130 92
106 130 92
106 130 92
106 130 92
106 130 92
103 104 72
96 0 0
96 0 0
96 0 0
96 0 0
93 0 0
88 0 0
87 0 0
87 0 0
87 0 0
87 0 0
86 0 0
87 0 0
89 0 0
89 0 0
89 0 0
89 0 0
89 0 0
89 0 0
89 0 0
89 0 0
93 0 0
93 0 0
93 0 0
93 0 0
94 0 0
97 0 0
97 0 0
98 0 0
98 0 0
101 0 0
102 0 0
102 0 0
103 0 0
103 0 0
102 0 0
101 0 0
100 0 0
97 0 0
96 0 0
96 0 0
98 0 0
98 0 0
98 0 0
98 0 0
98 0 0
97 0 0
97 0 0
93 0 0
88 0 0
89 0 0
88 0 0
88 0 0
88 0 0
87 0 0
85 0 0
80 0 0
77 0 0
77 0 0
76 0 0
77 0 0
86 0 0
83 0 0
83 0 0
83 0 0
82 0 0
82 0 0
71 0 0
73 0 0
74 0 0
75 0 0
74 0 0
75 0 0
76 0 0
77 0 0
77 0 0
80 0 0
82 0 0
65 0 0
62 0 0
67 0 0
80 0 0
84 0 0
86 0 0
98 95 66
107 130 93
107 130 93
107 130 93
107 130 93
107 130 93
107 130 93
107 130 93
107 130 93
107 130 93
107 130 92
107 130 92
107 130 92
107 130 92
107 130 92
107 130 92
107 130 92
107 130 92
91 123 78
0 101 0
68 111 58
107 130 92
107 130 92
107 130 92
107 130 92
106 130 92
107 130 92
106 130 92
106 130 92
106 130 92
106 130 92
106 130 92
106 130 92
106 130 92
106 130 92
106 130 92
106 130 92
106 130 92
106 130 92
106 130 92
106 130 92
106 130 92
106 130 92
106 130 92
106 130 92
106 130 92
106 130 92
106 130 92
106 130 92
106 130 92
106 130 92
106 130 92
106 130 92
106 130 92
106 130 92
106 130 92
84 124 72
0 105 0
0 107 0
106 131 92
106 131 92
106 131 92
106 131 92
106 131 92
106 131 92
106 131 92
106 131 92
106 131 92
106 131 92
106 131 92
106 131 92
106 131 92
106 131 92
106 131 92
106 131 92
106 130 92
106 130 92
106 130 92
106 130 92
106 130 92
106 130 92
106 130 92
106 130 92
106 130 92
106 130 92
106 130 92
106 130 92
106 130 92
106 130 92
106 130 92
106 130 92
106 130 92
106 130 92
106 130 92
106 130 92
106 130 92
106 130 92
106 130 92
106 130 92
106 130 92
106 130 92
106 130 92
106 130 92
106 130 92
106 130 92
106 130 92
106 130 92
106 130 92
106 130 92
106 130 92
106 130 92
106 130 92
106 130 92
106 130 92
106 130 92
106 130 92
107 130 92
99 71 49
96 0 0
94 0 0
89 0 0
86 0 0
86 0 0
86 0 0
85 0 0
85 0 0
85 0 0
85 0 0
84 0 0
85 0 0
88 0 0
89 0 0
89 0 0
89 0 0
89 0 0
89 0 0
89 0 0
94 0 0
92 0 0
92 0 0
92 0 0
94 0 0
93 0 0
93 0 0
93 0 0
93 0 0
89 0 0
91 0 0
95 0 0
99 0 0
102 0 0
102 0 0
101 0 0
100 0 0
98 0 0
96 0 0
96 0 0
97 0 0
97 0 0
97 0 0
97 0 0
97 0 0
97 0 0
96 0 0
89 0 0
87 0 0
88 0 0
88 0 0
88 0 0
87 0 0
86 0 0
81 0 0
80 0 0
77 0 0
76 0 0
76 0 0
75 0 0
77 0 0
82 0 0
83 0 0
82 0 0
82 0 0
82 0 0
71 0 0
71 0 0
73 0 0
74 0 0
74 0 0
75 0 0
75 0 0
76 0 0
77 0 0
77 0 0
88 0 0
72 0 0
61 0 0
63 0 0
77 0 0
83 0 0
83 0 0
90 71 49
107 130 93
107 130 93
107 130 93
107 130 93
107 130 93
107 130 93
107 130 92
107 130 92
107 130 92
107 130 92
107 130 92
107 130 92
107 130 92
107 130 92
107 130 92
107 130 92
107 130 92
91 125 78
0 101 0
68 111 58
107 130 92
107 130 92
107 130 92
106 130 92
106 130 92
106 130 92
106 130 92
106 130 92
106 130 92
106 130 92
106 130 92
106 130 92
106 130 92
106 130 92
106 130 92
106 130 92
106 130 92
106 130 92
106 130 92
106 130 92
106 130 92
106 130 92
106 130 92
106 130 92
106 130 92
106 130 92
106 130 92
106 130 92
106 130 92
106 130 92
106 130 92
106 130 92
106 130 92
106 130 92
106 130 92
57 118 48
0 100 0
68 117 58
106 131 92
106 131 92
106 131 92
106 131 92
106 131 92
106 131 92
106 131 92
106 131 92
106 131 92
106 131 92
106 131 92
106 131 92
106 131 92
106 131 92
106 131 92
106 131 92
106 130 92
106 130 92
106 130 92
106 130 92
106 130 92
106 130 92
106 130 92
106 130 92
106 130 92
106 130 92
106 130 92
106 130 92
106 130 92
106 130 92
106 130 92
106 130 92
106 130 92
106 130 92
106 130 92
106 130 92
106 130 92
106 130 92
106 130 92
106 130 92
106 130 92
106 130 92
106 130 92
106 130 92
106 130 92
106 130 92
106 130 92
106 130 92
106 130 92
106 130 92
106 130 92
106 130 92
106 130 92
106 130 92
106 130 92
106 130 92
106 130 92
106 130 92
105 124 88
103 112 78
101 112 78
100 112 78
107 130 92
107 130 92
107 130 92
107 130 92
107 130 92
107 130 92
107 130 92
107 130 92
107 130 93
107 130 93
103 118 83
93 71 49
89 0 0
89 0 0
89 0 0
90 0 0
95 0 0
92 0 0
92 0 0
92 0 0
96 0 0
93 0 0
93 0 0
93 0 0
92 0 0
88 0 0
88 0 0
88 0 0
88 0 0
89 0 0
94 0 0
97 0 0
100 0 0
99 0 0
96 0 0
96 0 0
97 0 0
96 0 0
96 0 0
96 0 0
96 0 0
96 0 0
95 0 0
87 0 0
86 0 0
87 0 0
88 0 0
87 0 0
87 0 0
83 0 0
81 0 0
80 0 0
77 0 0
76 0 0
76 0 0
75 0 0
76 0 0
79 0 0
82 0 0
82 0 0
82 0 0
82 0 0
72 0 0
71 0 0
71 0 0
73 0 0
74 0 0
75 0 0
76 0 0
76 0 0
76 0 0
77 0 0
87 0 0
81 0 0
67 0 0
62 0 0
74 0 0
78 0 0
83 0 0
82 0 0
107 130 93
107 130 93
107 130 93
107 130 93
107 130 92
107 130 92
107 130 92
107 130 92
107 130 92
107 130 92
107 130 92
107 130 92
107 130 92
107 130 92
107 130 92
107 130 92
107 130 92
91 126 78
0 101 0
68 111 58
107 130 92
107 130 92
106 130 92
106 130 92
106 130 92
106 130 92
106 130 92
106 130 92
106 130 92
106 130 92
106 130 92
106 130 92
106 130 92
106 130 92
106 130 92
106 130 92
106 130 92
106 130 92
106 130 92
106 130 92
106 130 92
106 130 92
106 130 92
106 130 92
106 130 92
106 130 92
106 130 92
106 130 92
106 130 92
106 130 92
106 130 92
106 130 92
106 130 92
106 130 92
102 129 88
0 109 0
0 101 0
84 124 72
106 131 92
106 131 92
106 131 92
106 131 92
106 131 92
106 131 92
106 131 92
106 131 92
106 131 92
106 131 92
106 131 92
106 131 92
106 131 92
106 131 92
106 131 92
106 130 92
106 130 92
106 130 92
106 130 92
106 130 92
106 130 92
106 130 92
106 130 92
106 130 92
106 130 92
106 130 92
106 130 92
106 130 92
106 130 92
106 130 92
106 130 92
106 130 92
106 130 92
106 130 92
106 130 92
106 130 92
106 130 92
106 130 92
106 130 92
106 130 92
106 130 92
106 130 92
106 130 92
106 130 92
106 130 92
106 130 92
106 130 92
106 130 92
106 130 92
106 130 92
106 130 92
106 130 92
106 130 92
106 130 92
106 130 92
106 130 92
106 130 92
106 130 92
106 130 92
107 130 92
107 130 92
107 130 92
107 130 92
107 130 92
107 130 92
107 130 92
107 130 92
107 130 92
107 130 92
107 130 92
107 130 92
107 130 92
107 130 92
107 130 93
100 104 72
91 53 36
89 0 0
89 0 0
94 0 0
94 0 0
92 0 0
94 0 0
95 0 0
93 0 0
93 0 0
92 0 0
91 0 0
88 0 0
88 0 0
88 0 0
88 0 0
88 0 0
87 0 0
87 0 0
87 0 0
91 0 0
94 0 0
95 0 0
96 0 0
96 0 0
96 0 0
95 0 0
95 0 0
95 0 0
92 0 0
87 0 0
86 0 0
86 0 0
87 0 0
87 0 0
84 0 0
81 0 0
81 0 0
79 0 0
77 0 0
76 0 0
75 0 0
75 0 0
75 0 0
78 0 0
80 0 0
82 0 0
82 0 0
82 0 0
72 0 0
71 0 0
71 0 0
71 0 0
73 0 0
74 0 0
76 0 0
76 0 0
76 0 0
76 0 0
86 0 0
88 0 0
79 0 0
64 0 0
78 0 0
78 0 0
83 0 0
81 0 0
107 130 93
107 130 93
107 130 93
107 130 92
107 130 92
107 130 92
107 130 92
107 130 92
107 130 92
107 130 92
107 130 92
107 130 92
107 130 92
107 130 92
107 130 92
107 130 92
102 129 88
42 122 36
0 99 0
42 104 36
107 130 92
107 130 92
106 130 92
106 130 92
106 130 92
106 130 92
106 130 92
106 130 92
106 130 92
106 130 92
106 130 92
106 130 92
106 130 92
106 130 92
106 130 92
106 130 92
106 130 92
106 130 92
106 130 92
106 130 92
106 130 92
106 130 92
106 130 92
106 130 92
106 130 92
106 130 92
106 130 92
106 130 92
106 130 92
106 130 92
106 130 92
106 130 92
106 130 92
106 130 92
84 121 72
0 105 0
0 107 0
96 127 83
106 130 92
106 131 92
106 131 92
106 131 92
106 131 92
106 131 92
106 131 92
106 131 92
106 131 92
106 131 92
106 131 92
106 131 92
106 131 92
106 131 92
106 130 92
106 130 92
106 130 92
106 130 92
106 130 92
106 130 92
106 130 92
106 130 92
106 130 92
106 130 92
106 130 92
106 130 92
106 130 92
106 130 92
106 130 92
106 130 92
106 130 92
106 130 92
106 130 92
106 130 92
106 130 92
106 130 92
106 130 92
106 130 92
106 130 92
106 130 92
106 130 92
106 130 92
106 130 92
106 130 92
106 130 92
106 130 92
106 130 92
106 130 92
106 130 92
106 130 92
106 130 92
106 130 92
106 130 92
106 130 92
106 130 92
106 130 92
106 130 92
106 130 92
106 130 92
106 130 92
107 130 92
107 130 92
107 130 92
107 130 92
107 130 92
107 130 92
107 130 92
107 130 92
107 130 92
107 130 92
107 130 92
107 130 92
107 130 92
107 130 92
107 130 92
107 130 93
99 104 72
91 53 36
90 0 0
95 0 0
93 0 0
96 0 0
95 0 0
93 0 0
92 0 0
92 0 0
90 0 0
88 0 0
88 0 0
88 0 0
88 0 0
87 0 0
87 0 0
87 0 0
86 0 0
85 0 0
83 0 0
86 0 0
89 0 0
92 0 0
93 0 0
95 0 0
95 0 0
95 0 0
88 0 0
86 0 0
86 0 0
85 0 0
87 0 0
85 0 0
81 0 0
81 0 0
81 0 0
79 0 0
76 0 0
76 0 0
75 0 0
75 0 0
75 0 0
78 0 0
78 0 0
81 0 0
82 0 0
82 0 0
74 0 0
72 0 0
72 0 0
71 0 0
71 0 0
73 0 0
76 0 0
76 0 0
76 0 0
76 0 0
81 0 0
90 0 0
86 0 0
72 0 0
81 0 0
77 0 0
83 0 0
81 0 0
99 112 78
107 130 92
107 130 92
107 130 92
107 130 92
107 130 92
107 130 92
107 130 92
107 130 92
107 130 92
107 130 92
107 130 92
107 130 92
107 130 92
107 130 92
107 130 92
68 127 58
0 109 0
0 97 0
0 99 0
91 122 78
106 130 92
106 130 92
106 130 92
106 130 92
106 130 92
106 130 92
106 130 92
106 130 92
106 130 92
106 130 92
106 130 92
106 130 92
106 130 92
106 130 92
106 130 92
106 130 92
106 130 92
106 130 92
106 130 92
106 130 92
106 130 92
106 130 92
106 130 92
106 130 92
106 130 92
106 130 92
106 130 92
106 130 92
106 130 92
106 130 92
106 130 92
106 130 92
68 116 58
0 101 0
0 104 0
0 106 0
57 106 48
90 125 78
106 131 92
106 131 92
106 131 92
106 131 92
106 131 92
106 131 92
106 131 92
106 131 92
106 131 92
106 131 92
106 131 92
106 131 92
106 131 92
106 130 92
106 130 92
106 130 92
106 130 92
106 130 92
106 130 92
106 130 92
106 130 92
106 130 92
106 130 92
106 130 92
106 130 92
106 130 92
106 130 92
106 130 92
106 130 92
106 130 92
106 130 92
106 130 92
106 130 92
106 130 92
106 130 92
106 130 92
106 130 92
106 130 92
106 130 92
106 130 92
106 130 92
106 130 92
106 130 92
106 130 92
106 130 92
106 130 92
106 130 92
106 130 92
106 130 92
106 130 92
106 130 92
106 130 92
106 130 92
106 130 92
106 130 92
106 130 92
106 130 92
106 130 92
106 130 92
106 130 92
106 130 92
107 130 92
107 130 92
107 130 92
107 130 92
107 130 92
107 130 92
107 130 92
107 130 92
107 130 92
107 130 92
107 130 92
107 130 92
107 130 92
107 130 92
107 130 92
105 124 88
97 95 66
91 0 0
94 0 0
98 0 0
95 0 0
93 0 0
92 0 0
92 0 0
89 0 0
88 0 0
88 0 0
88 0 0
87 0 0
87 0 0
86 0 0
85 0 0
84 0 0
83 0 0
82 0 0
86 0 0
87 0 0
87 0 0
87 0 0
87 0 0
90 0 0
91 0 0
86 0 0
86 0 0
86 0 0
85 0 0
85 0 0
82 0 0
81 0 0
81 0 0
80 0 0
79 0 0
76 0 0
76 0 0
75 0 0
75 0 0
75 0 0
77 0 0
78 0 0
78 0 0
81 0 0
82 0 0
77 0 0
72 0 0
72 0 0
72 0 0
72 0 0
72 0 0
75 0 0
76 0 0
76 0 0
76 0 0
80 0 0
90 0 0
89 0 0
81 0 0
83 0 0
86 0 0
79 0 0
81 0 0
99 112 78
107 130 92
107 130 92
107 130 92
107 130 92
107 130 92
107 130 92
107 130 92
107 130 92
107 130 92
107 130 92
107 130 92
107 130 92
107 130 92
107 130 92
91 129 78
0 119 0
0 94 0
0 93 0
0 103 0
106 130 92
106 130 92
106 130 92
106 130 92
106 130 92
106 130 92
106 130 92
106 130 92
106 130 92
106 130 92
106 130 92
106 130 92
106 130 92
106 130 92
106 130 92
106 130 92
106 130 92
106 130 92
106 130 92
106 130 92
106 130 92
106 130 92
106 130 92
106 130 92
106 130 92
106 130 92
106 130 92
106 130 92
106 130 92
106 130 92
96 125 83
76 117 65
42 118 35
0 92 0
0 101 0
0 98 0
0 97 0
0 97 0
42 115 35
106 131 92
106 131 92
106 131 92
106 131 92
106 131 92
106 131 92
106 131 92
106 131 92
106 131 92
106 131 92
106 131 92
106 131 92
106 131 92
106 130 92
106 130 92
106 130 92
106 130 92
106 130 92
106 130 92
106 130 92
106 130 92
106 130 92
106 130 92
106 130 92
106 130 92
106 130 92
106 130 92
106 130 92
106 130 92
106 130 92
106 130 92
106 130 92
106 130 92
106 130 92
106 130 92
106 130 92
106 130 92
106 130 92
106 130 92
106 130 92
106 130 92
106 130 92
106 130 92
106 130 92
106 130 92
106 130 92
106 130 92
106 130 92
106 130 92
106 130 92
106 130 92
106 130 92
106 130 92
106 130 92
106 130 92
106 130 92
106 130 92
106 130 92
106 130 92
106 130 92
106 130 92
106 130 92
106 130 92
107 130 92
107 130 92
107 130 92
107 130 92
107 130 92
107 130 92
107 130 92
107 130 92
107 130 92
107 130 92
107 130 92
107 130 92
107 130 92
107 130 92
107 130 92
105 124 88
99 85 58
98 0 0
95 0 0
93 0 0
93 0 0
92 0 0
88 0 0
88 0 0
88 0 0
87 0 0
86 0 0
85 0 0
85 0 0
84 0 0
83 0 0
83 0 0
82 0 0
86 0 0
88 0 0
87 0 0
87 0 0
86 0 0
86 0 0
84 0 0
81 0 0
80 0 0
80 0 0
80 0 0
79 0 0
78 0 0
80 0 0
80 0 0
79 0 0
79 0 0
79 0 0
76 0 0
75 0 0
75 0 0
75 0 0
76 0 0
78 0 0
78 0 0
78 0 0
82 0 0
80 0 0
72 0 0
72 0 0
72 0 0
72 0 0
73 0 0
74 0 0
75 0 0
76 0 0
76 0 0
77 0 0
91 0 0
90 0 0
85 0 0
85 0 0
86 0 0
74 0 0
81 0 0
91 85 58
107 130 92
107 130 92
107 130 92
107 130 92
107 130 92
107 130 92
107 130 92
107 130 92
107 130 92
107 130 92
107 130 92
107 130 92
107 130 92
102 129 88
42 126 36
0 96 0
0 93 0
0 93 0
0 103 0
84 121 72
106 130 92
106 130 92
106 130 92
106 130 92
106 130 92
106 130 92
106 130 92
106 130 92
106 130 92
96 128 83
90 124 78
90 123 78
90 123 78
90 123 78
90 123 78
90 123 78
106 130 92
106 130 92
106 130 92
106 130 92
106 130 92
106 130 92
106 130 92
106 130 92
106 130 92
96 125 83
84 119 72
68 113 58
0 102 0
0 102 0
0 107 0
0 95 0
0 91 0
0 99 0
0 100 0
0 98 0
0 97 0
0 113 0
90 125 78
106 131 92
106 131 92
106 131 92
106 131 92
106 131 92
106 131 92
106 131 92
106 131 92
106 131 92
106 131 92
106 131 92
106 130 92
106 130 92
106 130 92
106 130 92
106 130 92
106 130 92
106 130 92
106 130 92
106 130 92
106 130 92
106 130 92
106 130 92
106 130 92
106 130 92
106 130 92
106 130 92
106 130 92
106 130 92
106 130 92
106 130 92
106 130 92
106 130 92
106 130 92
106 130 92
106 130 92
106 130 92
106 130 92
106 130 92
106 130 92
106 130 92
106 130 92
106 130 92
106 130 92
106 130 92
106 130 92
106 130 92
106 130 92
106 130 92
106 130 92
106 130 92
106 130 92
106 130 92
106 130 92
106 130 92
106 130 92
106 130 92
106 130 92
106 130 92
106 130 92
106 130 92
106 130 92
106 130 92
106 130 92
106 130 92
107 130 92
107 130 92
107 130 92
107 130 92
107 130 92
107 130 92
107 130 92
107 130 92
107 130 92
107 130 92
107 130 92
107 130 92
107 130 92
107 130 92
98 0 0
94 0 0
92 0 0
92 0 0
91 0 0
87 0 0
87 0 0
86 0 0
85 0 0
85 0 0
85 0 0
85 0 0
83 0 0
83 0 0
83 0 0
82 0 0
86 0 0
88 0 0
87 0 0
87 0 0
86 0 0
86 0 0
84 0 0
81 0 0
80 0 0
80 0 0
80 0 0
79 0 0
76 0 0
78 0 0
79 0 0
79 0 0
79 0 0
80 0 0
79 0 0
76 0 0
75 0 0
75 0 0
76 0 0
78 0 0
78 0 0
77 0 0
80 0 0
82 0 0
72 0 0
72 0 0
72 0 0
73 0 0
73 0 0
73 0 0
75 0 0
75 0 0
75 0 0
76 0 0
87 0 0
91 0 0
86 0 0
87 0 0
95 0 0
72 0 0
81 0 0
91 85 58
107 130 92
107 130 92
107 130 92
107 130 92
107 130 92
107 130 92
107 130 92
107 130 92
107 130 92
107 130 92
107 130 92
107 130 92
107 130 92
42 126 35
0 119 0
0 98 0
0 99 0
0 97 0
0 103 0
0 102 0
106 130 92
106 130 92
106 130 92
106 130 92
106 130 92
106 130 92
96 129 83
76 126 65
42 118 35
0 112 0
0 110 0
0 110 0
0 108 0
0 106 0
0 105 0
0 105 0
42 111 35
76 121 65
101 129 87
106 130 92
106 130 92
101 129 87
90 126 78
67 121 58
42 113 35
0 109 0
0 107 0
0 107 0
0 105 0
0 99 0
0 91 0
0 90 0
0 91 0
0 99 0
0 107 0
57 114 48
0 100 0
0 104 0
90 125 78
106 131 92
106 131 92
106 131 92
106 131 92
106 131 92
106 131 92
106 131 92
106 131 92
106 131 92
106 131 92
106 131 92
106 130 92
106 130 92
106 130 92
106 130 92
106 130 92
106 130 92
106 130 92
106 130 92
106 130 92
106 130 92
106 130 92
106 130 92
106 130 92
106 130 92
106 130 92
106 130 92
106 130 92
106 130 92
106 130 92
106 130 92
106 130 92
106 130 92
106 130 92
106 130 92
106 130 92
106 130 92
106 130 92
106 130 92
106 130 92
106 130 92
106 130 92
106 130 92
106 130 92
106 130 92
106 130 92
106 130 92
106 130 92
106 130 92
106 130 92
106 130 92
106 130 92
106 130 92
106 130 92
106 130 92
106 130 92
106 130 92
106 130 92
106 130 92
106 130 92
106 130 92
106 130 92
106 130 92
106 130 92
106 130 92
106 130 92
106 130 92
107 130 92
107 130 92
107 130 92
107 130 92
107 130 92
107 130 92
107 130 92
107 130 92
107 130 92
107 130 92
107 130 92
107 130 92
101 85 58
94 0 0
92 0 0
92 0 0
90 0 0
86 0 0
86 0 0
86 0 0
85 0 0
85 0 0
85 0 0
84 0 0
83 0 0
83 0 0
83 0 0
82 0 0
86 0 0
88 0 0
87 0 0
87 0 0
86 0 0
86 0 0
84 0 0
81 0 0
81 0 0
80 0 0
80 0 0
79 0 0
76 0 0
75 0 0
76 0 0
79 0 0
79 0 0
79 0 0
79 0 0
79 0 0
76 0 0
75 0 0
75 0 0
78 0 0
78 0 0
77 0 0
77 0 0
81 0 0
76 0 0
72 0 0
72 0 0
73 0 0
73 0 0
73 0 0
75 0 0
75 0 0
75 0 0
75 0 0
87 0 0
91 0 0
86 0 0
88 0 0
89 0 0
74 53 36
81 0 0
84 53 36
107 130 92
107 130 92
107 130 92
107 130 92
107 130 92
107 130 92
107 130 92
107 130 92
107 130 92
106 130 92
106 130 92
106 130 92
68 129 58
0 119 0
0 107 0
0 94 0
0 94 0
0 102 0
0 98 0
0 96 0
90 124 78
90 124 78
90 128 78
76 126 65
68 126 58
57 125 48
0 124 0
0 116 0
0 110 0
0 110 0
0 110 0
0 110 0
0 107 0
0 110 0
0 108 0
0 106 0
0 105 0
0 109 0
0 111 0
67 120 58
42 120 35
0 117 0
0 116 0
0 111 0
0 102 0
0 108 0
0 107 0
0 92 0
0 85 0
0 84 0
0 87 0
0 89 0
0 99 0
57 110 48
96 126 83
76 123 65
0 101 0
0 100 0
96 127 83
106 131 92
106 131 92
106 131 92
106 131 92
106 131 92
106 131 92
106 131 92
106 131 92
106 131 92
106 131 92
106 130 92
106 130 92
106 130 92
106 130 92
106 130 92
106 130 92
106 130 92
106 130 92
106 130 92
106 130 92
106 130 92
106 130 92
106 130 92
106 130 92
106 130 92
106 130 92
106 130 92
106 130 92
106 130 92
106 130 92
106 130 92
106 130 92
106 130 92
106 130 92
106 130 92
106 130 92
106 130 92
106 130 92
106 130 92
106 130 92
106 130 92
106 130 92
106 130 92
106 130 92
106 130 92
106 130 92
106 130 92
106 130 92
106 130 92
106 130 92
106 130 92
106 130 92
106 130 92
106 130 92
106 130 92
106 130 92
106 130 92
106 130 92
106 130 92
106 130 92
106 130 92
106 130 92
106 130 92
106 130 92
106 130 92
106 130 92
106 130 92
106 130 92
106 130 92
106 130 92
106 130 92
107 130 92
107 130 92
107 130 92
107 130 92
107 130 92
107 130 92
107 130 92
107 130 92
104 112 78
94 0 0
92 0 0
92 0 0
90 0 0
86 0 0
86 0 0
86 0 0
85 0 0
85 0 0
84 0 0
84 0 0
83 0 0
83 0 0
83 0 0
82 0 0
88 0 0
88 0 0
87 0 0
87 0 0
86 0 0
86 0 0
83 0 0
81 0 0
81 0 0
80 0 0
80 0 0
79 0 0
77 0 0
76 0 0
75 0 0
76 0 0
79 0 0
79 0 0
79 0 0
79 0 0
79 0 0
76 0 0
75 0 0
78 0 0
78 0 0
77 0 0
77 0 0
77 0 0
77 0 0
72 0 0
73 0 0
73 0 0
73 0 0
73 0 0
75 0 0
75 0 0
75 0 0
78 0 0
88 0 0
91 0 0
84 0 0
87 0 0
90 0 0
81 0 0
80 0 0
80 0 0
107 130 92
107 130 92
107 130 92
107 130 92
107 130 92
107 130 92
106 130 92
106 130 92
106 130 92
106 130 92
106 130 92
68 132 58
0 112 0
0 92 0
0 92 0
0 90 0
0 92 0
0 100 0
0 96 0
0 98 0
0 108 0
0 117 0
0 121 0
0 120 0
0 116 0
0 111 0
0 108 0
0 99 0
0 99 0
0 99 0
0 99 0
0 98 0
0 99 0
0 101 0
0 103 0
0 104 0
0 104 0
0 106 0
0 108 0
0 106 0
0 87 0
0 77 0
0 80 0
0 98 0
0 115 0
0 112 0
0 100 0
0 86 0
0 87 0
0 87 0
0 91 0
0 105 0
101 128 87
106 130 92
101 129 87
0 112 0
0 95 0
0 102 0
106 130 92
106 130 92
106 131 92
106 131 92
106 131 92
106 131 92
106 131 92
106 131 92
106 131 92
106 131 92
106 131 92
106 130 92
106 130 92
106 130 92
106 130 92
106 130 92
106 130 92
106 130 92
106 130 92
106 130 92
106 130 92
106 130 92
106 130 92
106 130 92
106 130 92
106 130 92
106 130 92
106 130 92
106 130 92
106 130 92
106 130 92
106 130 92
106 130 92
106 130 92
106 130 92
106 130 92
106 130 92
106 130 92
106 130 92
106 130 92
106 130 92
106 130 92
106 130 92
106 130 92
106 130 92
106 130 92
106 130 92
106 130 92
106 130 92
106 130 92
106 130 92
106 130 92
106 130 92
106 130 92
106 130 92
106 130 92
106 130 92
106 130 92
106 130 92
106 130 92
106 130 92
106 130 92
106 130 92
106 130 92
106 130 92
106 130 92
106 130 92
106 130 92
106 130 92
106 130 92
106 130 92
106 130 92
106 130 92
106 130 92
106 130 92
107 130 92
107 130 92
107 130 92
107 130 92
107 130 92
106 124 88
96 0 0
92 0 0
92 0 0
90 0 0
86 0 0
86 0 0
86 0 0
85 0 0
84 0 0
84 0 0
84 0 0
83 0 0
83 0 0
83 0 0
83 0 0
88 0 0
88 0 0
87 0 0
87 0 0
87 0 0
86 0 0
83 0 0
81 0 0
81 0 0
80 0 0
80 0 0
79 0 0
78 0 0
76 0 0
75 0 0
75 0 0
75 0 0
78 0 0
79 0 0
79 0 0
79 0 0
79 0 0
77 0 0
77 0 0
78 0 0
77 0 0
77 0 0
77 0 0
77 0 0
73 0 0
73 0 0
73 0 0
73 0 0
73 0 0
74 0 0
75 0 0
75 0 0
83 0 0
87 0 0
91 0 0
83 0 0
84 0 0
90 0 0
87 0 0
77 0 0
81 0 0
102 118 83
106 130 92
106 130 92
106 130 92
106 130 92
106 130 92
106 130 92
106 130 92
106 130 92
106 130 92
91 130 78
0 116 0
0 95 0
0 89 0
0 80 0
0 80 0
0 89 0
0 106 0
0 96 0
0 98 0
0 104 0
0 111 0
0 106 0
0 99 0
0 99 0
0 102 0
0 102 0
0 99 0
0 98 0
0 97 0
0 97 0
0 97 0
0 98 0
0 101 0
0 101 0
0 100 0
0 100 0
0 102 0
0 103 0
0 103 0
0 102 0
0 92 0
0 101 0
0 110 0
0 104 0
0 90 0
0 85 0
0 87 0
0 90 0
0 89 0
0 92 0
42 111 35
106 130 92
106 130 92
76 123 65
0 98 0
0 95 0
57 114 48
106 130 92
106 130 92
106 130 92
106 131 92
106 131 92
106 131 92
106 131 92
106 131 92
106 131 92
106 131 92
106 130 92
106 130 92
106 130 92
106 130 92
106 130 92
106 130 92
106 130 92
106 130 92
106 130 92
106 130 92
106 130 91
106 130 92
106 130 92
106 130 91
106 130 91
106 130 92
106 130 91
106 130 91
106 130 91
106 130 91
106 130 92
106 130 91
106 130 91
106 130 91
106 130 91
106 130 92
106 130 92
106 130 91
106 130 92
106 130 92
106 130 92
106 130 92
106 130 92
106 130 92
106 130 92
106 130 92
106 130 92
106 130 92
106 130 92
106 130 92
106 130 92
106 130 92
106 130 92
106 130 92
106 130 92
106 130 92
106 130 92
106 130 92
106 130 92
106 130 92
106 130 92
106 130 92
106 130 92
106 130 92
106 130 92
106 130 92
106 130 92
106 130 92
106 130 92
106 130 92
106 130 92
106 130 92
106 130 92
106 130 92
106 130 92
106 130 92
106 130 92
106 130 92
107 130 92
107 130 92
107 130 92
100 95 65
92 0 0
92 0 0
90 0 0
87 0 0
85 0 0
84 0 0
83 0 0
82 0 0
84 0 0
84 0 0
84 0 0
83 0 0
83 0 0
82 0 0
84 0 0
87 0 0
87 0 0
87 0 0
87 0 0
86 0 0
83 0 0
81 0 0
81 0 0
80 0 0
80 0 0
80 0 0
78 0 0
76 0 0
75 0 0
75 0 0
75 0 0
74 0 0
79 0 0
79 0 0
79 0 0
79 0 0
79 0 0
78 0 0
77 0 0
77 0 0
77 0 0
76 0 0
76 0 0
74 0 0
73 0 0
73 0 0
73 0 0
73 0 0
74 0 0
75 0 0
78 0 0
85 0 0
87 0 0
91 0 0
84 0 0
82 0 0
89 0 0
90 0 0
75 0 0
81 0 0
99 112 78
106 130 92
106 130 92
106 130 92
106 130 92
106 130 92
106 130 92
106 130 92
106 130 92
90 131 78
0 123 0
0 107 0
0 105 0
0 98 0
0 90 0
0 90 0
0 105 0
0 108 0
0 95 0
0 100 0
0 99 0
0 98 0
0 98 0
0 100 0
0 103 0
0 99 0
0 97 0
0 93 0
0 92 0
0 92 0
0 92 0
0 92 0
0 90 0
0 96 0
0 99 0
0 101 0
0 100 0
0 102 0
0 102 0
0 100 0
0 96 0
0 88 0
0 99 0
0 100 0
0 90 0
0 94 0
0 97 0
0 98 0
0 97 0
0 92 0
0 88 0
0 102 0
76 120 65
90 124 77
0 103 0
0 92 0
0 100 0
84 121 72
106 130 92
106 130 92
106 130 92
106 131 92
106 131 92
106 131 92
106 131 92
106 131 92
106 131 92
106 130 92
106 130 92
106 130 92
106 130 92
106 130 92
106 130 91
106 130 91
106 130 91
106 130 91
106 130 91
106 130 91
106 130 91
106 130 91
106 130 91
106 130 91
106 130 91
106 130 91
106 130 91
106 130 91
106 130 91
106 130 91
106 130 91
106 130 91
106 130 91
106 130 91
106 130 91
106 130 91
106 130 91
106 130 91
106 130 91
106 130 91
106 130 91
106 130 91
106 130 91
106 130 91
106 130 91
106 130 91
106 130 91
106 130 91
106 130 91
106 130 92
106 130 92
106 130 92
106 130 92
106 130 92
106 130 92
106 130 92
106 130 92
106 130 92
106 129 92
106 130 92
106 129 92
106 129 92
106 129 92
106 129 92
106 129 92
106 130 92
106 129 92
106 129 92
106 129 92
106 129 92
106 129 92
106 129 92
106 130 92
106 129 92
106 130 92
106 130 92
106 129 92
106 129 92
106 130 92
106 130 92
106 130 92
106 130 92
93 53 35
92 0 0
90 0 0
85 0 0
84 0 0
84 0 0
82 0 0
79 0 0
84 0 0
84 0 0
84 0 0
83 0 0
83 0 0
82 0 0
82 0 0
87 0 0
87 0 0
87 0 0
87 0 0
87 0 0
82 0 0
81 0 0
81 0 0
80 0 0
80 0 0
80 0 0
79 0 0
76 0 0
75 0 0
75 0 0
74 0 0
74 0 0
76 0 0
80 0 0
79 0 0
79 0 0
79 0 0
78 0 0
76 0 0
76 0 0
76 0 0
76 0 0
76 0 0
76 0 0
74 0 0
74 0 0
73 0 0
73 0 0
74 0 0
75 0 0
83 0 0
85 0 0
87 0 0
91 0 0
83 0 0
82 0 0
85 0 0
94 0 0
73 0 0
81 0 0
96 104 72
106 129 92
106 130 92
106 130 92
106 130 92
106 130 92
106 130 92
106 130 92
96 130 83
0 127 0
0 108 0
0 107 0
0 107 0
0 100 0
0 96 0
0 96 0
0 114 0
0 96 0
0 90 0
0 98 0
0 94 0
0 93 0
0 94 0
0 91 0
0 88 0
0 88 0
0 87 0
0 89 0
0 89 0
0 89 0
0 90 0
0 90 0
0 90 0
0 93 0
0 93 0
0 93 0
0 94 0
0 98 0
0 101 0
0 100 0
0 93 0
0 82 0
0 86 0
0 85 0
0 83 0
0 84 0
0 85 0
0 82 0
0 84 0
0 85 0
0 78 0
0 98 0
0 107 0
0 101 0
0 90 0
0 89 0
0 102 0
96 126 83
106 130 92
106 130 92
106 130 92
106 131 92
106 131 92
106 131 92
106 131 92
106 131 92
106 131 92
106 130 91
106 130 91
106 130 91
106 130 91
106 130 91
106 130 91
106 130 91
106 130 91
106 130 91
106 130 91
106 130 91
106 130 91
106 130 91
106 130 91
106 130 91
106 130 91
106 130 91
106 130 91
106 130 91
106 130 91
106 130 91
106 130 91
106 130 91
106 130 91
106 130 91
106 130 91
106 130 91
106 130 91
106 130 91
106 130 91
106 130 91
106 130 91
106 130 91
106 130 91
106 130 91
106 130 91
106 130 91
106 130 91
106 130 91
106 130 91
106 130 91
106 130 91
106 130 91
106 129 91
106 130 91
106 129 91
106 129 91
106 129 91
106 129 91
106 129 91
106 129 91
106 129 92
106 129 92
106 129 92
106 129 92
106 129 92
106 129 92
106 129 92
106 129 92
106 129 92
106 129 92
106 129 92
106 129 92
106 129 92
106 129 92
106 129 92
106 129 92
106 129 92
106 129 92
106 129 92
106 129 92
106 129 92
106 129 92
102 112 78
91 0 0
90 0 0
85 0 0
84 0 0
84 0 0
82 0 0
80 0 0
81 0 0
84 0 0
84 0 0
83 0 0
82 0 0
82 0 0
82 0 0
83 0 0
88 0 0
87 0 0
87 0 0
86 0 0
83 0 0
81 0 0
80 0 0
80 0 0
80 0 0
80 0 0
79 0 0
76 0 0
75 0 0
75 0 0
75 0 0
74 0 0
73 0 0
79 0 0
81 0 0
80 0 0
79 0 0
78 0 0
77 0 0
76 0 0
75 0 0
75 0 0
76 0 0
76 0 0
75 0 0
74 0 0
74 0 0
74 0 0
73 0 0
78 0 0
85 0 0
85 0 0
87 0 0
87 0 0
80 0 0
83 0 0
81 0 0
86 0 0
79 0 0
81 0 0
91 85 57
106 129 92
106 129 92
106 129 92
106 129 92
106 129 92
106 129 92
106 130 92
90 126 77
0 107 0
0 96 0
0 94 0
0 90 0
0 91 0
0 94 0
0 105 0
0 112 0
0 90 0
0 91 0
0 98 0
0 91 0
0 89 0
0 90 0
0 90 0
0 89 0
0 87 0
0 87 0
0 88 0
0 89 0
0 88 0
0 89 0
0 89 0
0 90 0
0 93 0
0 92 0
0 91 0
0 89 0
0 92 0
0 95 0
0 97 0
0 91 0
0 74 0
0 81 0
0 81 0
0 82 0
0 84 0
0 82 0
0 79 0
0 77 0
0 74 0
0 71 0
0 83 0
0 95 0
0 94 0
0 91 0
0 95 0
0 107 0
106 130 91
106 130 91
106 130 91
106 130 92
106 131 92
106 131 92
106 131 92
106 131 91
106 131 91
106 130 91
106 130 91
106 130 91
106 130 91
106 130 91
106 130 91
106 130 91
106 130 91
106 130 91
106 130 91
106 130 91
106 130 91
106 130 91
106 130 91
106 130 91
106 130 91
106 130 91
106 130 91
106 130 91
106 130 91
106 130 91
106 130 91
106 130 91
106 130 91
106 130 91
106 130 91
106 130 91
106 130 91
106 130 91
106 130 91
106 130 91
106 130 91
106 130 91
106 130 91
106 130 91
106 130 91
106 130 91
106 130 91
106 130 91
106 130 91
106 130 91
106 129 91
106 130 91
106 129 91
106 129 91
106 129 91
106 129 91
106 129 91
106 129 91
106 129 91
106 129 91
106 129 91
106 129 91
106 129 91
106 129 91
106 129 91
106 129 91
106 129 91
106 129 91
106 129 91
106 129 92
106 129 91
106 129 92
106 129 91
106 129 92
106 129 92
106 129 92
106 129 92
106 129 92
106 129 92
106 129 92
106 129 92
106 129 92
106 129 92
106 129 92
95 71 48
92 0 0
87 0 0
85 0 0
85 0 0
82 0 0
80 0 0
79 0 0
83 0 0
84 0 0
81 0 0
82 0 0
83 0 0
82 0 0
81 0 0
85 0 0
88 0 0
87 0 0
86 0 0
84 0 0
81 0 0
81 0 0
80 0 0
80 0 0
80 0 0
79 0 0
78 0 0
75 0 0
75 0 0
75 0 0
74 0 0
74 0 0
74 0 0
80 0 0
81 0 0
80 0 0
79 0 0
78 0 0
76 0 0
75 0 0
75 0 0
75 0 0
75 0 0
75 0 0
75 0 0
75 0 0
75 0 0
75 0 0
82 0 0
85 0 0
85 0 0
85 0 0
82 0 0
79 0 0
82 0 0
79 0 0
75 0 0
82 0 0
81 0 0
88 71 48
106 129 92
106 129 92
106 129 91
106 129 92
106 129 91
106 129 91
101 126 87
42 98 35
0 98 0
0 91 0
0 90 0
0 89 0
0 90 0
0 93 0
0 111 0
0 105 0
0 90 0
0 94 0
0 100 0
0 90 0
0 90 0
0 89 0
0 89 0
0 88 0
0 86 0
0 86 0
0 86 0
0 87 0
0 87 0
0 87 0
0 87 0
0 87 0
0 91 0
0 91 0
0 90 0
0 89 0
0 92 0
0 93 0
0 91 0
0 90 0
0 76 0
0 77 0
0 80 0
0 81 0
0 82 0
0 79 0
0 76 0
0 74 0
0 77 0
0 85 0
0 89 0
0 91 0
0 92 0
0 94 0
0 98 0
67 117 57
106 130 91
106 130 91
106 130 91
106 130 91
106 130 91
106 131 91
106 131 92
106 131 91
106 131 91
106 130 91
106 130 91
106 130 91
106 130 91
106 130 91
106 130 91
106 130 91
106 130 91
106 130 91
106 130 91
106 130 91
106 130 91
106 130 91
106 130 91
106 130 91
106 130 91
106 130 91
106 130 91
106 130 91
106 130 91
106 130 91
106 130 91
106 130 91
106 130 91
106 130 91
106 130 91
106 130 91
106 130 91
106 130 91
106 130 91
106 130 91
106 130 91
106 130 91
106 130 91
106 130 91
106 130 91
106 130 91
106 129 91
106 130 91
106 129 91
106 129 91
106 129 91
106 129 91
106 129 91
106 129 91
106 129 91
106 129 91
106 129 91
106 129 91
106 129 91
106 129 91
106 129 91
106 129 91
106 129 91
106 129 91
106 129 91
106 129 91
106 129 91
106 129 91
106 129 91
106 129 91
106 129 91
106 129 91
106 129 91
106 129 91
106 129 91
106 129 91
106 129 91
106 129 91
106 129 91
106 129 91
106 129 91
106 129 91
106 129 91
106 129 91
105 124 87
92 0 0
90 0 0
85 0 0
84 0 0
82 0 0
78 0 0
80 0 0
81 0 0
82 0 0
81 0 0
80 0 0
83 0 0
84 0 0
82 0 0
81 0 0
87 0 0
88 0 0
86 0 0
85 0 0
81 0 0
81 0 0
81 0 0
80 0 0
80 0 0
79 0 0
79 0 0
76 0 0
75 0 0
75 0 0
74 0 0
74 0 0
74 0 0
76 0 0
80 0 0
81 0 0
81 0 0
79 0 0
76 0 0
76 0 0
76 0 0
76 0 0
76 0 0
76 0 0
76 0 0
76 0 0
76 0 0
75 0 0
81 0 0
87 0 0
86 0 0
86 0 0
81 0 0
80 0 0
82 0 0
74 0 0
74 0 0
76 0 0
78 0 0
81 0 0
105 118 82
106 129 91
106 129 91
106 129 91
106 129 91
96 123 82
42 98 35
0 92 0
0 99 0
0 97 0
0 88 0
0 88 0
0 89 0
0 97 0
0 115 0
0 98 0
0 90 0
0 94 0
0 99 0
0 88 0
0 84 0
0 83 0
0 82 0
0 82 0
0 82 0
0 82 0
0 82 0
0 85 0
0 85 0
0 85 0
0 86 0
0 86 0
0 91 0
0 91 0
0 89 0
0 89 0
0 92 0
0 93 0
0 91 0
0 88 0
0 79 0
0 71 0
0 76 0
0 79 0
0 80 0
0 75 0
0 79 0
0 83 0
0 87 0
0 90 0
0 89 0
0 89 0
0 90 0
0 91 0
0 104 0
101 128 87
106 130 91
106 130 91
106 130 91
106 130 91
106 130 91
106 131 91
106 131 91
106 131 91
106 130 91
106 130 91
106 130 91
106 130 91
106 130 91
106 130 91
106 130 91
106 130 91
106 130 91
106 130 91
106 130 91
106 130 91
106 130 91
106 130 91
106 130 91
106 130 91
106 130 91
106 130 91
106 130 91
106 130 91
106 130 91
106 130 91
106 130 91
106 130 91
106 130 91
106 130 91
106 130 91
106 130 91
106 130 91
106 130 91
106 130 91
106 130 91
106 130 91
106 130 91
106 130 91
106 130 91
106 130 91
106 129 91
106 129 91
106 129 91
106 129 91
106 129 91
106 129 91
106 129 91
106 129 91
106 129 91
106 129 91
106 129 91
106 129 91
106 129 91
106 129 91
106 129 91
106 129 91
106 129 91
106 129 91
106 129 91
106 129 91
106 129 91
106 129 91
106 129 91
106 129 91
106 129 91
106 129 91
106 129 91
106 129 91
106 129 91
106 129 91
106 129 91
106 129 91
106 129 91
106 129 91
106 129 91
106 129 91
106 129 91
106 129 91
106 129 91
106 129 91
100 104 71
92 0 0
85 0 0
83 0 0
82 0 0
78 0 0
77 0 0
79 0 0
81 0 0
81 0 0
81 0 0
81 0 0
83 0 0
84 0 0
83 0 0
84 0 0
88 0 0
88 0 0
86 0 0
81 0 0
81 0 0
81 0 0
80 0 0
80 0 0
80 0 0
79 0 0
77 0 0
75 0 0
75 0 0
74 0 0
74 0 0
74 0 0
74 0 0
78 0 0
80 0 0
80 0 0
80 0 0
78 0 0
75 0 0
75 0 0
75 0 0
75 0 0
76 0 0
76 0 0
76 0 0
76 0 0
74 0 0
76 0 0
89 0 0
87 0 0
87 0 0
82 0 0
81 0 0
83 0 0
73 0 0
74 0 0
74 0 0
76 0 0
81 0 0
99 95 65
106 129 91
106 129 91
106 129 91
90 119 77
0 92 0
0 92 0
0 92 0
0 99 0
0 101 0
0 89 0
0 86 0
0 88 0
0 103 0
0 112 0
0 92 0
0 91 0
0 97 0
0 97 0
0 89 0
0 83 0
0 82 0
0 81 0
0 81 0
0 82 0
0 82 0
0 82 0
0 84 0
0 85 0
0 85 0
0 86 0
0 86 0
0 91 0
0 90 0
0 89 0
0 89 0
0 92 0
0 93 0
0 92 0
0 88 0
0 80 0
0 68 0
0 67 0
0 74 0
0 80 0
0 84 0
0 85 0
0 87 0
0 90 0
0 88 0
0 88 0
0 90 0
0 92 0
0 103 0
67 119 57
106 130 91
106 130 91
106 130 91
106 130 91
106 130 91
106 130 91
106 130 91
106 130 91
106 131 91
106 130 91
106 130 91
106 130 91
106 130 91
106 130 91
106 130 91
106 130 91
106 130 91
106 130 91
106 130 91
106 130 91
106 130 91
105 130 91
106 130 91
106 130 91
105 130 91
105 130 91
105 130 91
105 130 91
105 130 91
105 130 91
105 130 91
105 130 91
105 130 91
105 130 91
105 130 91
105 130 91
105 130 91
105 130 91
105 130 91
105 130 91
105 130 91
105 130 91
105 129 91
105 129 91
106 129 91
106 129 91
106 129 91
106 129 91
106 129 91
106 129 91
106 129 91
106 129 91
106 129 91
106 129 91
106 129 91
106 129 91
106 129 91
106 129 91
106 129 91
106 129 91
106 129 91
106 129 91
106 129 91
106 129 91
106 129 91
106 129 91
106 129 91
106 129 91
106 129 91
106 129 91
106 129 91
106 129 91
106 129 91
106 129 91
106 129 91
106 129 91
106 129 91
106 129 91
106 129 91
106 129 91
106 129 91
106 129 91
106 129 91
106 129 91
106 129 91
106 129 91
106 129 91
97 84 57
88 0 0
82 0 0
82 0 0
81 0 0
77 0 0
77 0 0
78 0 0
93 95 65
106 129 91
97 95 65
87 0 0
83 0 0
81 0 0
85 0 0
85 0 0
88 0 0
87 0 0
83 0 0
81 0 0
81 0 0
80 0 0
80 0 0
80 0 0
80 0 0
79 0 0
75 0 0
75 0 0
74 0 0
75 0 0
75 0 0
75 0 0
76 0 0
78 0 0
80 0 0
80 0 0
80 0 0
79 0 0
75 0 0
74 0 0
74 0 0
74 0 0
74 0 0
75 0 0
75 0 0
71 52 0
71 52 0
85 0 0
89 0 0
87 0 0
84 0 0
86 0 0
72 92 35
45 98 0
74 0 0
74 0 0
76 0 0
81 0 0
81 107 48
76 129 65
67 116 57
0 94 0
0 87 0
0 91 0
0 92 0
0 95 0
0 101 0
0 98 0
0 90 0
0 87 0
0 97 0
0 99 0
0 102 0
0 91 0
0 93 0
0 98 0
0 96 0
0 89 0
0 85 0
0 80 0
0 81 0
0 81 0
0 82 0
0 81 0
0 82 0
0 84 0
0 84 0
0 85 0
0 86 0
0 88 0
0 90 0
0 89 0
0 89 0
0 89 0
0 91 0
0 94 0
0 93 0
0 89 0
0 80 0
0 74 0
0 76 0
0 82 0
0 84 0
0 85 0
0 86 0
0 88 0
0 87 0
0 87 0
0 90 0
0 96 0
0 104 0
0 103 0
96 127 82
106 130 91
106 130 91
106 130 91
106 130 91
106 130 91
106 130 91
106 130 91
106 130 91
106 130 91
106 130 91
106 130 91
106 130 91
106 130 91
106 130 91
106 130 91
106 130 91
106 130 91
106 130 91
105 130 91
105 130 91
105 130 91
105 130 91
105 130 91
105 130 91
105 130 91
105 130 91
105 130 91
105 130 91
105 130 91
105 130 91
105 130 91
105 130 91
105 130 91
105 130 91
105 130 91
105 130 91
105 130 91
105 130 91
105 130 91
105 130 91
105 130 91
105 129 91
105 129 91
105 129 91
105 129 91
105 129 91
105 129 91
105 129 91
105 129 91
105 129 91
105 129 91
105 129 91
105 129 91
106 129 91
106 129 91
106 129 91
106 129 91
106 129 91
106 129 91
106 129 91
106 129 91
106 129 91
106 129 91
106 129 91
106 129 91
106 129 91
106 129 91
106 129 91
106 129 91
106 129 91
106 129 91
106 129 91
106 129 91
106 129 91
106 129 91
106 129 91
106 129 91
106 129 91
106 129 91
106 129 91
106 129 91
106 129 91
106 129 91
106 129 91
106 129 91
106 129 91
106 129 91
106 129 91
93 53 35
85 0 0
82 0 0
82 0 0
79 0 0
78 0 0
77 0 0
86 53 35
106 129 91
104 124 87
87 0 0
86 0 0
81 0 0
82 0 0
106 111 77
102 118 82
88 53 35
85 0 0
81 0 0
81 0 0
80 0 0
80 0 0
80 0 0
80 0 0
80 0 0
78 0 0
76 0 0
77 0 0
77 0 0
77 0 0
77 0 0
81 53 35
95 104 71
98 111 77
87 71 48
80 0 0
80 0 0
79 0 0
76 0 0
74 0 0
74 0 0
74 0 0
74 0 0
63 56 0
0 101 0
0 117 0
0 116 0
0 120 0
0 121 0
0 123 0
0 123 0
57 120 48
0 116 0
46 110 0
46 115 0
40 125 0
0 124 0
0 102 0
0 87 0
0 87 0
0 86 0
0 86 0
0 88 0
0 92 0
0 95 0
0 101 0
0 96 0
0 94 0
0 97 0
0 98 0
0 99 0
0 95 0
0 92 0
0 94 0
0 100 0
0 94 0
0 89 0
0 86 0
0 81 0
0 80 0
0 81 0
0 82 0
0 81 0
0 82 0
0 84 0
0 84 0
0 84 0
0 85 0
0 87 0
0 89 0
0 89 0
0 89 0
0 89 0
0 91 0
0 95 0
0 93 0
0 90 0
0 81 0
0 80 0
0 80 0
0 82 0
0 84 0
0 85 0
0 87 0
0 87 0
0 87 0
0 89 0
0 98 0
0 101 0
0 92 0
41 110 35
106 130 91
106 130 91
106 130 91
106 130 91
106 130 91
106 130 91
106 130 91
106 130 91
106 130 91
106 130 91
106 130 91
106 130 91
106 130 91
106 130 91
106 130 91
106 130 91
105 130 91
105 130 91
105 130 91
105 130 91
105 130 91
105 130 91
105 130 91
105 130 91
105 130 91
105 130 91
105 130 91
105 130 91
105 130 91
105 130 91
105 130 91
105 130 91
105 130 91
105 130 91
105 130 91
105 130 91
105 130 91
105 130 91
105 130 91
105 129 91
105 129 91
105 129 91
105 129 91
105 129 91
105 129 91
105 129 91
105 129 91
105 129 91
105 129 91
105 129 91
105 129 91
105 129 91
105 129 91
105 129 91
105 129 91
105 129 91
105 129 91
105 129 91
105 129 91
105 129 91
105 129 91
105 129 91
106 129 91
106 129 91
106 129 91
106 129 91
106 129 91
106 129 91
106 129 91
106 129 91
106 129 91
106 129 91
106 129 91
106 129 91
106 129 91
106 129 91
106 129 91
106 129 91
106 129 91
106 129 91
106 129 91
106 129 91
106 129 91
106 129 91
106 129 91
106 129 91
106 129 91
106 129 91
106 129 91
104 124 87
92 53 35
81 0 0
82 0 0
81 0 0
79 0 0
78 0 0
83 0 0
102 118 82
106 129 91
93 71 48
87 0 0
84 0 0
81 0 0
106 84 57
106 129 91
106 129 91
98 104 71
84 0 0
82 0 0
81 0 0
81 0 0
80 0 0
80 0 0
80 0 0
80 0 0
78 0 0
77 0 0
77 0 0
78 0 0
92 95 65
104 124 87
106 129 91
106 129 91
106 129 91
101 118 82
87 71 48
80 0 0
80 0 0
76 0 0
75 0 0
75 0 0
67 58 0
0 100 0
0 100 0
0 88 0
0 91 0
0 89 0
0 85 0
0 86 0
0 85 0
0 86 0
0 86 0
0 84 0
0 82 0
0 83 0
0 86 0
0 87 0
0 86 0
0 86 0
0 86 0
0 86 0
0 87 0
0 89 0
0 97 0
0 97 0
0 95 0
0 94 0
0 98 0
0 98 0
0 96 0
0 92 0
0 92 0
0 94 0
0 99 0
0 92 0
0 88 0
0 86 0
0 84 0
0 80 0
0 82 0
0 82 0
0 81 0
0 82 0
0 84 0
0 84 0
0 84 0
0 84 0
0 86 0
0 88 0
0 88 0
0 89 0
0 89 0
0 91 0
0 95 0
0 94 0
0 91 0
0 82 0
0 79 0
0 80 0
0 83 0
0 85 0
0 86 0
0 87 0
0 87 0
0 91 0
0 100 0
0 102 0
0 98 0
0 89 0
76 122 65
106 130 91
106 130 91
106 130 91
106 130 91
106 130 91
106 130 91
106 130 91
106 130 91
106 130 91
106 130 91
106 130 91
105 130 91
105 130 91
105 130 91
105 130 91
105 130 91
105 130 91
105 130 91
105 130 91
105 130 91
105 130 91
105 130 91
105 130 91
105 130 91
105 130 91
105 130 91
105 130 91
105 130 91
105 130 91
105 130 91
105 130 91
105 130 91
105 130 91
105 130 91
105 130 91
105 130 91
105 130 91
105 130 91
105 129 91
105 129 91
105 129 91
105 129 91
105 129 91
105 129 91
105 129 91
105 129 91
105 129 91
105 129 91
105 129 91
105 129 91
105 129 91
105 129 91
105 129 91
105 129 91
105 129 91
105 129 91
105 129 91
105 129 91
105 129 91
105 129 91
105 129 91
105 129 91
105 129 91
105 129 91
105 129 91
105 129 91
106 129 91
106 129 91
106 129 91
106 129 91
106 129 91
106 129 91
106 129 91
106 129 91
106 129 91
106 129 91
106 129 91
106 129 91
106 129 91
106 129 91
106 129 91
106 129 91
106 129 91
106 129 91
106 129 91
106 129 91
106 129 91
106 129 91
106 129 91
106 129 91
102 111 77
88 0 0
81 0 0
81 0 0
79 0 0
78 0 0
82 0 0
96 95 65
106 129 91
102 118 82
88 0 0
86 0 0
82 0 0
101 84 57
106 129 91
106 129 91
106 129 91
104 124 87
97 104 71
91 84 57
81 0 0
80 0 0
80 0 0
80 0 0
80 0 0
80 0 0
78 0 0
92 95 65
104 124 87
106 129 91
106 129 91
106 129 91
106 129 91
106 129 91
106 129 91
106 129 91
99 111 77
84 53 35
80 0 0
78 0 0
75 0 0
58 78 0
0 108 0
0 94 0
0 84 0
0 84 0
0 87 0
0 88 0
0 85 0
0 86 0
0 86 0
0 86 0
0 85 0
0 84 0
0 82 0
0 84 0
0 86 0
0 87 0
0 87 0
0 88 0
0 88 0
0 88 0
0 89 0
0 97 0
0 94 0
0 93 0
0 93 0
0 100 0
0 98 0
0 92 0
0 91 0
0 93 0
0 93 0
0 97 0
0 90 0
0 83 0
0 85 0
0 85 0
0 82 0
0 83 0
0 83 0
0 82 0
0 83 0
0 84 0
0 84 0
0 84 0
0 84 0
0 87 0
0 87 0
0 87 0
0 87 0
0 87 0
0 89 0
0 94 0
0 94 0
0 92 0
0 82 0
0 78 0
0 82 0
0 85 0
0 86 0
0 86 0
0 87 0
0 91 0
0 100 0
0 101 0
0 101 0
0 104 0
0 97 0
101 129 87
106 130 91
106 130 91
106 130 91
106 130 91
106 130 91
106 130 91
106 130 91
106 130 91
106 130 91
105 130 91
105 130 91
105 130 91
105 130 91
105 130 91
105 130 91
105 130 91
105 130 91
105 130 91
105 130 91
105 130 91
105 130 91
105 130 91
105 130 91
105 130 91
105 130 91
105 130 91
105 130 91
105 130 91
105 130 91
105 130 91
105 130 91
105 130 91
105 130 91
105 130 91
105 130 91
105 130 91
105 130 91
105 129 91
105 129 91
105 129 91
105 129 91
105 129 91
105 129 91
105 129 91
105 129 91
105 129 91
105 129 91
105 129 91
105 129 91
105 129 91
105 129 91
105 129 91
105 129 91
105 129 91
105 129 91
105 129 91
105 129 91
105 129 91
105 129 91
105 129 91
105 129 91
105 129 91
105 129 91
105 129 91
105 129 91
105 129 91
105 129 91
105 129 91
105 129 91
105 129 91
105 129 91
105 129 91
105 129 91
106 129 91
106 129 91
106 129 91
105 129 91
106 129 91
106 129 91
106 129 91
106 129 91
106 129 91
106 129 91
106 129 91
106 129 91
106 129 91
106 129 91
106 129 91
106 129 91
106 129 91
106 129 91
96 84 57
84 0 0
81 0 0
79 0 0
78 0 0
80 0 0
89 53 35
106 129 91
106 129 91
97 95 64
87 0 0
88 0 0
100 0 0
106 129 91
106 129 91
106 129 91
106 129 91
106 129 91
106 129 91
106 129 91
106 129 91
106 129 91
106 129 91
106 129 91
106 129 91
106 129 91
106 129 91
106 129 91
106 129 91
106 129 91
106 129 91
106 129 91
106 129 91
106 129 91
106 129 91
106 129 91
106 129 91
96 104 71
84 53 35
80 0 0
73 42 0
0 107 0
0 96 0
0 84 0
0 84 0
0 84 0
0 84 0
0 85 0
0 85 0
0 84 0
0 84 0
0 84 0
0 84 0
0 84 0
0 84 0
0 84 0
0 85 0
0 87 0
0 88 0
0 88 0
0 88 0
0 89 0
0 95 0
0 93 0
0 93 0
0 93 0
0 101 0
0 97 0
0 90 0
0 91 0
0 92 0
0 93 0
0 95 0
0 85 0
0 83 0
0 86 0
0 87 0
0 88 0
0 86 0
0 85 0
0 84 0
0 84 0
0 84 0
0 85 0
0 84 0
0 85 0
0 87 0
0 87 0
0 87 0
0 87 0
0 88 0
0 90 0
0 93 0
0 93 0
0 93 0
0 83 0
0 80 0
0 85 0
0 86 0
0 87 0
0 88 0
0 91 0
0 100 0
0 101 0
0 101 0
0 103 0
0 107 0
76 114 65
106 130 91
106 130 91
106 130 91
106 130 91
106 130 91
106 130 91
106 130 91
106 130 91
106 130 91
106 130 91
105 130 91
105 130 91
105 130 91
105 130 91
105 130 91
105 130 91
105 130 91
105 130 91
105 130 91
105 130 91
105 130 91
105 130 91
105 130 91
105 130 91
105 130 91
105 130 91
105 130 91
105 130 91
105 130 91
105 130 91
105 130 91
105 130 91
105 130 91
105 130 91
105 130 90
105 130 91
105 129 91
105 129 90
105 129 90
105 129 90
105 129 90
105 129 90
105 129 90
105 129 90
105 129 90
105 129 90
105 129 90
105 129 90
105 129 90
105 129 90
105 129 90
105 129 90
105 129 90
105 129 90
105 129 90
105 129 90
105 129 90
105 129 90
105 129 90
105 129 90
105 129 90
105 129 90
105 129 90
105 129 90
105 129 90
105 129 90
105 129 91
105 129 90
105 129 90
105 129 90
105 129 90
105 129 91
105 129 91
105 129 91
105 129 91
105 129 91
105 129 91
105 129 91
105 129 91
105 129 91
105 129 91
106 129 91
106 129 91
106 129 91
106 129 91
106 129 91
106 129 91
106 129 91
106 129 91
106 129 91
106 129 91
106 129 91
104 124 86
91 53 35
82 0 0
80 0 0
79 0 0
79 0 0
85 0 0
102 118 82
106 129 91
104 124 86
91 53 35
84 0 0
100 0 0
106 129 91
106 129 91
106 129 91
106 129 91
106 129 91
106 129 91
106 129 91
106 129 91
106 129 91
106 129 91
106 129 91
106 129 91
106 129 91
106 129 91
106 129 91
106 129 91
106 129 91
106 129 91
106 129 91
106 129 91
106 129 91
106 129 91
106 129 91
106 129 91
106 129 91
106 129 91
96 104 71
84 53 35
62 72 0
0 99 0
0 98 0
0 94 0
0 90 0
0 86 0
0 85 0
0 85 0
0 85 0
0 85 0
0 85 0
0 84 0
0 84 0
0 84 0
0 84 0
0 84 0
0 84 0
0 85 0
0 87 0
0 88 0
0 92 0
0 95 0
0 98 0
0 93 0
0 93 0
0 98 0
0 94 0
0 92 0
0 92 0
0 93 0
0 93 0
0 93 0
0 80 0
0 88 0
0 91 0
0 91 0
0 87 0
0 87 0
0 88 0
0 91 0
0 90 0
0 87 0
0 85 0
0 85 0
0 86 0
0 87 0
0 87 0
0 87 0
0 88 0
0 88 0
0 92 0
0 93 0
0 93 0
0 93 0
0 87 0
0 87 0
0 89 0
0 90 0
0 90 0
0 91 0
0 99 0
0 100 0
0 97 0
0 103 0
0 107 0
0 107 0
95 125 82
105 130 91
105 130 91
105 130 91
106 130 91
106 130 91
106 130 91
106 130 91
106 130 91
106 130 91
106 130 91
105 130 91
105 130 91
105 130 91
105 130 91
105 130 91
105 130 91
105 130 91
105 130 91
105 130 91
105 130 91
105 130 91
105 130 91
105 130 91
105 130 91
105 130 91
105 130 91
105 130 91
105 130 90
105 130 90
105 130 90
105 130 90
105 130 90
105 130 90
105 130 90
105 129 90
105 129 90
105 129 90
105 129 90
105 129 90
105 129 90
105 129 90
105 129 90
105 129 90
105 129 90
105 129 90
105 129 90
105 129 90
105 129 90
105 129 90
105 129 90
105 129 90
105 129 90
105 129 90
105 129 90
105 129 90
105 129 90
105 129 90
105 129 90
105 129 90
105 129 90
105 129 90
105 129 90
105 129 90
105 129 90
105 129 90
105 129 90
105 129 90
105 129 90
105 129 90
105 129 90
105 129 90
105 129 90
105 129 90
105 129 90
105 129 90
105 129 90
105 129 90
105 129 90
105 129 90
105 129 90
105 129 90
105 129 90
105 129 90
105 129 90
105 129 90
105 129 90
105 129 90
105 129 90
105 129 90
106 129 90
106 129 90
106 129 90
106 129 90
103 118 82
86 0 0
80 0 0
80 0 0
79 0 0
82 0 0
97 95 64
106 129 91
106 129 91
95 84 57
81 0 0
98 0 0
104 111 77
106 129 91
106 129 91
106 129 91
106 129 91
106 129 91
106 129 91
106 129 91
106 129 91
106 129 91
106 129 91
106 129 91
106 129 91
106 129 91
106 129 91
106 129 91
106 129 91
106 129 91
106 129 91
106 129 91
106 129 91
106 129 91
106 129 91
106 129 91
106 129 91
106 129 91
106 129 90
106 129 90
96 104 71
80 63 35
56 79 0
0 99 0
0 98 0
0 97 0
0 93 0
0 90 0
0 89 0
0 89 0
0 89 0
0 88 0
0 86 0
0 87 0
0 87 0
0 87 0
0 87 0
0 87 0
0 88 0
0 90 0
0 95 0
0 94 0
0 98 0
0 99 0
0 94 0
0 98 0
0 93 0
0 93 0
0 93 0
0 94 0
0 93 0
0 88 0
0 89 0
0 92 0
0 91 0
0 90 0
0 88 0
0 92 0
0 92 0
0 90 0
0 90 0
0 91 0
0 90 0
0 88 0
0 87 0
0 87 0
0 87 0
0 88 0
0 88 0
0 88 0
0 93 0
0 96 0
0 99 0
0 99 0
0 91 0
0 90 0
0 90 0
0 90 0
0 90 0
0 98 0
0 97 0
0 95 0
0 97 0
0 104 0
0 110 0
56 116 48
105 130 91
105 130 91
105 130 91
105 130 91
105 130 91
105 130 91
105 130 91
106 130 91
106 130 91
106 130 91
106 130 91
105 130 91
105 130 91
105 130 91
105 130 91
105 130 91
105 130 91
105 130 91
105 130 91
105 130 91
105 130 91
105 130 91
105 130 90
105 130 90
105 130 90
105 130 90
105 130 90
105 130 90
105 130 90
105 130 90
105 130 90
105 130 90
105 130 90
105 130 90
105 129 90
105 129 90
105 129 90
105 129 90
105 129 90
105 129 90
105 129 90
105 129 90
105 129 90
105 129 90
105 129 90
105 129 90
105 129 90
105 129 90
105 129 90
105 129 90
105 129 90
105 129 90
105 129 90
105 129 90
105 129 90
105 129 90
105 129 90
105 129 90
105 129 90
105 129 90
105 129 90
105 129 90
105 129 90
105 129 90
105 129 90
105 129 90
105 129 90
105 129 90
105 129 90
105 129 90
105 129 90
105 129 90
105 129 90
105 129 90
105 129 90
105 129 90
105 129 90
105 129 90
105 129 90
105 129 90
105 129 90
105 129 90
105 129 90
105 129 90
105 129 90
105 129 90
105 129 90
105 129 90
105 129 90
105 129 90
105 129 90
105 129 90
105 129 90
105 129 90
105 129 90
97 95 64
83 0 0
80 0 0
79 0 0
82 0 0
89 53 35
106 129 90
106 129 90
99 104 71
81 0 0
90 0 0
104 111 76
106 129 90
106 129 90
106 129 90
106 129 90
106 129 90
106 129 90
106 129 90
106 129 90
106 129 90
106 129 90
106 129 90
106 129 90
106 129 90
106 129 90
106 129 90
106 129 90
106 129 90
106 129 90
106 129 90
106 129 90
106 129 90
106 129 90
106 129 90
106 129 90
105 129 90
106 129 90
105 129 90
105 129 90
105 129 90
96 104 71
71 79 35
0 100 0
0 97 0
0 94 0
0 93 0
0 92 0
0 91 0
0 91 0
0 90 0
0 89 0
0 89 0
0 90 0
0 90 0
0 91 0
0 91 0
0 91 0
0 90 0
0 95 0
0 97 0
0 97 0
0 99 0
0 101 0
0 97 0
0 93 0
0 93 0
0 93 0
0 94 0
0 95 0
0 95 0
0 95 0
0 95 0
0 95 0
0 95 0
0 94 0
0 93 0
0 92 0
0 90 0
0 91 0
0 92 0
0 93 0
0 95 0
0 96 0
0 96 0
0 96 0
0 97 0
0 97 0
0 98 0
0 101 0
0 101 0
0 100 0
0 94 0
0 91 0
0 92 0
0 92 0
0 91 0
0 94 0
0 95 0
0 95 0
0 95 0
0 102 0
0 107 0
0 111 0
90 125 76
105 130 91
105 130 91
105 130 91
105 130 91
105 130 91
105 130 91
105 130 91
105 130 91
105 130 91
105 130 91
106 130 91
105 130 91
105 130 91
105 130 91
105 130 91
105 130 91
105 130 91
105 130 91
105 130 91
105 130 90
105 130 90
105 130 90
105 130 90
105 130 90
105 130 90
105 130 90
105 130 90
105 130 90
105 130 90
105 130 90
105 130 90
105 130 90
105 130 90
105 129 90
105 129 90
105 129 90
105 129 90
105 129 90
105 129 90
105 129 90
105 129 90
105 129 90
105 129 90
105 129 90
105 129 90
105 129 90
105 129 90
105 129 90
105 129 90
105 129 90
105 129 90
105 129 90
105 129 90
105 129 90
105 129 90
105 129 90
105 129 90
105 129 90
105 129 90
105 129 90
105 129 90
105 129 90
105 129 90
105 129 90
105 129 90
105 129 90
105 129 90
105 129 90
105 129 90
105 129 90
105 129 90
105 129 90
105 129 90
105 129 90
105 129 90
105 129 90
105 129 90
105 129 90
105 129 90
105 129 90
105 129 90
105 129 90
105 129 90
105 129 90
105 129 90
105 129 90
105 129 90
105 129 90
105 129 90
105 129 90
105 129 90
105 129 90
105 129 90
105 129 90
105 129 90
105 129 90
90 52 35
82 0 0
79 0 0
81 0 0
84 0 0
101 111 76
105 129 90
101 111 76
81 0 0
81 0 0
100 84 57
105 129 90
106 129 90
105 129 90
106 129 90
105 129 90
105 129 90
106 129 90
105 129 90
105 129 90
105 129 90
105 129 90
105 129 90
105 129 90
105 129 90
105 129 90
105 129 90
105 129 90
105 129 90
105 129 90
105 129 90
105 129 90
105 129 90
105 129 90
105 129 90
105 129 90
105 129 90
105 129 90
105 129 90
105 129 90
105 129 90
105 129 90
86 115 71
0 99 0
0 94 0
0 94 0
0 94 0
0 92 0
0 91 0
0 90 0
0 90 0
0 91 0
0 91 0
0 92 0
0 95 0
0 95 0
0 95 0
0 94 0
0 95 0
0 97 0
0 97 0
0 97 0
0 102 0
0 100 0
0 99 0
0 97 0
0 97 0
0 97 0
0 96 0
0 96 0
0 96 0
0 97 0
0 99 0
0 97 0
0 96 0
0 94 0
0 91 0
0 93 0
0 94 0
0 95 0
0 95 0
0 96 0
0 97 0
0 97 0
0 97 0
0 97 0
0 97 0
0 100 0
0 101 0
0 101 0
0 97 0
0 92 0
0 93 0
0 95 0
0 96 0
0 99 0
0 100 0
0 100 0
0 99 0
0 101 0
0 108 0
0 109 0
56 118 47
105 130 90
105 130 90
105 130 90
105 130 90
105 130 91
105 130 91
105 130 91
105 130 91
105 130 91
105 130 91
105 130 91
105 130 91
105 130 91
105 130 91
105 130 91
105 130 91
105 130 90
105 130 90
105 130 90
105 130 90
105 130 90
105 130 90
105 130 90
105 130 90
105 130 90
105 130 90
105 130 90
105 130 90
105 130 90
105 130 90
105 130 90
105 130 90
105 129 90
105 129 90
105 129 90
105 129 90
105 129 90
105 129 90
105 129 90
105 129 90
105 129 90
105 129 90
105 129 90
105 129 90
105 129 90
105 129 90
105 129 90
105 129 90
105 129 90
105 129 90
105 129 90
105 129 90
105 129 90
105 129 90
105 129 90
105 129 90
105 129 90
105 129 90
105 129 90
105 129 90
105 129 90
105 129 90
105 129 90
105 129 90
105 129 90
105 129 90
105 129 90
105 129 90
105 129 90
105 129 90
105 129 90
105 129 90
105 129 90
105 129 90
105 129 90
105 129 90
105 129 90
105 129 90
105 129 90
105 129 90
105 129 90
105 129 90
105 129 90
105 129 90
105 129 90
105 129 90
105 129 90
105 129 90
105 129 90
105 129 90
105 129 90
105 129 90
105 129 90
105 129 90
105 129 90
105 129 90
105 129 90
102 118 81
85 0 0
80 0 0
80 0 0
84 0 0
96 95 64
105 129 90
107 124 86
81 0 0
81 0 0
95 84 56
105 129 90
105 129 90
105 129 90
105 129 90
105 129 90
105 129 90
105 129 90
105 129 90
105 129 90
105 129 90
105 129 90
105 129 90
105 129 90
105 129 90
105 129 90
105 129 90
105 129 90
105 129 90
105 129 90
105 129 90
105 129 90
105 129 90
105 129 90
105 129 90
105 129 90
105 129 90
105 129 90
105 129 90
105 129 90
105 129 90
105 129 90
105 129 90
84 106 64
0 94 0
0 94 0
0 94 0
0 93 0
0 95 0
0 94 0
0 95 0
0 95 0
46 86 0
65 101 47
83 117 70
89 120 76
100 127 86
89 121 76
75 115 64
67 111 56
0 100 0
0 99 0
0 99 0
0 102 0
0 101 0
0 100 0
0 99 0
0 99 0
0 99 0
0 99 0
0 99 0
0 100 0
0 99 0
0 97 0
0 97 0
0 99 0
0 98 0
0 99 0
0 98 0
0 97 0
0 97 0
0 96 0
0 97 0
0 97 0
0 98 0
0 98 0
0 98 0
0 102 0
0 102 0
0 100 0
0 97 0
0 98 0
0 98 0
0 98 0
0 98 0
0 99 0
0 98 0
0 98 0
0 99 0
0 106 0
0 107 0
0 112 0
100 128 86
105 130 90
105 130 90
105 130 90
105 130 90
105 130 90
105 130 90
105 130 90
105 130 91
105 130 91
105 130 91
105 130 91
105 130 91
105 130 91
105 130 90
105 130 90
105 130 90
105 130 90
105 130 90
105 130 90
105 130 90
105 130 90
105 130 90
105 130 90
105 130 90
105 130 90
105 130 90
105 130 90
105 130 90
105 130 90
105 130 90
105 130 90
105 129 90
105 129 90
105 129 90
105 129 90
105 129 90
105 129 90
105 129 90
105 129 90
105 129 90
105 129 90
105 129 90
105 129 90
105 129 90
105 129 90
105 129 90
105 129 90
105 129 90
105 129 90
105 129 90
105 129 90
105 129 90
105 129 90
105 129 90
105 129 90
105 129 90
105 129 90
105 129 90
105 129 90
105 129 90
105 129 90
105 129 90
105 129 90
105 129 90
105 129 90
105 129 90
105 129 90
105 129 90
105 129 90
105 129 90
105 129 90
105 129 90
105 129 90
105 129 90
105 129 90
105 129 90
105 129 90
105 129 90
105 129 90
105 129 90
105 129 90
105 129 90
105 129 90
105 129 90
105 129 90
105 129 90
105 129 90
105 129 90
105 129 90
105 129 90
105 129 90
105 129 90
105 129 90
105 129 90
105 129 90
105 129 90
105 129 90
105 129 90
97 103 70
81 0 0
80 0 0
84 0 0
101 111 76
107 123 86
111 52 35
82 0 0
80 0 0
90 71 47
105 129 90
105 129 90
105 129 90
105 129 90
105 129 90
105 129 90
105 129 90
105 129 90
105 129 90
105 129 90
105 129 90
105 129 90
105 129 90
105 129 90
105 129 90
105 129 90
105 129 90
105 129 90
105 129 90
105 129 90
105 129 90
105 129 90
105 129 90
105 129 90
105 129 90
105 129 90
105 129 90
105 129 90
105 129 90
105 129 90
105 129 90
105 129 90
105 129 90
81 83 47
40 85 0
0 91 0
0 90 0
0 89 0
41 98 35
62 87 35
77 37 0
86 0 0
100 111 76
105 129 90
105 129 90
105 129 90
105 129 90
105 129 90
105 129 90
105 129 90
105 129 90
89 121 76
83 118 70
67 113 56
56 110 47
0 103 0
0 102 0
0 102 0
0 102 0
0 102 0
0 101 0
0 99 0
0 99 0
0 100 0
0 100 0
0 100 0
0 100 0
0 100 0
0 101 0
0 101 0
0 101 0
0 101 0
0 102 0
0 102 0
0 102 0
0 103 0
0 102 0
0 99 0
0 98 0
0 98 0
0 99 0
0 101 0
0 102 0
0 102 0
0 102 0
0 101 0
0 99 0
0 104 0
0 107 0
0 109 0
89 126 76
105 130 90
105 130 90
105 130 90
105 130 90
105 130 90
105 130 90
105 130 90
105 130 90
105 130 90
105 130 90
105 130 91
105 130 91
105 130 91
105 130 90
105 130 90
105 130 90
105 130 90
105 130 90
105 130 90
105 130 90
105 130 90
105 130 90
105 130 90
105 130 90
105 130 90
105 130 90
105 130 90
105 130 90
105 130 90
105 130 90
105 130 90
105 129 90
105 129 90
105 129 90
105 129 90
105 129 90
105 129 90
105 129 90
105 129 90
105 129 90
105 129 90
105 129 90
105 129 90
105 129 90
105 129 90
105 129 90
105 129 90
105 129 90
105 129 90
105 129 90
105 129 90
105 129 90
105 129 90
105 129 90
105 129 90
105 129 90
105 129 90
105 129 90
105 129 90
105 129 90
105 129 90
105 129 90
105 129 90
105 129 90
105 129 90
105 129 90
105 129 90
105 129 90
105 129 90
105 129 90
105 129 90
105 129 90
105 129 90
105 129 90
105 129 90
105 129 90
105 129 90
105 129 90
105 129 90
105 129 90
105 129 90
105 129 90
105 129 90
105 129 90
105 129 90
105 129 90
105 129 90
105 129 90
105 129 90
105 129 90
105 129 90
105 129 90
105 129 90
105 129 90
105 129 90
105 129 90
105 129 90
105 129 90
105 129 90
105 129 90
85 52 34
82 0 0
88 0 0
101 103 70
98 52 35
93 0 0
85 0 0
81 0 0
103 123 86
105 129 90
105 129 90
105 129 90
105 129 90
105 129 90
105 129 90
105 129 90
105 129 90
105 129 90
105 129 90
105 129 90
105 129 90
105 129 90
105 129 90
105 129 90
105 129 90
105 129 90
105 129 90
105 129 90
105 129 90
105 129 90
105 129 90
105 129 90
105 129 90
105 129 90
105 129 90
105 129 90
105 129 90
105 129 90
105 129 90
105 129 90
105 129 90
105 129 90
103 123 86
83 52 34
60 77 0
41 76 0
0 89 0
95 123 81
99 95 64
81 0 0
84 0 0
100 111 76
105 129 90
105 129 90
105 129 90
105 129 90
105 129 90
105 129 90
105 129 90
105 129 90
105 129 90
105 129 90
105 129 90
105 129 90
105 129 90
100 127 86
89 122 76
105 129 90
105 129 90
105 129 90
105 129 90
100 127 86
89 122 76
89 122 76
89 122 76
83 119 70
67 113 56
67 113 56
67 113 56
56 109 47
0 103 0
0 103 0
0 104 0
0 103 0
0 102 0
0 101 0
0 100 0
0 101 0
0 103 0
0 104 0
0 103 0
0 101 0
0 99 0
0 98 0
0 98 0
0 102 0
0 106 0
0 103 0
75 120 64
105 130 90
105 130 90
105 130 90
105 130 90
105 130 90
105 130 90
105 130 90
105 130 90
105 130 90
105 130 90
105 130 90
105 130 90
105 130 90
105 130 90
105 130 90
105 130 90
105 130 90
105 130 90
105 130 90
105 130 90
105 130 90
105 130 90
105 130 90
105 130 90
105 130 90
105 130 90
105 130 90
105 130 90
105 130 90
105 130 90
105 129 90
105 129 90
105 129 90
105 129 90
105 129 90
105 129 90
105 129 90
105 129 90
105 129 90
105 129 90
105 129 90
105 129 90
105 129 90
105 129 90
105 129 90
105 129 90
105 129 90
105 129 90
105 129 90
105 129 90
105 129 90
105 129 90
105 129 90
105 129 90
105 129 90
105 129 90
105 129 90
105 129 90
105 129 90
105 129 90
105 129 90
105 129 90
105 129 90
105 129 90
105 129 90
105 129 90
105 129 90
105 129 90
105 129 90
105 129 90
105 129 90
105 129 90
105 129 90
105 129 90
105 129 90
105 129 90
105 129 90
105 129 90
105 129 90
105 129 90
105 129 90
105 129 90
105 129 90
105 129 90
105 129 90
105 129 90
105 129 90
105 129 90
105 129 90
105 129 90
105 129 90
105 129 90
105 129 90
105 129 90
105 129 90
105 129 90
105 129 90
105 129 90
105 129 90
105 129 90
105 129 90
91 84 56
83 0 0
87 0 0
99 84 56
104 123 85
97 84 56
89 0 0
94 95 64
105 129 90
105 129 90
105 129 90
105 129 90
105 129 90
105 129 90
105 129 90
105 129 90
105 129 90
105 129 90
105 129 90
105 129 90
105 129 90
105 129 90
105 129 90
105 129 90
105 129 90
105 129 90
105 129 90
105 129 90
105 129 90
105 129 90
105 129 90
105 129 90
105 129 90
105 129 90
105 129 90
105 129 90
105 129 90
105 129 90
105 129 90
105 129 90
105 129 90
105 129 90
105 129 90
99 111 76
80 0 0
49 76 0
0 91 0
112 103 70
114 0 0
80 0 0
84 0 0
104 111 76
105 129 90
105 129 90
105 129 90
105 129 90
105 129 90
105 129 90
105 129 90
105 129 90
105 129 90
105 129 90
105 129 90
105 129 90
105 129 90
105 129 90
105 129 90
105 129 90
105 129 90
105 129 90
105 129 90
105 129 90
105 129 90
105 129 90
105 129 90
105 129 90
105 129 90
105 129 90
105 129 90
105 129 90
105 129 90
105 129 90
100 127 85
89 122 76
89 122 76
75 116 64
67 114 56
75 117 64
89 122 76
95 125 81
95 124 81
83 119 70
67 113 56
41 106 35
0 104 0
56 111 47
67 112 56
75 116 64
105 130 90
105 130 90
105 130 90
105 130 90
105 130 90
105 130 90
105 130 90
105 130 90
105 130 90
105 130 90
105 130 90
105 130 90
105 130 90
105 130 90
105 130 90
105 130 90
105 130 90
105 130 90
105 130 90
105 130 90
106 129 86
105 130 90
105 130 90
105 130 90
105 130 90
105 130 90
105 130 90
105 130 90
105 130 90
105 130 90
105 130 90
105 129 90
105 129 90
105 129 90
105 129 90
105 129 90
105 129 90
105 129 90
105 129 90
105 129 90
104 129 90
104 129 90
104 129 90
104 129 90
104 129 90
104 129 90
104 129 90
104 129 90
104 129 89
104 129 89
104 129 89
104 129 89
104 129 89
104 129 89
104 129 89
104 129 89
104 129 89
104 129 89
104 129 89
104 129 89
104 129 89
104 129 89
104 129 89
104 129 89
104 129 89
104 129 89
104 129 89
105 129 89
105 129 89
105 129 89
105 129 89
105 129 89
105 129 89
105 129 89
105 129 89
105 129 89
105 129 89
105 129 89
105 129 89
105 129 89
105 129 89
105 129 89
105 129 89
105 129 89
105 129 89
105 129 89
105 129 89
105 129 89
105 129 89
105 129 89
105 129 89
105 129 89
105 129 89
105 129 89
105 129 89
105 129 89
105 129 89
105 129 89
105 129 89
105 129 89
105 129 89
105 129 89
98 111 76
83 0 0
86 0 0
99 84 56
105 129 90
105 129 89
102 117 81
105 129 90
105 129 89
105 129 90
105 129 90
105 129 90
105 129 90
105 129 90
105 129 90
105 129 90
105 129 90
105 129 90
105 129 90
105 129 90
105 129 90
105 129 90
105 129 89
105 129 90
105 129 89
105 129 89
105 129 90
105 129 90
105 129 89
105 129 90
105 129 90
105 129 89
105 129 90
105 129 89
105 129 89
105 129 89
105 129 89
105 129 89
105 129 89
105 129 89
105 129 89
105 129 90
105 129 89
105 129 89
85 0 0
48 80 0
0 93 0
97 0 0
87 0 0
79 0 0
81 0 0
105 129 89
105 129 89
105 129 89
105 129 89
105 129 89
105 129 89
105 129 89
105 129 89
105 129 89
105 129 89
105 129 89
105 129 89
105 129 89
105 129 89
105 129 89
105 129 89
105 129 89
105 129 89
105 129 89
105 129 89
105 129 89
105 129 89
105 129 90
105 129 89
105 129 89
105 129 89
105 129 90
105 129 90
105 129 90
105 129 90
105 129 90
105 129 90
105 129 90
105 129 90
105 129 90
105 129 90
105 129 90
105 129 90
105 129 90
105 129 90
105 129 90
105 129 90
105 129 90
105 130 90
105 130 90
105 130 90
105 130 90
105 130 90
105 130 90
105 130 90
105 130 90
105 130 90
105 130 90
105 130 90
105 130 90
105 130 90
105 130 90
105 130 90
105 130 90
105 130 90
105 130 90
105 130 90
105 130 90
105 130 90
105 130 90
105 130 90
110 127 70
104 117 47
105 130 90
105 130 90
105 130 90
105 130 90
105 130 90
105 130 90
105 130 90
105 130 90
105 129 90
105 129 90
105 129 90
105 129 90
105 129 90
104 129 90
104 129 90
104 129 90
104 129 90
104 129 90
104 129 89
104 129 89
104 129 89
104 129 89
104 129 89
104 129 89
104 129 89
104 129 89
104 129 89
104 129 89
104 129 89
104 129 89
104 129 89
104 129 89
104 129 89
104 129 89
104 129 89
104 129 89
104 129 89
104 129 89
104 129 89
104 129 89
104 129 89
104 129 89
104 129 89
104 129 89
104 129 89
104 129 89
104 129 89
104 129 89
104 129 89
104 129 89
104 129 89
104 129 89
104 129 89
104 129 89
104 129 89
104 129 89
104 129 89
105 129 89
112 130 80
113 129 75
121 135 75
105 129 89
105 129 89
105 129 89
105 129 89
105 129 89
105 129 89
105 129 89
105 129 89
105 129 89
105 129 89
105 129 89
105 129 89
105 129 89
105 129 89
105 129 89
105 129 89
105 129 89
105 129 89
105 129 89
105 129 89
103 123 85
83 0 0
83 0 0
99 84 56
105 129 89
105 129 89
105 129 89
105 129 89
105 129 89
105 129 89
105 129 89
105 129 89
105 129 89
105 129 89
105 129 89
105 129 89
105 129 89
105 129 89
105 129 89
105 129 89
105 129 89
105 129 89
105 129 89
105 129 89
105 129 89
105 129 89
105 129 89
105 129 89
105 129 89
105 129 89
105 129 89
105 129 89
105 129 89
105 129 89
105 129 89
105 129 89
105 129 89
105 129 89
105 129 89
105 129 89
105 129 89
105 129 89
105 129 89
105 129 89
86 0 0
67 64 0
69 55 0
92 0 0
87 0 0
80 0 0
93 94 63
105 129 89
105 129 89
105 129 89
105 129 89
105 129 89
105 129 89
105 129 89
105 129 89
105 129 89
105 129 89
105 129 89
105 129 89
105 129 89
105 129 89
105 129 89
105 129 89
105 129 89
105 129 89
105 129 89
105 129 89
105 129 89
105 129 89
105 129 89
105 129 89
105 129 89
105 129 89
105 129 89
105 129 89
105 129 89
105 129 89
105 129 89
105 129 89
105 129 89
105 129 89
105 129 90
105 129 90
105 129 90
105 129 90
105 129 90
105 129 90
105 129 90
105 129 90
105 129 90
105 129 90
105 129 90
105 130 90
105 130 90
105 130 90
105 130 90
105 130 90
105 130 90
105 130 90
105 130 90
105 130 90
105 130 90
105 130 90
105 130 90
105 130 90
105 130 90
105 130 90
105 130 90
105 130 90
105 130 90
105 130 90
105 130 90
105 130 90
98 120 76
81 92 0
98 118 70
105 130 90
105 130 90
105 130 90
105 130 90
105 130 90
104 130 90
104 129 90
104 129 90
104 129 90
104 129 90
104 129 90
104 129 90
104 129 89
104 129 89
104 129 89
104 129 89
104 129 89
104 129 89
104 129 89
104 129 89
104 129 89
104 129 89
104 129 89
104 129 89
104 129 89
104 129 89
104 129 89
104 129 89
104 129 89
104 129 89
104 129 89
104 129 89
104 129 89
104 129 89
104 129 89
104 129 89
104 129 89
104 129 89
104 129 89
104 129 89
104 129 89
104 129 89
104 129 89
104 129 89
104 129 89
111 130 80
114 131 75
117 131 70
123 133 56
126 135 56
127 136 56
130 138 56
119 134 75
116 132 75
117 131 70
123 133 56
130 135 0
132 137 0
132 136 0
127 132 0
126 131 0
132 136 0
130 137 47
104 129 89
104 128 89
105 129 89
105 128 89
105 128 89
105 128 89
105 128 89
105 128 89
105 128 89
105 128 89
105 128 89
105 129 89
105 129 89
105 129 89
105 129 89
105 129 89
105 129 89
105 129 89
86 52 34
83 0 0
95 0 0
105 129 89
105 129 89
105 129 89
105 129 89
105 129 89
105 129 89
105 129 89
105 129 89
105 129 89
105 129 89
105 129 89
105 129 89
105 129 89
105 129 89
105 129 89
105 129 89
105 129 89
105 129 89
105 129 89
105 129 89
105 129 89
105 129 89
105 129 89
105 129 89
105 129 89
105 129 89
105 129 89
105 129 89
105 129 89
105 129 89
105 129 89
105 129 89
105 129 89
105 129 89
105 129 89
105 129 89
105 129 89
105 129 89
105 129 89
105 129 89
93 84 56
80 0 0
78 0 0
91 84 56
87 0 0
87 71 47
105 129 89
105 129 89
105 129 89
105 129 89
105 129 89
105 129 89
104 129 89
104 129 89
104 129 89
105 129 89
105 129 89
104 129 89
104 129 89
104 129 89
104 129 89
104 129 89
104 129 89
104 129 89
104 129 89
104 129 89
104 129 89
104 129 89
104 129 89
104 129 89
104 129 89
104 129 89
104 129 89
104 129 89
105 129 89
104 129 89
105 129 89
105 129 89
105 129 89
105 129 89
105 129 89
105 129 89
105 129 89
105 129 89
105 129 89
105 129 89
105 129 89
105 129 89
105 129 90
105 129 90
105 129 90
105 129 90
105 129 90
105 130 90
105 130 90
105 130 90
105 130 90
105 130 90
105 130 90
105 130 90
105 130 90
105 130 90
105 130 90
105 130 90
105 130 90
105 130 90
105 130 90
105 130 90
105 130 90
105 130 90
105 130 90
105 130 90
105 130 90
105 130 90
93 102 0
89 97 0
102 125 81
105 130 90
105 130 90
104 130 90
104 130 90
104 129 90
104 129 90
104 129 89
104 129 89
104 129 89
104 129 89
104 129 89
104 129 89
104 129 89
104 129 89
104 129 89
104 129 89
104 129 89
104 129 89
104 129 89
104 129 89
104 129 89
104 129 89
104 129 89
104 129 89
104 129 89
104 129 89
104 129 89
104 129 89
104 129 89
104 129 89
104 129 89
104 129 89
104 129 89
104 129 89
104 129 89
107 129 85
114 131 75
114 131 75
114 131 75
114 131 75
121 132 56
120 131 56
125 133 34
127 133 0
127 133 0
127 133 0
128 133 0
129 134 0
130 134 0
130 135 0
131 135 0
127 132 0
119 126 0
121 127 0
122 128 0
122 128 0
128 132 0
133 137 0
134 137 0
126 131 0
125 130 0
130 134 0
127 136 56
104 128 89
104 128 89
104 128 89
104 128 89
104 128 89
104 128 89
104 128 89
104 128 89
104 128 89
104 128 89
104 128 89
104 128 89
104 128 89
105 128 89
105 128 89
105 128 89
105 128 89
90 71 47
83 0 0
92 0 0
105 128 89
105 128 89
105 128 89
105 128 89
105 128 89
105 128 89
105 128 89
105 128 89
105 129 89
105 128 89
105 129 89
105 129 89
105 128 89
105 129 89
105 128 89
105 128 89
105 128 89
105 128 89
105 128 89
105 128 89
105 128 89
105 128 89
105 128 89
105 128 89
105 128 89
105 128 89
105 128 89
105 128 89
105 128 89
105 129 89
105 128 89
105 128 89
105 128 89
105 128 89
105 128 89
105 128 89
105 128 89
104 128 89
105 129 89
105 129 89
93 84 56
80 0 0
81 0 0
96 94 63
103 123 85
102 123 85
104 129 89
104 129 89
104 129 89
104 129 89
104 129 89
104 129 89
104 129 89
104 129 89
104 129 89
104 129 89
104 129 89
104 129 89
104 129 89
104 129 89
104 129 89
104 129 89
104 129 89
104 129 89
104 129 89
104 129 89
104 129 89
104 129 89
104 129 89
104 129 89
104 129 89
104 129 89
104 129 89
104 129 89
104 129 89
104 129 89
104 129 89
104 129 89
104 129 89
104 129 89
104 129 89
104 129 89
104 129 89
104 129 89
104 129 89
104 129 89
104 129 89
105 129 89
105 129 89
105 129 89
105 129 89
105 129 89
105 129 89
105 129 89
105 130 90
105 130 90
105 130 90
105 130 90
105 130 90
105 130 90
105 130 90
105 130 90
105 130 90
105 130 90
105 130 90
105 130 90
105 130 90
105 130 90
105 130 90
105 130 90
105 130 90
105 130 90
105 130 90
105 130 90
98 113 47
87 95 0
95 105 34
104 130 90
104 130 90
104 130 90
104 129 89
104 129 89
104 129 89
104 129 89
104 129 89
104 129 89
104 129 89
104 129 89
104 129 89
104 129 89
104 129 89
104 129 89
104 129 89
104 129 89
104 129 89
104 129 89
104 129 89
104 129 89
111 130 75
112 130 75
112 130 75
112 130 75
112 130 75
112 130 75
112 130 75
112 130 75
115 130 70
119 131 56
119 131 56
126 133 0
126 133 0
125 132 0
125 131 0
125 132 0
126 132 0
127 132 0
127 133 0
127 133 0
125 131 0
123 129 0
123 129 0
121 127 0
120 126 0
122 128 0
127 131 0
128 133 0
129 133 0
129 134 0
128 133 0
128 133 0
122 128 0
117 124 0
117 124 0
124 129 0
127 132 0
129 133 0
131 135 0
125 130 0
128 133 0
130 135 0
124 135 63
104 128 89
104 128 89
104 128 89
104 128 89
104 128 89
104 128 89
104 128 89
104 128 89
104 128 89
104 128 89
104 128 89
104 128 89
104 128 89
104 128 89
104 128 89
103 111 75
86 0 0
82 0 0
92 0 0
104 128 89
104 128 89
104 128 89
104 128 89
104 128 89
104 128 89
104 128 89
104 128 89
104 128 89
105 128 89
104 128 89
104 128 89
104 128 89
105 128 89
105 128 89
104 128 89
105 128 89
104 128 89
105 128 89
104 128 89
104 128 89
104 128 89
104 128 89
104 128 89
104 128 89
104 128 89
104 128 89
104 128 89
104 128 89
104 128 89
104 128 89
104 128 89
104 128 89
104 128 89
104 128 89
104 128 89
104 128 89
104 128 89
104 128 89
104 128 89
99 111 75
79 0 0
83 0 0
89 84 56
104 128 89
104 128 89
104 128 89
104 129 89
104 128 89
104 129 89
104 129 89
104 129 89
104 129 89
104 129 89
104 129 89
104 129 89
104 129 89
104 129 89
104 129 89
104 129 89
104 129 89
104 129 89
104 129 89
104 129 89
104 129 89
104 129 89
104 129 89
104 129 89
104 129 89
104 129 89
104 129 89
104 129 89
104 129 89
104 129 89
104 129 89
104 129 89
104 129 89
104 129 89
104 129 89
104 129 89
104 129 89
104 129 89
104 129 89
104 129 89
104 129 89
104 129 89
104 129 89
104 129 89
104 129 89
104 129 89
104 129 89
105 129 89
104 129 89
105 129 89
105 129 89
105 130 89
105 130 89
105 130 90
105 130 90
105 130 90
105 130 90
105 130 90
105 130 90
105 130 90
105 130 90
105 130 90
105 130 90
105 130 90
105 130 90
105 130 90
105 130 90
105 130 90
103 123 70
100 114 34
90 101 0
87 97 0
95 101 0
102 111 34
105 122 70
104 129 89
104 129 89
104 129 89
104 129 89
104 129 89
104 129 89
104 129 89
104 129 89
104 129 89
104 129 89
104 129 89
104 129 89
104 129 89
104 129 89
110 129 75
111 128 70
114 128 56
117 127 34
119 127 0
119 126 0
119 127 0
120 127 0
120 127 0
121 128 0
122 129 0
122 129 0
122 129 0
121 127 0
119 127 0
119 127 0
118 126 0
119 126 0
119 126 0
119 126 0
121 127 0
121 127 0
122 128 0
123 129 0
123 129 0
125 130 0
121 126 0
116 122 0
116 122 0
116 123 0
116 122 0
117 124 0
123 128 0
127 132 0
128 133 0
127 132 0
126 132 0
127 132 0
125 130 0
118 124 0
123 128 0
126 131 0
127 131 0
125 130 0
124 129 0
126 131 0
127 132 0
131 136 0
114 131 75
104 128 89
104 128 89
104 128 89
104 128 89
104 128 89
104 128 89
104 128 89
104 128 89
104 128 89
104 128 89
104 128 89
104 128 89
104 128 89
103 111 75
97 0 0
80 0 0
80 0 0
90 52 34
104 128 89
104 128 89
104 128 89
104 128 89
104 128 89
104 128 89
104 128 89
104 128 89
104 128 89
104 128 89
104 128 89
104 128 89
104 128 89
104 128 89
104 128 89
104 128 89
104 128 89
104 128 89
104 128 89
104 128 89
104 128 89
104 128 89
104 128 89
104 128 89
104 128 89
104 128 89
104 128 89
104 128 89
104 128 89
104 128 89
104 128 89
104 128 89
104 128 89
104 128 89
104 128 89
104 128 89
104 128 89
104 128 89
104 128 89
104 128 89
99 111 75
79 0 0
83 0 0
91 84 56
104 128 89
104 128 89
104 128 89
104 128 89
104 128 89
104 128 89
104 128 89
104 128 89
104 128 89
104 129 89
104 128 89
104 128 89
104 129 89
104 129 89
104 129 89
104 129 89
104 129 89
104 129 89
104 129 89
104 129 89
104 129 89
104 129 89
104 129 89
104 129 89
104 129 89
104 129 89
104 129 89
104 129 89
104 129 89
104 129 89
104 129 89
104 129 89
104 129 89
104 129 89
104 129 89
104 129 89
104 129 89
104 129 89
104 129 89
104 129 89
104 129 89
104 129 89
104 129 89
104 129 89
104 129 89
104 129 89
104 129 89
104 129 89
104 129 89
104 129 89
104 129 89
104 129 89
105 130 89
105 130 89
105 130 89
105 130 89
105 130 90
105 130 90
105 130 90
105 130 90
105 130 90
105 130 90
105 130 90
105 130 90
105 130 90
104 128 85
103 123 70
101 115 34
101 113 0
101 112 0
104 113 0
105 113 0
101 109 0
103 111 0
108 116 0
111 121 34
107 125 70
110 129 75
110 129 75
104 129 89
104 129 89
104 129 89
104 129 89
104 129 89
108 128 75
108 126 70
110 125 56
112 123 34
115 125 0
117 126 0
117 126 0
117 126 0
118 126 0
118 125 0
118 125 0
118 125 0
118 125 0
118 125 0
117 124 0
117 124 0
117 124 0
117 124 0
116 124 0
115 124 0
116 124 0
117 125 0
118 126 0
118 126 0
119 126 0
120 126 0
120 126 0
120 127 0
121 127 0
122 128 0
125 130 0
125 130 0
124 129 0
117 123 0
115 122 0
115 122 0
115 122 0
116 122 0
117 123 0
123 129 0
125 130 0
125 131 0
122 127 0
122 127 0
121 127 0
122 127 0
121 126 0
120 125 0
120 126 0
121 126 0
124 129 0
126 132 0
128 133 0
114 123 34
108 129 84
104 128 89
104 128 89
104 128 89
104 128 89
104 128 89
104 128 89
104 128 89
104 128 89
104 128 89
104 128 89
104 128 89
104 128 89
101 84 55
90 0 0
80 0 0
86 70 46
97 110 75
104 128 89
104 128 89
104 128 89
104 128 89
104 128 89
104 128 89
104 128 89
104 128 89
104 128 89
104 128 89
104 128 89
104 128 89
104 128 89
104 128 89
104 128 89
104 128 89
104 128 89
104 128 89
104 128 89
104 128 89
104 128 89
104 128 89
104 128 89
104 128 89
104 128 89
104 128 89
104 128 89
104 128 89
104 128 89
104 128 89
104 128 89
104 128 89
104 128 89
104 128 89
104 128 89
104 128 89
104 128 89
104 128 89
104 128 89
104 128 89
101 111 75
79 0 0
82 0 0
96 84 55
104 128 89
104 128 89
104 128 89
104 128 89
104 128 89
104 128 89
104 128 89
104 128 89
104 128 89
104 128 89
104 128 89
104 128 89
104 128 89
104 128 89
104 129 89
104 129 89
104 129 89
104 129 89
104 129 89
104 129 89
104 129 89
104 129 89
104 129 89
104 129 89
104 129 89
104 129 89
104 129 89
104 129 89
104 129 89
104 129 89
104 129 89
104 129 89
104 129 89
104 129 89
104 129 89
104 129 89
104 129 89
104 129 89
104 129 89
104 129 89
104 129 89
104 129 89
104 129 89
104 129 89
104 129 89
104 129 89
104 129 89
104 129 89
104 129 89
104 129 89
104 129 89
104 129 89
104 130 89
104 130 89
104 130 89
105 130 89
105 130 89
105 130 89
105 130 89
105 130 90
105 130 90
105 130 90
105 130 90
105 130 90
105 130 90
105 120 34
100 112 0
100 111 0
102 112 0
101 110 0
99 109 0
104 112 0
105 113 0
104 113 0
105 114 0
106 114 0
106 115 0
106 115 0
110 118 0
113 121 0
118 125 0
117 125 0
112 123 34
112 121 0
111 121 0
109 120 0
108 119 0
113 123 0
113 123 0
113 122 0
113 121 0
114 122 0
115 122 0
116 123 0
116 123 0
116 123 0
116 123 0
116 123 0
116 123 0
116 123 0
117 123 0
116 123 0
115 123 0
115 123 0
111 119 0
111 119 0
106 115 0
110 117 0
111 118 0
111 118 0
111 118 0
111 118 0
111 118 0
113 119 0
116 122 0
117 122 0
119 124 0
120 126 0
114 120 0
114 121 0
114 121 0
114 121 0
115 121 0
115 121 0
117 123 0
115 121 0
113 119 0
112 118 0
112 119 0
117 123 0
119 125 0
119 124 0
119 125 0
120 125 0
121 126 0
125 130 0
126 131 0
85 94 0
122 132 55
104 128 88
104 128 88
104 128 88
104 128 88
104 128 88
104 128 88
104 128 88
104 128 88
104 128 88
104 128 88
104 128 88
104 128 88
103 117 80
95 103 69
102 123 84
104 128 88
104 128 88
104 128 88
104 128 88
104 128 88
104 128 88
104 128 88
104 128 88
104 128 88
104 128 88
104 128 88
104 128 88
104 128 88
104 128 88
104 128 88
104 128 88
104 128 88
104 128 88
104 128 88
104 128 88
104 128 88
104 128 88
104 128 88
104 128 88
104 128 88
104 128 88
104 128 88
104 128 88
104 128 88
104 128 88
104 128 88
104 128 88
104 128 88
104 128 88
104 128 88
104 128 88
104 128 88
104 128 88
104 128 88
104 128 88
104 128 88
99 103 69
85 0 0
75 0 0
81 0 0
98 84 55
104 128 88
104 128 88
104 128 88
104 128 88
104 128 88
104 128 88
104 128 88
104 128 88
104 128 88
104 128 88
104 128 88
104 128 88
104 128 88
104 128 88
104 128 88
104 128 88
104 128 88
104 128 88
104 129 88
104 129 88
104 129 89
104 129 88
104 129 88
104 129 88
104 129 89
104 129 89
104 129 89
104 129 89
104 129 89
104 129 89
104 129 89
104 129 89
104 129 89
104 129 89
104 129 89
104 129 89
104 129 89
104 129 89
104 129 89
104 129 89
104 129 89
104 129 89
104 129 89
104 129 89
104 129 89
104 129 89
104 129 89
104 129 89
104 129 89
104 129 89
104 129 89
104 129 89
104 129 89
104 130 89
104 130 89
104 130 89
104 130 89
104 130 89
105 130 89
105 130 89
105 130 89
105 130 89
105 130 90
105 130 90
105 130 90
103 117 0
101 112 0
102 112 0
101 110 0
101 110 0
99 108 0
96 106 0
98 108 0
105 114 0
106 114 0
102 112 0
101 111 0
104 113 0
104 113 0
104 113 0
104 113 0
104 114 0
104 114 0
108 118 0
107 117 0
107 118 0
110 121 0
110 120 0
110 120 0
111 119 0
111 120 0
110 118 0
109 117 0
105 112 0
102 110 0
103 111 0
106 114 0
107 115 0
108 115 0
108 115 0
106 114 0
105 114 0
100 110 0
100 110 0
100 110 0
100 110 0
101 110 0
104 111 0
104 112 0
105 113 0
106 113 0
106 113 0
106 113 0
108 115 0
111 117 0
112 118 0
112 118 0
112 118 0
107 113 0
99 107 0
105 112 0
112 119 0
114 120 0
114 121 0
116 122 0
117 123 0
117 123 0
116 122 0
113 119 0
112 118 0
123 128 0
118 124 0
119 124 0
119 125 0
120 126 0
121 127 0
124 130 0
75 86 0
111 117 0
110 129 79
104 128 88
104 128 88
104 128 88
104 128 88
104 128 88
104 128 88
104 128 88
104 128 88
104 128 88
104 128 88
104 128 88
104 128 88
104 128 88
104 128 88
104 128 88
104 128 88
104 128 88
104 128 88
104 128 88
104 128 88
104 128 88
104 128 88
104 128 88
104 128 88
104 128 88
104 128 88
104 128 88
104 128 88
104 128 88
104 128 88
104 128 88
104 128 88
104 128 88
104 128 88
104 128 88
104 128 88
104 128 88
104 128 88
104 128 88
104 128 88
104 128 88
104 128 88
104 128 88
104 128 88
104 128 88
104 128 88
104 128 88
104 128 88
104 128 88
104 128 88
104 128 88
104 128 88
104 128 88
104 128 88
94 84 55
84 0 0
81 0 0
74 0 0
78 0 0
103 123 84
104 128 88
104 128 88
104 128 88
104 128 88
104 128 88
104 128 88
104 128 88
104 128 88
104 128 88
104 128 88
104 128 88
104 128 88
104 128 88
104 128 88
104 128 88
104 128 88
104 128 88
104 128 88
104 128 88
104 128 88
104 128 88
104 129 88
104 129 88
104 129 88
104 129 88
104 129 88
104 129 88
104 129 88
104 129 88
104 129 88
104 129 88
104 129 88
104 129 88
104 129 89
104 129 89
104 129 89
104 129 89
104 129 89
104 129 89
104 129 89
104 129 89
104 129 89
104 129 89
104 129 89
104 129 89
104 129 89
104 129 89
104 129 89
104 129 89
104 129 89
104 129 89
104 129 89
104 129 89
104 129 89
104 129 89
104 130 89
104 130 89
104 130 89
104 130 89
104 130 89
105 130 89
105 130 89
105 130 89
105 130 89
105 130 90
103 116 0
102 113 0
101 110 0
101 110 0
101 110 0
100 109 0
97 107 0
96 106 0
96 106 0
96 107 0
97 107 0
97 107 0
97 107 0
97 107 0
97 107 0
98 108 0
98 108 0
101 113 0
106 117 0
106 118 0
108 119 0
109 119 0
109 119 0
109 117 0
107 115 0
106 114 0
106 114 0
106 113 0
103 110 0
100 109 0
102 110 0
103 111 0
103 111 0
103 111 0
102 110 0
98 107 0
94 105 0
99 109 0
100 110 0
100 110 0
100 110 0
102 110 0
103 111 0
103 111 0
104 111 0
105 112 0
105 113 0
106 113 0
107 114 0
111 117 0
111 117 0
111 117 0
111 117 0
108 114 0
96 104 0
96 105 0
96 105 0
101 109 0
106 114 0
115 122 0
114 120 0
110 116 0
110 116 0
110 117 0
107 114 0
116 122 0
121 127 0
118 123 0
118 124 0
119 125 0
119 125 0
119 126 0
74 84 0
76 85 0
121 129 34
104 128 88
104 128 88
104 128 88
104 128 88
104 128 88
104 128 88
104 128 88
104 128 88
104 128 88
104 128 88
104 128 88
104 128 88
104 128 88
104 128 88
104 128 88
104 128 88
104 128 88
104 128 88
104 128 88
104 128 88
104 128 88
104 128 88
104 128 88
104 128 88
104 128 88
104 128 88
104 128 88
104 128 88
104 128 88
104 128 88
104 128 88
104 128 88
104 128 88
104 128 88
104 128 88
104 128 88
104 128 88
104 128 88
104 128 88
104 128 88
104 128 88
104 128 88
104 128 88
104 128 88
104 128 88
104 128 88
104 128 88
104 128 88
104 128 88
104 128 88
104 128 88
104 128 88
104 128 88
102 123 84
90 70 46
85 0 0
81 0 0
75 0 0
96 110 74
104 128 88
104 128 88
104 128 88
104 128 88
104 128 88
104 128 88
104 128 88
104 128 88
104 128 88
104 128 88
104 128 88
104 128 88
104 128 88
104 128 88
104 128 88
104 128 88
104 128 88
104 128 88
104 128 88
104 128 88
104 128 88
104 128 88
104 128 88
104 129 88
104 128 88
104 129 88
104 129 88
104 129 88
104 129 88
104 129 88
104 129 88
104 129 88
104 129 88
104 129 88
104 129 88
104 129 88
104 129 88
104 129 88
104 129 88
104 129 88
104 129 89
104 129 89
104 129 89
104 129 89
104 129 89
104 129 89
104 129 89
104 129 89
104 129 89
104 129 89
104 129 89
104 129 89
104 129 89
104 129 89
104 129 89
104 129 89
104 129 89
104 130 89
104 130 89
104 130 89
104 130 89
104 130 89
104 130 89
104 130 89
104 130 89
105 130 89
102 115 0
100 109 0
100 109 0
101 110 0
101 110 0
101 110 0
99 108 0
96 106 0
96 106 0
96 106 0
96 106 0
96 107 0
97 107 0
97 107 0
97 107 0
97 107 0
101 113 0
102 114 0
106 117 0
104 117 0
102 113 0
100 111 0
99 109 0
102 110 0
104 112 0
105 113 0
105 113 0
105 111 0
102 109 0
100 109 0
100 109 0
102 110 0
102 110 0
101 109 0
101 109 0
98 106 0
93 104 0
93 104 0
98 108 0
100 110 0
100 110 0
102 110 0
103 111 0
103 111 0
103 111 0
103 111 0
104 112 0
105 113 0
107 114 0
110 116 0
110 116 0
110 116 0
111 116 0
110 116 0
96 104 0
96 104 0
96 105 0
96 105 0
93 102 0
91 100 0
99 106 0
92 100 0
92 100 0
92 100 0
93 100 0
99 107 0
113 119 0
119 125 0
118 124 0
118 124 0
116 122 0
109 118 0
72 81 0
74 82 0
110 117 0
115 129 62
104 128 88
104 128 88
104 128 88
104 128 88
104 128 88
104 128 88
104 128 88
104 128 88
104 128 88
104 128 88
104 128 88
104 128 88
104 128 88
104 128 88
104 128 88
104 128 88
104 128 88
104 128 88
104 128 88
104 128 88
104 128 88
104 128 88
104 128 88
104 128 88
104 128 88
104 128 88
104 128 88
104 128 88
104 128 88
104 128 88
104 128 88
104 128 88
104 128 88
104 128 88
104 128 88
104 128 88
104 128 88
104 128 88
104 128 88
104 128 88
104 128 88
104 128 88
104 128 88
104 128 88
104 128 88
104 128 88
104 128 88
104 128 88
104 128 88
104 128 88
104 128 88
104 128 88
104 128 88
104 128 88
94 94 62
82 0 0
96 110 74
104 128 88
104 128 88
104 128 88
104 128 88
104 128 88
104 128 88
104 128 88
104 128 88
104 128 88
104 128 88
104 128 88
104 128 88
104 128 88
104 128 88
104 128 88
104 128 88
104 128 88
104 128 88
104 128 88
104 128 88
104 128 88
104 128 88
104 128 88
104 128 88
104 128 88
104 128 88
104 128 88
104 129 88
104 129 88
104 129 88
104 129 88
104 129 88
104 129 88
104 129 88
104 129 88
104 129 88
104 129 88
104 129 88
104 129 88
104 129 88
104 129 88
104 129 88
104 129 88
104 129 88
104 129 88
104 129 89
104 129 89
104 129 89
104 129 89
104 129 89
104 129 89
104 129 89
104 129 89
104 129 89
104 129 89
104 129 89
104 129 89
104 129 89
104 130 89
104 130 89
104 130 89
104 130 89
104 130 89
104 130 89
104 130 89
104 130 89
105 130 89
97 106 0
97 106 0
93 102 0
93 102 0
93 102 0
90 100 0
89 99 0
92 103 0
92 103 0
93 104 0
94 105 0
94 105 0
94 105 0
94 105 0
97 107 0
98 110 0
99 112 0
99 112 0
104 118 0
99 111 0
97 108 0
97 109 0
100 109 0
101 109 0
101 109 0
100 108 0
102 109 0
105 111 0
101 109 0
100 108 0
99 108 0
93 102 0
97 105 0
101 109 0
100 108 0
97 105 0
93 104 0
93 104 0
93 104 0
96 106 0
100 109 0
102 110 0
103 110 0
103 110 0
103 111 0
103 111 0
103 111 0
103 111 0
106 113 0
109 115 0
110 116 0
110 116 0
110 116 0
110 116 0
98 106 0
95 104 0
94 103 0
89 98 0
88 97 0
88 97 0
104 110 0
104 111 0
96 103 0
92 100 0
92 100 0
98 105 0
102 110 0
107 114 0
111 118 0
104 114 0
103 112 0
100 112 0
75 84 0
69 77 0
106 113 0
115 128 55
104 128 88
104 128 88
104 128 88
104 128 88
104 128 88
104 128 88
104 128 88
104 128 88
104 128 88
104 128 88
104 128 88
104 128 88
104 128 88
104 128 88
104 128 88
104 128 88
104 128 88
104 128 88
104 128 88
104 128 88
104 128 88
104 128 88
104 128 88
104 128 88
104 128 88
104 128 88
104 128 88
104 128 88
104 128 88
104 128 88
104 128 88
104 128 88
104 128 88
104 128 88
104 128 88
104 128 88
104 128 88
104 128 88
104 128 88
104 128 88
104 128 88
104 128 88
104 128 88
104 128 88
104 128 88
104 128 88
104 128 88
104 128 88
104 128 88
104 128 88
104 128 88
104 128 88
104 128 88
104 128 88
104 128 88
101 123 84
104 128 88
104 128 88
104 128 88
104 128 88
104 128 88
104 128 88
104 128 88
104 128 88
104 128 88
104 128 88
104 128 88
104 128 88
104 128 88
104 128 88
104 128 88
104 128 88
104 128 88
104 128 88
104 128 88
104 128 88
104 128 88
104 128 88
104 128 88
104 128 88
104 128 88
104 128 88
104 128 88
104 128 88
104 128 88
104 128 88
104 128 88
104 129 88
104 129 88
104 129 88
104 129 88
104 129 88
104 129 88
104 129 88
104 129 88
104 129 88
104 129 88
104 129 88
104 129 88
104 129 88
104 129 88
104 129 88
104 129 88
104 129 88
104 129 88
104 129 88
104 129 88
104 129 89
104 129 89
104 129 89
104 129 89
104 129 89
104 129 89
104 129 89
104 129 89
104 129 89
104 130 89
104 130 89
104 130 89
104 130 89
104 130 89
104 130 89
104 130 89
104 130 89
83 94 0
83 94 0
83 94 0
83 93 0
83 93 0
83 93 0
82 93 0
90 102 0
89 101 0
89 101 0
89 100 0
89 100 0
89 100 0
89 100 0
90 101 0
95 108 0
95 109 0
100 114 0
102 116 0
98 111 0
97 109 0
98 109 0
100 109 0
100 109 0
98 106 0
93 101 0
87 95 0
104 111 0
100 108 0
98 106 0
93 101 0
91 99 0
88 98 0
95 104 0
100 108 0
96 104 0
93 104 0
93 104 0
93 104 0
92 103 0
90 100 0
90 98 0
90 98 0
90 98 0
82 91 0
82 91 0
82 91 0
82 91 0
81 90 0
83 91 0
93 101 0
96 103 0
102 109 0
105 111 0
99 107 0
90 99 0
88 97 0
88 97 0
88 97 0
88 97 0
93 101 0
107 113 0
107 113 0
102 109 0
94 101 0
96 103 0
102 110 0
106 112 0
104 114 0
102 112 0
102 112 0
99 112 0
85 94 0
66 74 0
106 114 0
114 127 55
103 128 88
103 128 88
103 128 88
103 128 88
103 128 88
103 128 88
103 128 88
103 128 88
103 128 88
103 128 88
103 128 88
103 128 88
103 128 88
103 128 88
104 128 88
103 128 88
104 128 88
104 128 88
104 128 88
104 128 88
104 128 88
104 128 88
104 128 88
104 128 88
104 128 88
104 128 88
104 128 88
104 128 88
104 128 88
104 128 88
104 128 88
104 128 88
104 128 88
104 128 88
104 128 88
104 128 88
104 128 88
104 128 88
104 128 88
104 128 88
104 128 88
104 128 88
104 128 88
104 128 88
104 128 88
104 128 88
104 128 88
104 128 88
104 128 88
104 128 88
104 128 88
103 128 88
104 128 88
104 128 88
103 128 88
103 128 88
104 128 88
103 128 88
104 128 88
103 128 88
103 128 88
103 128 88
103 128 88
103 128 88
103 128 88
103 128 88
103 128 88
103 128 88
103 128 88
103 128 88
103 128 88
103 128 88
103 128 88
103 128 88
103 128 88
103 128 88
103 128 88
103 128 88
103 128 88
103 128 88
103 128 88
103 128 88
103 128 88
103 128 88
104 128 88
104 128 88
104 128 88
104 128 88
104 129 88
104 129 88
104 129 88
104 129 88
104 129 88
104 129 88
104 129 88
104 129 88
104 129 88
104 129 88
104 129 88
104 129 88
104 129 88
104 129 88
104 129 88
104 129 88
104 129 88
104 129 88
104 129 88
104 129 88
104 129 88
104 129 88
104 129 89
104 129 89
104 129 89
104 129 89
104 129 89
104 129 89
104 129 89
104 130 89
104 130 89
104 130 89
104 130 89
104 130 89
104 130 89
104 130 89
83 93 0
83 93 0
83 93 0
83 93 0
83 93 0
82 93 0
82 92 0
90 102 0
90 102 0
89 100 0
89 100 0
89 100 0
89 100 0
89 100 0
91 103 0
94 107 0
96 109 0
103 117 0
101 115 0
98 111 0
98 109 0
98 109 0
98 107 0
96 104 0
96 104 0
94 101 0
79 88 0
91 99 0
94 102 0
93 101 0
93 101 0
91 99 0
88 97 0
88 97 0
92 101 0
96 104 0
92 103 0
92 103 0
89 99 0
85 96 0
84 94 0
82 91 0
82 91 0
82 91 0
82 91 0
82 91 0
81 90 0
81 90 0
81 90 0
83 91 0
83 91 0
83 91 0
83 91 0
80 88 0
75 84 0
83 93 0
85 94 0
87 96 0
88 97 0
88 97 0
88 97 0
103 110 0
107 113 0
107 113 0
106 113 0
101 108 0
105 112 0
106 113 0
106 116 0
102 112 0
101 112 0
99 111 0
76 90 0
67 77 0
106 114 0
115 125 34
103 128 87
103 128 87
103 128 87
103 128 87
103 128 87
103 128 87
103 128 87
103 128 87
103 128 87
103 128 87
103 128 87
103 128 87
103 128 87
103 128 87
103 128 87
103 128 87
103 128 87
103 128 87
103 128 87
103 128 87
103 128 87
103 128 87
103 128 87
103 128 87
103 128 87
103 128 87
103 128 87
103 128 87
103 128 87
103 128 87
103 128 87
103 128 87
103 128 87
103 128 87
103 128 87
103 128 87
103 128 87
103 128 87
103 128 87
103 128 87
103 128 87
103 128 87
103 128 87
103 128 87
103 128 87
103 128 87
103 128 87
103 128 87
103 128 87
103 128 87
103 128 87
103 128 87
103 128 87
103 128 87
103 128 87
103 128 87
103 128 87
103 128 87
103 128 87
103 128 87
103 128 87
103 128 87
103 128 87
103 128 87
103 128 87
103 128 87
103 128 87
103 128 88
103 128 87
103 128 87
103 128 88
103 128 88
103 128 88
103 128 88
103 128 88
103 128 88
103 128 88
103 128 88
103 128 88
103 128 88
103 128 88
103 128 88
103 128 88
103 128 88
103 128 88
103 128 88
103 128 88
103 128 88
103 128 88
103 128 88
103 129 88
103 129 88
104 129 88
104 129 88
104 129 88
104 129 88
104 129 88
104 129 88
104 129 88
104 129 88
104 129 88
104 129 88
104 129 88
104 129 88
104 129 88
104 129 88
104 129 88
104 129 88
104 129 88
104 129 88
104 129 88
104 129 88
104 129 89
104 129 89
104 129 89
104 129 89
104 129 89
104 129 89
104 130 89
104 130 89
104 130 89
104 130 89
104 130 89
104 130 89
83 93 0
83 93 0
83 93 0
83 93 0
82 93 0
82 92 0
82 92 0
90 102 0
90 103 0
90 101 0
89 100 0
89 100 0
89 100 0
89 100 0
92 104 0
94 106 0
99 113 0
101 115 0
101 115 0
97 109 0
94 106 0
95 105 0
96 104 0
96 104 0
96 104 0
94 101 0
79 87 0
81 90 0
79 88 0
86 94 0
91 99 0
91 99 0
88 97 0
88 97 0
88 97 0
86 95 0
89 99 0
85 96 0
85 96 0
85 95 0
84 94 0
82 91 0
82 91 0
82 91 0
82 91 0
81 91 0
80 90 0
80 89 0
81 90 0
83 91 0
83 91 0
83 91 0
78 87 0
73 82 0
71 79 0
78 89 0
81 91 0
82 91 0
83 93 0
85 94 0
87 96 0
92 101 0
106 113 0
105 112 0
105 111 0
105 111 0
105 112 0
106 112 0
107 117 0
101 112 0
100 112 0
98 111 0
76 93 0
77 88 0
105 113 0
115 123 0
103 128 87
103 128 87
103 128 87
103 128 87
103 128 87
103 128 87
103 128 87
103 128 87
103 128 87
103 128 87
103 128 87
103 128 87
103 128 87
103 128 87
103 128 87
103 128 87
103 128 87
103 128 87
103 128 87
103 128 87
103 128 87
103 128 87
103 128 87
103 128 87
103 128 87
103 128 87
103 128 87
103 128 87
103 128 87
103 128 87
103 128 87
103 128 87
103 128 87
103 128 87
103 128 87
103 128 87
103 128 87
103 128 87
103 128 87
103 128 87
103 128 87
103 128 87
103 128 87
103 128 87
103 128 87
103 128 87
103 128 87
103 128 87
103 128 87
103 128 87
103 128 87
103 128 87
103 128 87
103 128 87
103 128 87
103 128 87
103 128 87
103 128 87
103 128 87
103 128 87
103 128 87
103 128 87
103 128 87
103 128 87
103 128 87
103 128 87
103 128 87
103 128 87
103 128 87
103 128 87
103 128 87
103 128 87
103 128 87
103 128 87
103 128 87
103 128 87
103 128 87
103 128 87
103 128 87
103 128 87
103 128 87
103 128 87
103 128 87
103 128 88
103 128 88
103 128 88
103 128 88
103 128 88
103 128 88
103 128 88
103 128 88
103 128 88
103 129 88
103 129 88
103 129 88
103 129 88
103 129 88
103 129 88
103 129 88
104 129 88
104 129 88
104 129 88
104 129 88
104 129 88
104 129 88
104 129 88
104 129 88
104 129 88
104 129 88
104 129 88
104 129 88
104 129 88
104 129 88
104 129 88
104 129 88
104 129 88
104 129 89
104 129 89
104 130 89
104 130 89
104 130 89
104 130 89
104 130 89
104 130 89
81 94 0
81 94 0
81 94 0
81 95 0
82 93 0
82 92 0
82 92 0
90 102 0
90 103 0
91 103 0
89 100 0
89 100 0
89 100 0
89 100 0
93 106 0
94 106 0
99 112 0
99 113 0
98 113 0
97 109 0
94 106 0
96 107 0
97 105 0
96 104 0
97 105 0
94 101 0
80 88 0
79 87 0
79 88 0
79 88 0
79 88 0
80 89 0
82 92 0
81 91 0
79 88 0
79 88 0
85 96 0
85 96 0
85 96 0
84 94 0
84 94 0
82 92 0
82 91 0
82 91 0
81 90 0
81 90 0
80 89 0
80 89 0
81 90 0
83 91 0
82 90 0
76 86 0
74 83 0
71 80 0
72 80 0
75 85 0
80 91 0
82 91 0
82 92 0
82 92 0
82 92 0
82 92 0
101 108 0
105 112 0
104 111 0
104 111 0
105 111 0
105 112 0
108 118 0
102 112 0
98 111 0
94 107 0
76 93 0
84 94 0
105 113 0
114 124 45
103 128 87
103 128 87
103 128 87
103 128 87
103 128 87
103 128 87
103 128 87
103 128 87
103 128 87
103 128 87
103 128 87
103 128 87
103 128 87
103 128 87
103 128 87
103 128 87
103 128 87
103 128 87
103 128 87
103 128 87
103 128 87
103 128 87
103 128 87
103 128 87
103 128 87
103 128 87
103 128 87
103 128 87
103 128 87
103 128 87
103 128 87
103 128 87
103 128 87
103 128 87
103 128 87
103 128 87
103 128 87
103 128 87
103 128 87
103 128 87
103 128 87
103 128 87
103 128 87
103 128 87
103 128 87
103 128 87
103 128 87
103 128 87
103 128 87
103 128 87
103 128 87
103 128 87
103 128 87
103 128 87
103 128 87
103 128 87
103 128 87
103 128 87
103 128 87
103 128 87
103 128 87
103 128 87
103 128 87
103 128 87
103 128 87
103 128 87
103 128 87
103 128 87
103 128 87
103 128 87
103 128 87
103 128 87
103 128 87
103 128 87
103 128 87
103 128 87
103 128 87
103 128 87
103 128 87
103 128 87
103 128 87
103 128 87
103 128 87
103 128 87
103 128 87
103 128 87
103 128 87
103 128 87
103 128 87
103 128 87
103 128 87
103 128 88
103 128 88
103 129 88
103 129 88
103 129 88
103 129 88
103 129 88
103 129 88
103 129 88
103 129 88
103 129 88
103 129 88
103 129 88
104 129 88
104 129 88
104 129 88
104 129 88
104 129 88
104 129 88
104 129 88
104 129 88
104 129 88
104 129 88
104 129 88
104 129 88
104 129 88
104 129 88
104 129 89
104 130 89
104 130 89
104 130 89
104 130 89
104 130 89
77 96 0
77 96 0
78 97 0
78 97 0
79 98 0
80 97 0
81 95 0
90 103 0
91 103 0
91 103 0
90 102 0
89 100 0
89 100 0
90 102 0
94 106 0
94 107 0
98 113 0
98 113 0
99 113 0
97 110 0
94 106 0
96 106 0
98 105 0
95 103 0
98 105 0
93 100 0
82 90 0
78 86 0
77 86 0
75 85 0
71 81 0
73 83 0
79 89 0
79 88 0
79 88 0
78 88 0
85 97 0
85 95 0
85 95 0
84 94 0
84 94 0
83 92 0
82 91 0
81 90 0
81 90 0
80 90 0
80 89 0
80 89 0
81 90 0
81 90 0
76 85 0
74 84 0
73 82 0
71 80 0
72 81 0
73 82 0
78 90 0
81 92 0
82 92 0
82 92 0
82 92 0
82 92 0
83 93 0
105 112 0
109 115 0
104 111 0
104 111 0
106 115 0
108 118 0
102 113 0
98 111 0
86 99 0
86 100 0
88 95 0
110 118 0
112 125 54
103 128 87
103 128 87
103 128 87
103 128 87
103 128 87
103 128 87
103 128 87
103 128 87
103 128 87
103 128 87
103 128 87
103 128 87
103 128 87
103 128 87
103 128 87
103 128 87
103 128 87
103 128 87
103 128 87
103 128 87
103 128 87
103 128 87
103 128 87
103 128 87
103 128 87
103 128 87
103 128 87
103 128 87
103 128 87
103 128 87
103 128 87
103 128 87
103 128 87
103 128 87
103 128 87
103 128 87
103 128 87
103 128 87
103 128 87
103 128 87
103 128 87
103 128 87
103 128 87
103 128 87
103 128 87
103 128 87
103 128 87
103 128 87
103 128 87
103 128 87
103 128 87
103 128 87
103 128 87
103 128 87
103 128 87
103 128 87
103 128 87
103 128 87
103 128 87
103 128 87
103 128 87
103 128 87
103 128 87
103 128 87
103 128 87
103 128 87
103 128 87
103 128 87
103 128 87
103 128 87
103 128 87
103 128 87
103 128 87
103 128 87
103 128 87
103 128 87
103 128 87
103 128 87
103 128 87
103 128 87
103 128 87
103 128 87
103 128 87
103 128 87
103 128 87
103 128 87
103 128 87
103 128 87
103 128 87
103 128 87
103 128 87
103 128 87
103 128 87
103 128 87
103 128 87
103 129 87
103 129 87
103 129 88
103 129 88
103 129 88
103 129 88
103 129 88
103 129 88
103 129 88
103 129 88
103 129 88
103 129 88
104 129 88
104 129 88
104 129 88
104 129 88
104 129 88
104 129 88
104 129 88
104 129 88
104 129 88
104 129 88
104 129 88
104 129 88
104 129 88
104 130 89
104 130 89
104 130 89
104 130 89
76 96 0
88 110 55
88 110 55
88 110 55
88 110 55
88 110 55
88 110 55
89 111 55
94 113 55
91 103 0
91 103 0
89 101 0
89 100 0
91 103 0
94 106 0
95 107 0
98 113 0
98 113 0
99 114 0
99 113 0
95 107 0
96 105 0
98 106 0
96 104 0
99 106 0
92 100 0
84 92 0
73 83 0
70 80 0
70 80 0
70 80 0
76 85 0
78 88 0
78 88 0
78 88 0
78 87 0
85 97 0
85 96 0
84 95 0
83 94 0
83 94 0
83 93 0
78 88 0
78 87 0
77 87 0
77 87 0
77 87 0
77 87 0
77 87 0
73 84 0
73 83 0
73 83 0
72 81 0
71 80 0
73 81 0
72 80 0
78 89 0
80 92 0
81 93 0
82 92 0
82 92 0
82 92 0
82 92 0
85 94 0
107 113 0
114 120 0
109 115 0
106 114 0
108 118 0
96 108 0
94 107 0
81 94 0
86 103 33
91 98 0
115 123 0
110 125 61
103 128 87
103 128 87
103 128 87
103 128 87
103 128 87
103 128 87
103 128 87
103 128 87
103 128 87
103 128 87
103 128 87
103 128 87
103 128 87
103 128 87
103 128 87
103 128 87
103 128 87
103 128 87
103 128 87
103 128 87
103 128 87
103 128 87
103 128 87
103 128 87
103 128 87
103 128 87
103 128 87
103 128 87
103 128 87
103 128 87
103 128 87
103 128 87
103 128 87
103 128 87
103 128 87
103 128 87
103 128 87
103 128 87
103 128 87
103 128 87
103 128 87
103 128 87
103 128 87
103 128 87
103 128 87
103 128 87
103 128 87
103 128 87
103 128 87
103 128 87
103 128 87
103 128 87
103 128 87
103 128 87
103 128 87
103 128 87
103 128 87
103 128 87
103 128 87
103 128 87
103 128 87
103 128 87
103 128 87
103 128 87
103 128 87
103 128 87
103 128 87
103 128 87
103 128 87
103 128 87
103 128 87
103 128 87
103 128 87
103 128 87
103 128 87
103 128 87
103 128 87
103 128 87
103 128 87
103 128 87
103 128 87
103 128 87
103 128 87
103 128 87
103 128 87
103 128 87
103 128 87
103 128 87
103 128 87
103 128 87
103 128 87
103 128 87
103 128 87
103 128 87
103 128 87
103 128 87
103 128 87
103 129 87
103 129 87
103 129 87
103 129 88
103 129 88
103 129 88
103 129 88
103 129 88
103 129 88
103 129 88
103 129 88
103 129 88
103 129 88
104 129 88
104 129 88
104 129 88
104 129 88
104 129 88
104 129 88
104 129 88
104 129 88
104 129 88
104 129 88
104 130 88
104 130 88
104 130 89
104 130 89
104 129 88
104 129 88
104 129 88
103 129 88
103 129 88
103 129 88
103 129 88
103 129 88
103 129 88
102 127 84
97 116 62
91 103 0
89 100 0
92 104 0
95 107 0
97 110 0
98 113 0
98 113 0
100 115 0
99 113 0
96 108 0
96 105 0
98 106 0
96 104 0
100 107 0
92 100 0
80 89 0
66 77 0
68 78 0
69 79 0
71 81 0
76 86 0
78 88 0
78 88 0
78 87 0
77 87 0
85 96 0
86 98 0
81 92 0
80 90 0
77 88 0
74 85 0
71 82 0
71 83 0
71 83 0
71 83 0
71 83 0
71 83 0
70 82 0
70 81 0
69 81 0
69 80 0
68 79 0
65 76 0
69 78 0
72 81 0
76 86 0
79 92 0
80 93 0
80 92 0
82 92 0
82 92 0
82 92 0
84 93 0
85 94 0
106 113 0
114 121 0
114 121 0
108 118 0
93 104 0
93 105 0
85 98 0
89 107 45
92 100 0
115 122 0
107 126 73
103 128 87
103 128 87
103 128 87
103 128 87
103 128 87
103 127 87
103 128 87
103 128 87
103 128 87
103 128 87
103 128 87
103 128 87
103 128 87
103 128 87
103 128 87
103 127 87
103 128 87
103 128 87
103 128 87
103 128 87
103 128 87
103 128 87
103 128 87
103 128 87
103 128 87
103 128 87
103 128 87
103 128 87
103 128 87
103 128 87
103 128 87
103 128 87
103 128 87
103 128 87
103 128 87
103 128 87
103 128 87
103 128 87
103 128 87
103 128 87
103 128 87
103 128 87
103 128 87
103 128 87
103 128 87
103 128 87
103 128 87
103 128 87
103 128 87
103 128 87
103 128 87
103 128 87
103 128 87
103 128 87
103 128 87
103 128 87
103 128 87
103 128 87
103 128 87
103 128 87
103 128 87
103 128 87
103 128 87
103 128 87
103 128 87
103 128 87
103 128 87
103 128 87
103 128 87
103 128 87
103 128 87
103 128 87
103 128 87
103 128 87
103 128 87
103 128 87
103 128 87
103 128 87
103 128 87
103 128 87
103 128 87
103 128 87
103 128 87
103 128 87
103 128 87
103 128 87
103 128 87
103 128 87
103 128 87
103 128 87
103 128 87
103 128 87
103 128 87
103 128 87
103 128 87
103 128 87
103 128 87
103 129 87
103 129 87
103 129 87
103 129 87
103 129 87
103 129 87
103 129 87
103 129 87
103 129 88
103 129 88
103 129 88
103 129 88
103 129 88
103 129 88
103 129 88
104 129 88
104 129 88
104 129 88
104 129 88
104 129 88
104 129 88
104 129 88
104 129 88
104 129 88
104 130 88
104 130 88
104 130 88
104 129 88
103 129 88
103 129 88
103 129 88
103 129 88
103 129 88
103 129 88
103 129 88
103 129 88
103 129 88
103 129 88
101 124 79
93 109 46
95 108 0
97 109 0
97 110 0
98 113 0
99 114 0
99 114 0
97 111 0
96 108 0
95 103 0
98 105 0
99 107 0
100 108 0
91 99 0
68 81 0
66 77 0
67 77 0
68 78 0
72 82 0
75 85 0
77 87 0
78 88 0
78 87 0
77 86 0
84 96 0
84 95 0
76 87 0
76 87 0
74 86 0
74 85 0
71 82 0
71 82 0
70 82 0
70 83 0
70 83 0
70 83 0
70 82 0
69 81 0
69 81 0
68 80 0
67 78 0
64 75 0
60 71 0
62 73 0
71 81 0
78 90 0
77 90 0
77 90 0
78 92 0
82 92 0
82 92 0
82 92 0
85 94 0
85 94 0
106 113 0
114 120 0
113 120 0
100 110 0
98 109 0
87 101 0
88 102 0
96 104 0
114 122 0
107 126 73
103 127 86
103 127 86
103 127 86
103 127 86
103 127 86
103 127 86
103 127 86
103 127 86
103 127 86
103 127 86
103 127 86
103 127 86
103 127 86
103 127 86
103 127 86
103 127 86
103 127 86
103 127 86
103 127 86
103 127 86
103 127 86
103 127 86
103 127 86
103 127 86
103 128 86
103 128 86
103 127 86
103 127 86
103 127 86
103 127 86
103 128 86
103 127 86
103 128 86
103 127 86
103 127 86
103 128 86
103 127 86
103 128 86
103 128 86
103 128 86
103 128 86
103 128 86
103 128 86
103 128 86
103 128 86
103 128 86
103 128 86
103 128 86
103 128 86
103 128 86
103 128 86
103 128 86
103 128 86
103 128 86
103 128 86
103 128 86
103 128 86
103 128 86
103 128 86
103 128 86
103 128 86
103 128 86
103 128 87
103 128 86
103 128 86
103 128 86
103 128 86
103 128 87
103 128 87
103 128 87
103 128 87
103 128 87
103 128 87
103 128 87
103 128 87
103 128 87
103 128 87
103 128 87
103 128 87
103 128 87
103 128 87
103 128 87
103 128 87
103 128 87
103 128 87
103 128 87
103 128 87
103 128 87
103 128 87
103 128 87
103 128 87
103 128 87
103 128 87
103 128 87
103 128 87
103 128 87
103 128 87
103 128 87
103 128 87
103 129 87
103 129 87
103 129 87
103 129 87
103 129 87
103 129 87
103 129 87
103 129 87
103 129 87
103 129 88
103 129 88
103 129 88
103 129 88
103 129 88
103 129 88
103 129 88
104 129 88
104 129 88
104 129 88
104 129 88
104 129 88
104 129 88
104 129 88
104 130 88
104 130 88
103 129 88
103 129 88
103 129 88
103 129 88
103 129 88
103 129 88
103 129 88
103 129 88
103 129 88
103 129 88
103 129 88
103 129 87
103 129 87
97 112 33
97 109 0
97 109 0
100 114 0
99 113 0
92 108 0
96 111 0
96 107 0
94 103 0
98 105 0
100 107 0
102 109 0
86 96 0
66 78 0
67 78 0
66 77 0
68 78 0
73 82 0
75 85 0
77 87 0
77 88 0
78 88 0
77 86 0
83 94 0
79 91 0
76 87 0
74 85 0
74 85 0
74 85 0
72 83 0
71 82 0
71 82 0
70 82 0
70 83 0
70 83 0
70 83 0
69 81 0
68 80 0
68 79 0
66 78 0
64 75 0
60 70 0
59 69 0
61 70 0
71 83 0
75 88 0
77 90 0
77 91 0
78 93 0
81 93 0
82 92 0
84 93 0
85 94 0
85 94 0
106 112 0
115 121 0
108 116 0
98 109 0
88 104 0
90 105 0
102 109 0
114 121 0
102 127 86
102 127 86
102 127 86
102 127 86
102 127 86
102 127 86
102 127 86
102 127 86
102 127 86
102 127 86
102 127 86
102 127 86
103 127 86
103 127 86
103 127 86
103 127 86
103 127 86
103 127 86
103 127 86
103 127 86
103 127 86
103 127 86
103 127 86
103 127 86
103 127 86
103 127 86
103 127 86
103 127 86
103 127 86
103 127 86
103 127 86
103 127 86
103 127 86
103 127 86
103 127 86
103 127 86
103 127 86
103 127 86
103 127 86
103 127 86
103 127 86
103 127 86
103 127 86
103 127 86
103 127 86
103 127 86
103 127 86
103 127 86
103 128 86
103 128 86
103 128 86
103 128 86
103 128 86
103 128 86
103 128 86
103 128 86
103 128 86
103 128 86
103 128 86
103 128 86
103 128 86
103 128 86
103 128 86
103 128 86
103 128 86
103 128 86
103 128 86
103 128 86
103 128 86
103 128 86
103 128 86
103 128 86
103 128 86
103 128 86
103 128 86
103 128 86
103 128 86
103 128 86
103 128 86
103 128 86
103 128 86
103 128 87
103 128 87
103 128 87
103 128 87
103 128 87
103 128 87
103 128 87
103 128 87
103 128 87
103 128 87
103 128 87
103 128 87
103 128 87
103 128 87
103 128 87
103 128 87
103 128 87
103 128 87
103 128 87
103 128 87
103 129 87
103 129 87
103 129 87
103 129 87
103 129 87
103 129 87
103 129 87
103 129 87
103 129 87
103 129 87
103 129 88
103 129 88
103 129 88
103 129 88
103 129 88
103 129 88
103 129 88
104 129 88
104 129 88
104 129 88
104 129 88
104 129 88
104 130 88
104 130 88
103 129 88
103 129 88
103 129 88
103 129 88
103 129 88
103 129 88
103 129 88
103 129 88
103 129 87
103 129 87
103 129 87
103 129 87
103 129 87
101 125 79
97 109 0
97 109 0
102 117 0
89 103 0
85 100 0
94 109 0
95 106 0
94 103 0
98 105 0
100 107 0
101 109 0
78 91 0
66 79 0
67 78 0
66 77 0
69 79 0
73 82 0
75 85 0
76 86 0
77 87 0
78 88 0
77 87 0
82 93 0
76 87 0
74 86 0
74 85 0
74 85 0
74 85 0
72 83 0
71 82 0
71 82 0
71 82 0
71 82 0
70 82 0
70 82 0
69 81 0
68 80 0
67 79 0
66 77 0
64 74 0
61 70 0
61 71 0
70 80 0
76 87 0
78 89 0
73 85 0
76 89 0
77 91 0
79 94 0
81 95 0
82 92 0
85 94 0
85 94 0
85 94 0
105 112 0
115 122 0
99 110 0
88 106 0
93 109 33
101 109 0
113 121 0
102 127 86
102 127 86
102 127 86
102 127 86
102 127 86
102 127 86
102 127 86
102 127 86
102 127 86
102 127 86
102 127 86
102 127 86
102 127 86
102 127 86
102 127 86
102 127 86
102 127 86
102 127 86
102 127 86
102 127 86
102 127 86
102 127 86
102 127 86
102 127 86
102 127 86
102 127 86
102 127 86
102 127 86
102 127 86
102 127 86
102 127 86
102 127 86
102 127 86
102 127 86
102 127 86
102 127 86
102 127 86
102 127 86
102 127 86
102 127 86
102 127 86
102 127 86
102 127 86
102 127 86
102 127 86
102 127 86
102 127 86
102 127 86
102 127 86
102 127 86
102 127 86
102 127 86
102 127 86
102 127 86
102 127 86
102 128 86
102 127 86
102 128 86
102 128 86
102 128 86
102 128 86
102 128 86
102 128 86
102 128 86
102 128 86
102 128 86
102 128 86
102 128 86
102 128 86
102 128 86
102 128 86
102 128 86
102 128 86
102 128 86
102 128 86
102 128 86
103 128 86
102 128 86
102 128 86
103 128 86
103 128 86
103 128 86
103 128 86
103 128 86
103 128 86
103 128 86
103 128 86
103 128 86
103 128 86
103 128 87
103 128 87
103 128 87
103 128 87
103 128 87
103 128 87
103 128 87
103 128 87
103 128 87
103 128 87
103 128 87
103 128 87
103 128 87
103 128 87
103 129 87
103 129 87
103 129 87
103 129 87
103 129 87
103 129 87
103 129 87
103 129 87
103 129 87
103 129 87
103 129 87
103 129 87
103 129 88
103 129 88
103 129 88
103 129 88
103 129 88
104 129 88
104 129 88
104 129 88
104 129 88
104 130 88
103 129 88
103 129 88
103 129 88
103 129 88
103 129 88
103 129 88
103 129 87
103 129 87
103 129 87
103 129 87
103 129 87
103 129 87
103 129 87
103 129 87
98 114 45
98 111 0
95 110 0
84 99 0
83 98 0
87 101 0
95 106 0
94 103 0
97 105 0
101 109 0
100 109 0
73 88 0
66 81 0
67 80 0
67 78 0
70 80 0
73 83 0
75 85 0
76 86 0
77 87 0
78 88 0
78 88 0
78 88 0
74 86 0
73 85 0
73 85 0
73 85 0
73 85 0
73 84 0
71 82 0
71 82 0
71 82 0
71 82 0
71 82 0
70 82 0
69 81 0
68 80 0
67 79 0
65 77 0
63 76 0
60 73 0
66 77 0
76 87 0
80 91 0
79 90 0
76 85 0
70 80 0
72 84 0
76 89 0
79 94 0
81 96 0
83 93 0
85 94 0
85 94 0
89 97 0
108 115 0
111 118 0
92 109 0
98 118 67
103 111 0
111 122 45
102 127 86
102 127 86
102 127 86
102 127 86
102 127 86
102 127 86
102 127 86
102 127 86
102 127 86
102 127 86
102 127 86
102 127 86
102 127 86
102 127 86
102 127 86
102 127 86
102 127 86
102 127 86
102 127 86
102 127 86
102 127 86
102 127 86
102 127 86
102 127 86
102 127 86
102 127 86
102 127 86
102 127 86
102 127 86
102 127 86
102 127 86
102 127 86
102 127 86
102 127 86
102 127 86
102 127 86
102 127 86
102 127 86
102 127 86
102 127 86
102 127 86
99 110 84
99 116 84
102 127 86
102 127 86
102 127 86
102 127 86
102 127 86
102 127 86
102 127 86
102 127 86
102 127 86
102 127 86
102 127 86
102 127 86
102 127 86
102 127 86
102 127 86
102 127 86
102 127 86
102 127 86
102 127 86
102 128 86
102 128 86
102 128 86
102 128 86
102 128 86
102 128 86
102 128 86
102 128 86
102 128 86
102 128 86
102 128 86
102 128 86
102 128 86
102 128 86
102 128 86
102 128 86
102 128 86
102 128 86
102 128 86
102 128 86
102 128 86
102 128 86
102 128 86
102 128 86
102 128 86
103 128 86
103 128 86
103 128 86
103 128 86
103 128 86
103 128 86
103 128 86
103 128 87
103 128 87
103 128 87
103 128 87
103 128 87
103 128 87
103 128 87
103 128 87
103 128 87
103 128 87
103 129 87
103 129 87
103 129 87
103 129 87
103 129 87
103 129 87
103 129 87
103 129 87
103 129 87
103 129 87
103 129 87
103 129 87
103 129 88
103 129 88
103 129 88
103 129 88
103 129 88
103 129 88
104 129 88
104 129 88
104 130 88
103 129 88
103 129 88
103 129 88
103 129 88
103 129 88
103 129 87
103 129 87
103 129 87
103 129 87
103 129 87
103 129 87
103 129 87
103 128 87
103 128 87
101 125 78
97 111 0
83 98 0
83 98 0
83 99 0
87 101 0
94 105 0
94 103 0
97 105 0
101 109 0
98 108 0
70 85 0
67 81 0
68 80 0
68 80 0
70 83 0
71 84 0
72 85 0
73 86 0
73 86 0
74 87 0
76 88 0
74 86 0
73 85 0
73 85 0
73 85 0
73 85 0
73 85 0
73 85 0
71 82 0
71 82 0
71 82 0
71 82 0
71 82 0
71 82 0
69 81 0
67 81 0
66 81 0
64 79 0
62 76 0
59 72 0
67 80 0
79 90 0
80 90 0
79 90 0
78 89 0
73 82 0
72 82 0
69 79 0
71 83 0
77 92 0
84 99 0
98 107 0
101 109 0
102 110 0
104 112 0
105 113 0
99 119 61
99 120 72
106 114 0
109 123 53
102 127 86
102 127 86
102 127 86
102 127 86
102 127 86
102 127 86
102 127 86
102 127 86
102 127 86
102 127 86
102 127 86
102 127 86
102 127 86
102 127 86
102 127 86
102 127 86
102 127 86
102 127 86
102 127 86
102 127 86
102 127 86
102 127 86
102 127 86
102 127 86
102 127 86
102 127 86
102 127 86
102 127 86
102 127 86
102 127 86
102 127 86
102 127 86
102 127 86
102 127 86
102 127 86
102 127 86
102 127 86
102 127 86
102 127 86
102 127 86
101 83 85
87 0 75
94 0 81
100 93 86
102 127 86
102 127 86
102 127 86
102 127 86
102 127 86
102 127 86
102 127 86
102 127 86
102 127 86
102 127 86
102 127 86
102 127 86
102 127 86
102 127 86
102 127 86
102 127 86
102 127 86
102 127 86
102 127 86
102 127 86
102 127 86
102 127 86
102 127 86
102 127 86
102 127 86
102 128 86
102 128 86
102 128 86
102 128 86
102 128 86
102 128 86
102 128 86
102 128 86
102 128 86
102 128 86
102 128 86
102 128 86
102 128 86
102 128 86
102 128 86
102 128 86
102 128 86
102 128 86
102 128 86
102 128 86
102 128 86
102 128 86
102 128 86
102 128 86
102 128 86
103 128 86
103 128 86
103 128 86
103 128 86
103 128 86
103 128 87
103 128 87
103 128 87
103 128 87
103 128 87
103 128 87
103 129 87
103 129 87
103 129 87
103 129 87
103 129 87
103 129 87
103 129 87
103 129 87
103 129 87
103 129 87
103 129 87
103 129 87
103 129 87
103 129 88
103 129 88
103 129 88
103 129 88
103 129 88
103 129 88
104 129 88
103 129 88
103 129 88
103 129 88
103 129 87
103 129 87
103 129 87
103 129 87
103 129 87
103 129 87
103 129 87
103 129 87
103 128 87
103 128 87
102 128 87
102 128 87
94 114 54
83 98 0
83 98 0
83 98 0
87 101 0
93 104 0
94 103 0
97 105 0
101 109 0
94 105 0
71 87 0
70 85 0
69 83 0
69 81 0
69 81 0
71 85 0
71 86 0
71 86 0
72 86 0
72 87 0
73 87 0
71 85 0
71 85 0
71 85 0
71 85 0
71 85 0
71 85 0
71 85 0
69 83 0
68 83 0
68 84 0
68 83 0
68 83 0
68 83 0
67 83 0
66 83 0
65 81 0
63 79 0
61 77 0
58 74 0
70 84 0
80 93 0
79 90 0
79 90 0
80 91 0
75 85 0
73 82 0
73 83 0
71 81 0
65 76 0
89 103 0
91 102 0
102 110 0
102 110 0
104 112 0
106 113 0
101 124 77
99 119 72
106 114 0
108 123 61
102 127 85
102 127 85
102 127 85
102 127 85
102 127 85
102 127 85
102 127 85
102 127 85
102 127 85
102 127 85
102 127 85
102 127 85
102 127 85
102 127 85
102 127 85
102 127 85
102 127 85
102 127 85
102 127 85
102 127 85
102 127 85
102 127 85
102 127 85
102 127 85
102 127 85
102 127 85
102 127 85
102 127 85
102 127 85
102 127 85
102 127 85
102 127 85
102 127 85
102 127 85
102 127 85
102 127 85
102 127 85
102 127 85
102 127 85
102 122 86
90 0 76
77 0 65
85 0 73
93 0 81
100 52 87
102 116 86
102 127 86
102 127 85
102 127 86
102 127 85
102 127 86
102 127 86
102 127 86
102 127 86
102 127 86
102 127 86
102 127 86
102 127 86
102 127 86
102 127 86
102 127 86
102 127 86
102 127 86
102 127 86
102 127 86
102 127 86
102 127 86
102 127 86
102 127 86
102 127 86
102 127 86
102 127 86
102 128 86
102 128 86
102 128 86
102 128 86
102 128 86
102 128 86
102 128 86
102 128 86
102 128 86
102 128 86
102 128 86
102 128 86
102 128 86
102 128 86
102 128 86
102 128 86
102 128 86
102 128 86
102 128 86
102 128 86
102 128 86
102 128 86
102 128 86
102 128 86
102 128 86
102 128 86
102 128 86
103 128 86
103 128 86
103 128 86
103 128 87
103 128 87
103 128 87
103 128 87
103 129 87
103 129 87
103 129 87
103 129 87
103 129 87
103 129 87
103 129 87
103 129 87
103 129 87
103 129 87
103 129 87
103 129 87
103 129 87
103 129 87
103 129 88
103 129 88
103 129 88
103 129 88
103 129 88
103 129 88
103 129 87
103 129 87
103 129 87
103 129 87
103 129 87
103 129 87
103 129 87
103 129 87
103 129 87
102 128 87
102 128 87
102 128 87
102 128 87
102 128 87
102 128 86
91 113 54
84 102 0
84 100 0
87 101 0
93 104 0
94 103 0
97 105 0
101 110 0
90 102 0
73 88 0
72 87 0
71 86 0
71 85 0
69 82 0
70 84 0
72 86 0
72 86 0
73 86 0
73 87 0
73 87 0
71 85 0
71 85 0
71 85 0
71 85 0
70 85 0
70 85 0
70 85 0
68 83 0
68 83 0
68 84 0
68 84 0
68 83 0
68 83 0
67 83 0
66 83 0
65 81 0
63 80 0
61 78 0
59 77 0
67 83 0
79 94 0
78 91 0
79 91 0
80 91 0
78 88 0
74 83 0
74 83 0
74 84 0
69 80 0
81 95 0
88 101 0
94 104 0
102 109 0
105 112 0
103 113 0
102 127 85
96 118 72
108 116 0
105 125 72
102 127 85
102 127 85
102 127 85
102 127 85
102 127 85
102 127 85
102 127 85
102 127 85
102 127 85
102 127 85
102 127 85
102 127 85
102 127 85
102 127 85
102 127 85
102 127 85
102 127 85
102 127 85
102 127 85
102 127 85
102 127 85
102 127 85
102 127 85
102 127 85
102 127 85
102 127 85
102 127 85
102 127 85
102 127 85
102 127 85
102 127 85
102 127 85
102 127 85
102 127 85
102 127 85
102 127 85
102 127 85
102 127 85
102 127 85
102 127 85
87 83 72
76 0 63
79 0 67
81 0 69
91 0 78
102 0 89
103 102 88
102 127 85
102 127 85
101 122 85
95 83 81
102 127 85
102 127 85
102 127 85
102 127 85
102 127 85
102 127 85
102 127 85
102 127 85
102 127 85
102 127 85
102 127 85
102 127 85
102 127 85
102 127 85
102 127 85
102 127 85
102 127 85
102 127 85
102 127 85
102 127 85
102 127 85
102 127 85
102 127 86
102 128 86
102 128 86
102 128 86
102 128 86
102 128 86
102 128 86
102 128 86
102 128 86
102 128 86
102 128 86
102 128 86
102 128 86
102 128 86
102 128 86
102 128 86
102 128 86
102 128 86
102 128 86
102 128 86
102 128 86
102 128 86
102 128 86
102 128 86
102 128 86
102 128 86
102 128 86
102 128 86
102 128 86
102 128 86
103 128 86
103 128 86
103 128 86
103 128 87
103 129 87
103 129 87
103 129 87
103 129 87
103 129 87
103 129 87
103 129 87
103 129 87
103 129 87
103 129 87
103 129 87
103 129 87
103 129 87
103 129 87
103 129 87
103 129 88
103 129 88
103 129 88
103 129 87
103 129 87
103 129 87
103 129 87
103 129 87
103 129 87
103 129 87
103 129 87
102 129 87
102 128 87
102 128 87
102 128 87
102 128 87
102 128 86
102 128 86
102 128 86
102 128 86
97 121 73
84 104 0
88 104 0
92 102 0
91 100 0
97 104 0
100 109 0
84 98 0
73 89 0
72 89 0
72 89 0
71 89 0
71 89 0
71 89 0
73 90 0
73 89 0
73 88 0
73 87 0
73 87 0
71 85 0
70 85 0
70 85 0
70 85 0
70 85 0
70 85 0
70 86 0
69 84 0
68 84 0
68 83 0
68 84 0
68 84 0
68 83 0
67 84 0
66 83 0
65 82 0
63 80 0
62 80 0
61 80 0
59 79 0
77 93 0
77 92 0
78 92 0
78 92 0
77 89 0
66 79 0
71 86 0
74 88 0
73 85 0
79 94 0
89 102 0
88 99 0
98 106 0
105 112 0
103 118 53
102 127 85
95 117 72
111 119 0
105 124 72
102 127 85
102 127 85
102 127 85
102 127 85
102 127 85
102 127 85
102 127 85
102 127 85
102 127 85
102 127 85
102 127 85
102 127 85
102 127 85
102 127 85
102 127 85
102 127 85
102 127 85
102 127 85
102 127 85
102 127 85
102 127 85
102 127 85
102 127 85
102 127 85
102 127 85
102 127 85
102 127 85
102 127 85
102 127 85
102 127 85
102 127 85
102 127 85
102 127 85
102 127 85
102 127 85
102 127 85
102 127 85
102 127 85
102 127 85
102 127 85
100 122 83
80 52 65
77 0 63
80 0 69
81 0 69
89 0 76
102 0 89
103 83 89
102 122 86
99 52 87
100 116 84
102 127 85
102 127 85
102 127 85
102 127 85
102 127 85
102 127 85
102 127 85
102 127 85
100 122 84
93 102 79
94 102 80
102 127 85
102 127 85
102 127 85
102 127 85
102 127 85
102 127 85
102 127 85
102 127 85
102 127 85
102 127 85
102 127 85
102 127 85
102 127 85
102 127 85
102 127 85
102 127 85
102 128 85
102 128 85
102 128 85
102 128 85
102 128 86
102 128 86
102 128 86
102 128 86
102 128 86
102 128 86
102 128 86
102 128 86
102 128 86
102 128 86
102 128 86
102 128 86
102 128 86
102 128 86
102 128 86
102 128 86
102 128 86
102 128 86
102 128 86
102 128 86
102 128 86
102 128 86
102 128 86
102 128 86
103 128 86
103 128 86
103 129 86
103 129 87
103 129 87
103 129 87
103 129 87
103 129 87
103 129 87
103 129 87
103 129 87
103 129 87
103 129 87
103 129 87
103 129 87
103 129 87
103 129 87
103 129 88
103 129 88
103 129 87
103 129 87
103 129 87
103 129 87
103 129 87
103 129 87
102 129 87
102 129 87
102 128 87
102 128 87
102 128 86
102 128 86
102 128 86
102 128 86
102 128 86
102 128 86
102 128 86
102 128 86
100 126 82
94 114 54
91 100 0
90 99 0
96 104 0
99 109 0
76 89 0
67 82 0
67 84 0
68 86 0
68 88 0
69 89 0
71 90 0
72 91 0
72 91 0
73 92 0
73 94 0
73 93 0
71 90 0
71 89 0
71 89 0
71 88 0
70 87 0
70 87 0
71 87 0
69 86 0
69 86 0
68 84 0
68 84 0
68 83 0
68 84 0
67 84 0
67 85 0
66 85 0
65 86 0
65 87 0
65 89 0
64 87 0
67 85 0
76 91 0
73 89 0
72 88 0
71 89 0
69 85 0
68 83 0
70 88 0
73 92 0
78 95 0
85 98 0
89 100 0
100 109 0
105 112 0
102 121 66
102 127 85
95 118 72
104 112 0
102 127 85
102 127 85
102 127 85
102 127 85
102 127 85
102 127 85
102 127 85
102 127 85
102 127 85
102 127 85
102 127 85
102 127 85
102 127 85
102 127 85
102 127 85
102 127 85
102 127 85
102 127 85
102 127 85
102 127 85
102 127 85
102 127 85
102 127 85
102 127 85
102 127 85
102 127 85
102 127 85
102 127 85
102 127 85
102 127 85
102 127 85
102 127 85
102 127 85
102 127 85
102 127 85
102 127 85
102 127 85
102 127 85
102 127 85
102 127 85
102 127 85
102 127 85
98 116 81
77 0 61
79 0 66
82 0 70
83 0 71
90 0 78
102 0 89
105 0 93
97 70 83
102 127 85
102 127 85
102 127 85
102 127 85
102 127 85
102 127 85
102 127 85
102 127 85
102 127 85
100 122 83
80 0 69
84 0 73
99 116 83
102 127 85
102 127 85
102 127 85
102 127 85
102 127 85
102 127 85
102 127 85
102 127 85
102 127 85
102 127 85
102 127 85
102 127 85
102 127 85
102 127 85
102 127 85
102 127 85
102 127 85
102 127 85
102 128 85
102 128 85
102 128 85
102 128 85
102 128 85
102 128 85
102 128 85
102 128 85
102 128 86
102 128 86
102 128 86
102 128 86
102 128 86
102 128 86
102 128 86
102 128 86
102 128 86
102 128 86
102 128 86
102 128 86
102 128 86
102 128 86
102 128 86
102 128 86
102 128 86
102 128 86
102 128 86
103 128 86
103 129 86
103 129 86
103 129 87
103 129 87
103 129 87
103 129 87
103 129 87
103 129 87
103 129 87
103 129 87
103 129 87
103 129 87
103 129 87
103 129 87
103 129 87
103 129 87
103 129 87
103 129 87
103 129 87
103 129 87
102 129 87
102 129 87
102 129 87
102 128 87
102 128 87
102 128 86
102 128 86
102 128 86
102 128 86
102 128 86
102 128 86
102 128 86
102 128 86
102 128 86
102 128 86
100 122 72
95 104 0
96 104 0
94 104 0
98 108 0
67 79 0
59 70 0
58 70 0
63 80 0
66 88 0
67 90 0
68 92 0
69 93 0
71 94 0
72 94 0
72 92 0
73 93 0
73 93 0
72 92 0
72 92 0
71 92 0
71 91 0
71 91 0
71 91 0
71 90 0
70 90 0
70 90 0
70 90 0
70 92 0
71 93 0
70 92 0
69 92 0
69 91 0
68 91 0
68 91 0
67 91 0
61 80 0
57 71 0
63 78 0
71 86 0
70 82 0
69 82 0
69 82 0
69 83 0
67 83 0
67 81 0
74 88 0
79 92 0
101 111 0
105 114 0
104 112 0
101 122 71
101 127 85
99 124 81
89 106 53
101 127 85
101 127 85
101 127 85
101 127 85
101 127 85
101 127 85
101 127 85
101 127 85
101 127 85
101 127 85
101 127 85
101 127 85
101 127 85
101 127 85
101 127 85
101 127 85
102 127 85
101 127 85
101 127 85
101 127 85
101 127 85
101 127 85
102 127 85
102 127 85
102 127 85
102 127 85
102 127 85
102 127 85
102 127 85
102 127 85
102 127 85
102 127 85
102 127 85
102 127 85
102 127 85
102 127 85
102 127 85
102 127 85
102 127 85
102 127 85
102 127 85
102 127 85
102 127 85
87 0 69
78 0 62
80 0 66
83 0 71
83 0 71
89 0 76
102 0 89
104 52 91
104 102 89
102 127 85
102 127 85
102 127 85
102 127 85
102 127 85
102 127 85
102 127 85
102 127 85
102 127 85
92 93 77
86 0 74
90 70 77
102 127 85
102 127 85
102 127 85
102 127 85
102 127 85
102 127 85
102 127 85
102 127 85
102 127 85
102 127 85
102 127 85
102 127 85
102 127 85
102 127 85
102 127 85
102 127 85
102 127 85
102 127 85
102 127 85
102 127 85
102 128 85
102 128 85
102 128 85
102 128 85
102 128 85
102 128 85
102 128 85
102 128 85
102 128 85
102 128 85
102 128 85
102 128 85
102 128 86
102 128 86
102 128 86
102 128 86
102 128 86
102 128 86
102 128 86
102 128 86
102 128 86
102 128 86
102 128 86
102 128 86
102 128 86
102 128 86
102 128 86
102 129 86
102 129 86
103 129 86
103 129 86
103 129 87
103 129 87
103 129 87
103 129 87
103 129 87
103 129 87
103 129 87
103 129 87
103 129 87
103 129 87
103 129 87
103 129 87
103 129 87
103 129 87
102 129 87
102 129 87
102 129 87
102 128 87
102 128 86
102 128 86
102 128 86
102 128 86
102 128 86
102 128 86
102 128 86
102 128 86
102 128 86
102 128 86
102 128 86
102 128 86
103 121 61
105 113 0
105 113 0
89 102 0
77 91 0
75 88 0
66 78 0
62 74 0
66 83 0
66 85 0
72 93 33
83 108 53
93 119 72
93 119 72
93 119 72
94 120 72
91 116 66
85 108 53
80 103 44
72 94 0
72 93 0
72 93 0
72 93 0
72 92 0
71 91 0
70 91 0
71 93 0
71 95 0
71 95 0
71 94 0
71 93 0
70 92 0
70 93 0
70 93 0
70 94 0
76 101 32
90 116 66
99 125 81
92 116 66
80 104 32
77 98 0
75 92 0
70 84 0
66 83 0
63 79 0
68 81 0
81 95 0
83 94 0
104 114 0
107 115 0
104 111 0
102 122 71
101 127 85
101 127 85
101 127 85
101 127 85
101 127 85
101 127 85
101 127 85
101 127 85
101 127 85
101 127 84
101 127 85
101 127 85
101 127 84
101 127 85
101 127 84
101 127 84
101 127 84
101 127 85
101 127 84
101 127 84
101 127 85
101 127 85
101 127 85
101 127 84
101 127 85
101 127 85
101 127 85
101 127 85
101 127 84
101 127 84
101 127 85
101 127 85
101 127 84
101 127 85
101 127 85
101 127 85
101 127 85
101 127 84
101 127 85
101 127 85
101 127 85
101 127 85
101 127 85
101 127 85
101 127 85
101 127 85
89 51 69
81 0 62
78 0 62
78 0 63
81 0 67
81 0 69
93 0 79
101 0 87
104 0 90
105 70 91
103 116 87
101 127 85
101 127 85
101 127 85
101 127 85
101 127 85
102 116 86
102 109 86
98 102 82
80 0 66
85 0 71
101 127 85
101 127 85
101 127 85
101 127 85
102 127 85
102 127 85
101 127 85
101 127 85
102 127 85
102 127 85
102 127 85
102 127 85
102 127 85
102 127 85
102 127 85
102 127 85
102 127 85
102 127 85
102 127 85
102 127 85
102 127 85
102 128 85
102 128 85
102 128 85
102 128 85
102 128 85
102 128 85
102 128 85
102 128 85
102 128 85
102 128 85
102 128 85
102 128 85
102 128 85
102 128 85
102 128 86
102 128 86
102 128 86
102 128 86
102 128 86
102 128 86
102 128 86
102 128 86
102 128 86
102 128 86
102 128 86
102 128 86
102 128 86
102 129 86
102 129 86
102 129 86
103 129 86
103 129 87
103 129 87
103 129 87
103 129 87
103 129 87
103 129 87
103 129 87
103 129 87
103 129 87
103 129 87
103 129 87
102 129 87
102 129 87
102 129 87
102 129 87
102 128 86
102 128 86
102 128 86
102 128 86
102 128 86
102 128 86
102 128 86
102 128 86
102 128 86
102 128 86
102 128 86
102 128 86
102 128 86
102 128 86
104 115 33
104 113 0
102 112 0
86 101 0
82 95 0
78 91 0
70 83 0
69 82 0
69 87 0
81 103 53
101 127 85
101 127 85
101 127 85
101 127 85
101 127 85
101 127 85
101 127 85
101 127 85
101 127 85
94 119 72
79 102 32
74 98 0
74 97 0
74 98 0
74 97 0
72 96 0
72 96 0
72 95 0
72 95 0
72 95 0
72 95 0
71 93 0
71 94 0
76 101 32
91 116 66
101 127 84
101 127 84
101 127 84
101 127 84
101 127 84
92 117 66
81 103 32
78 99 0
75 95 0
71 89 0
71 86 0
72 86 0
84 96 0
104 113 0
106 115 0
102 111 0
97 105 0
96 115 60
101 127 84
101 127 84
101 127 84
101 127 84
101 127 84
101 127 84
101 127 84
101 127 84
101 127 84
101 127 84
101 127 84
101 127 84
101 127 84
101 127 84
101 127 84
101 127 84
101 127 84
101 127 84
101 127 84
101 127 84
101 127 84
101 127 84
101 127 84
101 127 84
101 127 84
101 127 84
101 127 84
101 127 84
101 127 84
101 127 84
101 127 84
101 127 84
101 127 84
101 127 84
101 127 84
101 127 84
101 127 84
101 127 84
101 127 84
101 127 84
101 127 84
101 127 84
101 127 84
101 127 84
101 127 84
97 109 78
85 0 65
81 0 61
78 0 61
78 0 62
78 0 64
84 0 68
86 0 70
95 0 80
102 0 89
104 0 91
104 93 89
103 109 87
102 109 87
100 52 86
98 0 84
96 0 82
94 0 79
94 0 78
75 0 60
91 70 76
101 127 84
101 127 84
101 127 84
101 127 85
101 127 85
101 127 85
101 127 85
101 127 85
101 127 85
101 127 85
101 127 85
101 127 85
101 127 85
101 127 85
101 127 85
101 127 85
101 127 85
101 127 85
102 127 85
101 127 85
102 127 85
102 127 85
102 127 85
102 128 85
102 128 85
102 128 85
102 128 85
102 128 85
102 128 85
102 128 85
102 128 85
102 128 85
102 128 85
102 128 85
102 128 85
102 128 85
102 128 85
102 128 85
102 128 86
102 128 86
102 128 86
102 128 86
102 128 86
102 128 86
102 128 86
102 128 86
102 128 86
102 128 86
102 128 86
102 129 86
102 129 86
102 129 86
102 129 86
103 129 86
103 129 87
103 129 87
103 129 87
103 129 87
103 129 87
103 129 87
103 129 87
103 129 87
102 129 87
102 129 87
102 129 87
102 129 86
102 128 86
102 128 86
102 128 86
102 128 86
102 128 86
102 128 86
102 128 86
102 128 86
102 128 86
102 128 86
102 128 86
102 128 86
102 128 85
102 128 85
103 124 72
104 113 0
104 113 0
96 109 0
87 100 0
84 97 0
79 92 0
73 85 0
73 87 0
80 101 44
101 127 85
101 127 85
101 127 85
101 127 85
101 127 85
101 127 85
101 127 85
101 127 85
101 127 85
101 127 85
101 127 85
101 127 85
94 120 71
89 113 60
82 106 44
75 98 0
73 97 0
72 95 0
72 95 0
72 95 0
72 95 0
84 108 53
84 108 53
96 121 76
101 127 84
101 127 84
101 127 84
101 127 84
101 127 84
101 127 84
101 127 84
101 127 84
101 127 84
92 116 66
81 102 32
78 98 0
78 98 0
76 93 0
90 101 0
104 112 0
106 115 0
101 109 0
93 102 0
94 109 32
101 127 84
101 127 84
101 127 84
101 127 84
101 127 84
101 127 84
101 127 84
101 127 84
101 127 84
101 127 84
101 127 84
101 127 84
101 127 84
101 127 84
101 127 84
101 127 84
101 127 84
101 127 84
101 127 84
101 127 84
101 127 84
101 127 84
101 127 84
101 127 84
101 127 84
101 127 84
101 127 84
101 127 84
101 127 84
101 127 84
101 127 84
101 127 84
101 127 84
101 127 84
101 127 84
101 127 84
101 127 84
101 127 84
101 127 84
101 127 84
101 127 84
101 127 84
101 127 84
101 127 84
101 127 84
101 127 84
92 83 74
84 0 64
82 0 63
80 0 63
81 0 65
83 0 67
84 0 68
84 0 68
88 0 72
94 0 78
99 0 84
99 0 86
93 0 80
89 0 76
86 0 74
82 0 69
88 0 73
85 0 70
83 0 68
89 0 76
101 109 86
101 127 84
101 127 84
101 127 84
101 127 84
101 127 84
101 127 84
101 127 84
101 127 84
101 127 84
101 127 84
101 127 84
101 127 84
101 127 84
101 127 84
101 127 85
101 127 84
101 127 85
101 127 85
101 127 85
101 127 85
101 127 85
101 127 85
101 127 85
101 127 85
102 127 85
102 128 85
102 128 85
102 128 85
102 128 85
102 128 85
102 128 85
102 128 85
102 128 85
102 128 85
102 128 85
102 128 85
102 128 85
102 128 85
102 128 85
102 128 85
102 128 85
102 128 86
102 128 86
102 128 86
102 128 86
102 128 86
102 128 86
102 128 86
102 128 86
102 129 86
102 129 86
102 129 86
102 129 86
102 129 86
103 129 86
103 129 87
103 129 87
103 129 87
103 129 87
103 129 87
103 129 87
102 129 87
102 129 86
102 129 86
102 128 86
102 128 86
102 128 86
102 128 86
102 128 86
102 128 86
102 128 86
102 128 86
102 128 86
102 128 86
102 128 85
102 128 85
102 128 85
102 128 85
102 128 85
103 119 53
104 113 0
102 112 0
93 107 0
87 100 0
85 99 0
78 92 0
74 87 0
75 91 0
96 121 76
101 127 85
101 127 85
101 127 85
101 127 85
101 127 85
101 127 85
101 127 85
101 127 85
101 127 85
101 127 84
101 127 84
101 127 84
101 127 84
101 127 84
101 127 84
101 127 84
96 121 76
101 127 84
101 127 84
101 127 84
101 127 84
101 127 84
101 127 84
101 127 84
101 127 84
101 127 84
101 127 84
101 127 84
101 127 84
101 127 84
101 127 84
101 127 84
101 127 84
101 127 84
101 127 84
97 121 76
85 106 44
79 98 0
97 107 0
104 112 0
106 116 0
101 110 0
93 103 0
95 109 0
101 127 84
101 127 84
101 127 84
101 127 84
101 127 84
101 127 84
101 127 84
101 127 84
101 127 84
101 127 84
101 127 84
101 127 84
101 127 84
101 127 84
101 127 84
101 127 84
101 127 84
101 127 84
101 127 84
101 127 84
101 127 84
101 127 84
101 127 84
101 127 84
101 127 84
101 127 84
101 127 84
101 127 84
101 127 84
101 127 84
101 127 84
101 127 84
101 127 84
101 127 84
101 127 84
101 127 84
101 127 84
101 127 84
101 127 84
101 127 84
101 127 84
101 127 84
101 127 84
101 127 84
101 127 84
101 127 84
96 109 80
78 0 63
82 0 63
84 0 65
82 0 66
82 0 66
85 0 68
85 0 68
85 0 69
89 0 72
91 0 74
84 0 72
87 0 75
87 0 75
84 0 71
74 0 64
78 0 67
84 0 71
78 0 65
88 0 75
102 0 90
102 109 86
101 127 84
101 127 84
101 127 84
101 127 84
101 127 84
101 127 84
101 127 84
101 127 84
101 127 84
101 127 84
101 127 84
101 127 84
101 127 84
101 127 84
101 127 84
101 127 84
101 127 84
101 127 84
101 127 84
101 127 84
101 127 85
101 127 85
101 127 85
101 127 85
101 127 85
101 128 85
101 128 85
101 128 85
101 128 85
102 128 85
102 128 85
102 128 85
102 128 85
102 128 85
102 128 85
102 128 85
102 128 85
102 128 85
102 128 85
102 128 85
102 128 85
102 128 85
102 128 85
102 128 86
102 128 86
102 128 86
102 128 86
102 128 86
102 128 86
102 129 86
102 129 86
102 129 86
102 129 86
102 129 86
103 129 86
103 129 86
103 129 87
103 129 87
103 129 87
103 129 87
102 129 86
102 129 86
102 129 86
102 128 86
102 128 86
102 128 86
102 128 86
102 128 86
102 128 86
102 128 86
102 128 86
102 128 85
102 128 85
102 128 85
101 128 85
101 128 85
101 128 85
103 125 77
105 113 0
104 113 0
97 110 0
96 115 53
88 101 0
86 100 0
80 93 0
75 88 0
81 99 32
101 127 85
101 127 85
101 127 85
101 127 85
101 127 85
101 127 84
101 127 84
101 127 84
101 127 84
101 127 84
101 127 84
101 127 84
101 127 84
101 127 84
101 127 84
101 127 84
101 127 84
101 127 84
101 127 84
101 127 84
101 127 84
101 127 84
101 127 84
101 127 84
101 127 84
101 127 84
101 127 84
101 127 84
101 127 84
101 127 84
101 127 84
101 127 84
101 127 84
101 127 84
101 127 84
101 127 84
101 127 84
101 127 84
102 120 59
109 117 0
104 112 0
101 113 0
99 108 0
94 104 0
96 111 0
101 127 84
101 127 84
101 127 84
101 126 84
101 127 84
101 126 84
101 127 84
101 126 84
101 126 84
101 126 84
101 126 84
101 126 84
101 126 84
101 126 84
101 126 84
101 126 84
101 126 84
101 126 84
101 126 84
101 126 84
101 126 84
101 126 84
101 126 84
101 126 84
101 126 84
101 126 84
101 127 84
101 127 84
101 126 84
101 127 84
101 127 84
101 127 84
101 127 84
101 127 84
101 127 84
101 127 84
101 127 84
101 127 84
101 127 84
101 127 84
101 127 84
101 127 84
101 127 84
101 127 84
101 127 84
101 127 84
81 51 66
76 69 61
93 109 75
87 69 67
83 0 64
82 0 66
83 0 67
86 0 68
85 0 69
91 0 74
94 0 77
83 0 70
80 0 69
80 0 70
79 0 69
75 0 65
71 0 61
72 0 63
74 0 65
85 0 74
90 0 79
100 0 88
102 109 86
101 127 84
101 127 84
101 127 84
101 127 84
101 127 84
101 127 84
101 127 84
101 127 84
101 127 84
101 127 84
101 127 84
101 127 84
101 127 84
101 127 84
101 127 84
101 127 84
101 127 84
101 127 84
101 127 84
101 127 84
101 127 84
101 127 84
101 127 84
101 127 84
101 127 84
101 127 85
101 128 85
101 128 85
101 128 85
101 128 85
101 128 85
101 128 85
101 128 85
102 128 85
102 128 85
102 128 85
102 128 85
102 128 85
102 128 85
102 128 85
102 128 85
102 128 85
102 128 85
102 128 85
102 128 86
102 128 86
102 128 86
102 128 86
102 128 86
102 129 86
102 129 86
102 129 86
102 129 86
102 129 86
102 129 86
103 129 86
103 129 87
103 129 87
103 129 87
102 129 86
102 128 86
102 128 86
102 128 86
102 128 86
102 128 86
102 128 86
102 128 86
102 128 86
102 128 85
102 128 85
102 128 85
101 128 85
101 128 85
101 128 85
102 127 81
106 122 60
109 117 0
107 115 0
102 112 0
98 118 60
95 114 53
88 101 0
87 100 0
80 94 0
77 90 0
92 116 66
101 127 84
101 127 84
101 127 84
101 127 84
101 127 84
101 127 84
101 127 84
101 127 84
101 127 84
101 127 84
101 127 84
101 127 84
101 127 84
101 127 84
101 127 84
101 127 84
101 127 84
101 127 84
101 127 84
101 127 84
101 127 84
101 127 84
101 127 84
101 127 84
101 127 84
101 127 84
101 127 84
101 127 84
101 127 84
101 127 84
101 127 84
101 127 84
101 127 84
101 127 84
101 127 84
101 127 84
102 126 80
110 124 52
108 117 0
105 114 0
101 111 0
95 108 0
98 107 0
95 105 0
98 117 52
101 126 84
101 126 84
101 126 84
101 126 84
101 126 84
101 126 84
101 126 84
101 126 84
101 126 84
101 126 84
101 126 84
101 126 84
101 126 84
101 126 84
101 126 84
101 126 84
101 126 84
101 126 84
101 126 84
101 126 84
101 126 84
101 126 84
101 126 84
101 126 84
101 126 84
101 126 84
101 126 84
101 126 83
101 126 84
101 126 84
101 126 84
101 126 84
101 126 84
101 126 84
101 126 84
101 126 84
101 126 83
101 126 84
101 126 84
101 126 83
101 126 84
101 127 84
101 126 84
101 126 84
101 127 84
81 82 66
85 93 69
101 127 84
101 127 84
101 127 84
94 101 75
83 0 64
83 0 65
85 0 68
88 0 71
94 0 78
91 0 75
81 0 68
80 0 69
80 0 69
79 0 68
78 0 67
77 0 66
77 0 67
81 0 71
90 0 79
90 0 79
93 0 81
97 0 85
103 93 88
101 127 84
101 127 84
101 127 84
101 127 84
101 127 84
101 127 84
101 127 84
101 127 84
101 127 84
101 127 84
101 127 84
101 127 84
101 127 84
101 127 84
101 127 84
101 127 84
101 127 84
101 127 84
101 127 84
101 127 84
101 127 84
101 127 84
101 127 84
101 127 84
101 127 84
101 127 84
101 128 84
101 128 84
101 128 84
101 128 85
101 128 85
101 128 85
101 128 85
101 128 85
101 128 85
102 128 85
102 128 85
102 128 85
102 128 85
102 128 85
102 128 85
102 128 85
102 128 85
102 128 85
102 128 85
102 128 86
102 128 86
102 128 86
102 129 86
102 129 86
102 129 86
102 129 86
102 129 86
102 129 86
102 129 86
102 129 86
103 129 86
103 129 87
102 128 86
102 128 86
102 128 86
102 128 86
102 128 86
102 128 86
102 128 86
102 128 85
102 128 85
101 128 85
101 128 85
101 128 85
101 128 85
101 128 85
93 117 72
85 96 0
85 96 0
85 96 0
86 96 0
92 105 0
100 126 81
94 112 53
89 102 0
87 101 0
79 92 0
78 93 0
101 127 84
101 127 84
101 127 84
101 127 84
101 127 84
101 127 84
101 127 84
101 127 84
101 127 84
101 127 84
101 127 84
101 127 84
101 127 84
101 127 84
101 127 84
101 127 84
101 127 84
101 127 84
101 127 84
101 127 84
101 127 84
101 127 84
101 127 84
101 127 84
101 127 84
101 127 84
101 127 84
101 127 84
101 127 84
101 127 84
101 127 84
101 127 83
101 127 84
101 127 83
101 126 83
101 126 83
104 126 75
96 108 32
74 88 0
74 89 0
76 92 0
76 92 0
98 108 0
99 108 0
96 107 0
99 120 65
101 126 83
101 126 83
100 126 83
101 126 83
101 126 83
101 126 83
101 126 83
101 126 83
101 126 83
101 126 83
101 126 83
101 126 83
101 126 83
101 126 83
101 126 83
101 126 83
101 126 83
101 126 83
101 126 83
101 126 83
101 126 83
101 126 83
101 126 83
101 126 83
101 126 83
101 126 83
101 126 83
101 126 83
101 126 83
101 126 83
101 126 83
101 126 83
101 126 83
101 126 83
101 126 83
101 126 83
101 126 83
101 126 83
101 126 83
101 126 83
101 126 83
101 126 83
101 126 83
101 126 83
101 126 83
101 126 83
101 126 83
101 126 83
101 126 83
101 126 83
101 126 83
99 121 82
85 51 66
85 0 67
92 0 75
92 0 76
84 0 70
82 0 69
82 0 70
78 0 62
85 0 71
79 0 68
80 0 68
80 0 69
85 0 75
89 0 78
91 0 79
94 0 82
96 0 84
99 0 86
102 70 88
101 121 84
101 127 84
101 127 84
101 127 84
101 127 84
101 127 84
101 127 84
101 127 84
101 127 84
101 127 84
101 127 84
101 127 84
101 127 84
101 127 84
101 127 84
101 127 84
101 127 84
101 127 84
101 127 84
101 127 84
101 127 84
101 127 84
101 127 84
101 127 84
101 127 84
101 127 84
101 127 84
101 128 84
101 128 84
101 128 84
101 128 84
101 128 85
101 128 85
101 128 85
101 128 85
101 128 85
102 128 85
102 128 85
102 128 85
102 128 85
102 128 85
102 128 85
102 128 85
102 128 85
102 128 85
102 128 85
102 128 86
102 128 86
102 129 86
102 129 86
102 129 86
102 129 86
102 129 86
102 129 86
102 129 86
102 129 86
103 129 86
102 128 86
102 128 86
102 128 86
102 128 86
102 128 86
102 128 85
102 128 85
101 128 85
101 128 85
101 128 85
101 128 85
101 128 85
101 128 85
93 117 72
70 86 0
70 85 0
68 82 0
68 82 0
69 83 0
92 116 66
101 127 84
94 112 53
89 102 0
86 99 0
72 87 0
89 111 60
101 127 84
101 127 84
101 127 84
101 127 84
101 127 84
101 127 84
101 127 84
101 127 84
101 127 84
101 127 84
101 127 84
101 127 84
101 127 84
101 127 84
101 127 84
101 127 84
101 127 84
100 127 84
100 127 83
100 127 84
100 127 83
100 127 83
100 127 83
100 127 83
100 127 83
100 127 83
100 127 83
100 127 83
100 127 83
100 126 83
100 126 83
100 126 83
100 126 83
100 126 83
100 126 83
98 123 79
72 89 32
67 82 0
67 82 0
70 85 0
77 93 0
84 101 32
99 108 0
100 109 0
98 110 0
100 123 75
100 126 83
100 126 83
100 126 83
100 126 83
100 126 83
100 126 83
100 126 83
100 126 83
100 126 83
100 126 83
100 126 83
100 126 83
100 126 83
100 126 83
100 126 83
100 126 83
100 126 83
100 126 83
100 126 83
100 126 83
100 126 83
100 126 83
100 126 83
100 126 83
100 126 83
100 126 83
100 126 83
100 126 83
100 126 83
100 126 83
100 126 83
100 126 83
100 126 83
100 126 83
100 126 83
100 126 83
100 126 83
100 126 83
100 126 83
100 126 83
100 126 83
101 126 83
100 126 83
101 126 83
100 126 83
101 126 83
101 126 83
100 126 83
100 126 83
101 126 83
101 126 83
101 126 83
99 121 81
88 51 69
89 0 72
90 0 73
88 0 74
88 0 74
92 0 76
78 0 59
80 0 62
79 0 68
73 0 63
80 0 69
85 0 74
82 0 71
87 0 75
92 0 80
94 0 81
96 0 83
98 0 86
98 0 85
101 83 87
101 102 86
101 116 85
101 127 83
101 127 83
101 127 83
101 127 83
101 127 84
101 127 84
101 127 84
101 127 84
101 127 84
101 127 84
101 127 84
101 127 84
101 127 84
101 127 84
101 127 84
101 127 84
101 127 84
101 127 84
101 127 84
101 127 84
101 127 84
101 127 84
101 127 84
101 127 84
101 127 84
101 128 84
101 128 84
101 128 84
101 128 84
101 128 84
101 128 85
101 128 85
101 128 85
101 128 85
101 128 85
102 128 85
102 128 85
102 128 85
102 128 85
102 128 85
102 128 85
102 128 85
102 128 85
102 128 85
102 128 85
102 129 86
102 129 86
102 129 86
102 129 86
102 129 86
102 129 86
102 129 86
102 129 86
102 128 86
102 128 86
102 128 86
102 128 86
102 128 85
101 128 85
101 128 85
101 128 85
101 128 85
101 128 85
101 128 85
101 128 85
101 128 85
93 117 71
83 104 53
70 86 0
70 85 0
68 82 0
77 95 32
101 127 84
101 127 84
98 120 71
91 104 0
80 93 0
75 91 0
96 121 76
101 127 84
101 127 84
101 127 84
101 127 84
101 127 84
101 127 84
101 127 84
101 127 84
100 127 84
100 127 84
100 127 84
100 127 84
100 127 83
100 127 83
100 127 83
100 127 83
100 127 83
100 127 83
100 127 83
100 127 83
100 127 83
100 127 83
100 127 83
100 126 83
100 126 83
100 126 83
100 126 83
100 126 83
100 126 83
100 126 83
100 126 83
100 126 83
100 126 83
100 126 83
100 126 83
100 126 83
100 126 83
91 115 70
76 95 43
68 83 0
80 98 32
99 120 70
99 108 0
100 109 0
99 111 0
100 126 83
100 126 83
100 126 83
100 126 83
100 126 83
100 126 83
100 126 83
100 126 83
100 126 83
100 126 83
100 126 83
100 126 83
100 126 83
100 126 83
100 126 83
100 126 83
100 126 83
100 126 83
100 126 83
100 126 83
100 126 83
100 126 83
100 126 83
100 126 83
100 126 83
100 126 83
100 126 83
100 126 83
100 126 83
100 126 83
100 126 83
100 126 83
100 126 83
100 126 83
100 126 83
100 126 83
100 126 83
100 126 83
100 126 83
100 126 83
100 126 83
100 126 83
100 126 83
100 126 83
100 126 83
100 126 83
100 126 83
100 126 83
100 126 83
100 126 83
100 126 83
100 126 83
100 126 83
100 126 83
99 121 82
91 51 73
92 0 75
92 0 76
92 0 76
84 0 67
76 0 59
78 0 61
72 0 61
70 0 61
72 0 63
77 0 67
83 0 73
83 0 72
83 0 73
88 0 77
93 0 81
94 0 82
93 0 81
95 0 82
98 0 85
102 0 89
103 83 88
101 127 83
101 127 83
101 127 83
101 127 83
101 127 83
101 127 83
101 127 83
101 127 83
101 127 83
101 127 83
101 127 84
101 127 84
101 127 84
101 127 84
101 127 84
101 127 84
101 127 84
101 127 84
101 127 84
101 127 84
101 127 84
101 127 84
101 127 84
101 127 84
101 127 84
101 127 84
101 128 84
101 128 84
101 128 84
101 128 84
101 128 84
101 128 84
101 128 85
101 128 85
101 128 85
101 128 85
102 128 85
102 128 85
102 128 85
102 128 85
102 128 85
102 128 85
102 128 85
102 128 85
102 128 85
102 129 86
102 129 86
102 129 86
102 129 86
102 129 86
102 129 86
102 129 86
102 128 86
102 128 86
102 128 85
101 128 85
101 128 85
101 128 85
101 128 85
101 128 85
101 128 85
101 128 85
101 128 85
101 128 85
101 128 85
101 128 84
101 127 84
101 127 84
92 117 71
82 103 52
96 121 76
101 127 84
101 127 84
97 119 65
86 98 0
80 93 0
84 104 44
101 127 84
101 127 84
101 127 84
100 127 84
100 127 84
100 127 84
100 127 84
100 127 83
100 127 83
100 127 83
100 127 83
100 127 83
100 127 83
100 127 83
100 127 83
100 127 83
100 127 83
100 127 83
100 127 83
100 127 83
100 126 83
100 126 83
100 126 83
100 126 83
100 126 83
100 126 83
100 126 83
100 126 83
100 126 83
100 126 83
100 126 83
100 126 83
100 126 83
100 126 83
100 126 83
100 126 83
100 126 83
100 126 83
100 126 83
100 126 83
94 119 75
98 123 79
99 120 70
98 107 0
101 109 0
99 115 43
100 126 83
100 126 83
100 126 83
100 126 83
100 126 83
100 126 83
100 126 83
100 126 83
100 126 83
100 126 83
100 126 83
100 126 83
100 126 83
100 126 83
100 126 83
100 126 83
100 126 83
100 126 83
100 126 83
100 126 83
100 126 83
100 126 83
100 126 83
100 126 83
100 126 83
100 126 83
100 126 83
100 126 83
100 126 83
100 126 83
100 126 83
100 126 83
100 126 83
100 126 83
100 126 83
100 126 83
100 126 83
100 126 83
100 126 83
100 126 83
100 126 83
100 126 83
100 126 83
100 126 83
100 126 83
100 126 83
100 126 83
100 126 83
100 126 83
100 126 83
100 126 83
100 126 83
100 126 83
100 126 83
100 126 83
93 82 76
93 0 76
90 0 73
86 0 69
78 0 60
74 0 55
73 0 59
70 0 61
68 0 60
72 0 64
75 0 65
77 0 67
82 0 72
85 0 73
85 0 74
86 0 75
89 0 77
91 0 79
91 0 79
91 0 80
94 0 82
99 0 87
103 69 89
101 121 84
100 127 83
100 127 83
100 127 83
100 127 83
100 127 83
101 127 83
101 127 83
101 127 83
101 127 83
101 127 83
101 127 83
101 127 83
101 127 83
101 127 83
101 127 83
101 127 84
101 127 84
101 127 84
101 127 84
101 127 84
101 127 84
101 127 84
101 127 84
101 127 84
101 127 84
101 128 84
101 128 84
101 128 84
101 128 84
101 128 84
101 128 84
101 128 84
101 128 84
101 128 85
101 128 85
101 128 85
101 128 85
102 128 85
102 128 85
102 128 85
102 128 85
102 128 85
102 128 85
102 129 85
102 129 86
102 129 86
102 129 86
102 129 86
102 129 86
102 129 86
102 128 86
102 128 85
101 128 85
101 128 85
101 128 85
101 128 85
101 128 85
101 128 85
101 128 85
101 128 85
101 128 85
101 128 84
101 128 84
101 127 84
101 127 84
101 127 84
101 127 84
101 127 84
101 127 84
101 127 84
101 127 84
94 111 44
80 91 0
81 96 0
95 119 70
100 127 84
100 127 84
100 127 84
100 127 83
100 127 83
100 127 83
100 127 83
100 127 83
100 127 83
100 127 83
100 127 83
100 127 83
100 127 83
100 127 83
100 127 83
100 127 83
100 127 83
100 127 83
100 126 83
100 126 83
100 126 83
100 126 83
100 126 83
100 126 83
100 126 83
100 126 83
100 126 83
100 126 83
100 126 83
100 126 83
100 126 83
100 126 83
100 126 83
100 126 83
100 126 83
100 126 83
100 126 83
100 126 83
100 126 83
100 126 83
100 126 83
100 126 83
99 120 70
98 107 0
100 110 0
100 119 58
100 126 83
100 126 83
100 126 83
100 126 83
100 126 83
100 126 83
100 126 83
100 126 83
100 126 83
100 126 83
100 126 83
100 126 83
100 126 82
100 126 83
100 126 83
100 126 83
100 126 82
100 126 82
100 126 83
100 126 82
100 126 82
100 126 83
100 126 83
100 126 82
100 126 82
100 126 82
100 126 82
100 126 83
100 126 83
100 126 82
100 126 83
100 126 83
100 126 82
100 126 82
100 126 83
100 126 83
100 126 83
100 126 83
100 126 82
100 126 83
100 126 82
100 126 83
100 126 83
100 126 83
100 126 83
100 126 83
100 126 83
100 126 83
100 126 83
100 126 83
100 126 83
100 126 83
100 126 83
100 126 83
100 126 83
95 92 78
87 0 69
86 0 69
81 0 63
74 0 56
71 0 54
72 0 61
67 0 59
67 0 58
71 0 61
75 0 66
76 0 66
76 0 66
80 0 70
85 0 74
85 0 74
86 0 74
88 0 76
91 0 79
91 0 79
93 0 82
91 0 79
99 0 86
103 51 90
101 116 85
100 127 83
100 127 83
100 127 83
100 127 83
100 127 83
100 127 83
100 127 83
100 127 83
100 127 83
100 127 83
100 127 83
101 127 83
101 127 83
101 127 83
101 127 83
101 127 83
101 127 83
101 127 83
101 127 84
101 127 84
101 127 84
101 127 84
101 127 84
101 127 84
101 127 84
101 128 84
101 128 84
101 128 84
101 128 84
101 128 84
101 128 84
101 128 84
101 128 84
101 128 84
101 128 85
101 128 85
101 128 85
101 128 85
102 128 85
102 128 85
102 128 85
102 128 85
102 128 85
102 129 85
102 129 85
102 129 86
102 129 86
102 129 86
102 129 86
101 128 85
101 128 85
101 128 85
101 128 85
101 128 85
101 128 85
101 128 85
101 128 85
101 128 85
101 128 84
101 128 84
101 127 84
101 127 84
101 127 84
101 127 84
101 127 84
101 127 84
101 127 84
101 127 84
100 127 84
99 123 75
85 96 0
81 91 0
84 102 32
100 127 83
100 127 83
100 127 83
100 127 83
100 127 83
100 127 83
100 127 83
100 127 83
100 127 83
100 127 83
100 127 83
100 127 83
100 127 83
100 127 83
100 127 83
100 126 83
100 126 83
100 126 83
100 126 83
100 126 83
100 126 83
100 126 83
100 126 83
100 126 83
100 126 83
100 126 83
100 126 83
100 126 83
100 126 83
100 126 83
100 126 83
100 126 83
100 126 83
100 126 83
100 126 82
100 126 82
100 126 82
100 126 82
100 126 82
100 126 82
100 126 82
100 126 82
100 126 82
98 115 58
98 106 0
100 110 0
100 122 69
100 126 82
100 126 82
100 126 82
100 126 82
100 126 82
100 126 82
100 126 82
100 126 82
100 126 82
100 126 82
100 126 82
100 126 82
100 126 82
100 126 82
100 126 82
100 126 82
100 126 82
100 126 82
100 126 82
100 126 82
100 126 82
100 126 82
100 126 82
100 126 82
100 126 82
100 126 82
100 126 82
100 126 82
100 126 82
100 126 82
100 126 82
100 126 82
100 126 82
100 126 82
100 126 82
100 126 82
100 126 82
100 126 82
100 126 82
100 126 82
100 126 82
100 126 82
100 126 82
100 126 82
100 126 82
100 126 82
100 126 82
100 126 82
100 126 82
100 126 82
100 126 82
100 126 82
100 126 82
100 126 82
100 126 82
99 121 81
88 51 69
83 0 65
75 0 57
73 0 56
69 0 53
69 0 59
68 0 60
69 0 60
71 0 61
73 0 63
75 0 66
76 0 66
76 0 66
78 0 69
83 0 72
84 0 73
85 0 74
87 0 75
91 0 80
93 0 82
91 0 80
90 0 79
97 0 84
104 0 91
101 121 84
100 127 83
100 127 83
100 127 83
100 127 83
100 127 83
100 127 83
100 127 83
100 127 83
100 127 83
100 127 83
100 127 83
100 127 83
100 127 83
100 127 83
101 127 83
101 127 83
101 127 83
101 127 83
101 127 83
101 127 83
101 127 84
101 127 84
101 127 84
101 127 84
101 127 84
101 128 84
101 128 84
101 128 84
101 128 84
101 128 84
101 128 84
101 128 84
101 128 84
101 128 84
101 128 84
101 128 85
101 128 85
101 128 85
101 128 85
102 128 85
102 128 85
102 128 85
102 128 85
102 129 85
102 129 85
102 129 85
102 129 86
102 129 86
101 128 85
101 128 85
101 128 85
101 128 85
101 128 85
101 128 85
101 128 85
101 128 84
101 128 84
101 128 84
101 127 84
101 127 84
101 127 84
101 127 84
101 127 84
100 127 84
100 127 84
100 127 84
100 127 84
100 127 83
92 110 52
82 92 0
81 92 0
91 113 59
100 127 83
100 127 83
100 127 83
100 127 83
100 127 83
100 127 83
100 127 83
100 127 83
100 127 83
100 127 83
100 127 83
100 127 83
100 126 83
100 126 83
100 126 83
100 126 83
100 126 83
100 126 83
100 126 83
100 126 83
100 126 82
100 126 82
100 126 82
100 126 82
100 126 82
100 126 82
100 126 82
100 126 82
100 126 82
100 126 82
100 126 82
100 126 82
100 126 82
100 126 82
100 126 82
100 126 82
100 126 82
100 126 82
100 126 82
100 126 82
100 126 82
100 126 82
100 126 82
97 113 51
97 106 0
99 110 0
100 126 82
100 126 82
100 126 82
100 126 82
100 126 82
100 126 82
100 126 82
100 126 82
100 126 82
100 126 82
100 126 82
100 126 82
100 126 82
100 126 82
100 126 82
100 126 82
100 126 82
100 126 82
100 126 82
100 126 82
100 126 82
100 126 82
100 126 82
100 126 82
100 126 82
100 126 82
100 126 82
100 126 82
100 126 82
100 126 82
100 126 82
100 126 82
100 126 82
100 126 82
100 126 82
100 126 82
100 126 82
100 126 82
100 126 82
100 126 82
100 126 82
100 126 82
100 126 82
100 126 82
100 126 82
100 126 82
100 126 82
100 126 82
100 126 82
100 126 82
100 126 82
100 126 82
100 126 82
100 126 82
100 126 82
100 126 82
100 126 82
96 108 78
80 0 60
76 0 58
69 0 53
70 0 56
70 0 60
69 0 60
70 0 61
73 0 62
73 0 62
74 0 63
75 0 65
76 0 66
76 0 67
78 0 68
82 0 71
84 0 73
84 0 74
85 0 75
92 0 81
92 0 81
90 0 79
91 0 80
99 0 87
103 69 90
100 127 83
100 127 83
100 127 83
100 127 83
100 127 83
100 127 83
100 127 83
100 127 83
100 127 83
100 127 83
100 127 83
100 127 83
100 127 83
100 127 83
100 127 83
100 127 83
100 127 83
100 127 83
100 127 83
101 127 83
101 127 83
101 127 83
101 127 83
101 127 83
101 127 83
101 127 84
101 127 84
101 128 84
101 128 84
101 128 84
101 128 84
101 128 84
101 128 84
101 128 84
101 128 84
101 128 84
101 128 84
101 128 85
101 128 85
101 128 85
101 128 85
102 128 85
102 128 85
102 128 85
102 129 85
102 129 85
102 129 85
102 129 86
101 128 85
101 128 85
101 128 85
101 128 85
101 128 85
101 128 84
101 128 84
101 128 84
101 128 84
101 127 84
101 127 84
101 127 84
100 127 84
100 127 84
100 127 84
100 127 84
100 127 83
100 127 83
100 127 83
99 124 79
85 95 0
82 93 0
82 94 0
98 124 79
100 127 83
100 127 83
100 127 83
100 127 83
100 127 83
100 127 83
100 127 83
100 127 83
100 127 83
100 127 83
100 126 83
100 126 83
100 126 83
100 126 82
100 126 82
100 126 82
100 126 82
100 126 82
100 126 82
100 126 82
100 126 82
100 126 82
100 126 82
100 126 82
100 126 82
100 126 82
100 126 82
100 126 82
100 126 82
100 126 82
100 126 82
100 126 82
100 126 82
100 126 82
100 126 82
100 126 82
100 126 82
100 126 82
100 126 82
100 126 82
100 126 82
100 126 82
101 118 58
104 113 0
98 107 0
97 116 51
100 126 82
100 126 82
100 126 82
100 126 82
100 126 82
100 126 82
100 126 82
100 126 82
100 126 82
100 126 82
100 126 82
100 126 82
100 126 82
100 126 82
100 126 82
100 126 82
100 126 82
100 126 82
100 126 82
100 126 82
100 126 82
100 126 82
100 126 82
100 126 82
100 126 82
100 126 82
100 126 82
100 126 82
100 126 82
100 126 82
100 126 82
100 126 82
100 126 82
100 126 82
100 126 82
100 126 82
100 126 82
100 126 82
100 126 82
100 126 82
100 126 82
100 126 82
100 126 82
100 126 82
100 126 82
100 126 82
100 126 82
100 126 82
100 126 82
100 126 82
100 126 82
100 126 82
100 126 82
100 126 82
100 126 82
100 126 82
100 126 82
100 126 82
90 92 71
77 0 58
74 0 59
75 0 61
73 0 61
70 0 61
74 0 63
75 0 63
75 0 64
74 0 63
76 0 65
76 0 66
76 0 67
77 0 68
77 0 68
80 0 70
84 0 74
84 0 74
85 0 75
92 0 80
90 0 79
92 0 81
94 0 83
100 0 88
101 109 85
100 127 82
100 127 82
100 127 82
100 127 82
100 127 82
100 127 83
100 127 82
100 127 83
100 127 83
100 127 83
100 127 83
100 127 83
100 127 83
100 127 83
100 127 83
100 127 83
100 127 83
100 127 83
100 127 83
100 127 83
100 127 83
100 127 83
101 127 83
101 127 83
101 127 83
101 127 83
101 128 84
101 128 84
101 128 84
101 128 84
101 128 84
101 128 84
101 128 84
101 128 84
101 128 84
101 128 84
101 128 84
101 128 84
101 128 85
101 128 85
101 128 85
102 128 85
102 128 85
102 128 85
102 129 85
102 129 85
102 129 85
101 128 85
101 128 85
101 128 85
101 128 85
101 128 84
101 128 84
101 128 84
101 128 84
101 127 84
101 127 84
100 127 84
100 127 84
100 127 84
100 127 84
100 127 83
100 127 83
100 127 83
100 127 83
100 124 75
97 111 32
88 99 0
82 93 0
89 107 52
100 127 83
100 127 83
100 127 83
100 127 83
100 127 83
100 127 83
100 127 83
100 126 83
100 126 82
100 126 82
100 126 82
100 126 82
100 126 82
100 126 82
100 126 82
100 126 82
100 126 82
100 126 82
100 126 82
100 126 82
100 126 82
100 126 82
100 126 82
100 126 82
100 126 82
99 126 82
99 126 82
100 126 82
99 126 82
99 126 82
99 126 82
99 126 82
99 126 82
99 126 82
99 126 82
99 126 82
99 126 82
99 126 82
99 126 82
99 126 82
99 126 82
99 124 78
99 112 31
101 111 0
106 114 0
96 107 0
96 120 69
99 126 82
99 126 82
99 126 82
99 126 82
99 126 82
99 126 82
99 126 82
99 126 82
99 126 82
99 126 82
99 126 82
99 126 82
99 126 82
99 126 82
99 126 82
99 126 82
99 126 82
99 126 82
99 126 82
99 126 82
99 126 82
99 126 82
99 126 82
99 126 82
99 126 82
99 126 82
99 126 82
99 126 82
99 126 82
99 126 82
99 126 82
99 126 82
99 126 82
99 126 82
99 126 82
99 126 82
99 126 82
100 126 82
99 126 82
99 126 82
100 126 82
100 126 82
100 126 82
100 126 82
99 126 82
100 126 82
100 126 82
100 126 82
100 126 82
100 126 82
100 126 82
100 126 82
100 126 82
100 126 82
100 126 82
100 126 82
100 126 82
100 126 82
100 126 82
94 108 75
78 0 58
76 0 58
75 0 59
74 0 61
75 0 64
75 0 64
74 0 63
76 0 65
77 0 66
74 0 65
75 0 66
77 0 67
78 0 68
77 0 68
82 0 72
84 0 74
84 0 74
87 0 77
91 0 79
92 0 80
92 0 81
97 0 86
99 51 86
101 101 86
100 126 82
100 127 82
100 127 82
100 127 82
100 127 82
100 127 82
100 127 82
100 127 82
100 127 82
100 127 82
100 127 82
100 127 83
100 127 83
100 127 83
100 127 83
100 127 83
100 127 83
100 127 83
100 127 83
100 127 83
100 127 83
100 127 83
100 127 83
100 127 83
101 127 83
101 127 83
101 127 83
101 128 83
101 128 84
101 128 84
101 128 84
101 128 84
101 128 84
101 128 84
101 128 84
101 128 84
101 128 84
101 128 84
101 128 84
101 128 85
101 128 85
101 128 85
102 128 85
102 129 85
102 129 85
102 129 85
101 128 85
101 128 85
101 128 84
101 128 84
101 128 84
101 128 84
101 128 84
101 127 84
100 127 84
100 127 84
100 127 84
100 127 83
100 127 83
100 127 83
100 127 83
100 127 83
100 127 83
100 121 65
100 113 0
90 104 0
87 100 0
84 98 0
96 121 74
100 127 83
100 127 83
100 127 83
100 127 82
100 127 82
100 126 82
100 126 82
100 126 82
100 126 82
100 126 82
100 126 82
100 126 82
100 126 82
99 126 82
99 126 82
99 126 82
99 126 82
99 126 82
99 126 82
99 126 82
99 126 82
99 126 82
99 126 82
99 126 82
99 126 82
99 126 82
99 126 82
99 126 82
99 126 82
99 126 82
99 126 82
99 126 82
99 126 82
99 126 82
99 126 82
99 126 82
99 126 82
99 126 82
99 126 82
99 126 82
98 120 69
92 104 0
84 97 0
79 95 0
77 97 0
81 101 31
99 126 82
99 126 81
99 126 81
99 126 82
99 126 82
99 126 81
99 126 81
99 126 81
99 126 82
99 126 81
99 126 81
99 126 81
99 126 82
99 126 81
99 126 81
99 126 81
99 126 81
99 126 81
99 126 81
99 126 81
99 126 81
99 126 81
99 126 81
99 126 81
99 126 81
99 126 81
99 126 81
99 126 81
99 126 81
99 126 81
99 126 81
99 126 81
99 126 81
99 126 81
99 126 81
99 126 81
99 126 81
99 126 81
99 126 81
99 126 81
99 126 81
99 126 81
99 126 82
99 126 81
99 126 82
99 126 81
99 126 81
99 126 82
99 126 81
99 126 81
99 126 82
99 126 82
99 126 82
99 126 82
99 126 82
99 126 82
99 126 82
99 126 82
99 126 82
99 126 82
99 126 82
95 115 77
80 51 59
76 0 58
79 0 64
78 0 64
75 0 64
77 0 66
82 0 69
76 0 66
75 0 65
75 0 65
75 0 66
76 0 67
77 0 68
78 0 69
83 0 73
84 0 74
83 0 74
85 0 76
90 0 79
90 0 80
83 0 74
98 0 86
96 0 85
103 51 90
103 101 88
100 126 82
100 127 82
100 127 82
100 127 82
100 127 82
100 127 82
100 127 82
100 127 82
100 127 82
100 127 82
100 127 82
100 127 82
100 127 82
100 127 83
100 127 83
100 127 83
100 127 83
100 127 83
100 127 83
100 127 83
100 127 83
100 127 83
100 127 83
100 127 83
100 127 83
101 127 83
101 128 83
101 128 83
101 128 84
101 128 84
101 128 84
101 128 84
101 128 84
101 128 84
101 128 84
101 128 84
101 128 84
101 128 84
101 128 84
101 128 85
101 128 85
102 128 85
102 129 85
102 129 85
101 128 85
101 128 84
101 128 84
101 128 84
101 128 84
101 128 84
100 127 84
100 127 84
100 127 84
100 127 83
100 127 83
100 127 83
100 127 83
100 127 83
100 127 83
100 126 79
95 112 43
86 101 0
75 93 0
73 92 0
74 94 0
90 114 64
100 127 83
100 127 82
100 127 82
100 127 82
100 126 82
100 126 82
100 126 82
100 126 82
99 126 82
99 126 82
99 126 82
99 126 82
99 126 82
99 126 82
99 126 82
99 126 82
99 126 82
99 126 82
99 126 82
99 126 82
99 126 82
99 126 82
99 126 82
99 126 82
99 126 82
99 126 82
99 126 82
99 126 82
99 126 82
99 126 81
99 126 81
99 126 81
99 126 81
99 126 81
99 126 81
99 126 81
99 126 81
99 126 81
99 126 81
99 126 81
99 124 77
77 98 42
68 86 0
68 86 0
71 90 0
77 96 0
92 117 68
99 126 81
99 126 81
99 126 81
99 126 81
99 126 81
99 126 81
99 126 81
99 126 81
99 126 81
99 126 81
99 126 81
99 126 81
99 126 81
99 126 81
99 126 81
99 126 81
99 126 81
99 126 81
99 126 81
99 126 81
99 126 81
99 126 81
99 126 81
99 126 81
99 126 81
99 126 81
99 126 81
99 126 81
99 126 81
99 126 81
99 126 81
99 126 81
99 126 81
99 126 81
99 126 81
99 126 81
99 126 81
99 126 81
99 126 81
99 126 81
99 126 81
99 126 81
99 126 81
99 126 81
99 126 81
99 126 81
99 126 81
99 126 81
99 126 81
99 126 81
99 126 81
99 126 81
99 126 81
99 126 81
99 126 81
99 126 81
99 126 81
99 126 81
99 126 81
99 126 81
99 126 81
99 126 81
99 126 81
87 82 67
79 0 60
79 0 62
77 0 64
81 0 68
81 0 68
76 0 66
75 0 66
75 0 66
73 0 64
72 0 63
72 0 63
74 0 65
77 0 68
82 0 73
82 0 73
82 0 73
85 0 75
88 0 78
74 0 67
85 0 76
93 0 82
95 0 83
102 0 89
104 82 90
100 126 82
100 126 82
100 127 82
100 127 82
100 127 82
100 127 82
100 127 82
100 127 82
100 127 82
100 127 82
100 127 82
100 127 82
100 127 82
100 127 82
100 127 82
100 127 82
100 127 83
100 127 83
100 127 83
100 127 83
100 127 83
100 127 83
100 127 83
100 127 83
100 127 83
100 127 83
100 127 83
101 128 83
101 128 83
101 128 83
101 128 84
101 128 84
101 128 84
101 128 84
101 128 84
101 128 84
101 128 84
101 128 84
101 128 84
101 128 85
101 128 85
101 128 85
102 129 85
101 128 84
101 128 84
101 128 84
101 128 84
100 127 84
100 127 84
100 127 84
100 127 83
100 127 83
100 127 83
100 127 83
100 127 83
100 127 83
100 127 83
100 127 83
92 117 70
79 101 43
71 90 0
71 90 0
72 92 0
84 107 51
100 127 82
100 127 82
100 127 82
99 126 82
99 126 82
99 126 82
99 126 82
99 126 82
99 126 82
99 126 82
99 126 82
99 126 82
99 126 82
99 126 82
99 126 82
99 126 82
99 126 82
99 126 82
99 126 81
99 126 81
99 126 81
99 126 81
99 126 81
99 126 81
99 126 81
99 126 81
99 126 81
99 126 81
99 126 81
99 126 81
99 126 81
99 126 81
99 126 81
99 126 81
99 126 81
99 126 81
99 126 81
99 126 81
99 126 81
99 126 81
99 126 81
99 126 81
99 126 81
94 119 73
77 98 42
71 90 0
92 117 68
99 126 81
99 126 81
99 126 81
99 126 81
99 126 81
99 126 81
99 126 81
99 126 81
99 126 81
99 126 81
99 126 81
99 126 81
99 126 81
99 126 81
99 126 81
99 126 81
99 126 81
99 126 81
99 125 81
99 126 81
99 126 81
99 126 81
99 126 81
99 126 81
99 126 81
99 126 81
99 126 81
99 126 81
99 126 81
99 126 81
99 125 81
99 126 81
99 126 81
99 126 81
99 126 81
99 126 81
99 126 81
99 126 81
99 126 81
99 126 81
99 126 81
99 126 81
99 126 81
99 126 81
99 126 81
99 126 81
99 126 81
99 126 81
99 126 81
99 126 81
99 126 81
99 126 81
99 126 81
99 126 81
99 126 81
99 126 81
99 126 81
99 126 81
99 126 81
99 126 81
99 126 81
99 126 81
99 126 81
99 126 81
99 126 81
92 101 73
81 0 64
85 0 69
81 0 68
80 0 67
78 0 67
75 0 66
73 0 64
72 0 63
72 0 64
73 0 65
74 0 65
73 0 65
78 0 70
81 0 72
80 0 72
80 0 71
82 0 73
83 0 73
76 0 67
88 0 77
91 0 80
90 0 80
99 0 87
103 82 89
98 121 81
84 0 74
85 0 75
92 82 78
100 127 82
100 127 82
100 127 82
100 127 82
100 127 82
100 127 82
100 127 82
100 127 82
100 127 82
100 127 82
100 127 82
100 127 82
100 127 82
100 127 82
100 127 83
100 127 83
100 127 83
100 127 83
100 127 83
100 127 83
100 127 83
100 127 83
100 127 83
100 128 83
101 128 83
101 128 83
101 128 83
101 128 84
101 128 84
101 128 84
101 128 84
101 128 84
101 128 84
101 128 84
101 128 84
101 128 85
101 128 85
101 128 85
101 128 84
101 128 84
100 128 84
100 127 84
100 127 84
100 127 83
100 127 83
100 127 83
100 127 83
100 127 83
100 127 83
100 127 83
100 127 83
100 127 83
100 127 83
100 127 82
100 127 82
97 124 78
89 113 64
86 110 58
99 127 82
99 127 82
99 126 82
99 126 82
99 126 82
99 126 82
99 126 82
99 126 82
99 126 82
99 126 82
99 126 82
99 126 82
99 126 81
99 126 81
99 126 81
99 126 81
99 126 81
99 126 81
99 126 81
99 126 81
99 126 81
99 126 81
99 126 81
99 126 81
99 126 81
99 126 81
99 126 81
99 126 81
99 126 81
99 126 81
99 126 81
99 126 81
99 126 81
99 126 81
99 126 81
99 126 81
99 126 81
99 126 81
99 126 81
99 126 81
99 126 81
99 126 81
99 126 81
99 126 81
99 126 81
99 126 81
96 122 77
99 126 81
99 125 81
99 125 81
99 125 81
99 125 81
99 125 81
99 125 81
99 125 81
99 125 81
99 125 81
99 125 81
99 125 81
99 125 81
99 125 81
99 125 81
99 125 81
99 125 81
99 125 81
99 125 81
99 125 81
99 125 81
99 125 81
99 125 81
99 125 81
99 125 81
99 125 81
99 125 81
99 125 81
99 125 81
99 125 81
99 125 81
99 125 81
99 125 81
99 125 81
99 125 81
99 125 81
99 125 81
99 125 81
99 125 81
99 125 81
99 126 81
99 126 81
99 126 81
99 126 81
99 126 81
99 126 81
99 126 81
99 126 81
99 126 81
99 126 81
99 126 81
99 126 81
99 126 81
99 126 81
99 126 81
99 126 81
99 126 81
99 126 81
99 126 81
99 126 81
99 126 81
99 126 81
99 126 81
99 126 81
99 126 81
99 126 81
99 126 81
93 101 75
85 0 69
82 0 68
80 0 67
78 0 66
74 0 65
73 0 65
74 0 66
74 0 66
74 0 65
73 0 65
72 0 64
73 0 65
78 0 70
74 0 67
75 0 66
86 0 75
90 0 78
95 0 83
97 0 85
86 0 76
90 0 79
88 0 77
96 0 84
102 109 86
91 93 78
86 0 75
91 69 77
99 126 82
99 126 82
100 127 82
100 127 82
100 127 82
100 127 82
100 127 82
100 127 82
100 127 82
100 127 82
100 127 82
100 127 82
100 127 82
100 127 82
100 127 82
100 127 82
100 127 82
100 127 82
100 127 83
100 127 83
100 127 83
100 127 83
100 127 83
100 128 83
100 128 83
100 128 83
101 128 83
101 128 83
101 128 83
101 128 84
101 128 84
101 128 84
101 128 84
101 128 84
101 128 84
101 128 84
101 128 84
101 128 85
100 128 84
100 128 84
100 127 84
100 127 84
100 127 83
100 127 83
100 127 83
100 127 83
100 127 83
100 127 83
100 127 83
100 127 83
100 127 82
100 127 82
100 127 82
100 127 82
99 127 82
99 127 82
99 127 82
99 126 82
99 126 82
99 126 82
99 126 82
99 126 82
99 126 82
99 126 82
99 126 82
99 126 81
99 126 81
99 126 81
99 126 81
99 126 81
99 126 81
99 126 81
99 126 81
99 126 81
99 126 81
99 126 81
99 126 81
99 126 81
99 126 81
99 126 81
99 126 81
99 126 81
99 126 81
99 126 81
99 126 81
99 126 81
99 126 81
99 126 81
99 126 81
99 126 81
99 126 81
99 126 81
99 126 81
99 126 81
99 126 81
99 125 81
99 126 81
99 126 81
99 125 81
99 125 81
99 125 81
99 125 81
99 125 81
99 125 81
99 125 81
99 125 81
99 125 81
99 125 81
99 125 81
99 125 81
99 125 81
99 125 81
99 125 81
99 125 81
99 125 81
99 125 81
99 125 81
99 125 81
99 125 81
99 125 81
99 125 81
99 125 81
99 125 81
99 125 81
99 125 81
99 125 81
99 125 81
99 125 81
99 125 81
99 125 81
99 125 81
99 125 81
99 125 81
99 125 81
99 125 81
99 125 81
99 125 81
99 125 81
99 125 81
99 125 81
99 125 81
99 125 81
99 125 81
99 125 81
99 125 81
99 125 81
99 125 81
99 125 81
99 125 81
99 125 81
99 125 81
99 125 81
99 125 81
99 125 81
99 126 81
99 125 81
99 126 81
99 126 81
99 126 81
99 126 81
99 126 81
99 126 81
99 126 81
99 126 81
99 126 81
99 126 81
99 126 81
99 126 81
99 126 81
99 126 81
99 126 81
99 126 81
99 126 81
89 82 71
84 0 68
78 0 65
75 0 62
74 0 62
74 0 64
74 0 66
74 0 66
73 0 65
72 0 64
71 0 63
70 0 63
71 0 64
67 0 61
78 0 67
83 0 72
84 0 73
84 0 74
88 0 77
93 0 82
78 0 70
87 0 77
89 0 78
97 0 85
99 92 84
86 0 73
93 69 77
99 126 81
99 126 81
99 126 81
99 126 81
99 127 82
99 127 82
99 127 82
100 127 82
100 127 82
100 127 82
100 127 82
100 127 82
100 127 82
100 127 82
100 127 82
100 127 82
100 127 82
100 127 82
100 127 82
100 127 82
100 127 83
100 127 83
100 127 83
100 127 83
100 128 83
100 128 83
100 128 83
100 128 83
101 128 83
101 128 83
101 128 84
101 128 84
101 128 84
101 128 84
101 128 84
101 128 84
101 128 84
101 128 84
100 128 84
100 127 84
100 127 83
100 127 83
100 127 83
100 127 83
100 127 83
100 127 83
100 127 83
100 127 83
100 127 82
100 127 82
100 127 82
99 127 82
99 127 82
99 127 82
99 127 82
99 126 82
99 126 82
99 126 82
99 126 82
99 126 82
99 126 82
99 126 81
99 126 81
99 126 81
99 126 81
99 126 81
99 126 81
99 126 81
99 126 81
99 126 81
99 126 81
99 126 81
99 126 81
99 126 81
99 126 81
99 126 81
99 126 81
99 126 81
99 126 81
99 126 81
99 126 81
99 126 81
99 126 81
99 126 81
99 126 81
99 126 81
99 126 81
99 126 81
99 126 80
99 125 80
99 125 80
99 125 80
99 125 80
98 125 80
99 125 80
99 125 80
99 125 80
99 125 80
99 125 80
99 125 80
99 125 80
99 125 80
89 114 86
99 125 80
98 125 80
98 125 80
99 125 80
98 125 80
99 125 80
98 125 80
98 125 80
99 125 80
98 125 80
99 125 80
99 125 80
99 125 80
99 125 80
99 125 80
99 125 80
98 125 80
99 125 80
99 125 80
99 125 80
99 125 80
99 125 80
99 125 80
99 125 80
98 125 80
99 125 80
99 125 80
99 125 80
99 125 80
99 125 80
99 125 80
99 125 80
99 125 80
99 125 80
99 125 80
99 125 80
99 125 80
99 125 80
99 125 80
99 125 80
99 125 80
99 125 80
99 125 80
99 125 80
99 125 80
99 125 80
99 125 80
99 125 80
99 125 80
99 125 80
99 125 80
99 125 80
99 125 80
99 125 80
99 125 80
99 125 80
99 125 80
99 125 80
99 126 80
99 126 80
99 126 80
99 126 80
99 126 80
99 126 80
99 126 80
99 126 81
99 126 80
99 126 80
99 126 81
99 126 81
99 126 81
84 51 66
76 0 61
74 0 62
74 0 62
73 0 61
73 0 63
74 0 66
71 0 63
70 0 62
69 0 61
67 0 61
65 0 60
70 0 62
78 0 67
79 0 68
82 0 72
76 0 67
74 0 66
78 0 69
90 0 79
70 0 62
87 0 76
86 0 74
84 0 70
76 0 60
90 92 72
99 126 81
99 126 81
99 126 81
99 126 81
99 126 81
99 127 81
99 127 81
99 127 81
99 127 81
99 127 82
100 127 82
100 127 82
100 127 82
100 127 82
100 127 82
100 127 82
100 127 82
100 127 82
100 127 82
100 127 82
100 127 82
100 127 82
100 127 83
100 127 83
100 127 83
100 127 83
100 128 83
100 128 83
100 128 83
100 128 83
101 128 83
101 128 83
101 128 84
101 128 84
101 128 84
101 128 84
101 128 84
101 128 84
100 127 83
100 127 83
100 127 83
100 127 83
100 127 83
100 127 83
100 127 83
100 127 83
100 127 82
100 127 82
99 127 82
99 127 82
99 127 82
99 127 82
99 127 82
99 126 82
99 126 82
99 126 82
99 126 82
99 126 81
99 126 81
99 126 81
99 126 81
99 126 81
99 126 81
99 126 81
99 126 81
99 126 81
99 126 81
99 126 81
99 126 81
99 126 81
99 126 81
99 126 81
99 126 81
99 126 81
99 126 81
99 126 81
99 126 81
98 126 80
98 126 80
98 126 80
98 126 80
98 126 80
98 126 80
98 125 80
98 125 80
98 125 80
98 125 80
98 125 80
98 125 80
98 125 80
98 125 80
98 125 80
98 125 80
98 125 80
98 125 80
98 125 80
98 125 80
98 125 80
98 125 80
98 125 80
94 120 83
70 92 94
0 0 96
0 0 88
38 51 90
62 81 88
83 108 85
98 125 80
98 125 80
98 125 80
98 125 80
98 125 80
98 125 80
98 125 80
98 125 80
98 125 80
98 125 80
98 125 80
98 125 80
98 125 80
98 125 80
98 125 80
98 125 80
98 125 80
98 125 80
98 125 80
98 125 80
98 125 80
98 125 80
98 125 80
98 125 80
98 125 80
98 125 80
98 125 80
98 125 80
98 125 80
98 125 80
98 125 80
98 125 80
98 125 80
98 125 80
98 125 80
98 125 80
98 125 80
98 125 80
98 125 80
98 125 80
98 125 80
99 125 80
99 125 80
98 125 80
99 125 80
99 125 80
99 125 80
99 125 80
98 125 80
99 125 80
99 125 80
99 125 80
99 125 80
99 125 80
99 125 80
99 125 80
99 125 80
99 125 80
99 125 80
99 125 80
99 126 80
99 126 80
99 126 80
99 126 80
99 126 80
99 126 80
99 126 80
97 120 78
84 69 65
77 0 60
74 0 62
73 0 62
73 0 61
70 0 59
69 0 60
69 0 60
68 0 61
66 0 60
64 0 59
70 0 62
78 0 67
79 0 68
81 0 70
84 0 74
78 0 69
75 0 67
79 0 69
70 0 60
81 0 70
83 0 71
76 0 60
78 0 59
97 115 79
99 126 81
99 126 81
99 126 81
99 126 81
99 126 81
99 126 81
99 126 81
99 126 81
99 127 81
99 127 81
99 127 81
99 127 81
99 127 82
99 127 82
100 127 82
100 127 82
100 127 82
100 127 82
100 127 82
100 127 82
100 127 82
100 127 82
100 127 82
100 127 82
100 127 82
100 127 83
100 127 83
100 128 83
100 128 83
100 128 83
100 128 83
100 128 83
101 128 83
101 128 83
101 128 84
101 128 84
101 128 84
101 128 84
100 127 83
100 127 83
100 127 83
100 127 83
100 127 83
100 127 83
100 127 82
100 127 82
99 127 82
99 127 82
99 127 82
99 127 82
99 127 82
99 126 82
99 126 82
99 126 82
99 126 81
99 126 81
99 126 81
99 126 81
99 126 81
99 126 81
99 126 81
99 126 81
99 126 81
99 126 81
99 126 81
99 126 81
99 126 81
99 126 81
99 126 81
98 126 81
98 126 80
98 126 80
98 126 80
98 126 80
98 126 80
98 126 80
98 126 80
98 125 80
98 126 80
98 125 80
98 125 80
98 125 80
98 125 80
98 125 80
98 125 80
98 125 80
98 125 80
98 125 80
98 125 80
98 125 80
98 125 80
98 125 80
98 125 80
98 125 80
98 125 80
98 125 80
98 125 80
98 125 80
98 125 80
70 92 91
0 0 95
0 0 87
0 0 86
0 0 87
0 0 91
0 0 92
0 0 97
38 51 99
77 100 91
94 120 83
98 125 80
98 125 80
98 125 80
98 125 80
98 125 80
98 125 80
98 125 80
98 125 80
98 125 80
98 125 80
98 125 80
98 125 80
98 125 80
98 125 80
98 125 80
98 125 80
98 125 80
98 125 80
98 125 80
98 125 80
98 125 80
98 125 80
98 125 80
98 125 80
98 125 80
98 125 80
98 125 80
98 125 80
98 125 80
98 125 80
98 125 80
98 125 80
98 125 80
98 125 80
98 125 80
98 125 80
98 125 80
98 125 80
98 125 80
98 125 80
98 125 80
98 125 80
98 125 80
98 125 80
98 125 80
98 125 80
98 125 80
98 125 80
98 125 80
98 125 80
98 125 80
98 125 80
98 125 80
98 125 80
98 125 80
98 125 80
98 125 80
98 125 80
98 125 80
98 125 80
98 125 80
98 125 80
99 125 80
99 126 80
99 126 80
99 126 80
86 82 67
77 0 60
74 0 61
71 0 60
69 0 57
67 0 57
66 0 57
67 0 59
68 0 61
67 0 60
66 0 58
78 0 67
75 0 65
73 0 65
75 0 67
77 0 69
78 0 69
78 0 66
77 0 65
78 0 64
78 0 63
76 0 58
90 92 72
99 126 81
99 126 81
99 126 81
99 126 81
99 126 81
99 126 81
99 126 81
99 126 81
99 126 81
99 126 81
99 127 81
99 127 81
99 127 81
99 127 81
99 127 81
99 127 81
99 127 82
99 127 82
100 127 82
100 127 82
100 127 82
100 127 82
100 127 82
100 127 82
100 127 82
100 127 82
100 127 82
100 127 82
100 127 83
100 128 83
100 128 83
100 128 83
100 128 83
100 128 83
101 128 83
101 128 83
101 128 84
101 128 84
101 128 84
100 127 83
100 127 83
100 127 83
100 127 83
100 127 82
100 127 82
99 127 82
99 127 82
99 127 82
99 127 82
99 127 82
99 127 82
99 126 82
99 126 81
99 126 81
99 126 81
99 126 81
99 126 81
99 126 81
99 126 81
99 126 81
99 126 81
99 126 81
99 126 81
99 126 81
98 126 81
98 126 81
98 126 80
98 126 80
98 126 80
98 126 80
98 126 80
98 126 80
98 126 80
98 126 80
98 126 80
98 125 80
98 125 80
98 125 80
98 125 80
98 125 80
98 125 80
98 125 80
98 125 80
98 125 80
98 125 80
98 125 80
98 125 80
98 125 80
98 125 80
98 125 80
98 125 80
98 125 80
98 125 80
98 125 80
98 125 80
98 125 80
98 125 80
98 125 80
98 125 80
62 81 90
0 0 90
0 0 76
0 0 76
0 0 81
0 0 85
0 0 93
0 0 97
0 0 98
0 0 98
0 0 102
0 0 103
70 91 94
94 120 83
98 125 80
98 125 80
98 125 80
98 125 80
98 125 80
98 125 80
98 125 80
98 125 80
98 125 80
98 125 79
98 125 80
98 125 80
98 125 80
98 125 80
98 125 80
98 125 80
98 125 80
98 125 80
98 125 80
98 125 80
98 125 80
98 125 80
98 125 80
98 125 80
98 125 80
98 125 80
98 125 80
98 125 80
98 125 80
98 125 80
98 125 80
98 125 80
98 125 80
98 125 80
98 125 80
98 125 80
98 125 80
98 125 80
98 125 80
98 125 80
98 125 80
98 125 80
98 125 80
98 125 80
98 125 80
98 125 80
98 125 80
98 125 80
98 125 80
98 125 80
98 125 80
98 125 80
98 125 80
98 125 80
98 125 80
98 125 80
98 125 80
98 125 80
98 125 80
98 125 80
98 125 80
98 125 80
98 125 80
98 125 80
98 126 80
92 108 74
76 0 56
71 0 55
69 0 56
68 0 57
66 0 57
68 0 61
73 0 64
78 0 68
78 0 68
75 0 66
71 0 63
72 0 64
72 0 65
74 0 66
81 0 71
81 0 71
82 0 71
89 0 75
95 51 77
99 126 80
99 126 80
99 126 80
99 126 80
99 126 81
99 126 81
99 126 81
99 126 81
99 126 81
99 126 81
99 126 81
99 126 81
99 126 81
99 126 81
99 127 81
99 127 81
99 127 81
99 127 81
99 127 81
99 127 81
99 127 81
99 127 82
99 127 82
100 127 82
100 127 82
100 127 82
100 127 82
100 127 82
100 127 82
100 127 82
100 127 82
100 127 82
100 128 83
100 128 83
100 128 83
100 128 83
100 128 83
100 128 83
101 128 83
101 128 84
101 128 84
100 127 83
100 127 83
100 127 83
100 127 82
99 127 82
99 127 82
99 127 82
99 127 82
99 127 82
99 127 82
99 126 81
99 126 81
99 126 81
99 126 81
99 126 81
99 126 81
99 126 81
99 126 81
99 126 81
99 126 81
99 126 81
98 126 81
98 126 81
98 126 80
98 126 80
98 126 80
98 126 80
98 126 80
98 126 80
98 126 80
98 126 80
98 126 80
98 126 80
98 125 80
98 125 80
98 125 80
98 125 80
98 125 80
98 125 80
98 125 80
98 125 80
98 125 80
98 125 80
98 125 80
98 125 80
98 125 80
98 125 80
98 125 80
98 125 79
98 125 80
98 125 79
98 125 79
98 125 79
98 125 79
98 125 79
98 125 79
98 125 79
98 125 79
98 125 79
62 81 90
0 0 92
0 0 76
0 0 76
0 0 77
0 0 78
0 0 81
0 0 90
0 0 90
0 0 90
0 0 90
0 0 90
0 0 97
0 0 97
0 0 98
88 114 82
98 125 79
98 125 79
98 125 79
98 125 79
98 125 79
98 125 79
98 125 79
98 125 79
98 125 79
98 125 79
98 125 79
98 125 79
98 125 79
98 125 79
98 125 79
98 125 79
98 125 79
98 125 79
98 125 79
98 125 79
98 125 79
98 125 79
98 125 79
98 125 79
98 125 79
98 125 79
98 125 79
98 125 79
98 125 79
98 125 79
98 125 79
98 125 79
98 125 79
98 125 79
98 125 79
98 125 79
98 125 79
98 125 79
98 125 79
98 125 79
98 125 79
98 125 79
98 125 79
98 125 79
98 125 79
98 125 79
98 125 79
98 125 79
98 125 79
98 125 79
98 125 80
98 125 80
98 125 79
98 125 80
98 125 80
98 125 80
98 125 80
98 125 80
98 125 80
98 125 80
98 125 80
98 125 80
98 125 80
98 125 80
98 125 80
96 120 77
79 51 58
72 0 51
71 0 54
71 0 60
75 0 65
78 0 69
79 0 69
79 0 69
79 0 69
79 0 69
76 0 66
70 0 62
67 0 60
79 0 70
82 0 71
82 0 70
91 0 76
98 115 80
99 126 80
99 126 80
99 126 80
99 126 80
99 126 80
99 126 80
99 126 80
99 126 80
99 126 80
99 126 81
99 126 81
99 126 81
99 126 81
99 126 81
99 126 81
99 126 81
99 127 81
99 127 81
99 127 81
99 127 81
99 127 81
99 127 81
99 127 81
99 127 81
99 127 81
99 127 82
100 127 82
100 127 82
100 127 82
100 127 82
100 127 82
100 127 82
100 127 82
100 128 82
100 128 83
100 128 83
100 128 83
100 128 83
100 128 83
101 128 83
101 128 84
100 127 83
100 127 82
99 127 82
99 127 82
99 127 82
99 127 82
99 127 82
99 127 82
99 127 81
99 126 81
99 126 81
99 126 81
99 126 81
99 126 81
99 126 81
99 126 81
98 126 81
98 126 81
98 126 81
98 126 80
98 126 80
98 126 80
98 126 80
98 126 80
98 126 80
98 126 80
98 126 80
98 126 80
98 126 80
98 126 80
98 125 80
98 125 80
98 125 80
98 125 80
98 125 80
98 125 80
98 125 80
98 125 79
98 125 80
98 125 79
98 125 79
98 125 79
98 125 79
98 125 79
98 125 79
98 125 79
98 125 79
98 125 79
98 125 79
98 125 79
98 125 79
98 125 79
98 125 79
98 125 79
98 125 79
98 125 79
98 125 79
98 125 79
62 81 91
0 0 95
0 0 81
0 0 80
0 0 81
0 0 82
0 0 83
0 0 84
0 0 85
0 0 86
0 0 84
0 0 79
0 0 78
0 0 84
0 0 95
0 0 95
62 81 89
98 125 79
98 125 79
98 125 79
98 125 79
98 125 79
98 125 79
98 125 79
98 125 79
98 125 79
98 125 79
98 125 79
98 125 79
98 125 79
98 125 79
98 125 79
98 125 79
98 125 79
98 125 79
98 125 79
98 125 79
98 125 79
98 125 79
98 125 79
98 125 79
98 125 79
98 125 79
98 125 79
98 125 79
98 125 79
98 125 79
98 125 79
98 125 79
98 125 79
98 125 79
98 125 79
98 125 79
98 125 79
98 125 79
98 125 79
98 125 79
98 125 79
98 125 79
98 125 79
98 125 79
98 125 79
98 125 79
98 125 79
98 125 79
98 125 79
98 125 79
98 125 79
98 125 79
98 125 79
98 125 79
98 125 79
98 125 79
98 125 79
98 125 79
98 125 79
98 125 79
98 125 79
98 125 79
98 125 79
98 125 79
98 125 79
98 125 79
98 125 79
86 81 67
78 0 61
78 0 62
76 0 63
76 0 64
76 0 65
77 0 65
79 0 68
81 0 70
83 0 72
83 0 72
87 0 74
86 0 74
82 0 69
84 0 70
92 82 77
94 115 77
95 101 79
98 126 80
98 126 80
98 126 80
98 126 80
99 126 80
99 126 80
99 126 80
99 126 80
99 126 80
99 126 80
99 126 80
99 126 80
99 126 80
99 126 81
99 126 81
99 127 81
99 127 81
99 127 81
99 127 81
99 127 81
99 127 81
99 127 81
99 127 81
99 127 81
99 127 81
99 127 82
99 127 82
100 127 82
100 127 82
100 127 82
100 127 82
100 127 82
100 127 82
100 128 82
100 128 83
100 128 83
100 128 83
100 128 83
100 128 83
101 128 83
99 127 82
99 127 82
99 127 82
99 127 82
99 127 82
99 127 82
99 127 81
99 126 81
99 126 81
99 126 81
99 126 81
99 126 81
99 126 81
98 126 81
98 126 81
98 126 80
98 126 80
98 126 80
98 126 80
98 126 80
98 126 80
98 126 80
98 126 80
98 126 80
98 126 80
98 126 80
98 126 80
98 125 80
98 125 80
98 125 80
98 125 80
98 125 79
98 125 79
98 125 79
98 125 79
98 125 79
98 125 79
98 125 79
98 125 79
98 125 79
98 125 79
98 125 79
98 125 79
98 125 79
98 125 79
98 125 79
98 125 79
98 125 79
98 125 79
98 125 79
98 125 79
98 125 79
98 125 79
98 125 79
98 125 79
98 125 79
93 120 82
61 81 93
0 0 90
0 0 82
0 0 82
0 0 82
0 0 82
0 0 83
0 0 84
0 0 84
0 0 84
0 0 80
0 0 78
0 0 78
0 0 78
0 0 78
0 0 84
0 0 95
0 0 92
98 125 79
98 125 79
98 125 79
98 125 79
98 125 79
98 125 79
98 125 79
98 125 79
98 125 79
98 125 79
98 125 79
98 125 79
98 125 79
98 125 79
98 125 79
98 125 79
98 125 79
98 125 79
98 125 79
98 125 79
98 125 79
98 125 79
98 125 79
98 125 79
98 125 79
98 125 79
98 125 79
98 125 79
98 125 79
98 125 79
98 125 79
98 125 79
98 125 79
98 125 79
98 125 79
98 125 79
98 125 79
98 125 79
98 125 79
98 125 79
98 125 79
98 125 79
98 125 79
98 125 79
98 125 79
98 125 79
98 125 79
98 125 79
98 125 79
98 125 79
98 125 79
98 125 79
98 125 79
98 125 79
98 125 79
98 125 79
98 125 79
98 125 79
98 125 79
98 125 79
98 125 79
98 125 79
98 125 79
98 125 79
98 125 79
98 125 79
98 125 79
98 125 79
92 108 73
79 0 61
77 0 63
76 0 63
76 0 64
76 0 65
77 0 65
76 0 65
77 0 66
78 0 67
82 0 68
82 0 70
80 0 64
75 0 57
76 0 63
71 0 51
90 108 71
98 126 80
98 126 80
98 126 80
98 126 80
98 126 80
98 126 80
98 126 80
98 126 80
99 126 80
99 126 80
99 126 80
99 126 80
99 126 80
99 126 80
99 126 80
99 126 80
99 126 80
99 127 81
99 127 81
99 127 81
99 127 81
99 127 81
99 127 81
99 127 81
99 127 81
99 127 81
99 127 81
99 127 81
99 127 82
100 127 82
100 127 82
100 127 82
100 127 82
100 127 82
100 128 82
100 128 82
100 128 83
100 128 83
100 128 83
100 128 83
99 127 82
99 127 82
99 127 82
99 127 82
99 127 81
99 127 81
99 126 81
99 126 81
99 126 81
99 126 81
99 126 81
98 126 81
98 126 81
98 126 80
98 126 80
98 126 80
98 126 80
98 126 80
98 126 80
98 126 80
98 126 80
98 126 80
98 126 80
98 126 80
98 125 80
98 125 79
98 125 79
98 125 79
98 125 79
98 125 79
98 125 79
98 125 79
98 125 79
98 125 79
98 125 79
98 125 79
98 125 79
97 125 79
98 125 79
97 125 79
97 125 79
97 125 79
97 125 79
97 125 79
97 125 79
97 125 79
97 125 79
97 125 79
97 125 79
97 125 79
97 125 79
97 125 79
97 125 79
97 125 79
93 120 82
70 91 93
0 0 93
0 0 81
0 0 81
0 0 83
0 0 82
0 0 82
0 0 83
0 0 83
0 0 83
0 0 79
0 0 74
0 0 76
0 0 78
0 0 78
0 0 78
0 0 79
0 0 79
0 0 84
0 0 92
88 114 82
97 125 78
97 125 79
97 125 79
97 125 79
97 125 79
97 125 78
97 125 79
97 125 79
97 125 79
97 125 79
97 125 79
97 125 78
97 125 79
97 125 79
97 125 79
97 125 79
97 125 79
97 125 79
97 125 79
97 125 79
97 125 79
97 125 79
97 125 79
97 125 79
97 125 79
97 125 79
97 125 79
97 125 79
98 125 79
98 125 79
98 125 79
98 125 79
98 125 79
98 125 79
98 125 79
98 125 79
98 125 79
98 125 79
98 125 79
98 125 79
98 125 79
98 125 79
98 125 79
98 125 79
98 125 79
98 125 79
98 125 79
98 125 79
98 125 79
98 125 79
98 125 79
98 125 79
98 125 79
98 125 79
98 125 79
98 125 79
98 125 79
98 125 79
98 125 79
98 125 79
98 125 79
98 125 79
98 125 79
98 125 79
98 125 79
98 125 79
98 125 79
98 125 79
96 120 77
83 69 65
75 0 61
73 0 58
73 0 57
73 0 58
73 0 59
73 0 58
74 0 62
74 0 62
76 0 61
72 0 53
65 0 49
70 0 52
82 82 61
98 126 79
98 126 79
98 126 79
98 126 80
98 126 80
98 126 80
98 126 80
98 126 80
98 126 80
98 126 80
98 126 80
98 126 80
98 126 80
98 126 80
99 126 80
99 126 80
99 126 80
99 126 80
99 126 80
99 126 80
99 126 80
99 127 81
99 127 81
99 127 81
99 127 81
99 127 81
99 127 81
99 127 81
99 127 81
99 127 81
99 127 81
99 127 82
99 127 82
100 127 82
100 127 82
100 127 82
100 128 82
100 128 82
100 128 83
100 128 83
100 128 83
99 127 82
99 127 82
99 127 82
99 127 81
99 126 81
99 126 81
99 126 81
99 126 81
98 126 81
98 126 81
98 126 80
98 126 80
98 126 80
98 126 80
98 126 80
98 126 80
98 126 80
98 126 80
98 126 80
98 126 80
98 126 80
98 126 79
98 125 79
98 125 79
98 125 79
98 125 79
98 125 79
98 125 79
98 125 79
97 125 79
97 125 79
97 125 79
97 125 79
97 125 79
97 125 79
97 125 79
97 125 79
97 125 79
97 125 79
97 125 79
97 125 79
97 125 79
97 125 79
97 125 79
97 125 79
97 125 78
97 125 78
97 125 78
97 125 78
97 125 78
97 125 78
97 125 78
97 125 78
93 119 81
38 50 94
0 0 88
0 0 78
0 0 79
0 0 83
0 0 83
0 0 82
0 0 83
0 0 83
0 0 82
0 0 76
0 0 73
0 0 73
0 0 73
0 0 73
0 0 75
0 0 84
0 0 88
0 0 89
0 0 93
0 0 91
82 107 84
97 125 78
97 124 78
97 124 78
97 124 78
97 124 78
97 125 78
97 125 78
97 125 78
97 125 78
97 124 78
97 125 78
97 125 78
97 125 78
97 125 78
97 125 78
97 125 78
97 125 78
97 125 78
97 125 78
97 125 78
97 125 78
97 125 78
97 125 78
97 125 78
97 125 78
97 125 78
97 125 78
97 125 78
97 125 78
97 125 78
97 125 78
97 125 78
97 125 78
97 125 78
97 125 78
97 125 78
97 125 78
97 125 78
97 125 78
97 125 78
97 125 78
97 125 78
97 125 78
97 125 78
97 125 78
97 125 78
97 125 79
97 125 78
97 125 79
97 125 79
98 125 79
98 125 79
98 125 79
98 125 79
98 125 79
98 125 79
98 125 79
98 125 79
98 125 79
98 125 79
98 125 79
98 125 79
98 125 79
98 125 79
98 125 79
98 125 79
98 125 79
98 125 79
98 125 79
98 125 79
84 81 65
73 0 56
71 0 56
71 0 55
71 0 54
71 0 53
74 0 55
77 0 58
80 0 62
64 0 50
65 0 48
87 92 67
98 126 79
98 126 79
98 126 79
98 126 79
98 126 79
98 126 79
98 126 79
98 126 79
98 126 79
98 126 80
98 126 80
98 126 80
98 126 80
98 126 80
98 126 80
98 126 80
98 126 80
98 126 80
98 126 80
99 126 80
99 126 80
99 126 80
99 126 80
99 127 80
99 127 80
99 127 81
99 127 81
99 127 81
99 127 81
99 127 81
99 127 81
99 127 81
99 127 81
99 127 81
99 127 82
100 127 82
100 127 82
100 127 82
100 128 82
100 128 82
100 128 82
100 128 83
99 127 82
99 127 81
99 127 81
99 126 81
99 126 81
99 126 81
98 126 81
98 126 81
98 126 80
98 126 80
98 126 80
98 126 80
98 126 80
98 126 80
98 126 80
98 126 80
98 126 80
98 126 79
98 126 79
98 125 79
98 125 79
98 125 79
98 125 79
97 125 79
97 125 79
97 125 79
97 125 79
97 125 79
97 125 79
97 125 79
97 125 79
97 125 79
97 125 79
97 125 79
97 125 79
97 125 78
97 125 78
97 125 78
97 125 78
97 125 78
97 125 78
97 125 78
97 125 78
97 125 78
97 125 78
97 125 78
97 125 78
97 125 78
97 125 78
97 125 78
97 125 78
97 125 78
88 114 83
38 50 93
0 0 89
0 0 80
0 0 78
0 0 81
0 0 83
0 0 83
0 0 83
0 0 82
0 0 80
0 0 74
0 0 73
0 0 73
0 0 73
0 0 73
0 0 73
0 0 74
0 0 78
0 0 82
0 0 91
0 0 94
0 0 85
82 107 82
97 124 78
97 124 78
97 124 78
97 124 78
97 124 78
97 124 78
97 124 78
97 124 78
97 124 78
97 124 78
97 124 78
97 124 78
97 124 78
97 124 78
97 124 78
97 124 78
97 124 78
97 124 78
97 124 78
97 124 78
97 124 78
97 124 78
97 124 78
97 125 78
97 124 78
97 125 78
97 125 78
97 125 78
97 125 78
97 125 78
97 125 78
97 125 78
97 125 78
97 125 78
97 125 78
97 125 78
97 125 78
97 125 78
97 125 78
97 125 78
97 125 78
97 125 78
97 125 78
97 125 78
97 125 78
97 125 78
97 125 78
97 125 78
97 125 78
97 125 78
97 125 78
97 125 78
97 125 78
97 125 78
97 125 78
97 125 78
97 125 78
97 125 78
97 125 78
97 125 78
97 125 78
97 125 78
97 125 78
98 125 79
98 125 79
98 125 79
98 125 79
98 125 79
98 125 79
98 125 79
96 120 77
80 51 61
73 0 54
71 0 53
70 0 51
73 0 54
77 0 59
81 0 62
71 0 58
80 92 65
96 120 77
98 125 79
98 125 79
98 126 79
98 126 79
98 126 79
98 126 79
98 126 79
98 126 79
98 126 79
98 126 79
98 126 79
98 126 79
98 126 79
98 126 79
98 126 79
98 126 80
98 126 80
98 126 80
98 126 80
98 126 80
98 126 80
98 126 80
98 126 80
99 126 80
99 126 80
99 127 80
99 127 80
99 127 80
99 127 81
99 127 81
99 127 81
99 127 81
99 127 81
99 127 81
99 127 81
99 127 81
99 127 81
99 127 82
100 127 82
100 127 82
100 128 82
100 128 82
100 128 82
99 127 81
99 127 81
99 126 81
99 126 81
98 126 81
98 126 81
98 126 80
98 126 80
98 126 80
98 126 80
98 126 80
98 126 80
98 126 80
98 126 80
98 126 79
98 126 79
98 126 79
98 125 79
98 125 79
97 125 79
97 125 79
97 125 79
97 125 79
97 125 79
97 125 79
97 125 79
97 125 79
97 125 79
97 125 78
97 125 78
97 125 78
97 125 78
97 125 78
97 125 78
97 125 78
97 125 78
97 125 78
97 125 78
97 125 78
97 125 78
97 125 78
97 125 78
97 125 78
97 125 78
97 125 78
97 125 78
97 125 78
97 125 78
97 125 78
97 124 78
97 124 78
82 107 85
0 0 93
0 0 88
0 0 82
0 0 80
0 0 80
0 0 83
0 0 83
0 0 82
0 0 81
0 0 79
0 0 73
0 0 73
0 0 73
0 0 73
0 0 73
0 0 73
0 0 73
0 0 75
0 0 77
0 0 78
0 0 77
0 0 75
0 0 86
69 91 82
97 124 78
97 124 78
97 124 78
97 124 78
97 124 78
97 124 78
97 124 78
97 124 78
97 124 78
97 124 78
97 124 78
97 124 78
97 124 78
97 124 78
97 124 78
97 124 78
97 124 78
97 124 78
97 124 78
97 124 78
97 124 78
97 124 78
97 124 78
97 124 78
97 124 78
97 124 78
97 124 78
97 124 78
97 124 78
97 124 78
97 124 78
97 124 78
97 124 78
97 124 78
97 124 78
97 124 78
97 125 78
97 125 78
97 125 78
97 125 78
97 125 78
97 125 78
97 125 78
97 125 78
97 125 78
97 125 78
97 125 78
97 125 78
97 125 78
97 125 78
97 125 78
97 125 78
97 125 78
97 125 78
97 125 78
97 125 78
97 125 78
97 125 78
97 125 78
97 125 78
97 125 78
97 125 78
97 125 78
97 125 78
97 125 78
97 125 78
97 125 78
97 125 78
97 125 78
97 125 78
97 125 78
97 125 78
93 114 73
77 51 54
73 0 49
76 51 53
83 81 63
91 108 73
98 125 79
98 125 79
98 125 79
98 125 79
98 125 79
98 125 79
98 125 79
98 126 79
98 126 79
98 126 79
98 126 79
98 126 79
98 126 79
98 126 79
98 126 79
98 126 79
98 126 79
98 126 79
98 126 79
98 126 79
98 126 79
98 126 79
98 126 80
98 126 80
98 126 80
98 126 80
98 126 80
98 126 80
98 126 80
99 126 80
99 127 80
99 127 80
99 127 80
99 127 80
99 127 81
99 127 81
99 127 81
99 127 81
99 127 81
99 127 81
99 127 81
99 127 81
99 127 82
100 127 82
100 128 82
100 128 82
99 127 81
99 126 81
98 126 81
98 126 81
98 126 80
98 126 80
98 126 80
98 126 80
98 126 80
98 126 80
98 126 80
98 126 79
98 126 79
98 126 79
98 126 79
97 125 79
97 125 79
97 125 79
97 125 79
97 125 79
97 125 79
97 125 79
97 125 79
97 125 78
97 125 78
97 125 78
97 125 78
97 125 78
97 125 78
97 125 78
97 125 78
97 125 78
97 125 78
97 125 78
97 125 78
97 125 78
97 125 78
97 125 78
97 125 78
97 125 78
97 125 78
97 125 78
97 125 78
97 124 78
97 124 78
97 124 78
97 124 78
97 124 78
97 124 78
97 124 78
82 107 84
0 0 92
0 0 88
0 0 82
0 0 81
0 0 79
0 0 82
0 0 82
0 0 81
0 0 81
0 0 76
0 0 73
0 0 73
0 0 73
0 0 73
0 0 73
0 0 72
0 0 72
0 0 74
0 0 75
0 0 76
0 0 74
0 0 68
0 0 67
0 0 83
37 50 83
97 124 77
97 124 77
97 124 77
97 124 77
97 124 77
97 124 77
97 124 77
97 124 77
97 124 77
97 124 78
97 124 78
97 124 78
97 124 78
97 124 78
97 124 78
97 124 78
97 124 78
97 124 78
97 124 78
97 124 78
97 124 78
97 124 78
97 124 78
97 124 78
97 124 78
97 124 78
97 124 78
97 124 78
97 124 78
97 124 78
97 124 78
97 124 78
97 124 78
97 124 78
97 124 78
97 124 78
97 124 78
97 124 78
97 124 78
97 124 78
97 124 78
97 124 78
97 125 78
97 125 78
97 125 78
97 125 78
97 125 78
97 125 78
97 125 78
97 125 78
97 125 78
97 125 78
97 125 78
97 125 78
97 125 78
97 125 78
97 125 78
97 125 78
97 125 78
97 125 78
97 125 78
97 125 78
97 125 78
97 125 78
97 125 78
97 125 78
97 125 78
97 125 78
97 125 78
97 125 78
97 125 78
97 125 78
97 125 78
97 125 78
97 125 78
97 125 78
97 125 78
97 125 78
97 125 78
97 125 78
97 125 78
97 125 78
97 125 78
97 125 78
98 125 78
98 125 78
98 125 79
98 125 79
98 126 79
98 126 79
98 126 79
98 126 79
98 126 79
98 126 79
98 126 79
98 126 79
98 126 79
98 126 79
98 126 79
98 126 79
98 126 79
98 126 79
98 126 79
98 126 79
98 126 80
98 126 80
98 126 80
98 126 80
98 126 80
98 127 80
99 127 80
99 127 80
99 127 80
99 127 80
99 127 81
99 127 81
99 127 81
99 127 81
99 127 81
99 127 81
99 127 81
99 127 82
100 127 82
100 128 82
98 126 81
98 126 81
98 126 80
98 126 80
98 126 80
98 126 80
98 126 80
98 126 80
98 126 80
98 126 79
98 126 79
98 126 79
97 126 79
97 125 79
97 125 79
97 125 79
97 125 79
97 125 79
97 125 78
97 125 78
97 125 78
97 125 78
97 125 78
97 125 78
97 125 78
97 125 78
97 125 78
97 125 78
97 125 78
97 125 78
97 125 78
97 125 78
97 125 78
97 125 78
97 125 78
97 125 78
97 125 78
97 124 78
97 124 78
97 124 78
97 124 77
97 124 77
97 124 77
97 124 77
97 124 77
96 124 77
97 124 77
96 124 77
96 124 77
69 91 90
0 0 94
0 0 91
0 0 83
0 0 82
0 0 81
0 0 81
0 0 81
0 0 81
0 0 80
0 0 74
0 0 73
0 0 73
0 0 73
0 0 73
0 0 73
0 0 72
0 0 72
0 0 73
0 0 75
0 0 73
0 0 62
0 0 67
0 0 67
0 0 67
0 0 72
0 0 80
87 113 78
97 124 77
97 124 77
97 124 77
96 124 77
97 124 77
97 124 77
97 124 77
97 124 77
97 124 77
97 124 77
97 124 77
97 124 77
97 124 77
97 124 77
97 124 77
97 124 77
97 124 77
97 124 77
97 124 77
97 124 77
97 124 77
97 124 77
97 124 77
97 124 77
97 124 77
97 124 77
97 124 77
97 124 77
97 124 77
97 124 77
97 124 77
97 124 77
97 124 77
97 124 77
97 124 77
97 124 77
97 124 77
97 124 77
97 124 77
97 124 77
97 124 77
97 124 77
97 124 77
97 124 78
97 124 78
97 124 78
97 125 78
97 124 77
97 125 78
97 125 78
97 125 78
97 125 78
97 125 78
97 125 78
97 125 78
97 125 78
97 125 78
97 125 78
97 125 78
97 125 78
97 125 78
97 125 78
97 125 78
97 125 78
97 125 78
97 125 78
97 125 78
97 125 78
97 125 78
97 125 78
97 125 78
97 125 78
97 125 78
97 125 78
97 125 78
97 125 78
97 125 78
97 125 78
97 125 78
97 125 78
97 125 78
97 125 78
97 125 78
97 125 78
97 125 78
97 125 78
97 125 78
97 125 78
97 125 78
98 125 78
98 126 78
98 126 79
98 126 79
98 126 79
98 126 79
98 126 79
98 126 79
98 126 79
98 126 79
98 126 79
98 126 79
98 126 79
98 126 79
98 126 79
98 126 79
98 126 79
98 126 79
98 126 80
98 126 80
98 126 80
98 127 80
98 127 80
99 127 80
99 127 80
99 127 80
99 127 80
99 127 81
99 127 81
99 127 81
99 127 81
99 127 81
99 127 81
99 127 82
98 126 81
98 126 80
98 126 80
98 126 80
98 126 80
98 126 80
98 126 80
98 126 79
98 126 79
97 126 79
97 125 79
97 125 79
97 125 79
97 125 79
97 125 79
97 125 78
97 125 78
97 125 78
97 125 78
97 125 78
97 125 78
97 125 78
97 125 78
97 125 78
97 125 78
97 125 78
97 125 78
97 125 78
97 125 78
97 125 78
97 125 77
97 125 77
96 125 77
96 125 77
96 124 77
96 124 77
96 124 77
96 124 77
96 124 77
96 124 77
96 124 77
96 124 77
96 124 77
96 124 77
96 124 77
96 124 77
96 124 77
87 113 83
37 50 97
0 0 97
0 0 96
0 0 92
0 0 90
0 0 87
0 0 82
0 0 81
0 0 81
0 0 79
0 0 73
0 0 73
0 0 73
0 0 73
0 0 73
0 0 73
0 0 73
0 0 72
0 0 72
0 0 74
0 0 66
0 0 58
0 0 58
0 0 63
0 0 67
0 0 66
0 0 63
0 0 76
76 99 77
96 124 77
96 124 77
96 124 77
96 124 77
96 124 77
96 124 77
96 124 77
96 124 77
96 124 77
96 124 77
96 124 77
96 124 77
96 124 77
96 124 77
96 124 77
96 124 77
96 124 77
96 124 77
96 124 77
96 124 77
96 124 77
96 124 77
96 124 77
96 124 77
97 124 77
97 124 77
96 124 77
97 124 77
97 124 77
97 124 77
97 124 77
97 124 77
97 124 77
97 124 77
97 124 77
97 124 77
97 124 77
97 124 77
97 124 77
97 124 77
97 124 77
97 124 77
97 124 77
97 124 77
97 124 77
97 124 77
97 124 77
97 124 77
97 124 77
97 124 77
97 124 77
97 124 77
97 124 77
97 125 77
97 125 77
97 125 77
97 125 77
97 125 77
97 125 77
97 125 77
97 125 77
97 125 77
97 125 77
97 125 77
97 125 77
97 125 77
97 125 78
97 125 78
97 125 78
97 125 78
97 125 78
97 125 78
97 125 78
97 125 78
97 125 78
97 125 78
97 125 78
97 125 78
97 125 78
97 125 78
97 125 78
97 125 78
97 125 78
97 125 78
97 125 78
97 125 78
97 125 78
97 125 78
97 125 78
97 125 78
97 125 78
97 125 78
97 126 78
97 126 78
98 126 78
98 126 78
98 126 79
98 126 79
98 126 79
98 126 79
98 126 79
98 126 79
98 126 79
98 126 79
98 126 79
98 126 79
98 126 79
98 126 79
98 126 79
98 126 80
98 126 80
98 126 80
98 127 80
98 127 80
99 127 80
99 127 80
99 127 80
99 127 81
99 127 81
99 127 81
99 127 81
99 127 81
99 127 81
98 126 80
98 126 80
98 126 80
98 126 80
98 126 79
98 126 79
97 126 79
97 126 79
97 126 79
97 125 79
97 125 79
97 125 79
97 125 78
97 125 78
97 125 78
97 125 78
97 125 78
97 125 78
97 125 78
97 125 78
97 125 78
97 125 78
97 125 78
97 125 78
97 125 77
96 125 77
96 125 77
96 125 77
96 125 77
96 124 77
96 124 77
96 124 77
96 124 77
96 124 77
96 124 77
96 124 77
96 124 77
96 124 77
96 124 77
96 124 77
96 124 77
96 124 77
96 124 77
96 124 77
96 124 77
96 124 77
81 107 85
0 0 98
0 0 97
0 0 94
0 0 91
0 0 86
0 0 82
0 0 81
0 0 81
0 0 81
0 0 76
0 0 73
0 0 73
0 0 73
0 0 72
0 0 73
0 0 73
0 0 73
0 0 73
0 0 74
0 0 72
0 0 60
0 0 58
0 0 58
0 0 58
0 0 60
0 0 65
0 0 62
0 0 62
0 0 72
81 106 76
96 124 77
96 124 77
96 124 77
96 124 77
96 124 77
96 124 77
96 124 77
96 124 77
96 124 77
96 124 77
96 124 77
96 124 77
96 124 77
96 124 77
96 124 77
96 124 77
96 124 77
96 124 77
96 124 77
96 124 77
96 124 77
96 124 77
96 124 77
96 124 77
96 124 77
96 124 77
96 124 77
96 124 77
96 124 77
96 124 77
96 124 77
96 124 77
96 124 77
96 124 77
96 124 77
96 124 77
96 124 77
96 124 77
96 124 77
96 124 77
96 124 77
96 124 77
96 124 77
96 124 77
96 124 77
96 124 77
97 124 77
97 124 77
97 124 77
97 124 77
97 124 77
97 124 77
97 124 77
97 124 77
97 124 77
97 124 77
97 124 77
97 125 77
97 124 77
97 125 77
97 125 77
97 125 77
97 125 77
97 125 77
97 125 77
97 125 77
97 125 77
97 125 77
97 125 77
97 125 77
97 125 77
97 125 77
97 125 77
97 125 77
97 125 77
97 125 77
97 125 77
97 125 78
97 125 78
97 125 78
97 125 78
97 125 78
97 125 78
97 125 78
97 125 78
97 125 78
97 125 78
97 125 78
97 125 78
97 125 78
97 125 78
97 125 78
97 125 78
97 125 78
97 126 78
97 126 78
97 126 78
97 126 78
97 126 78
97 126 78
98 126 78
98 126 79
98 126 79
98 126 79
98 126 79
98 126 79
98 126 79
98 126 79
98 126 79
98 126 79
98 126 79
98 126 79
98 126 80
98 127 80
98 127 80
98 127 80
99 127 80
99 127 80
99 127 80
99 127 81
99 127 81
99 127 81
99 127 81
98 126 80
98 126 80
98 126 79
98 126 79
97 126 79
97 126 79
97 126 79
97 125 79
97 125 79
97 125 78
97 125 78
97 125 78
97 125 78
97 125 78
97 125 78
97 125 78
97 125 78
97 125 78
97 125 78
96 125 77
96 125 77
96 125 77
96 125 77
96 125 77
96 125 77
96 125 77
96 124 77
96 124 77
96 124 77
96 124 77
96 124 77
96 124 77
96 124 77
96 124 77
96 124 77
96 124 77
96 124 77
96 124 77
96 124 77
96 124 77
96 124 77
96 124 77
96 124 77
96 124 77
96 124 77
81 107 85
0 0 98
0 0 97
0 0 89
0 0 84
0 0 81
0 0 81
0 0 81
0 0 81
0 0 80
0 0 74
0 0 73
0 0 73
0 0 73
0 0 72
0 0 73
0 0 74
0 0 76
0 0 77
0 0 78
0 0 73
0 0 65
0 0 58
0 0 58
0 0 58
0 0 58
0 0 57
0 0 68
0 0 69
0 0 69
0 0 71
81 106 76
96 124 76
96 124 76
96 124 76
96 124 76
96 124 76
96 124 76
96 124 76
96 124 76
96 124 76
96 124 76
96 124 76
96 124 76
96 124 76
96 124 76
96 124 76
96 124 76
96 124 76
96 124 77
96 124 77
96 124 77
96 124 76
96 124 77
96 124 77
96 124 77
96 124 77
96 124 77
96 124 77
96 124 77
96 124 77
96 124 77
96 124 77
96 124 77
96 124 77
96 124 77
96 124 77
96 124 77
96 124 77
96 124 77
96 124 77
96 124 77
96 124 77
96 124 77
96 124 77
96 124 77
96 124 77
96 124 77
96 124 77
96 124 77
96 124 77
96 124 77
96 124 77
96 124 77
96 124 77
96 124 77
96 124 77
96 124 77
96 124 77
96 124 77
96 124 77
96 124 77
97 124 77
97 124 77
97 125 77
97 125 77
97 125 77
97 125 77
97 125 77
97 125 77
97 125 77
97 125 77
97 125 77
97 125 77
97 125 77
97 125 77
97 125 77
97 125 77
97 125 77
97 125 77
97 125 77
97 125 77
97 125 77
97 125 77
97 125 77
97 125 77
97 125 77
97 125 77
97 125 78
97 125 78
97 125 78
97 125 78
97 125 78
97 125 78
97 125 78
97 125 78
97 125 78
97 125 78
97 125 78
97 126 78
97 126 78
97 126 78
97 126 78
97 126 78
97 126 78
98 126 78
98 126 78
98 126 79
98 126 79
98 126 79
98 126 79
98 126 79
98 126 79
98 126 79
98 126 79
98 126 79
98 127 80
98 127 80
98 127 80
98 127 80
99 127 80
99 127 80
99 127 80
99 127 81
99 127 81
98 126 80
98 126 79
97 126 79
97 126 79
97 126 79
97 125 79
97 125 79
97 125 78
97 125 78
97 125 78
97 125 78
97 125 78
97 125 78
97 125 78
97 125 78
96 125 77
96 125 77
96 125 77
96 125 77
96 125 77
96 125 77
96 125 77
96 125 77
96 124 77
96 124 77
96 124 77
96 124 77
96 124 77
96 124 77
96 124 77
96 124 77
96 124 77
96 124 77
96 124 76
96 124 76
96 124 76
96 124 76
96 124 76
96 124 76
96 124 76
96 124 76
96 124 76
96 124 76
96 124 76
81 106 85
0 0 98
0 0 95
0 0 84
0 0 81
0 0 81
0 0 81
0 0 81
0 0 81
0 0 79
0 0 73
0 0 73
0 0 73
0 0 73
0 0 73
0 0 74
0 0 75
0 0 75
0 0 76
0 0 77
0 0 70
0 0 65
0 0 65
0 0 60
0 0 58
0 0 57
0 0 57
0 0 57
0 0 63
0 0 69
0 0 68
0 0 72
96 124 76
96 124 76
96 124 76
96 124 76
96 124 76
96 124 76
96 124 76
96 124 76
96 124 76
96 124 76
96 124 76
96 124 76
96 124 76
96 124 76
96 124 76
96 124 76
96 124 76
96 124 76
96 124 76
96 124 76
96 124 76
96 124 76
96 124 76
96 124 76
96 124 76
96 124 76
96 124 76
96 124 76
96 124 76
96 124 76
96 124 76
96 124 76
96 124 76
96 124 76
96 124 76
96 124 76
96 124 76
96 124 76
96 124 76
96 124 76
96 124 76
96 124 76
96 124 76
96 124 76
96 124 76
96 124 76
96 124 76
96 124 76
96 124 76
96 124 76
96 124 77
96 124 76
96 124 77
96 124 77
96 124 77
96 124 77
96 124 77
96 124 77
96 124 77
96 124 77
96 124 77
96 124 77
96 124 77
96 124 77
96 124 77
96 124 77
96 124 77
96 124 77
96 124 77
96 125 77
96 125 77
96 125 77
96 125 77
96 125 77
96 125 77
97 125 77
97 125 77
97 125 77
97 125 77
97 125 77
97 125 77
97 125 77
97 125 77
97 125 77
97 125 77
97 125 77
97 125 77
97 125 77
97 125 77
97 125 77
97 125 77
97 125 77
97 125 77
97 125 77
97 125 78
97 125 78
97 125 78
97 125 78
97 125 78
97 125 78
97 125 78
97 126 78
97 126 78
97 126 78
97 126 78
97 126 78
97 126 78
97 126 78
98 126 78
98 126 79
98 126 79
98 126 79
98 126 79
98 126 79
98 126 79
98 126 79
98 126 79
98 127 79
98 127 80
98 127 80
98 127 80
99 127 80
99 127 80
99 127 80
97 126 79
97 126 79
97 126 79
97 125 79
97 125 78
97 125 78
97 125 78
97 125 78
97 125 78
97 125 78
97 125 78
96 125 78
96 125 77
96 125 77
96 125 77
96 125 77
96 125 77
96 125 77
96 125 77
96 124 77
96 124 77
96 124 77
96 124 77
96 124 77
96 124 77
96 124 77
96 124 76
96 124 76
96 124 76
96 124 76
96 124 76
96 124 76
96 124 76
96 124 76
96 124 76
96 124 76
96 124 76
96 124 76
96 124 76
96 124 76
96 124 76
96 124 76
96 124 76
75 99 88
0 0 96
0 0 92
0 0 86
0 0 83
0 0 83
0 0 83
0 0 82
0 0 81
0 0 76
0 0 73
0 0 73
0 0 73
0 0 73
0 0 69
0 0 68
0 0 68
0 0 68
0 0 68
0 0 65
0 0 61
0 0 65
0 0 65
0 0 65
0 0 62
0 0 57
0 0 57
0 0 57
0 0 56
0 0 57
0 0 68
0 0 69
0 0 72
91 118 79
96 124 76
96 124 76
96 124 76
96 124 76
96 124 76
96 124 76
96 124 76
96 124 76
96 124 76
96 124 76
96 124 76
96 124 76
96 124 76
96 124 76
96 124 76
96 124 76
96 124 76
96 124 76
96 124 76
96 124 76
96 124 76
96 124 76
96 124 76
96 124 76
96 124 76
96 124 76
96 124 76
96 124 76
96 124 76
96 124 76
96 124 76
96 124 76
96 124 76
96 124 76
96 124 76
96 124 76
96 124 76
96 124 76
96 124 76
96 124 76
96 124 76
96 124 76
96 124 76
96 124 76
96 124 76
96 124 76
96 124 76
96 124 76
96 124 76
96 124 76
96 124 76
96 124 76
96 124 76
96 124 76
96 124 76
96 124 76
96 124 76
96 124 76
96 124 76
96 124 76
96 124 76
96 124 76
96 124 76
96 124 76
96 124 76
96 124 76
96 124 76
96 124 77
96 124 76
96 124 77
96 124 77
96 124 77
96 125 77
96 125 77
96 125 77
96 125 77
96 125 77
96 125 77
96 125 77
96 125 77
96 125 77
96 125 77
96 125 77
97 125 77
97 125 77
97 125 77
97 125 77
97 125 77
97 125 77
97 125 77
97 125 77
97 125 77
97 125 77
97 125 77
97 125 77
97 125 77
97 125 77
97 125 77
97 125 78
97 125 78
97 125 78
97 126 78
97 126 78
97 126 78
97 126 78
97 126 78
97 126 78
97 126 78
97 126 78
97 126 78
97 126 78
98 126 79
98 126 79
98 126 79
98 126 79
98 126 79
98 126 79
98 126 79
98 127 79
98 127 80
98 127 80
98 127 80
99 127 80
97 126 79
97 126 79
97 125 78
97 125 78
97 125 78
97 125 78
97 125 78
97 125 78
96 125 78
96 125 77
96 125 77
96 125 77
96 125 77
96 125 77
96 125 77
96 125 77
96 124 77
96 124 77
96 124 77
96 124 77
96 124 76
96 124 76
96 124 76
96 124 76
96 124 76
96 124 76
96 124 76
96 124 76
96 124 76
96 124 76
96 124 76
96 124 76
96 124 76
95 124 76
95 124 76
95 124 76
95 124 76
95 124 76
95 124 76
95 124 76
95 124 76
95 124 76
60 80 92
0 0 95
0 0 92
0 0 87
0 0 83
0 0 83
0 0 83
0 0 83
0 0 82
0 0 75
0 0 73
0 0 73
0 0 73
0 0 73
0 0 70
0 0 69
0 0 68
0 0 68
0 0 67
0 0 63
0 0 60
0 0 59
0 0 64
0 0 65
0 0 66
0 0 63
0 0 57
0 0 55
0 0 53
0 0 53
0 0 53
0 0 62
0 0 69
0 0 83
37 50 97
91 118 75
95 123 76
95 123 76
95 123 76
95 123 76
95 123 76
95 123 76
96 123 76
95 123 76
96 124 76
96 124 76
96 124 76
96 123 76
96 123 76
96 124 76
96 124 76
96 124 76
96 124 76
96 124 76
96 124 76
96 124 76
96 124 76
96 124 76
96 124 76
96 124 76
96 124 76
96 124 76
96 124 76
96 124 76
96 124 76
96 124 76
96 124 76
96 124 76
96 124 76
96 124 76
96 124 76
96 124 76
96 124 76
96 124 76
96 124 76
96 124 76
96 124 76
96 124 76
96 124 76
96 124 76
96 124 76
96 124 76
96 124 76
96 124 76
96 124 76
96 124 76
96 124 76
96 124 76
96 124 76
96 124 76
96 124 76
96 124 76
96 124 76
96 124 76
96 124 76
96 124 76
96 124 76
96 124 76
96 124 76
96 124 76
96 124 76
96 124 76
96 124 76
96 124 76
96 124 76
96 124 76
96 124 76
96 124 76
96 124 76
96 124 76
96 124 76
96 124 76
96 125 76
96 125 76
96 125 76
96 125 77
96 125 77
96 125 77
96 125 77
96 125 77
96 125 77
96 125 77
96 125 77
96 125 77
96 125 77
96 125 77
97 125 77
97 125 77
97 125 77
97 125 77
97 125 77
97 125 77
97 125 77
97 125 77
97 125 77
97 125 77
97 125 77
97 125 77
97 125 78
97 126 78
97 126 78
97 126 78
97 126 78
97 126 78
97 126 78
97 126 78
97 126 78
97 126 78
98 126 78
98 126 79
98 126 79
98 126 79
98 126 79
98 126 79
98 127 79
98 127 79
98 127 80
98 127 80
97 125 78
97 125 78
97 125 78
97 125 78
97 125 78
96 125 78
96 125 77
96 125 77
96 125 77
96 125 77
96 125 77
96 125 77
96 125 77
96 124 77
96 124 77
96 124 77
96 124 76
96 124 76
96 124 76
96 124 76
96 124 76
96 124 76
96 124 76
95 124 76
95 124 76
95 124 76
95 124 76
95 124 76
95 124 76
95 124 76
95 124 76
95 124 76
95 124 76
95 124 76
95 124 76
95 124 76
95 124 75
95 124 75
95 124 75
95 124 75
91 118 79
37 50 96
0 0 94
0 0 92
0 0 87
0 0 85
0 0 83
0 0 83
0 0 83
0 0 79
0 0 74
0 0 74
0 0 73
0 0 73
0 0 73
0 0 72
0 0 70
0 0 69
0 0 67
0 0 64
0 0 60
0 0 60
0 0 59
0 0 59
0 0 62
0 0 65
0 0 63
0 0 63
0 0 60
0 0 59
0 0 59
0 0 57
0 0 56
0 0 57
0 0 73
0 0 82
0 0 80
86 112 75
95 123 75
95 123 75
95 123 75
95 123 75
95 123 75
95 123 75
95 123 75
95 123 75
95 123 75
95 123 75
95 123 75
95 123 75
95 123 75
95 123 75
95 123 75
95 123 75
95 123 75
95 123 75
95 123 75
95 123 75
95 123 75
95 123 75
95 123 75
95 123 75
95 123 75
95 124 76
95 124 75
95 124 76
95 124 76
96 124 76
96 124 76
96 124 76
96 124 76
96 124 76
96 124 76
96 124 76
96 124 76
96 124 76
96 124 76
96 124 76
96 124 76
96 124 76
96 124 76
96 124 76
96 124 76
96 124 76
96 124 76
96 124 76
96 124 76
96 124 76
96 124 76
96 124 76
96 124 76
96 124 76
96 124 76
96 124 76
96 124 76
96 124 76
96 124 76
96 124 76
96 124 76
96 124 76
96 124 76
96 124 76
96 124 76
96 124 76
96 124 76
96 124 76
96 124 76
96 124 76
96 124 76
96 124 76
96 124 76
96 124 76
96 124 76
96 124 76
96 124 76
96 124 76
96 124 76
96 125 76
96 125 76
96 125 76
96 125 76
96 125 76
96 125 76
96 125 76
96 125 76
96 125 76
96 125 77
96 125 77
96 125 77
96 125 77
96 125 77
96 125 77
96 125 77
96 125 77
97 125 77
97 125 77
97 125 77
97 125 77
97 125 77
97 125 77
97 125 77
97 125 77
97 125 77
97 126 77
97 126 77
97 126 78
97 126 78
97 126 78
97 126 78
97 126 78
97 126 78
97 126 78
97 126 78
98 126 78
98 126 79
98 126 79
98 126 79
98 126 79
98 127 79
98 127 79
97 125 78
97 125 78
96 125 78
96 125 78
96 125 77
96 125 77
96 125 77
96 125 77
96 125 77
96 125 77
96 125 77
96 124 77
96 124 76
96 124 76
96 124 76
96 124 76
96 124 76
96 124 76
95 124 76
95 124 76
95 124 76
95 124 76
95 124 76
95 124 76
95 124 76
95 124 76
95 124 75
95 124 75
95 124 75
95 124 75
95 124 75
95 124 75
95 124 75
95 124 75
95 124 75
95 124 75
95 124 75
95 124 75
95 124 75
80 106 85
37 50 96
0 0 93
0 0 92
0 0 87
0 0 86
0 0 83
0 0 83
0 0 82
0 0 77
0 0 74
0 0 74
0 0 74
0 0 73
0 0 73
0 0 73
0 0 70
0 0 70
0 0 68
0 0 62
0 0 60
0 0 60
0 0 59
0 0 59
0 0 59
0 0 59
0 0 63
0 0 63
0 0 63
0 0 62
0 0 59
0 0 59
0 0 59
0 0 59
0 0 59
0 0 62
0 0 69
0 0 68
95 123 75
95 123 75
95 123 75
95 123 75
95 123 75
95 123 75
95 123 75
95 123 75
95 123 75
95 123 75
95 123 75
95 123 75
95 123 75
95 123 75
95 123 75
95 123 75
95 123 75
95 123 75
95 123 75
95 123 75
95 123 75
95 123 75
95 123 75
95 123 75
95 123 75
95 123 75
95 123 75
95 123 75
95 123 75
95 123 75
95 123 75
95 123 75
95 123 75
95 123 75
95 124 75
95 124 75
95 124 75
95 124 75
95 124 75
95 124 75
95 124 75
95 124 75
95 124 75
95 124 75
95 124 75
95 124 75
95 124 75
95 124 75
96 124 75
95 124 75
95 124 75
96 124 75
96 124 76
96 124 75
96 124 75
96 124 75
96 124 76
96 124 76
96 124 76
96 124 76
96 124 76
96 124 76
96 124 76
96 124 76
96 124 76
96 124 76
96 124 76
96 124 76
96 124 76
96 124 76
96 124 76
96 124 76
96 124 76
96 124 76
96 124 76
96 124 76
96 124 76
96 124 76
96 124 76
96 124 76
96 124 76
96 124 76
96 124 76
96 124 76
96 124 76
96 125 76
96 125 76
96 125 76
96 125 76
96 125 76
96 125 76
96 125 76
96 125 76
96 125 76
96 125 76
96 125 76
96 125 76
96 125 77
96 125 77
96 125 77
96 125 77
96 125 77
96 125 77
97 125 77
97 125 77
97 125 77
97 125 77
97 125 77
97 125 77
97 126 77
97 126 77
97 126 78
97 126 78
97 126 78
97 126 78
97 126 78
97 126 78
97 126 78
97 126 78
98 126 79
98 126 79
98 126 79
98 127 79
96 125 78
96 125 78
96 125 77
96 125 77
96 125 77
96 125 77
96 125 77
96 125 77
96 124 76
96 124 76
96 124 76
96 124 76
95 124 76
95 124 76
95 124 76
95 124 76
95 124 76
95 124 76
95 124 76
95 124 76
95 124 75
95 124 75
95 124 75
95 124 75
95 124 75
95 124 75
95 124 75
95 124 75
95 124 75
95 124 75
95 124 75
95 124 75
95 123 75
95 123 75
95 123 75
95 123 75
95 123 75
95 123 75
68 90 90
0 0 98
0 0 97
0 0 94
0 0 87
0 0 86
0 0 84
0 0 83
0 0 80
0 0 75
0 0 74
0 0 74
0 0 74
0 0 74
0 0 73
0 0 73
0 0 70
0 0 69
0 0 64
0 0 63
0 0 60
0 0 59
0 0 59
0 0 59
0 0 59
0 0 58
0 0 58
0 0 62
0 0 63
0 0 63
0 0 63
0 0 61
0 0 59
0 0 59
0 0 59
0 0 61
0 0 68
0 0 61
0 0 62
95 123 75
95 123 75
95 123 75
95 123 75
95 123 75
95 123 75
95 123 75
95 123 75
95 123 75
95 123 75
95 123 75
95 123 75
95 123 75
95 123 75
95 123 75
95 123 75
95 123 75
95 123 75
95 123 75
95 123 75
95 123 75
95 123 75
95 123 75
95 123 75
95 123 75
95 123 75
95 123 75
95 123 75
95 123 75
86 120 77
95 123 75
95 123 75
95 123 75
95 123 75
95 123 75
95 123 75
95 123 75
95 123 75
95 123 75
95 123 75
95 123 75
95 123 75
95 124 75
95 124 75
95 124 75
95 124 75
95 124 75
95 124 75
95 124 75
95 124 75
95 124 75
95 124 75
95 124 75
95 124 75
95 124 75
95 124 75
95 124 75
95 124 75
95 124 75
95 124 75
95 124 75
95 124 75
95 124 75
95 124 75
95 124 75
96 124 75
96 124 75
96 124 75
96 124 75
96 124 75
96 124 75
96 124 76
96 124 75
96 124 75
96 124 76
96 124 76
96 124 76
96 124 76
96 124 76
96 124 76
96 124 76
96 124 76
96 124 76
96 124 76
96 124 76
96 124 76
96 124 76
96 124 76
96 125 76
96 124 76
96 125 76
96 125 76
96 125 76
96 125 76
96 125 76
96 125 76
96 125 76
96 125 76
96 125 76
96 125 76
96 125 76
96 125 76
96 125 76
96 125 77
96 125 77
96 125 77
96 125 77
97 125 77
97 125 77
97 125 77
97 125 77
97 126 77
97 126 77
97 126 77
97 126 78
97 126 78
97 126 78
97 126 78
97 126 78
97 126 78
97 126 78
97 126 79
98 126 79
96 125 77
96 125 77
96 125 77
96 125 77
96 125 77
96 125 76
96 124 76
96 124 76
95 124 76
95 124 76
95 124 76
95 124 76
95 124 76
95 124 76
95 124 76
95 124 75
95 124 75
95 124 75
95 124 75
95 124 75
95 124 75
95 124 75
95 124 75
95 124 75
95 124 75
95 124 75
95 124 75
95 123 75
95 123 75
95 123 75
95 123 75
95 123 75
95 123 75
95 123 75
95 123 75
95 123 75
90 118 78
50 67 95
0 0 98
0 0 98
0 0 96
0 0 94
0 0 87
0 0 86
0 0 83
0 0 78
0 0 74
0 0 74
0 0 74
0 0 74
0 0 74
0 0 74
0 0 73
0 0 71
0 0 66
0 0 62
0 0 63
0 0 63
0 0 61
0 0 59
0 0 59
0 0 58
0 0 57
0 0 57
0 0 59
0 0 60
0 0 63
0 0 63
0 0 63
0 0 63
0 0 60
0 0 60
0 0 61
37 50 67
50 67 65
0 0 46
37 50 59
95 123 74
95 123 74
95 123 74
95 123 75
95 123 75
95 123 74
95 123 74
95 123 74
95 123 75
95 123 75
95 123 75
95 123 75
95 123 75
95 123 75
95 123 75
95 123 75
95 123 75
95 123 75
95 123 75
95 123 75
95 123 75
95 123 75
95 123 75
95 123 75
95 123 75
95 123 75
95 123 75
86 121 78
60 114 85
0 105 83
0 106 88
50 111 85
86 120 78
95 123 75
95 123 75
95 123 75
95 123 75
95 123 75
95 123 75
95 123 75
95 123 75
95 123 75
95 123 75
95 123 75
95 123 75
95 123 75
95 123 75
95 123 75
95 123 75
95 123 75
95 124 75
95 124 75
95 124 75
95 124 75
95 124 75
95 124 75
95 124 75
95 124 75
95 124 75
95 124 75
95 124 75
95 124 75
95 124 75
95 124 75
95 124 75
95 124 75
95 124 75
95 124 75
95 124 75
95 124 75
95 124 75
95 124 75
95 124 75
95 124 75
95 124 75
95 124 75
95 124 75
95 124 75
96 124 75
96 124 75
96 124 75
96 124 75
96 124 75
96 124 75
96 124 75
96 124 75
96 124 76
96 124 76
96 124 76
96 124 76
96 124 76
96 124 76
96 125 76
96 125 76
96 125 76
96 125 76
96 125 76
96 125 76
96 125 76
96 125 76
96 125 76
96 125 76
96 125 76
96 125 76
96 125 76
96 125 76
96 125 76
96 125 76
96 125 77
96 125 77
96 125 77
96 125 77
97 125 77
97 125 77
97 126 77
97 126 77
97 126 77
97 126 77
97 126 78
97 126 78
97 126 78
97 126 78
97 126 78
96 125 77
96 125 77
96 125 76
96 124 76
96 124 76
95 124 76
95 124 76
95 124 76
95 124 76
95 124 76
95 124 75
95 124 75
95 124 75
95 124 75
95 124 75
95 124 75
95 124 75
95 124 75
95 124 75
95 124 75
95 124 75
95 124 75
95 123 75
95 123 75
95 123 75
95 123 75
95 123 75
95 123 74
95 123 74
94 123 74
94 123 74
94 123 74
94 123 74
94 123 74
94 123 74
80 106 84
37 50 97
0 0 99
0 0 98
0 0 95
0 0 93
0 0 93
0 0 92
0 0 84
0 0 73
0 0 71
0 0 71
0 0 71
0 0 70
0 0 69
0 0 69
0 0 68
0 0 66
0 0 62
0 0 62
0 0 63
0 0 63
0 0 63
0 0 62
0 0 59
0 0 57
0 0 57
0 0 57
0 0 58
0 0 59
0 0 59
0 0 59
0 0 59
0 0 57
0 0 57
0 0 57
0 0 61
50 67 67
90 118 74
80 105 71
0 0 49
59 80 61
95 123 74
94 123 74
94 123 74
95 123 74
95 123 74
95 123 74
95 123 74
95 123 74
95 123 74
95 123 74
95 123 74
95 123 74
95 123 74
95 123 74
95 123 74
95 123 74
95 123 74
95 123 74
95 123 74
95 123 74
95 123 74
95 123 74
95 123 74
95 123 74
95 123 74
74 118 82
37 111 88
0 108 89
0 108 89
0 100 80
0 103 86
0 105 87
37 110 86
95 123 74
95 123 74
95 123 74
95 123 74
95 123 75
95 123 75
95 123 75
95 123 75
95 123 75
95 123 75
95 123 75
95 123 75
95 123 75
95 123 75
95 123 75
95 123 75
95 123 75
95 123 75
95 123 75
95 123 75
95 123 75
95 123 75
95 123 75
95 123 75
95 124 75
95 124 75
95 124 75
95 124 75
95 124 75
95 124 75
95 124 75
95 124 75
95 124 75
95 124 75
95 124 75
95 124 75
95 124 75
95 124 75
95 124 75
95 124 75
95 124 75
95 124 75
95 124 75
95 124 75
95 124 75
95 124 75
95 124 75
95 124 75
95 124 75
95 124 75
95 124 75
95 124 75
95 124 75
95 124 75
95 124 75
95 124 75
95 124 75
96 124 75
96 124 75
96 124 75
96 124 75
96 124 75
96 124 76
96 124 76
96 125 76
96 125 76
96 125 76
96 125 76
96 125 76
96 125 76
96 125 76
96 125 76
96 125 76
96 125 76
96 125 76
96 125 76
96 125 76
96 125 76
96 125 76
96 125 77
96 125 77
96 125 77
96 125 77
97 126 77
97 126 77
97 126 77
97 126 77
97 126 78
97 126 78
97 126 78
96 124 76
95 124 76
95 124 76
95 124 76
95 124 76
95 124 76
95 124 75
95 124 75
95 124 75
95 124 75
95 124 75
95 124 75
95 124 75
95 124 75
95 124 75
95 124 75
95 124 75
95 123 75
94 123 74
94 123 74
94 123 74
94 123 74
94 123 74
94 123 74
94 123 74
94 123 74
94 123 74
94 123 74
94 123 74
94 123 74
94 123 74
94 123 74
94 123 74
94 123 74
80 106 82
0 0 96
0 0 97
0 0 94
0 0 91
0 0 90
0 0 89
0 0 88
0 0 81
0 0 72
0 0 66
0 0 66
0 0 66
0 0 66
0 0 66
0 0 66
0 0 64
0 0 61
0 0 61
0 0 62
0 0 63
0 0 63
0 0 62
0 0 61
0 0 60
0 0 59
0 0 57
0 0 57
0 0 57
0 0 58
0 0 58
0 0 58
0 0 57
0 0 57
0 0 57
0 0 55
50 67 60
85 112 71
94 123 74
94 123 74
74 98 72
0 0 58
59 79 62
94 123 74
94 123 74
94 123 74
94 123 74
94 123 74
94 123 74
94 123 74
94 123 74
94 123 74
94 123 74
94 123 74
94 123 74
94 123 74
94 123 74
94 123 74
94 123 74
94 123 74
94 123 74
94 123 74
94 123 74
94 123 74
94 123 74
90 122 76
67 117 84
0 110 90
0 107 88
0 106 88
0 105 87
0 104 86
0 94 77
0 101 85
0 102 85
0 104 84
67 116 81
95 123 74
95 123 74
95 123 74
95 123 74
95 123 74
95 123 74
95 123 74
95 123 74
95 123 74
95 123 74
95 123 74
95 123 74
95 123 74
95 123 74
95 123 74
95 123 74
95 123 74
95 123 74
95 123 74
95 123 74
95 123 74
95 123 74
95 123 74
95 123 74
95 123 74
95 123 74
95 123 74
95 123 74
95 124 75
95 124 75
95 124 75
95 124 75
95 124 75
95 124 75
95 124 75
95 124 75
95 124 75
95 124 75
95 124 75
95 124 75
95 124 75
95 124 75
95 124 75
95 124 75
95 124 75
95 124 75
95 124 75
95 124 75
95 124 75
95 124 75
95 124 75
95 124 75
95 124 75
95 124 75
95 124 75
95 124 75
95 124 75
95 124 75
95 124 75
95 124 75
95 124 75
95 124 75
95 124 75
95 124 75
95 124 75
95 124 75
96 125 75
96 125 75
96 125 75
96 125 76
96 125 76
96 125 76
96 125 76
96 125 76
96 125 76
96 125 76
96 125 76
96 125 76
96 125 76
96 125 76
96 125 76
96 125 76
96 125 77
96 125 77
96 125 77
96 126 77
97 126 77
97 126 77
97 126 77
95 124 76
95 124 76
95 124 76
95 124 75
95 124 75
95 124 75
95 124 75
95 124 75
95 124 75
95 124 75
95 124 75
94 124 75
94 124 74
94 123 74
94 123 74
94 123 74
94 123 74
94 123 74
94 123 74
94 123 74
94 123 74
94 123 74
94 123 74
94 123 74
94 123 74
94 123 74
94 123 74
94 123 74
94 123 74
94 123 74
94 123 74
94 123 74
94 123 74
80 105 83
0 0 96
0 0 94
0 0 83
0 0 86
0 0 86
0 0 86
0 0 85
0 0 77
0 0 73
0 0 72
0 0 70
0 0 66
0 0 66
0 0 66
0 0 63
0 0 61
0 0 60
0 0 60
0 0 61
0 0 62
0 0 61
0 0 59
0 0 58
0 0 58
0 0 58
0 0 61
0 0 60
0 0 58
0 0 57
0 0 58
0 0 58
0 0 58
0 0 57
0 0 54
36 49 55
74 98 65
94 123 74
94 123 74
94 123 74
94 123 74
36 49 70
0 0 61
59 79 67
94 123 74
94 123 74
94 123 74
94 123 74
94 123 74
94 123 74
94 123 74
94 123 74
94 123 74
94 123 74
94 123 74
94 123 74
94 123 74
94 123 74
94 123 74
94 123 74
94 123 74
94 123 74
94 123 74
94 123 74
80 120 80
50 113 85
0 107 85
0 98 80
0 98 79
0 100 82
0 101 83
0 102 84
0 100 80
0 105 83
0 104 86
0 102 84
0 102 83
0 105 85
85 120 77
94 123 74
94 123 74
94 123 74
94 123 74
94 123 74
94 123 74
94 123 74
94 123 74
95 123 74
95 123 74
95 123 74
95 123 74
95 123 74
95 123 74
95 123 74
95 123 74
95 123 74
95 123 74
95 123 74
95 123 74
95 123 74
95 123 74
95 123 74
95 123 74
95 123 74
95 123 74
95 123 74
95 123 74
95 123 74
95 123 74
95 123 74
95 123 74
95 123 74
95 123 74
95 123 74
95 123 74
95 124 74
95 124 74
95 124 74
95 124 74
95 124 74
95 124 74
95 124 74
95 124 74
95 124 74
95 124 74
95 124 75
95 124 75
95 124 75
95 124 75
95 124 75
95 124 75
95 124 75
95 124 75
95 124 75
95 124 75
95 124 75
95 124 75
95 124 75
95 124 75
95 124 75
95 124 75
95 124 75
95 124 75
95 124 75
95 124 75
95 124 75
95 124 75
95 124 75
95 124 75
95 125 75
95 125 75
96 125 75
96 125 75
96 125 76
96 125 76
96 125 76
96 125 76
96 125 76
96 125 76
96 125 76
96 125 76
96 125 76
96 125 76
96 125 77
96 125 77
96 126 77
96 126 77
95 124 75
95 124 75
95 124 75
95 124 75
95 124 75
95 124 75
94 124 75
94 124 74
94 124 74
94 123 74
94 123 74
94 123 74
94 123 74
94 123 74
94 123 74
94 123 74
94 123 74
94 123 74
94 123 74
94 123 74
94 123 74
94 123 74
94 123 74
94 123 74
94 123 74
94 123 73
94 123 73
94 123 73
94 123 73
94 123 73
94 123 73
94 123 73
89 118 76
0 0 96
0 0 94
0 0 83
0 0 80
0 0 82
0 0 86
0 0 79
0 0 73
0 0 73
0 0 73
0 0 72
0 0 72
0 0 68
0 0 64
0 0 61
0 0 60
0 0 60
0 0 60
0 0 59
0 0 59
0 0 58
0 0 58
0 0 58
0 0 58
0 0 58
0 0 58
0 0 61
0 0 61
0 0 61
0 0 61
0 0 63
0 0 64
0 0 64
0 0 63
73 98 66
94 122 73
94 122 73
94 122 73
94 122 73
94 122 73
74 98 72
0 0 58
0 0 51
67 89 71
94 122 73
94 122 73
94 122 73
94 122 73
94 122 73
94 122 73
94 122 73
94 123 73
94 122 73
94 122 73
94 122 73
94 122 73
94 123 73
94 123 73
94 123 73
94 123 73
90 121 76
74 117 81
50 111 84
0 104 84
0 106 83
0 105 82
0 102 81
0 96 79
0 95 76
0 96 76
0 97 76
0 95 76
0 97 78
0 104 81
0 107 85
0 103 84
0 102 83
0 102 83
36 109 84
94 123 74
94 123 74
94 123 74
94 123 74
94 123 74
94 123 74
94 123 74
94 123 74
94 123 74
94 123 74
94 123 74
94 123 74
94 123 74
94 123 74
94 123 74
94 123 74
94 123 74
94 123 74
94 123 74
94 123 74
94 123 74
94 123 74
94 123 74
94 123 74
94 123 74
94 123 74
94 123 74
95 123 74
95 123 74
95 123 74
94 123 74
95 123 74
95 123 74
95 123 74
95 123 74
95 123 74
95 123 74
95 123 74
95 123 74
95 123 74
95 123 74
95 123 74
95 124 74
95 124 74
95 124 74
95 124 74
95 124 74
95 124 74
95 124 74
95 124 74
95 124 74
95 124 74
95 124 74
95 124 74
95 124 74
95 124 74
95 124 74
95 124 74
95 124 74
95 124 74
95 124 75
95 124 75
95 124 75
95 124 75
95 124 75
95 124 75
95 124 75
95 124 75
95 124 75
95 124 75
95 124 75
95 124 75
95 124 75
95 124 75
95 125 75
95 125 75
95 125 75
95 125 75
96 125 75
96 125 76
96 125 76
96 125 76
96 125 76
96 125 76
96 125 76
96 125 76
96 125 76
96 125 76
95 124 75
94 124 75
94 124 75
94 124 74
94 123 74
94 123 74
94 123 74
94 123 74
94 123 74
94 123 74
94 123 74
94 123 74
94 123 74
94 123 74
94 123 74
94 123 73
94 123 73
94 123 73
94 123 73
94 123 73
94 123 73
94 123 73
94 123 73
94 123 73
94 123 73
94 123 73
94 123 73
94 123 73
94 123 73
94 123 73
93 123 73
89 117 76
36 49 94
0 0 91
0 0 81
0 0 80
0 0 80
0 0 79
0 0 73
0 0 73
0 0 73
0 0 73
0 0 72
0 0 72
0 0 71
0 0 67
0 0 60
0 0 59
0 0 59
0 0 59
0 0 59
0 0 59
0 0 58
0 0 57
0 0 57
0 0 58
0 0 58
0 0 58
0 0 58
0 0 61
0 0 61
0 0 60
0 0 61
0 0 64
0 0 64
0 0 64
59 79 67
94 122 73
94 122 73
94 122 73
94 122 73
94 122 73
89 117 73
36 49 59
0 0 51
59 79 59
85 111 72
94 122 73
94 122 73
94 122 73
94 122 73
94 122 73
94 122 73
94 122 73
94 122 73
94 122 73
94 122 73
94 122 73
94 122 73
94 122 73
85 119 76
67 113 80
49 107 81
0 101 82
0 99 81
0 99 81
0 98 80
0 103 80
0 104 80
0 101 78
0 94 75
0 95 78
0 96 76
0 96 76
0 93 77
0 97 78
0 102 77
0 99 74
0 99 79
0 102 84
0 102 83
0 103 84
74 117 79
94 123 73
94 123 73
94 123 73
94 123 73
94 123 73
94 123 73
94 123 73
94 123 73
94 123 73
94 123 73
94 123 74
94 123 73
94 123 74
94 123 74
94 123 74
94 123 74
94 123 74
94 123 74
94 123 74
94 123 74
94 123 74
94 123 74
94 123 74
94 123 74
94 123 74
94 123 74
94 123 74
94 123 74
94 123 74
94 123 74
94 123 74
94 123 74
94 123 74
94 123 74
94 123 74
94 123 74
94 123 74
94 123 74
94 123 74
94 123 74
94 123 74
94 123 74
94 123 74
94 123 74
94 123 74
94 123 74
94 123 74
95 123 74
94 123 74
95 124 74
95 124 74
95 124 74
95 124 74
95 124 74
95 124 74
95 124 74
95 124 74
95 124 74
95 124 74
95 124 74
95 124 74
95 124 74
95 124 74
95 124 74
95 124 74
95 124 74
95 124 74
95 124 74
95 124 75
95 124 75
95 124 75
95 124 75
95 124 75
95 124 75
95 124 75
95 124 75
95 124 75
95 124 75
95 125 75
95 125 75
95 125 75
95 125 75
95 125 75
96 125 76
96 125 76
96 125 76
96 125 76
94 123 74
94 123 74
94 123 74
94 123 74
94 123 74
94 123 74
94 123 74
94 123 74
94 123 73
94 123 73
94 123 73
94 123 73
94 123 73
94 123 73
93 123 73
93 123 73
93 123 73
93 123 73
93 123 73
93 123 73
93 123 73
93 123 73
93 123 73
93 122 73
93 122 73
93 122 73
93 122 73
93 122 73
93 122 73
93 122 73
93 122 73
59 79 89
0 0 91
0 0 81
0 0 81
0 0 80
0 0 79
0 0 70
0 0 68
0 0 72
0 0 73
0 0 73
0 0 72
0 0 69
0 0 65
0 0 65
0 0 64
0 0 59
0 0 59
0 0 59
0 0 59
0 0 58
0 0 58
0 0 57
0 0 57
0 0 57
0 0 57
0 0 58
0 0 58
0 0 61
0 0 60
0 0 60
0 0 60
0 0 62
0 0 64
36 49 65
89 117 72
93 122 73
93 122 73
93 122 73
93 122 73
93 122 73
93 122 73
93 122 73
93 122 73
93 122 73
93 122 73
93 122 73
93 122 73
93 122 73
94 122 73
93 122 73
94 122 73
94 122 73
94 122 73
94 122 73
94 122 73
94 122 73
84 119 75
36 103 80
0 100 81
0 99 81
0 99 81
0 99 81
0 99 81
0 98 81
0 98 80
0 102 80
0 104 80
0 97 75
0 93 72
0 93 72
0 94 75
0 93 72
0 87 65
0 88 63
0 85 60
0 81 60
0 82 61
0 97 78
0 102 83
0 102 83
0 104 84
89 121 75
94 122 73
94 122 73
94 123 73
94 123 73
94 123 73
94 123 73
94 123 73
94 123 73
94 123 73
94 123 73
94 123 73
94 123 73
94 123 73
94 123 73
94 123 73
94 123 73
94 123 73
94 123 73
94 123 73
94 123 73
94 123 73
94 123 73
94 123 73
94 123 73
94 123 73
94 123 73
94 123 73
94 123 73
94 123 73
94 123 73
94 123 73
94 123 73
94 123 73
94 123 73
94 123 73
94 123 73
94 123 74
94 123 74
94 123 74
94 123 74
94 123 74
94 123 74
94 123 74
94 123 74
94 123 74
94 123 74
94 123 74
94 123 74
94 123 74
94 123 74
94 123 74
94 123 74
94 123 74
94 123 74
94 124 74
94 124 74
94 124 74
94 124 74
94 124 74
94 124 74
94 124 74
94 124 74
95 124 74
95 124 74
95 124 74
95 124 74
95 124 74
95 124 74
95 124 74
95 124 74
95 124 74
95 124 74
95 124 74
95 124 74
95 124 74
95 124 75
95 124 75
95 124 75
95 124 75
95 124 75
95 124 75
95 125 75
95 125 75
95 125 75
95 125 75
95 125 75
94 123 74
94 123 74
94 123 74
94 123 73
94 123 73
93 123 73
93 123 73
93 123 73
93 123 73
93 123 73
93 123 73
93 123 73
93 123 73
93 123 73
93 122 73
93 122 73
93 122 73
93 122 73
93 122 73
93 122 73
93 122 73
93 122 72
93 122 72
93 122 72
93 122 72
93 122 72
93 122 72
93 122 72
93 122 72
93 122 72
66 89 87
0 0 91
0 0 81
0 0 81
0 0 80
0 0 77
0 0 70
0 0 68
0 0 68
0 0 68
0 0 73
0 0 71
0 0 67
0 0 65
0 0 65
0 0 65
0 0 65
0 0 63
0 0 59
0 0 59
0 0 58
0 0 58
0 0 58
0 0 57
0 0 57
0 0 57
0 0 57
0 0 56
0 0 55
0 0 59
0 0 59
0 0 59
0 0 59
0 0 59
0 0 64
79 105 70
93 122 72
93 122 72
93 122 72
93 122 72
93 122 72
93 122 72
93 122 72
93 122 72
93 122 72
93 122 72
93 122 72
93 122 72
93 122 72
93 122 72
93 122 72
93 122 73
93 122 73
93 122 73
93 122 73
93 122 73
93 122 73
93 122 73
79 117 75
0 99 81
0 99 81
0 99 81
0 99 81
0 99 81
0 99 81
0 98 81
0 98 80
0 101 80
0 104 80
0 93 72
0 93 72
0 93 72
0 91 69
0 89 67
0 89 69
0 88 68
0 86 64
0 85 64
0 88 71
0 85 68
0 98 80
0 101 82
0 102 83
49 109 82
94 122 73
94 122 73
94 122 73
94 122 73
94 122 73
94 122 73
94 122 73
94 122 73
94 122 73
94 122 73
94 122 73
94 123 73
94 122 73
94 123 73
94 123 73
94 123 73
94 123 73
94 123 73
94 123 73
94 123 73
94 123 73
94 123 73
94 123 73
94 123 73
94 123 73
94 123 73
94 123 73
94 123 73
94 123 73
94 123 73
94 123 73
94 123 73
94 123 73
94 123 73
94 123 73
94 123 73
94 123 73
94 123 73
94 123 73
94 123 73
94 123 73
94 123 73
94 123 73
94 123 73
94 123 73
94 123 73
94 123 73
94 123 73
94 123 73
94 123 73
94 123 73
94 123 73
94 123 73
94 123 73
94 123 73
94 123 73
94 123 73
94 123 74
94 123 74
94 123 74
94 123 74
94 123 74
94 124 74
94 124 74
94 124 74
94 124 74
94 124 74
94 124 74
94 124 74
94 124 74
94 124 74
94 124 74
94 124 74
94 124 74
95 124 74
95 124 74
95 124 74
95 124 74
95 124 74
95 124 74
95 124 74
95 124 74
95 124 75
95 124 75
95 124 75
95 125 75
93 123 73
93 123 73
93 123 73
93 123 73
93 123 73
93 123 73
93 123 73
93 122 73
93 122 73
93 122 72
93 122 72
93 122 72
93 122 72
93 122 72
93 122 72
93 122 72
93 122 72
93 122 72
93 122 72
93 122 72
93 122 72
93 122 72
93 122 72
93 122 72
93 122 72
93 122 72
93 122 72
93 122 72
93 122 72
78 105 81
0 0 91
0 0 81
0 0 81
0 0 80
0 0 77
0 0 68
0 0 68
0 0 68
0 0 68
0 0 68
0 0 63
0 0 64
0 0 65
0 0 65
0 0 65
0 0 65
0 0 65
0 0 64
0 0 61
0 0 59
0 0 58
0 0 58
0 0 58
0 0 57
0 0 57
0 0 56
0 0 55
0 0 55
0 0 55
0 0 59
0 0 59
0 0 59
0 0 58
0 0 57
58 79 65
93 122 72
93 122 72
93 122 72
93 122 72
93 122 72
93 122 72
93 122 72
93 122 72
93 122 72
93 122 72
93 122 72
93 122 72
93 122 72
93 122 72
93 122 72
93 122 72
93 122 72
93 122 72
93 122 72
93 122 72
93 122 72
93 122 72
93 122 72
58 112 78
0 100 81
0 99 81
0 99 81
0 99 81
0 99 81
0 99 81
0 98 81
0 98 80
0 99 80
0 101 78
0 93 72
0 92 71
0 89 67
0 88 65
0 89 66
0 89 68
0 88 68
0 87 66
0 86 65
0 90 71
0 96 80
0 95 78
0 100 81
0 100 81
0 101 83
73 115 78
93 122 73
93 122 73
93 122 73
93 122 73
93 122 73
93 122 73
93 122 73
93 122 73
94 122 73
93 122 73
93 122 73
94 122 73
94 122 73
94 122 73
94 122 73
94 122 73
94 122 73
94 122 73
94 122 73
94 122 73
94 122 73
94 122 73
94 122 73
94 122 73
94 122 73
94 123 73
94 123 73
94 123 73
94 123 73
94 123 73
94 123 73
94 123 73
94 123 73
94 123 73
94 123 73
94 123 73
94 123 73
94 123 73
94 123 73
94 123 73
94 123 73
94 123 73
94 123 73
94 123 73
94 123 73
94 123 73
94 123 73
94 123 73
94 123 73
94 123 73
94 123 73
94 123 73
94 123 73
94 123 73
94 123 73
94 123 73
94 123 73
94 123 73
94 123 73
94 123 73
94 123 73
94 123 73
94 123 73
94 123 73
94 123 73
94 123 73
94 123 73
94 123 73
94 123 73
94 123 73
94 124 73
94 124 73
94 124 74
94 124 74
94 124 74
94 124 74
94 124 74
94 124 74
94 124 74
94 124 74
94 124 74
94 124 74
95 124 74
95 124 74
95 124 74
93 122 73
93 122 72
93 122 72
93 122 72
93 122 72
93 122 72
93 122 72
93 122 72
93 122 72
93 122 72
93 122 72
93 122 72
92 122 72
92 122 72
92 122 72
92 122 72
92 122 72
92 122 72
92 122 72
92 122 72
92 122 72
92 122 72
92 122 72
92 122 72
92 122 72
92 122 72
92 122 72
92 122 72
78 104 81
0 0 91
0 0 81
0 0 81
0 0 80
0 0 76
0 0 68
0 0 68
0 0 68
0 0 68
0 0 66
0 0 60
0 0 57
0 0 59
0 0 65
0 0 65
0 0 65
0 0 64
0 0 63
0 0 60
0 0 60
0 0 60
0 0 60
0 0 60
0 0 59
0 0 54
0 0 54
0 0 54
0 0 54
0 0 54
0 0 55
0 0 59
0 0 59
0 0 57
0 0 57
66 88 64
93 121 72
93 121 72
93 122 72
93 122 72
93 122 72
93 122 72
93 122 72
93 121 72
93 122 72
93 122 72
93 122 72
93 122 72
93 122 72
93 122 72
93 122 72
93 122 72
93 122 72
93 122 72
93 122 72
93 122 72
93 122 72
93 122 72
93 122 72
93 122 72
66 114 77
0 102 81
0 99 81
0 99 81
0 99 81
0 99 81
0 98 80
0 98 80
0 98 81
0 99 80
0 98 76
0 91 70
0 89 66
0 88 65
0 88 65
0 89 65
0 90 66
0 88 68
0 87 67
0 87 65
0 88 68
0 94 77
0 97 81
0 98 81
0 103 86
0 103 86
36 106 84
84 119 76
93 122 72
93 122 72
93 122 72
93 122 72
93 122 72
93 122 72
93 122 72
93 122 72
93 122 72
93 122 72
93 122 72
93 122 72
93 122 72
93 122 72
93 122 72
93 122 72
93 122 72
93 122 72
93 122 72
93 122 73
93 122 72
93 122 72
93 122 73
93 122 72
93 122 72
93 122 73
93 122 73
93 122 73
93 122 73
93 122 73
93 122 73
93 122 73
93 122 73
93 122 73
93 122 73
93 122 73
93 122 73
93 123 73
93 123 73
93 123 73
93 123 73
94 123 73
94 123 73
93 123 73
93 123 73
93 123 73
93 123 73
93 123 73
94 123 73
94 123 73
94 123 73
94 123 73
94 123 73
94 123 73
94 123 73
94 123 73
94 123 73
94 123 73
94 123 73
94 123 73
94 123 73
94 123 73
94 123 73
94 123 73
94 123 73
94 123 73
94 123 73
94 123 73
94 123 73
94 123 73
94 123 73
94 123 73
94 123 73
94 123 73
94 123 73
94 123 73
94 123 73
94 123 73
94 124 73
94 124 73
94 124 73
94 124 74
94 124 74
94 124 74
92 122 72
92 122 72
92 122 72
92 122 72
92 122 72
92 122 72
92 122 72
92 122 72
92 122 72
92 122 72
92 122 72
92 122 71
92 122 71
92 122 71
92 122 71
92 121 71
92 121 71
92 121 71
92 121 71
92 121 71
92 121 71
92 121 71
92 121 71
92 121 71
92 121 71
92 121 71
92 121 71
78 104 81
0 0 91
0 0 81
0 0 81
0 0 80
0 0 72
0 0 68
0 0 68
0 0 68
0 0 67
0 0 66
0 0 58
0 0 57
0 0 57
0 0 57
0 0 60
0 0 64
0 0 62
0 0 61
0 0 61
0 0 61
0 0 61
0 0 61
0 0 60
0 0 59
0 0 58
0 0 53
0 0 53
0 0 53
0 0 53
0 0 54
0 0 54
0 0 57
0 0 57
36 49 58
78 104 67
92 121 71
92 121 71
92 121 71
92 121 71
92 121 71
92 121 71
92 121 71
92 121 71
92 121 72
92 121 72
92 121 72
92 121 72
92 121 72
92 121 72
92 121 72
93 121 72
93 121 72
93 121 72
93 121 72
93 121 72
93 121 72
93 121 72
93 121 72
93 121 72
93 121 72
93 121 72
49 105 74
0 97 73
0 96 76
0 96 76
0 96 76
0 96 76
0 96 76
0 95 76
0 95 76
0 91 68
0 88 65
0 88 65
0 88 65
0 88 65
0 89 65
0 90 65
0 89 68
0 88 67
0 87 66
0 88 68
0 89 70
0 95 78
0 97 81
0 95 79
0 101 84
0 105 87
0 106 87
73 116 80
93 122 72
93 122 72
93 122 72
93 122 72
93 122 72
93 122 72
93 122 72
93 122 72
93 122 72
93 122 72
93 122 72
93 122 72
93 122 72
93 122 72
93 122 72
93 122 72
93 122 72
93 122 72
93 122 72
93 122 72
93 122 72
93 122 72
93 122 72
93 122 72
93 122 72
93 122 72
93 122 72
93 122 72
93 122 72
93 122 72
93 122 72
93 122 72
93 122 72
93 122 72
93 122 72
93 122 72
93 122 72
93 122 72
93 122 72
93 122 72
93 122 72
93 122 72
93 122 72
93 122 72
93 122 72
93 122 72
93 122 72
93 122 72
93 122 72
93 122 72
93 122 72
93 122 72
93 123 72
93 123 72
93 123 72
93 123 72
93 123 73
93 123 73
93 123 73
93 123 73
93 123 73
93 123 73
93 123 73
93 123 73
93 123 73
93 123 73
93 123 73
93 123 73
93 123 73
93 123 73
93 123 73
93 123 73
93 123 73
93 123 73
93 123 73
93 123 73
93 123 73
93 123 73
94 123 73
94 123 73
94 123 73
94 123 73
94 123 73
92 121 71
92 121 71
92 121 71
92 121 71
92 121 71
92 121 71
92 121 71
92 121 71
92 121 71
92 121 71
92 121 71
92 121 71
92 121 71
92 121 71
92 121 71
92 121 71
92 121 71
92 121 71
92 121 71
92 121 71
92 121 71
92 121 71
92 121 71
92 121 71
92 121 71
92 121 71
87 116 74
35 49 89
0 0 81
0 0 81
0 0 80
0 0 72
0 0 68
0 0 67
0 0 67
0 0 67
0 0 64
0 0 58
0 0 57
0 0 56
0 0 57
0 0 56
0 0 56
0 0 59
0 0 61
0 0 61
0 0 61
0 0 61
0 0 60
0 0 58
0 0 58
0 0 58
0 0 58
0 0 54
0 0 53
0 0 53
0 0 53
0 0 52
0 0 50
0 0 55
35 48 58
88 116 70
92 121 71
92 121 71
92 121 71
92 121 71
92 121 71
92 121 71
92 121 71
92 121 71
92 121 71
92 121 71
92 121 71
92 121 71
92 121 71
92 121 71
92 121 71
92 121 71
92 121 71
92 121 71
92 121 71
92 121 71
92 121 71
92 121 71
92 121 71
92 121 71
92 121 71
92 121 71
92 121 71
66 110 62
0 97 53
0 94 53
0 93 55
0 92 58
0 92 59
0 91 62
0 90 64
0 89 63
0 89 63
0 88 65
0 88 65
0 88 65
0 88 65
0 88 65
0 90 65
0 89 66
0 88 68
0 87 66
0 88 68
0 90 71
0 91 72
0 97 80
0 96 80
0 96 80
0 98 81
0 105 86
0 107 88
58 113 83
93 121 72
93 121 72
93 121 72
93 121 72
93 121 72
93 122 72
93 121 72
93 122 72
93 122 72
93 122 72
93 122 72
93 122 72
93 122 72
93 122 72
93 122 72
93 122 72
93 122 72
93 122 72
93 122 72
93 122 72
93 122 72
93 122 72
93 122 72
93 122 72
93 122 72
93 122 72
93 122 72
93 122 72
93 122 72
93 122 72
93 122 72
93 122 72
93 122 72
93 122 72
93 122 72
93 122 72
93 122 72
93 122 72
93 122 72
93 122 72
93 122 72
93 122 72
93 122 72
93 122 72
93 122 72
93 122 72
93 122 72
93 122 72
93 122 72
93 122 72
93 122 72
93 122 72
93 122 72
93 122 72
93 122 72
93 122 72
93 122 72
93 122 72
93 122 72
93 122 72
93 122 72
93 122 72
93 122 72
93 122 72
93 122 72
93 122 72
93 122 72
93 122 72
93 122 72
93 122 72
93 122 72
93 122 72
93 122 72
93 123 72
93 122 72
93 123 72
93 123 72
93 123 72
93 123 72
93 123 72
93 123 72
93 123 72
90 122 59
90 122 59
90 122 59
90 122 59
90 122 59
90 122 59
90 122 59
90 122 59
90 122 59
90 122 59
90 122 59
90 122 59
90 122 59
90 122 59
90 122 59
90 122 59
90 122 59
90 122 59
90 122 59
90 122 59
90 122 59
90 122 59
90 122 59
90 122 59
86 117 68
65 88 88
0 0 93
0 0 85
0 0 81
0 0 79
0 0 72
0 0 67
0 0 67
0 0 67
0 0 67
0 0 62
0 0 56
0 0 56
0 0 56
0 0 56
0 0 56
0 0 56
0 0 55
0 0 56
0 0 60
0 0 61
0 0 60
0 0 58
0 0 58
0 0 58
0 0 58
0 0 58
0 0 58
0 0 54
0 0 52
0 0 51
0 0 49
0 0 49
0 0 49
56 81 52
91 122 59
91 122 59
91 122 59
91 122 60
91 122 60
91 122 60
91 122 60
91 122 60
91 122 60
91 122 60
91 122 60
91 122 60
91 122 60
91 122 60
91 123 60
91 123 60
91 123 60
91 123 60
91 123 60
91 123 60
91 123 60
91 123 60
91 123 60
91 123 60
91 123 60
91 123 60
91 123 60
91 123 60
91 123 60
87 121 58
76 116 53
56 108 43
34 98 52
0 93 56
0 93 57
0 93 57
0 93 58
0 92 59
0 90 62
0 89 63
0 88 64
0 88 65
0 88 65
0 88 65
0 90 65
0 90 66
0 90 68
0 88 68
0 88 69
0 90 71
0 90 71
0 91 72
0 97 81
0 96 80
0 96 80
0 96 80
0 102 84
0 107 88
0 106 88
48 110 84
72 115 79
83 119 72
91 123 60
91 123 60
91 123 60
91 123 60
91 123 60
91 123 60
91 123 60
91 123 60
91 123 60
91 123 60
91 123 60
91 123 60
91 123 60
91 123 60
91 123 60
91 123 60
91 123 60
91 123 60
91 123 60
91 123 60
91 123 60
91 123 60
91 123 60
91 123 60
91 123 60
91 123 60
91 123 60
91 123 60
91 123 60
91 123 60
91 123 60
91 123 60
91 123 60
91 123 60
91 123 60
91 123 60
91 123 60
91 123 60
91 123 60
91 123 60
91 123 60
91 123 60
91 123 60
91 123 60
91 123 60
91 123 60
91 123 60
91 123 60
91 123 60
91 123 60
91 123 60
91 123 60
91 123 60
91 123 60
91 123 60
91 123 60
91 123 60
91 123 60
91 123 60
91 123 60
91 123 60
91 123 60
91 123 60
91 123 60
91 123 60
91 123 60
91 123 60
91 124 60
91 123 60
91 123 60
91 124 60
91 123 60
91 124 60
91 124 60
91 124 60
91 124 60
91 124 60
91 124 60
88 127 0
88 127 0
88 127 0
88 126 0
88 126 0
88 126 0
88 126 0
88 126 0
88 126 0
88 126 0
88 126 0
88 126 0
88 126 0
88 126 0
46 69 82
34 51 95
79 115 53
88 126 0
88 126 0
88 126 0
88 126 0
88 126 0
88 126 0
69 101 72
34 51 92
0 0 90
0 0 89
0 0 86
0 0 81
0 0 69
0 0 67
0 0 67
0 0 67
0 0 66
0 0 60
0 0 56
0 0 56
0 0 56
0 0 56
0 0 56
0 0 56
0 0 56
0 0 55
0 0 55
0 0 57
0 0 58
0 0 58
0 0 58
0 0 58
0 0 58
0 0 58
0 0 58
0 0 58
0 0 53
0 0 45
0 0 45
56 83 36
70 102 30
85 121 16
89 127 0
89 127 0
89 127 0
89 127 0
89 127 0
89 127 0
89 127 0
89 127 0
89 127 0
89 127 0
89 127 0
89 127 0
89 127 0
89 127 0
89 127 0
89 127 0
89 127 0
89 127 0
89 127 0
89 127 0
89 127 0
89 127 0
89 127 0
89 127 0
89 127 0
89 127 0
89 127 0
89 127 0
89 127 0
89 127 0
89 127 0
89 127 0
89 127 0
89 127 0
70 115 40
35 99 55
0 94 57
0 93 57
0 93 57
0 92 58
0 91 59
0 90 61
0 88 64
0 88 65
0 88 65
0 90 66
0 91 67
0 91 67
0 90 67
0 91 73
0 91 74
0 90 72
0 90 71
0 92 75
0 96 80
0 96 80
0 96 80
0 96 81
0 99 84
0 102 85
0 105 87
0 107 88
0 107 88
34 110 84
56 115 74
76 121 55
90 127 0
90 127 0
90 127 0
90 127 0
90 127 0
90 127 0
90 127 0
90 127 0
90 127 0
90 127 0
90 127 0
90 127 0
90 127 0
90 127 0
90 127 0
90 127 0
90 127 0
90 127 0
90 127 0
90 127 0
90 127 0
90 127 0
90 127 0
90 127 0
90 127 0
90 127 0
90 127 0
90 127 0
90 127 0
90 127 0
90 127 0
90 127 0
90 127 0
90 127 0
90 127 0
90 127 0
90 127 0
90 127 0
90 127 0
90 127 0
90 127 0
89 127 0
90 127 0
89 127 0
89 127 0
89 127 0
89 127 0
89 127 0
89 127 0
89 127 0
89 127 0
89 127 0
89 127 0
89 127 0
89 127 0
89 128 0
89 128 0
89 128 0
89 128 0
89 128 0
89 128 0
89 128 0
89 128 0
89 128 0
89 128 0
89 128 0
89 128 0
89 128 0
89 128 0
89 128 0
89 128 0
89 128 0
89 128 0
89 128 0
89 128 0
89 128 0
89 128 0
89 128 0
89 128 0
89 128 0
89 127 0
89 127 0
89 127 0
89 127 0
89 127 0
89 127 0
89 127 0
89 127 0
89 127 0
80 116 35
0 0 84
0 0 95
75 109 61
89 127 0
89 127 0
89 127 0
70 102 71
34 52 94
0 0 93
0 0 85
0 0 84
0 0 82
0 0 81
0 0 74
0 0 69
0 0 67
0 0 66
0 0 65
0 0 58
0 0 56
0 0 56
0 0 56
0 0 56
0 0 56
0 0 56
0 0 56
0 0 55
0 0 55
0 0 54
0 0 55
0 0 57
0 0 57
0 0 57
0 0 58
0 0 58
0 0 58
0 0 57
0 0 55
47 70 48
81 116 25
90 127 0
90 127 0
90 127 0
90 127 0
90 127 0
90 127 0
90 127 0
90 127 0
90 127 0
90 127 0
90 127 0
90 127 0
90 127 0
90 127 0
90 127 0
90 127 0
90 127 0
90 127 0
90 127 0
90 127 0
90 127 0
90 127 0
90 127 0
90 127 0
90 127 0
90 127 0
90 127 0
90 127 0
90 127 0
90 127 0
90 127 0
90 127 0
90 127 0
90 127 0
90 127 0
90 127 0
90 128 0
90 127 0
90 128 0
90 128 0
71 115 40
0 93 57
0 93 57
0 93 57
0 92 58
0 92 58
0 91 58
0 90 61
0 88 64
0 91 66
0 91 67
0 91 67
0 90 66
0 90 67
0 93 75
0 94 78
0 92 75
0 90 72
0 93 77
0 95 80
0 96 81
0 98 83
0 98 83
0 99 83
0 99 84
0 100 84
0 102 85
0 104 87
0 106 88
0 108 89
0 108 88
47 113 80
71 120 63
81 124 46
90 128 0
90 128 0
90 128 0
90 128 0
90 128 0
90 128 0
90 128 0
90 128 0
90 128 0
90 128 0
90 128 0
90 128 0
90 128 0
90 128 0
90 128 0
90 128 0
90 128 0
90 128 0
90 128 0
90 128 0
90 128 0
90 128 0
90 128 0
90 128 0
90 128 0
90 128 0
90 128 0
90 128 0
90 128 0
90 128 0
90 128 0
90 128 0
90 128 0
90 128 0
90 128 0
90 128 0
90 128 0
90 128 0
90 128 0
90 128 0
90 128 0
90 128 0
90 128 0
90 128 0
90 128 0
90 128 0
90 128 0
90 128 0
90 128 0
90 128 0
90 128 0
90 128 0
90 128 0
90 128 0
90 128 0
90 128 0
90 128 0
90 128 0
90 128 0
90 128 0
90 129 0
90 129 0
90 129 0
90 129 0
90 129 0
90 129 0
90 129 0
90 129 0
90 129 0
90 129 0
90 129 0
90 128 0
90 128 0
90 128 0
90 128 0
90 128 0
90 128 0
90 128 0
90 128 0
90 128 0
90 128 0
90 128 0
90 128 0
90 128 0
86 123 39
90 128 0
64 94 55
0 0 85
0 0 91
47 70 89
56 83 84
0 0 99
0 0 96
0 0 94
0 0 94
0 0 93
0 0 85
0 0 82
0 0 76
0 0 74
0 0 73
0 0 67
0 0 64
0 0 58
0 0 56
0 0 56
0 0 56
0 0 56
0 0 56
0 0 56
0 0 56
0 0 55
0 0 55
0 0 54
0 0 54
0 0 55
0 0 57
0 0 57
0 0 57
0 0 57
0 0 58
0 0 56
35 52 52
81 117 28
90 128 0
90 128 0
90 128 0
90 128 0
90 128 0
90 128 0
90 128 0
90 128 0
90 128 0
90 128 0
90 128 0
90 128 0
90 128 0
90 128 0
90 128 0
90 128 0
90 128 0
90 128 0
90 128 0
90 128 0
90 128 0
90 128 0
90 128 0
90 128 0
90 128 0
90 128 0
90 128 0
90 128 0
90 128 0
90 128 0
90 128 0
90 128 0
90 128 0
90 128 0
90 128 0
90 128 0
91 128 0
91 128 0
91 128 0
91 128 0
91 128 0
91 128 0
91 128 0
86 125 21
64 112 44
0 93 57
0 92 57
0 92 58
0 92 58
0 92 58
0 91 58
0 93 66
0 91 67
0 91 67
0 90 66
0 90 67
0 91 68
0 92 73
0 94 78
0 94 78
0 92 75
0 94 78
0 98 83
0 98 83
0 99 83
0 99 83
0 100 84
0 100 84
0 100 84
0 100 84
0 100 84
0 101 84
0 103 86
0 106 87
0 109 89
0 109 89
0 109 89
57 116 75
77 123 56
87 127 34
91 128 0
91 128 0
91 128 0
91 128 0
91 128 0
91 128 0
91 128 0
91 128 0
91 128 0
91 128 0
91 128 0
91 128 0
91 128 0
91 129 0
91 129 0
91 129 0
91 129 0
91 129 0
91 129 0
91 129 0
91 129 0
91 129 0
91 129 0
91 129 0
91 129 0
91 129 0
91 129 0
91 129 0
91 129 0
91 129 0
91 129 0
91 129 0
91 129 0
91 129 0
91 129 0
91 129 0
91 129 0
91 129 0
91 129 0
91 129 0
91 129 0
91 129 0
91 129 0
91 129 0
91 129 0
91 129 0
91 129 0
91 129 0
91 129 0
91 129 0
91 129 0
91 129 0
91 129 0
91 129 0
91 129 0
91 129 0
91 129 0
91 129 0
91 129 0
91 129 0
91 129 0
91 129 0
91 129 0
91 129 0
91 129 0
91 130 0
91 130 0
91 129 0
91 129 0
91 129 0
91 129 0
91 129 0
91 129 0
91 129 0
91 129 0
90 129 0
90 129 0
90 129 0
90 129 0
90 129 0
90 128 0
90 128 0
90 128 0
0 0 83
0 0 93
0 0 97
0 0 96
0 0 93
0 0 93
0 0 93
0 0 93
0 0 92
0 0 90
0 0 76
0 0 71
0 0 71
0 0 71
0 0 67
0 0 55
0 0 55
0 0 55
0 0 55
0 0 53
0 0 51
0 0 51
0 0 51
0 0 49
0 0 52
0 0 54
0 0 54
0 0 54
0 0 55
0 0 57
0 0 57
0 0 57
0 0 57
0 0 55
57 84 45
90 128 0
90 128 0
90 128 0
91 128 0
91 128 0
91 128 0
91 128 0
91 128 0
91 128 0
91 128 0
91 128 0
91 128 0
91 128 0
91 128 0
91 128 0
91 128 0
91 128 0
91 128 0
91 128 0
91 128 0
91 128 0
91 128 0
91 128 0
91 128 0
91 128 0
91 128 0
91 128 0
91 128 0
91 128 0
91 128 0
91 128 0
91 128 0
91 128 0
91 128 0
91 128 0
91 128 0
91 128 0
91 128 0
91 128 0
91 128 0
91 128 0
91 128 0
91 128 0
91 128 0
91 128 0
91 128 0
91 128 0
87 125 21
35 98 54
0 92 57
0 92 57
0 92 58
0 94 60
0 95 64
0 92 66
0 91 67
0 91 66
0 90 67
0 91 68
0 91 68
0 92 72
0 94 78
0 94 78
0 94 78
0 94 78
0 96 80
0 98 82
0 99 83
0 99 84
0 100 84
0 100 84
0 100 84
0 100 84
0 100 84
0 100 84
0 100 84
0 100 84
0 102 85
0 105 87
0 107 88
0 109 89
0 109 89
57 117 75
87 127 34
91 129 0
91 129 0
91 129 0
91 129 0
91 129 0
91 129 0
91 129 0
91 129 0
91 129 0
91 129 0
91 129 0
91 129 0
91 129 0
91 129 0
91 129 0
91 129 0
91 129 0
91 129 0
91 129 0
91 129 0
91 129 0
91 129 0
91 129 0
91 129 0
91 129 0
91 129 0
91 129 0
91 129 0
91 129 0
91 129 0
91 129 0
91 129 0
91 129 0
91 129 0
91 129 0
91 129 0
91 129 0
91 129 0
91 129 0
91 129 0
91 129 0
91 129 0
91 129 0
91 129 0
91 129 0
91 129 0
91 129 0
91 130 0
91 130 0
91 130 0
91 130 0
91 130 0
91 130 0
92 130 0
92 130 0
92 130 0
92 130 0
92 130 0
92 130 0
92 130 0
92 130 0
92 130 0
92 130 0
92 130 0
92 130 0
91 130 0
91 129 0
91 129 0
91 129 0
91 129 0
91 129 0
91 129 0
91 129 0
91 129 0
91 129 0
91 129 0
91 129 0
91 129 0
91 129 0
91 129 0
77 111 54
0 0 91
0 0 91
0 0 89
0 0 89
0 0 89
0 0 88
0 0 87
0 0 86
0 0 84
0 0 74
0 0 70
0 0 69
0 0 69
0 0 65
0 0 61
0 0 56
0 0 54
0 0 54
0 0 52
0 0 51
0 0 50
0 0 49
0 0 48
0 0 47
0 0 51
0 0 52
0 0 53
0 0 54
0 0 55
0 0 57
0 0 57
0 0 56
0 0 56
57 84 45
91 128 0
91 128 0
91 128 0
91 128 0
91 128 0
91 128 0
91 128 0
91 128 0
91 128 0
91 128 0
91 128 0
91 128 0
91 128 0
91 129 0
91 129 0
91 128 0
91 129 0
91 128 0
91 129 0
91 129 0
91 129 0
91 129 0
91 129 0
91 129 0
91 129 0
91 129 0
91 129 0
91 129 0
91 129 0
91 129 0
91 129 0
91 129 0
91 129 0
91 129 0
91 129 0
91 129 0
91 129 0
91 129 0
91 129 0
91 129 0
91 129 0
91 129 0
91 129 0
91 129 0
91 129 0
91 129 0
91 129 0
91 129 0
91 129 0
87 126 21
57 107 48
0 92 57
0 92 57
0 96 63
0 97 65
0 94 64
0 92 66
0 91 67
0 91 67
0 91 68
0 91 68
0 91 68
0 91 69
0 94 77
0 94 78
0 93 77
0 93 77
0 93 77
0 94 78
0 96 80
0 98 82
0 100 84
0 100 84
0 100 84
0 100 84
0 100 84
0 100 84
0 100 84
0 100 84
0 100 84
0 100 84
0 101 85
0 107 87
0 111 90
35 113 85
83 126 47
92 129 0
92 129 0
92 129 0
92 129 0
92 129 0
92 129 0
92 129 0
92 129 0
92 129 0
92 129 0
92 129 0
92 129 0
92 129 0
92 129 0
92 129 0
92 129 0
92 129 0
92 129 0
92 129 0
92 129 0
92 129 0
92 129 0
92 129 0
92 129 0
92 129 0
92 129 0
92 129 0
92 130 0
92 130 0
92 130 0
92 130 0
92 130 0
92 130 0
92 130 0
92 130 0
92 130 0
92 130 0
92 130 0
92 130 0
92 130 0
92 130 0
92 130 0
92 130 0
92 130 0
92 130 0
92 130 0
92 130 0
92 130 0
92 130 0
92 130 0
92 130 0
92 130 0
92 130 0
92 130 0
92 130 0
92 130 0
92 130 0
92 130 0
92 130 0
92 130 0
92 130 0
92 131 0
92 131 0
92 131 0
92 130 0
92 130 0
92 130 0
92 130 0
92 130 0
91 130 0
91 130 0
91 130 0
91 129 0
91 129 0
91 129 0
91 129 0
91 129 0
91 129 0
87 124 34
35 53 79
0 0 82
0 0 87
0 0 87
0 0 87
0 0 85
0 0 85
0 0 85
0 0 80
0 0 72
0 0 72
0 0 69
0 0 69
0 0 64
0 0 62
0 0 61
0 0 58
0 0 53
0 0 53
0 0 51
0 0 49
0 0 48
0 0 47
0 0 47
0 0 48
0 0 50
0 0 52
0 0 52
0 0 52
0 0 54
0 0 56
0 0 55
0 0 58
57 84 50
91 129 0
91 129 0
91 129 0
91 129 0
91 129 0
91 129 0
91 129 0
91 129 0
91 129 0
91 129 0
91 129 0
91 129 0
91 129 0
91 129 0
91 129 0
91 129 0
91 129 0
91 129 0
91 129 0
91 129 0
91 129 0
91 129 0
91 129 0
91 129 0
91 129 0
91 129 0
91 129 0
91 129 0
91 129 0
91 129 0
91 129 0
92 129 0
92 129 0
92 129 0
92 129 0
92 129 0
92 129 0
92 129 0
92 129 0
92 129 0
92 129 0
92 129 0
92 129 0
92 129 0
92 129 0
92 129 0
92 129 0
92 129 0
92 129 0
92 129 0
92 129 0
92 129 0
58 107 48
0 93 58
0 99 65
0 98 65
0 94 64
0 94 64
0 92 66
0 91 67
0 91 67
0 91 68
0 91 68
0 90 68
0 91 69
0 93 75
0 93 77
0 93 77
0 93 77
0 95 78
0 96 80
0 97 81
0 99 83
0 99 83
0 100 84
0 100 84
0 100 84
0 100 84
0 100 84
0 100 84
0 100 84
0 100 84
0 100 84
0 100 83
0 103 85
0 110 89
0 111 90
72 122 64
92 129 0
92 129 0
92 129 0
92 130 0
92 130 0
92 130 0
92 130 0
92 130 0
92 130 0
92 130 0
92 130 0
92 130 0
92 130 0
92 130 0
92 130 0
92 130 0
92 130 0
92 130 0
92 130 0
92 130 0
92 130 0
92 130 0
92 130 0
92 130 0
92 130 0
92 130 0
92 130 0
92 130 0
92 130 0
92 130 0
92 130 0
92 130 0
92 130 0
92 130 0
92 130 0
92 130 0
92 130 0
92 130 0
92 130 0
92 130 0
92 130 0
92 130 0
92 130 0
92 130 0
92 130 0
92 130 0
92 130 0
92 130 0
92 130 0
92 130 0
92 130 0
92 131 0
92 131 0
93 131 0
93 131 0
93 131 0
93 131 0
93 131 0
93 131 0
93 131 0
93 131 0
93 131 0
93 131 0
92 130 0
92 130 0
92 130 0
92 130 0
92 130 0
92 130 0
92 130 0
92 130 0
92 130 0
92 130 0
92 130 0
92 130 0
92 130 0
92 130 0
65 95 66
0 0 82
0 0 80
0 0 76
0 0 75
0 0 82
0 0 85
0 0 84
0 0 77
0 0 72
0 0 72
0 0 71
0 0 69
0 0 64
0 0 62
0 0 63
0 0 59
0 0 56
0 0 54
0 0 49
0 0 44
0 0 45
0 0 47
0 0 46
0 0 48
0 0 48
0 0 50
0 0 52
0 0 51
0 0 50
0 0 52
0 0 55
0 0 56
57 84 49
91 129 0
91 129 0
91 129 0
91 129 0
91 129 0
92 129 0
92 129 0
92 129 0
92 129 0
92 129 0
92 129 0
92 129 0
92 129 0
92 129 0
92 129 0
92 129 0
92 129 0
92 129 0
92 129 0
92 129 0
92 129 0
92 129 0
92 129 0
92 129 0
92 129 0
92 129 0
92 129 0
92 129 0
92 129 0
92 129 0
92 129 0
92 129 0
92 129 0
92 129 0
92 129 0
92 129 0
92 129 0
92 129 0
92 129 0
92 129 0
92 129 0
92 129 0
92 129 0
92 129 0
92 129 0
92 129 0
92 129 0
92 129 0
92 129 0
92 129 0
92 129 0
92 129 0
92 129 0
92 129 0
72 118 45
0 100 66
0 100 66
0 94 64
0 94 64
0 93 64
0 92 66
0 91 67
0 91 68
0 91 68
0 90 68
0 90 68
0 90 68
0 92 75
0 95 79
0 97 81
0 97 81
0 97 81
0 97 81
0 98 83
0 99 83
0 99 83
0 99 83
0 100 84
0 100 84
0 101 84
0 101 84
0 101 84
0 101 84
0 100 83
0 100 83
0 100 83
0 103 85
0 109 89
0 109 89
58 118 76
88 128 35
92 130 0
92 130 0
92 130 0
92 130 0
92 130 0
92 130 0
92 130 0
92 130 0
92 130 0
92 130 0
92 130 0
92 130 0
92 130 0
92 130 0
92 130 0
92 130 0
92 130 0
92 130 0
92 130 0
92 130 0
92 130 0
92 130 0
92 130 0
92 130 0
93 130 0
93 130 0
93 130 0
93 130 0
93 130 0
93 130 0
93 130 0
93 130 0
93 130 0
93 130 0
93 130 0
93 130 0
93 130 0
93 130 0
93 130 0
93 130 0
93 131 0
93 131 0
93 131 0
93 131 0
93 131 0
93 131 0
93 131 0
93 131 0
93 131 0
93 131 0
93 131 0
93 131 0
93 131 0
93 131 0
93 131 0
93 131 0
93 131 0
93 131 0
93 131 0
93 131 0
93 131 0
92 130 0
92 130 0
92 130 0
92 130 0
92 130 0
92 130 0
92 130 0
92 130 0
92 130 0
92 130 0
92 130 0
92 130 0
92 130 0
83 119 44
0 0 85
0 0 79
0 0 77
0 0 75
0 0 72
0 0 71
0 0 71
0 0 73
0 0 72
0 0 72
0 0 72
0 0 70
0 0 65
0 0 65
0 0 61
0 0 55
0 0 55
0 0 51
65 95 35
78 112 27
65 95 35
48 71 43
0 0 48
0 0 46
0 0 47
0 0 47
0 0 47
0 0 50
0 0 50
0 0 50
0 0 52
0 0 55
35 53 52
92 129 0
92 129 0
92 129 0
92 129 0
92 129 0
92 129 0
92 129 0
92 129 0
92 129 0
92 129 0
92 129 0
92 129 0
92 129 0
92 129 0
92 129 0
92 129 0
92 129 0
92 129 0
92 129 0
92 129 0
92 129 0
92 129 0
92 129 0
92 129 0
92 129 0
92 129 0
92 129 0
92 129 0
92 129 0
92 129 0
92 129 0
92 129 0
92 129 0
92 129 0
92 129 0
92 129 0
92 129 0
92 129 0
92 129 0
92 129 0
92 129 0
92 129 0
92 129 0
92 129 0
92 129 0
92 129 0
92 129 0
92 129 0
92 129 0
92 129 0
92 129 0
92 129 0
92 129 0
92 129 0
92 129 0
92 129 0
36 104 63
0 100 66
0 94 64
0 94 64
0 93 64
0 93 64
0 92 66
0 91 68
0 90 68
0 90 68
0 90 68
0 95 75
0 97 78
0 95 77
0 96 79
0 97 80
0 98 81
0 98 81
0 98 82
0 99 83
0 99 83
0 99 83
0 99 83
0 99 83
0 99 83
0 100 84
0 100 84
0 101 84
0 100 83
0 100 83
0 100 83
0 100 83
0 103 85
0 109 89
0 109 89
36 112 85
78 124 56
93 130 0
93 130 0
93 130 0
93 130 0
93 130 0
93 130 0
93 130 0
93 130 0
93 130 0
93 130 0
93 130 0
93 130 0
93 130 0
93 130 0
93 130 0
93 130 0
93 130 0
93 130 0
93 130 0
93 130 0
93 130 0
93 130 0
93 130 0
93 130 0
93 130 0
93 130 0
93 130 0
93 131 0
93 130 0
93 131 0
93 131 0
93 131 0
93 131 0
93 131 0
93 131 0
93 131 0
93 131 0
93 131 0
93 131 0
93 131 0
93 131 0
93 131 0
93 131 0
93 131 0
93 131 0
93 131 0
93 131 0
93 131 0
93 131 0
93 131 0
93 131 0
93 131 0
93 131 0
93 131 0
93 131 0
93 131 0
93 131 0
93 132 0
94 132 0
94 132 0
93 131 0
93 131 0
93 131 0
93 131 0
92 130 0
92 130 0
92 130 0
92 130 0
92 130 0
92 130 0
92 130 0
92 130 0
92 130 0
58 85 70
0 0 80
0 0 74
0 0 72
0 0 67
0 0 65
0 0 66
0 0 66
0 0 68
0 0 73
0 0 73
0 0 71
0 0 65
0 0 62
0 0 56
0 0 54
0 0 51
65 95 36
88 124 17
92 130 0
92 130 0
92 130 0
88 124 21
35 53 47
0 0 46
0 0 46
0 0 46
0 0 47
0 0 50
0 0 49
0 0 48
0 0 49
0 0 55
58 85 48
92 129 0
92 129 0
92 129 0
92 129 0
92 129 0
92 129 0
92 129 0
92 129 0
92 129 0
92 129 0
92 129 0
92 129 0
92 129 0
92 129 0
92 129 0
92 129 0
92 129 0
92 129 0
92 129 0
92 129 0
92 129 0
92 129 0
92 129 0
92 129 0
92 129 0
92 129 0
92 129 0
92 129 0
92 129 0
92 129 0
92 129 0
92 129 0
92 129 0
92 129 0
92 129 0
92 129 0
92 129 0
92 129 0
92 129 0
92 129 0
92 130 0
92 129 0
92 130 0
92 129 0
92 130 0
92 130 0
92 130 0
92 130 0
92 130 0
92 130 0
92 130 0
92 130 0
92 130 0
92 130 0
92 130 0
93 130 0
66 115 51
0 100 66
0 96 65
0 94 64
0 93 64
0 93 64
0 93 65
0 92 67
0 90 68
0 93 72
0 98 78
0 99 79
0 96 78
0 95 77
0 95 78
0 95 78
0 95 78
0 96 80
0 97 81
0 99 83
0 99 83
0 99 83
0 99 83
0 99 83
0 99 83
0 100 84
0 100 84
0 100 83
0 102 85
0 101 84
0 101 83
0 100 83
0 100 83
0 103 85
0 109 89
0 109 89
0 107 88
58 118 76
89 128 35
93 130 0
93 130 0
93 130 0
93 130 0
93 130 0
93 130 0
93 130 0
93 130 0
93 130 0
93 130 0
93 130 0
93 130 0
93 130 0
93 130 0
93 130 0
93 131 0
93 131 0
93 131 0
93 131 0
93 131 0
93 131 0
93 131 0
93 131 0
93 131 0
93 131 0
93 131 0
93 131 0
93 131 0
93 131 0
93 131 0
93 131 0
93 131 0
93 131 0
93 131 0
93 131 0
93 131 0
93 131 0
93 131 0
93 131 0
93 131 0
93 131 0
93 131 0
93 131 0
93 131 0
93 131 0
93 131 0
93 131 0
94 131 0
94 131 0
94 131 0
94 132 0
94 132 0
94 132 0
94 132 0
94 132 0
94 132 0
94 132 0
94 132 0
93 131 0
93 131 0
93 131 0
93 131 0
93 131 0
93 131 0
93 131 0
93 131 0
93 130 0
93 130 0
93 130 0
92 130 0
92 130 0
58 85 70
0 0 70
0 0 66
0 0 65
0 0 61
0 0 55
0 0 60
0 0 66
0 0 64
0 0 73
0 0 74
0 0 62
0 0 56
0 0 53
0 0 51
66 96 37
88 124 17
92 130 0
92 130 0
92 130 0
92 130 0
92 130 0
92 130 0
92 130 0
88 124 16
78 112 27
66 95 35
58 85 38
0 0 45
0 0 45
0 0 44
0 0 43
0 0 57
58 85 49
92 130 0
92 130 0
92 130 0
92 130 0
92 130 0
92 130 0
92 130 0
92 130 0
92 130 0
92 130 0
92 130 0
92 130 0
92 130 0
92 130 0
92 130 0
92 130 0
92 130 0
92 130 0
92 130 0
92 130 0
92 130 0
92 130 0
92 130 0
92 130 0
92 130 0
92 130 0
92 130 0
92 130 0
92 130 0
92 130 0
92 130 0
92 130 0
92 130 0
92 130 0
92 130 0
92 130 0
92 130 0
92 130 0
92 130 0
92 130 0
92 130 0
93 130 0
93 130 0
93 130 0
93 130 0
93 130 0
93 130 0
93 130 0
93 130 0
93 130 0
93 130 0
93 130 0
93 130 0
93 130 0
93 130 0
93 130 0
88 127 25
0 101 66
0 97 65
0 94 64
0 94 64
0 93 65
0 93 65
0 93 65
0 97 73
0 99 79
0 99 79
0 99 79
0 95 78
0 95 78
0 95 78
0 95 78
0 95 78
0 95 78
0 98 81
0 98 82
0 99 84
0 100 84
0 100 84
0 100 84
0 100 84
0 100 84
0 99 83
0 99 82
0 100 83
0 103 86
0 103 86
0 103 86
0 102 85
0 102 85
0 104 86
0 107 89
0 108 89
0 108 89
36 112 85
73 123 64
93 130 0
93 130 0
93 130 0
93 130 0
93 131 0
93 131 0
93 131 0
93 131 0
93 131 0
93 131 0
93 131 0
93 131 0
93 131 0
93 131 0
93 131 0
93 131 0
93 131 0
93 131 0
93 131 0
93 131 0
93 131 0
93 131 0
93 131 0
93 131 0
93 131 0
93 131 0
93 131 0
93 131 0
93 131 0
93 131 0
93 131 0
93 131 0
93 131 0
94 131 0
94 131 0
94 131 0
94 131 0
94 131 0
94 131 0
94 131 0
94 131 0
94 131 0
94 131 0
94 131 0
94 132 0
94 132 0
94 132 0
94 132 0
94 132 0
94 132 0
94 132 0
94 132 0
94 132 0
94 132 0
94 132 0
94 132 0
94 132 0
93 131 0
93 131 0
93 131 0
93 131 0
93 131 0
93 131 0
93 131 0
93 131 0
93 131 0
93 131 0
93 131 0
93 131 0
93 130 0
49 72 71
0 0 67
0 0 66
0 0 64
0 0 61
0 0 55
0 0 53
0 0 68
0 0 60
0 0 73
0 0 82
0 0 61
0 0 51
66 96 37
88 125 17
92 130 0
92 130 0
92 130 0
92 130 0
92 130 0
92 130 0
92 130 0
92 130 0
92 130 0
92 130 0
92 130 0
92 130 0
92 130 0
92 130 0
88 124 16
72 104 29
36 53 39
0 0 52
58 85 45
92 130 0
92 130 0
92 130 0
92 130 0
92 130 0
92 130 0
92 130 0
92 130 0
92 130 0
92 130 0
92 130 0
92 130 0
92 130 0
92 130 0
92 130 0
92 130 0
92 130 0
92 130 0
92 130 0
92 130 0
92 130 0
92 130 0
92 130 0
92 130 0
92 130 0
92 130 0
93 130 0
93 130 0
93 130 0
93 130 0
93 130 0
93 130 0
93 130 0
93 130 0
93 130 0
93 130 0
93 130 0
93 130 0
93 130 0
93 130 0
93 130 0
93 130 0
93 130 0
93 130 0
93 130 0
93 130 0
93 130 0
93 130 0
93 130 0
93 130 0
93 130 0
93 130 0
93 130 0
93 130 0
93 130 0
93 130 0
93 130 0
58 112 56
0 99 66
0 94 64
0 94 64
0 94 65
0 93 65
0 95 67
0 100 72
0 100 78
0 99 79
0 98 79
0 95 78
0 95 78
0 95 78
0 95 78
0 99 82
0 102 85
0 99 82
0 98 82
0 97 82
0 98 82
0 99 83
0 100 84
0 100 84
0 100 84
0 99 83
0 99 83
0 99 82
0 100 83
0 103 86
0 103 86
0 103 86
0 103 86
0 103 86
0 103 86
0 106 88
0 108 89
0 108 89
0 110 90
49 117 82
84 127 48
93 131 0
93 131 0
93 131 0
93 131 0
93 131 0
93 131 0
93 131 0
93 131 0
93 131 0
93 131 0
93 131 0
93 131 0
94 131 0
94 131 0
94 131 0
94 131 0
94 131 0
94 131 0
94 131 0
94 131 0
94 131 0
94 131 0
94 131 0
94 131 0
94 131 0
94 131 0
94 131 0
94 131 0
94 131 0
94 131 0
94 131 0
94 131 0
94 131 0
94 131 0
94 131 0
94 131 0
94 131 0
94 132 0
94 132 0
94 132 0
94 132 0
94 132 0
94 132 0
94 132 0
94 132 0
94 132 0
94 132 0
94 132 0
94 132 0
94 132 0
94 132 0
94 132 0
94 132 0
94 132 0
94 132 0
93 131 0
93 131 0
93 131 0
93 131 0
93 131 0
93 131 0
93 131 0
93 131 0
93 131 0
93 131 0
93 131 0
93 131 0
93 131 0
0 0 76
0 0 66
0 0 64
0 0 64
0 0 59
0 0 54
0 0 53
0 0 62
0 0 48
0 0 67
0 0 83
0 0 76
88 125 18
93 130 0
93 130 0
93 130 0
93 130 0
93 130 0
93 130 0
93 130 0
93 130 0
93 130 0
93 130 0
93 130 0
93 130 0
92 130 0
92 130 0
92 130 0
92 130 0
92 130 0
92 130 0
58 85 55
0 0 55
36 53 51
92 130 0
92 130 0
92 130 0
92 130 0
92 130 0
92 130 0
92 130 0
92 130 0
92 130 0
92 130 0
92 130 0
92 130 0
93 130 0
93 130 0
93 130 0
93 130 0
93 130 0
93 130 0
93 130 0
93 130 0
93 130 0
93 130 0
93 130 0
93 130 0
93 130 0
93 130 0
93 130 0
93 130 0
93 130 0
93 130 0
93 130 0
93 130 0
93 130 0
93 130 0
93 130 0
93 130 0
93 130 0
93 130 0
93 130 0
93 130 0
93 130 0
93 130 0
93 130 0
93 130 0
93 130 0
93 130 0
93 130 0
93 130 0
93 130 0
93 130 0
93 130 0
93 130 0
93 130 0
93 130 0
93 130 0
93 130 0
93 130 0
84 125 34
0 99 66
0 94 64
0 94 65
0 94 65
0 95 66
0 97 69
0 100 71
0 101 76
0 100 79
0 97 78
0 95 78
0 95 78
0 99 82
0 103 85
0 104 86
0 99 83
0 98 82
0 98 82
0 97 82
0 97 82
0 97 82
0 98 82
0 99 83
0 99 83
0 99 83
0 99 83
0 99 83
0 98 82
0 100 83
0 103 86
0 103 86
0 103 86
0 103 86
0 103 86
0 103 86
0 104 87
0 106 88
0 109 89
0 110 90
0 112 91
67 122 71
94 131 0
94 131 0
94 131 0
94 131 0
94 131 0
94 131 0
94 131 0
94 131 0
94 131 0
94 131 0
94 131 0
94 131 0
94 131 0
94 131 0
94 131 0
94 131 0
94 131 0
94 131 0
94 131 0
94 131 0
94 131 0
94 131 0
94 131 0
94 131 0
94 131 0
94 131 0
94 131 0
94 131 0
94 131 0
94 131 0
94 131 0
94 132 0
94 132 0
94 132 0
94 132 0
94 132 0
94 132 0
94 132 0
94 132 0
94 132 0
94 132 0
94 132 0
94 132 0
94 132 0
94 132 0
94 132 0
94 132 0
94 132 0
94 132 0
94 132 0
94 132 0
94 132 0
94 132 0
94 132 0
93 131 0
93 131 0
93 131 0
93 131 0
93 131 0
93 131 0
93 131 0
93 131 0
93 131 0
93 131 0
93 131 0
93 131 0
79 113 49
0 0 75
0 0 64
0 0 64
0 0 63
0 0 58
0 0 53
0 0 49
0 0 46
0 0 56
0 0 55
0 0 78
0 0 82
88 125 30
93 130 0
93 130 0
93 130 0
93 130 0
93 130 0
93 130 0
93 130 0
93 130 0
93 130 0
93 130 0
93 130 0
93 130 0
93 130 0
93 130 0
93 130 0
93 130 0
93 130 0
93 130 0
58 85 56
0 0 54
0 0 54
93 130 0
93 130 0
93 130 0
93 130 0
93 130 0
93 130 0
93 130 0
93 130 0
93 130 0
93 130 0
93 130 0
93 130 0
93 130 0
93 130 0
93 130 0
93 130 0
93 130 0
93 130 0
93 130 0
93 130 0
93 130 0
93 130 0
93 130 0
93 130 0
93 130 0
93 130 0
93 130 0
93 130 0
93 130 0
93 130 0
93 130 0
93 130 0
93 130 0
93 130 0
93 130 0
93 130 0
93 130 0
93 130 0
93 130 0
93 130 0
93 130 0
93 130 0
93 130 0
93 130 0
93 130 0
93 130 0
93 130 0
93 130 0
93 130 0
93 130 0
93 130 0
93 130 0
93 130 0
93 130 0
93 130 0
93 130 0
93 130 0
93 130 0
49 109 60
0 94 64
0 94 65
0 94 65
0 97 68
0 97 69
0 101 72
0 102 73
0 100 78
0 97 79
0 100 83
0 103 85
0 104 86
0 104 86
0 99 83
0 98 82
0 98 82
0 98 82
0 97 82
0 97 82
0 97 82
0 97 82
0 96 80
0 95 79
0 98 82
0 99 83
0 99 83
0 99 82
0 98 82
0 100 83
0 103 85
0 103 86
0 103 86
0 103 86
0 103 86
0 104 87
0 104 87
0 104 87
0 107 88
0 109 90
0 113 91
36 115 87
79 126 57
94 131 0
94 131 0
94 131 0
94 131 0
94 131 0
94 131 0
94 131 0
94 131 0
94 131 0
94 131 0
94 131 0
94 131 0
94 131 0
94 131 0
94 131 0
94 131 0
94 131 0
94 131 0
94 131 0
94 131 0
94 131 0
94 131 0
94 131 0
94 131 0
94 132 0
94 132 0
94 132 0
94 132 0
94 132 0
94 132 0
94 132 0
94 132 0
94 132 0
94 132 0
94 132 0
94 132 0
94 132 0
94 132 0
94 132 0
94 132 0
94 132 0
94 132 0
94 132 0
94 132 0
94 132 0
94 132 0
95 132 0
95 132 0
95 132 0
95 132 0
95 132 0
95 133 0
94 131 0
93 131 0
93 131 0
93 131 0
93 131 0
93 131 0
93 131 0
93 131 0
93 131 0
93 131 0
93 131 0
89 126 30
36 53 74
0 0 70
0 0 63
0 0 63
0 0 63
0 0 57
0 0 49
0 0 49
0 0 49
0 0 51
73 105 36
79 112 47
0 0 82
66 96 62
93 130 0
93 130 0
93 130 0
93 130 0
93 130 0
93 130 0
93 130 0
93 130 0
93 130 0
93 130 0
93 130 0
93 130 0
93 130 0
93 130 0
93 130 0
93 130 0
93 130 0
88 125 31
0 0 66
0 0 57
36 53 54
93 130 0
93 130 0
93 130 0
93 130 0
93 130 0
93 130 0
93 130 0
93 130 0
93 130 0
93 130 0
93 130 0
93 130 0
93 130 0
93 130 0
93 130 0
93 130 0
93 130 0
93 130 0
93 130 0
93 130 0
93 130 0
93 130 0
93 130 0
93 130 0
93 130 0
93 130 0
93 130 0
93 130 0
93 130 0
93 130 0
93 130 0
93 130 0
93 130 0
93 130 0
93 130 0
93 130 0
93 130 0
93 130 0
93 130 0
93 130 0
93 130 0
93 130 0
93 130 0
93 130 0
93 130 0
93 130 0
93 130 0
93 130 0
93 130 0
93 130 0
93 130 0
93 130 0
93 130 0
93 130 0
93 130 0
93 130 0
93 130 0
93 130 0
79 122 41
0 96 65
0 94 65
0 97 68
0 97 69
0 98 70
0 101 72
0 102 74
0 102 78
0 104 85
0 105 86
0 105 87
0 104 86
0 99 83
0 98 82
0 98 82
0 98 82
0 98 82
0 97 82
0 97 82
0 97 81
0 95 79
0 95 79
0 95 79
0 95 79
0 98 82
0 99 83
0 99 83
0 98 82
0 98 82
0 99 83
0 102 85
0 103 87
0 103 87
0 103 87
0 103 87
0 104 87
0 104 87
0 104 87
0 105 87
0 107 89
0 112 91
0 113 91
49 118 82
90 129 35
94 131 0
94 131 0
94 131 0
94 131 0
94 131 0
94 131 0
94 131 0
94 131 0
94 131 0
94 131 0
94 131 0
94 131 0
94 131 0
94 131 0
94 131 0
94 131 0
94 131 0
94 131 0
94 132 0
94 132 0
94 132 0
94 132 0
94 132 0
94 132 0
94 132 0
94 132 0
94 132 0
94 132 0
94 132 0
94 132 0
94 132 0
94 132 0
94 132 0
94 132 0
94 132 0
94 132 0
94 132 0
94 132 0
95 132 0
95 132 0
95 132 0
95 132 0
95 132 0
95 132 0
95 132 0
95 132 0
95 132 0
95 133 0
95 133 0
95 133 0
94 131 0
94 131 0
94 131 0
94 131 0
93 131 0
93 131 0
93 131 0
93 131 0
93 131 0
93 131 0
93 131 0
59 86 65
0 0 75
0 0 63
0 0 60
0 0 55
0 0 51
0 0 46
0 0 46
0 0 47
36 53 47
84 119 26
93 131 0
93 130 0
66 96 48
49 72 55
93 130 0
93 130 0
93 130 0
93 130 0
93 130 0
93 130 0
93 130 0
93 130 0
93 130 0
93 130 0
93 130 0
93 130 0
93 130 0
93 130 0
93 130 0
93 130 0
93 130 0
66 96 52
0 0 56
0 0 59
78 112 36
93 130 0
93 130 0
93 130 0
93 130 0
93 130 0
93 130 0
93 130 0
93 130 0
93 130 0
93 130 0
93 130 0
93 130 0
93 130 0
93 130 0
93 130 0
93 130 0
93 130 0
93 130 0
93 130 0
93 130 0
93 130 0
93 130 0
93 130 0
93 130 0
93 130 0
93 130 0
93 130 0
93 130 0
93 130 0
93 130 0
93 130 0
93 130 0
93 130 0
93 130 0
93 130 0
93 130 0
93 130 0
93 130 0
93 130 0
93 130 0
93 130 0
93 130 0
93 130 0
93 130 0
93 130 0
93 130 0
93 130 0
93 130 0
93 130 0
93 130 0
93 130 0
93 130 0
93 130 0
93 130 0
93 130 0
93 130 0
93 130 0
93 130 0
93 130 0
36 101 62
0 97 67
0 98 69
0 98 69
0 98 70
0 101 73
0 104 77
0 105 84
0 104 85
0 104 85
0 104 85
0 99 82
0 98 82
0 98 82
0 98 82
0 98 82
0 98 82
0 98 82
0 97 81
0 95 79
0 94 79
0 94 79
0 94 79
0 94 78
0 95 79
0 98 82
0 99 83
0 99 83
0 98 82
0 98 82
0 98 82
0 97 82
0 98 82
0 100 83
0 101 85
0 102 85
0 104 87
0 104 87
0 104 87
0 103 86
0 103 86
0 109 89
0 114 92
0 113 92
74 124 65
94 131 0
94 131 0
94 131 0
94 131 0
94 131 0
94 131 0
94 131 0
94 131 0
94 131 0
94 131 0
94 131 0
94 131 0
94 131 0
94 132 0
94 132 0
94 132 0
94 132 0
94 132 0
94 132 0
94 132 0
94 132 0
94 132 0
94 132 0
94 132 0
94 132 0
94 132 0
94 132 0
94 132 0
94 132 0
95 132 0
95 132 0
95 132 0
95 132 0
95 132 0
95 132 0
95 132 0
95 132 0
95 132 0
95 132 0
95 132 0
95 132 0
95 132 0
95 132 0
95 132 0
95 132 0
95 133 0
95 133 0
95 133 0
95 133 0
94 131 0
94 131 0
94 131 0
94 131 0
94 131 0
94 131 0
94 131 0
93 131 0
93 131 0
93 131 0
79 113 48
0 0 75
0 0 72
0 0 60
0 0 51
0 0 49
0 0 49
0 0 49
0 0 49
49 72 44
89 125 19
93 131 0
93 131 0
93 131 0
93 131 0
79 113 38
93 130 0
93 130 0
93 130 0
93 130 0
93 130 0
93 130 0
93 130 0
93 130 0
93 130 0
93 130 0
93 130 0
93 130 0
93 130 0
93 130 0
93 130 0
93 130 0
88 125 21
0 0 59
0 0 55
58 85 49
93 130 0
93 130 0
93 130 0
93 130 0
93 130 0
93 130 0
93 130 0
93 130 0
93 130 0
93 130 0
93 130 0
93 130 0
93 130 0
93 130 0
93 130 0
93 130 0
93 130 0
93 130 0
93 130 0
93 130 0
93 130 0
93 130 0
93 130 0
93 130 0
93 130 0
93 130 0
93 130 0
93 130 0
93 130 0
93 130 0
93 130 0
93 130 0
93 130 0
93 130 0
93 130 0
93 130 0
93 130 0
93 130 0
93 130 0
93 130 0
93 130 0
93 130 0
93 130 0
93 130 0
93 130 0
93 130 0
93 130 0
93 130 0
93 130 0
93 130 0
93 130 0
93 130 0
93 130 0
93 130 0
93 130 0
93 130 0
93 130 0
93 130 0
93 130 0
93 130 0
73 118 47
0 98 69
0 98 69
0 98 70
0 98 71
0 102 75
0 106 83
0 106 84
0 104 85
0 104 85
0 99 81
0 96 79
0 97 80
0 98 82
0 98 82
0 98 82
0 98 82
0 96 80
0 95 79
0 94 79
0 94 79
0 94 79
0 94 79
0 94 79
0 94 78
0 95 79
0 98 82
0 99 83
0 98 82
0 98 82
0 98 82
0 97 82
0 97 82
0 97 82
0 98 82
0 98 82
0 98 82
0 100 83
0 102 85
0 101 84
0 101 84
0 101 84
0 105 87
0 111 91
0 113 92
36 116 87
74 124 65
94 131 0
94 131 0
94 131 0
94 131 0
94 131 0
94 131 0
94 131 0
94 131 0
94 131 0
94 132 0
94 132 0
94 132 0
94 132 0
94 132 0
94 132 0
94 132 0
94 132 0
94 132 0
94 132 0
94 132 0
95 132 0
95 132 0
95 132 0
95 132 0
95 132 0
95 132 0
95 132 0
95 132 0
95 132 0
95 132 0
95 132 0
95 132 0
95 132 0
95 132 0
95 132 0
95 132 0
95 132 0
95 132 0
95 132 0
95 132 0
95 133 0
95 133 0
95 133 0
95 133 0
95 133 0
95 133 0
95 133 0
94 131 0
94 131 0
94 131 0
94 131 0
94 131 0
94 131 0
94 131 0
94 131 0
94 131 0
94 131 0
67 96 58
0 0 74
0 0 64
0 0 52
0 0 50
0 0 50
0 0 49
0 0 49
66 96 38
93 131 0
93 131 0
93 131 0
93 131 0
93 131 0
93 131 0
93 131 0
93 130 0
93 131 0
93 130 0
93 130 0
93 130 0
93 130 0
93 130 0
93 130 0
93 130 0
93 130 0
93 130 0
93 130 0
93 130 0
93 130 0
93 130 0
93 130 0
93 130 0
89 125 21
79 112 34
89 125 22
93 130 0
93 130 0
93 130 0
93 130 0
93 130 0
93 130 0
93 130 0
93 130 0
93 130 0
93 130 0
93 130 0
93 130 0
93 130 0
93 130 0
93 130 0
93 130 0
93 130 0
93 130 0
93 130 0
93 130 0
93 130 0
93 130 0
93 130 0
93 130 0
93 130 0
93 130 0
93 130 0
93 130 0
93 130 0
93 130 0
93 130 0
93 130 0
93 130 0
93 130 0
93 130 0
93 130 0
93 130 0
93 130 0
93 130 0
93 130 0
93 130 0
93 130 0
93 130 0
93 130 0
93 130 0
93 130 0
93 130 0
93 130 0
93 130 0
93 130 0
93 130 0
93 130 0
93 130 0
93 130 0
93 130 0
93 130 0
93 130 0
93 130 0
93 130 0
94 130 0
79 122 44
0 98 71
0 98 71
0 99 71
0 99 72
0 105 81
0 107 84
0 106 84
0 105 85
0 101 83
0 97 79
0 96 79
0 96 79
0 96 79
0 97 81
0 97 82
0 95 79
0 94 79
0 94 79
0 94 79
0 94 79
0 94 79
0 94 79
0 94 79
0 94 78
0 94 78
0 95 79
0 97 81
0 99 83
0 98 82
0 98 82
0 97 82
0 97 82
0 97 82
0 97 82
0 98 82
0 98 82
0 98 82
0 100 84
0 103 86
0 102 85
0 101 85
0 101 84
0 103 85
0 109 89
0 112 91
0 113 92
36 116 88
80 126 58
94 131 0
94 131 0
94 131 0
94 131 0
94 132 0
94 132 0
94 132 0
94 132 0
94 132 0
94 132 0
94 132 0
95 132 0
95 132 0
95 132 0
95 132 0
95 132 0
95 132 0
95 132 0
95 132 0
95 132 0
95 132 0
95 132 0
95 132 0
95 132 0
95 132 0
95 132 0
95 132 0
95 132 0
95 132 0
95 132 0
95 132 0
95 132 0
95 132 0
95 132 0
95 132 0
95 132 0
95 132 0
95 133 0
95 133 0
95 133 0
95 133 0
95 133 0
95 133 0
95 133 0
95 133 0
94 131 0
94 131 0
94 131 0
94 131 0
94 131 0
94 131 0
94 131 0
94 131 0
94 131 0
94 131 0
84 120 38
0 0 73
0 0 54
0 0 50
0 0 49
0 0 49
36 53 47
84 120 25
93 131 0
93 131 0
93 131 0
93 131 0
93 131 0
93 131 0
93 131 0
93 131 0
93 131 0
93 130 0
93 130 0
93 130 0
93 130 0
93 130 0
93 130 0
93 130 0
93 130 0
93 130 0
93 130 0
93 130 0
93 130 0
93 130 0
93 130 0
93 130 0
93 130 0
93 130 0
93 130 0
93 130 0
93 130 0
93 130 0
93 130 0
93 130 0
93 130 0
93 130 0
93 130 0
93 130 0
93 130 0
93 130 0
93 130 0
93 130 0
93 130 0
93 130 0
93 130 0
93 130 0
93 130 0
93 130 0
93 130 0
93 130 0
93 130 0
93 130 0
93 130 0
93 130 0
93 130 0
93 130 0
93 130 0
93 130 0
93 130 0
93 130 0
93 130 0
93 130 0
93 130 0
93 130 0
93 130 0
93 130 0
93 130 0
93 130 0
93 130 0
93 130 0
93 130 0
93 130 0
93 130 0
93 130 0
93 130 0
93 130 0
93 130 0
93 130 0
93 130 0
93 130 0
93 130 0
93 130 0
93 130 0
93 130 0
93 130 0
93 130 0
93 130 0
93 130 0
93 130 0
94 130 0
73 119 50
0 99 72
0 99 72
0 99 73
0 104 79
0 107 84
0 107 84
0 106 84
0 102 83
0 97 80
0 97 79
0 96 79
0 96 79
0 96 79
0 95 78
0 92 75
0 93 77
0 93 77
0 94 78
0 94 78
0 94 79
0 94 78
0 94 78
0 94 79
0 94 78
0 94 78
0 94 78
0 94 78
0 97 81
0 98 82
0 98 82
0 97 82
0 97 82
0 97 82
0 98 82
0 98 82
0 98 82
0 98 82
0 98 83
0 100 84
0 103 86
0 103 86
0 103 86
0 102 85
0 102 85
0 108 89
0 110 90
0 111 91
0 113 92
50 118 83
85 128 48
94 131 0
94 132 0
94 132 0
94 132 0
95 132 0
95 132 0
95 132 0
95 132 0
95 132 0
95 132 0
95 132 0
95 132 0
95 132 0
95 132 0
95 132 0
95 132 0
95 132 0
95 132 0
95 132 0
95 132 0
95 132 0
95 132 0
95 132 0
95 132 0
95 132 0
95 132 0
95 132 0
95 132 0
95 132 0
95 132 0
95 132 0
95 132 0
95 132 0
95 132 0
95 133 0
95 133 0
95 133 0
95 133 0
95 133 0
95 133 0
95 133 0
95 133 0
95 133 0
94 132 0
94 131 0
94 131 0
94 131 0
94 131 0
94 131 0
94 131 0
94 131 0
94 131 0
94 131 0
94 131 0
36 54 60
0 0 49
0 0 49
0 0 49
59 86 41
89 125 18
93 131 0
93 131 0
93 131 0
93 131 0
93 131 0
93 131 0
93 131 0
93 131 0
93 131 0
93 131 0
93 130 0
93 130 0
93 130 0
93 130 0
93 130 0
93 130 0
93 130 0
93 130 0
93 130 0
93 130 0
93 130 0
93 130 0
93 130 0
93 130 0
93 130 0
93 130 0
93 130 0
93 130 0
93 130 0
93 130 0
93 130 0
93 130 0
93 130 0
93 130 0
93 130 0
93 130 0
93 130 0
93 130 0
93 130 0
93 130 0
93 130 0
93 130 0
93 130 0
93 130 0
93 130 0
93 130 0
93 130 0
93 130 0
93 130 0
93 130 0
93 130 0
93 130 0
93 130 0
93 130 0
93 130 0
93 130 0
93 130 0
93 130 0
93 130 0
93 130 0
93 130 0
93 130 0
93 130 0
93 130 0
93 130 0
93 130 0
93 130 0
93 130 0
93 130 0
93 130 0
93 130 0
93 130 0
93 130 0
93 130 0
93 130 0
93 130 0
93 130 0
93 130 0
93 130 0
93 130 0
93 130 0
93 130 0
93 130 0
93 130 0
93 130 0
93 130 0
93 130 0
94 130 0
94 130 0
59 112 60
0 100 72
0 99 73
0 101 75
0 106 82
0 107 83
0 107 84
0 105 84
0 98 80
0 97 80
0 97 79
0 96 79
0 96 79
0 96 79
0 92 75
0 92 74
0 92 76
0 93 76
0 93 76
0 93 76
0 92 76
0 93 77
0 93 77
0 94 78
0 94 78
0 94 78
0 94 78
0 94 78
0 94 78
0 97 81
0 98 82
0 97 82
0 97 82
0 98 82
0 98 82
0 98 82
0 98 82
0 98 83
0 98 83
0 98 83
0 100 84
0 103 86
0 103 86
0 103 86
0 103 86
0 102 85
0 107 88
0 110 90
0 110 90
0 111 91
0 113 92
50 119 83
85 128 48
95 132 0
95 132 0
95 132 0
95 132 0
95 132 0
95 132 0
95 132 0
95 132 0
95 132 0
95 132 0
95 132 0
95 132 0
95 132 0
95 132 0
95 132 0
95 132 0
95 132 0
95 132 0
95 132 0
95 132 0
95 132 0
95 132 0
95 132 0
95 132 0
95 132 0
95 132 0
95 132 0
95 132 0
95 132 0
95 132 0
95 132 0
95 133 0
95 133 0
95 133 0
95 133 0
95 133 0
95 133 0
95 133 0
95 133 0
95 133 0
95 133 0
94 132 0
94 131 0
94 131 0
94 131 0
94 131 0
94 131 0
94 131 0
94 131 0
94 131 0
94 131 0
94 131 0
94 131 0
84 120 22
79 113 27
79 113 30
94 131 0
94 131 0
93 131 0
93 131 0
93 131 0
93 131 0
93 131 0
93 131 0
93 131 0
93 131 0
93 131 0
93 131 0
93 130 0
93 130 0
93 130 0
93 130 0
93 130 0
93 130 0
93 130 0
93 130 0
93 130 0
93 130 0
93 130 0
93 130 0
93 130 0
93 130 0
93 130 0
93 130 0
93 130 0
93 130 0
93 130 0
93 130 0
93 130 0
93 130 0
93 130 0
93 130 0
93 130 0
93 130 0
93 130 0
93 130 0
93 130 0
93 130 0
93 130 0
93 130 0
93 130 0
93 130 0
93 130 0
93 130 0
93 130 0
93 130 0
93 130 0
93 130 0
93 130 0
93 130 0
93 130 0
93 130 0
93 130 0
93 130 0
93 130 0
93 130 0
93 130 0
93 130 0
93 130 0
93 130 0
93 130 0
93 130 0
93 130 0
93 130 0
93 130 0
93 130 0
93 130 0
93 130 0
93 130 0
93 130 0
93 130 0
93 130 0
93 130 0
93 130 0
93 130 0
93 130 0
93 130 0
93 130 0
93 130 0
93 130 0
93 130 0
93 130 0
93 130 0
93 130 0
93 130 0
93 130 0
94 130 0
59 112 61
0 100 73
0 100 73
0 105 76
0 106 80
0 106 80
0 106 80
0 100 77
0 96 77
0 97 79
0 97 79
0 96 79
0 96 79
0 92 75
0 92 74
0 92 74
0 92 74
0 92 76
0 92 76
0 92 76
0 92 76
0 92 76
0 92 76
0 92 76
0 92 76
0 93 76
0 93 77
0 94 78
0 94 78
0 94 78
0 97 81
0 97 82
0 98 82
0 98 82
0 98 83
0 98 82
0 98 82
0 98 82
0 98 83
0 98 83
0 98 83
0 100 84
0 103 86
0 103 86
0 103 86
0 103 86
0 104 87
0 106 88
0 110 91
0 112 92
0 112 92
0 113 92
0 114 92
59 121 78
90 130 36
95 132 0
95 132 0
95 132 0
95 132 0
95 132 0
95 132 0
95 132 0
95 132 0
95 132 0
95 132 0
95 132 0
95 132 0
95 132 0
95 132 0
95 132 0
95 132 0
95 132 0
95 132 0
95 132 0
95 132 0
95 132 0
95 132 0
95 132 0
95 132 0
95 132 0
95 132 0
95 132 0
95 132 0
95 133 0
95 133 0
95 133 0
95 133 0
95 133 0
95 133 0
95 133 0
95 133 0
95 133 0
95 133 0
95 133 0
94 131 0
94 131 0
94 131 0
94 131 0
94 131 0
94 131 0
94 131 0
94 131 0
94 131 0
94 131 0
94 131 0
94 131 0
94 131 0
94 131 0
94 131 0
94 131 0
94 131 0
94 131 0
93 131 0
93 131 0
93 131 0
93 131 0
93 131 0
93 131 0
93 131 0
93 131 0
93 131 0
93 130 0
93 130 0
93 130 0
93 130 0
93 130 0
93 130 0
93 130 0
93 130 0
93 130 0
93 130 0
93 130 0
93 130 0
93 130 0
93 130 0
93 130 0
93 130 0
93 130 0
93 130 0
93 130 0
93 130 0
93 130 0
93 130 0
93 130 0
93 130 0
93 130 0
93 130 0
93 130 0
93 130 0
93 130 0
93 130 0
93 130 0
93 130 0
93 130 0
93 130 0
93 130 0
93 130 0
93 130 0
93 130 0
93 130 0
93 130 0
93 130 0
93 130 0
93 130 0
93 130 0
93 130 0
93 130 0
93 130 0
93 130 0
93 130 0
93 130 0
93 130 0
93 130 0
93 130 0
93 130 0
93 130 0
93 130 0
93 130 0
93 130 0
93 130 0
93 130 0
93 130 0
93 130 0
93 130 0
93 130 0
93 130 0
93 130 0
93 130 0
93 130 0
93 130 0
93 130 0
93 130 0
93 130 0
93 130 0
93 130 0
93 130 0
93 130 0
93 130 0
93 130 0
93 130 0
59 112 61
0 100 73
0 101 74
0 107 76
0 106 80
0 106 80
0 106 80
0 96 74
0 95 73
0 95 75
0 96 79
0 96 79
0 92 75
0 92 74
0 92 74
0 92 74
0 92 74
0 92 75
0 92 76
0 92 76
0 92 76
0 92 76
0 92 76
0 92 76
0 92 76
0 92 76
0 92 76
0 92 75
0 92 75
0 92 75
0 92 76
0 96 80
0 98 83
0 98 83
0 98 82
0 98 82
0 98 82
0 98 83
0 98 83
0 98 83
0 98 83
0 98 83
0 100 84
0 103 86
0 103 86
0 104 87
0 105 88
0 105 88
0 105 88
0 106 89
0 109 90
0 111 91
0 112 92
0 114 92
0 114 93
67 123 73
90 130 36
95 132 0
95 132 0
95 132 0
95 132 0
95 132 0
95 132 0
95 132 0
95 132 0
95 132 0
95 132 0
95 132 0
95 132 0
95 132 0
95 132 0
95 132 0
95 132 0
95 132 0
95 132 0
95 132 0
95 132 0
95 132 0
95 132 0
95 132 0
95 132 0
95 132 0
95 132 0
95 133 0
95 133 0
95 133 0
95 133 0
95 133 0
95 133 0
95 133 0
95 133 0
95 133 0
95 133 0
95 133 0
94 132 0
94 131 0
94 131 0
94 131 0
94 131 0
94 131 0
94 131 0
94 131 0
94 131 0
94 131 0
94 131 0
94 131 0
94 131 0
94 131 0
94 131 0
94 131 0
94 131 0
94 131 0
94 131 0
93 131 0
93 131 0
93 131 0
93 131 0
93 131 0
93 131 0
93 130 0
93 130 0
93 130 0
93 130 0
93 130 0
93 130 0
93 130 0
93 130 0
93 130 0
93 130 0
93 130 0
93 130 0
93 130 0
93 130 0
93 130 0
93 130 0
93 130 0
93 130 0
93 130 0
93 130 0
93 130 0
93 130 0
93 130 0
93 130 0
93 130 0
93 130 0
93 130 0
93 130 0
93 130 0
93 130 0
93 130 0
93 130 0
93 130 0
93 130 0
93 130 0
93 130 0
93 130 0
93 130 0
93 130 0
93 130 0
93 130 0
93 130 0
93 130 0
93 130 0
93 130 0
93 130 0
93 130 0
93 130 0
93 130 0
93 130 0
93 130 0
93 130 0
93 130 0
93 130 0
93 130 0
93 130 0
93 130 0
93 130 0
93 130 0
93 130 0
93 130 0
93 130 0
93 130 0
93 130 0
93 130 0
93 130 0
93 130 0
93 130 0
93 130 0
93 130 0
93 130 0
93 130 0
93 130 0
93 130 0
93 130 0
93 130 0
93 130 0
93 130 0
93 130 0
93 130 0
93 130 0
59 112 61
0 101 73
0 103 76
0 108 76
0 107 78
0 106 80
0 104 79
0 95 73
0 95 73
0 95 73
0 94 73
0 90 70
0 89 70
0 89 70
0 90 71
0 90 72
0 90 72
0 90 72
0 91 73
0 92 75
0 92 75
0 92 75
0 92 75
0 91 74
0 91 74
0 91 74
0 91 74
0 91 74
0 91 74
0 91 74
0 93 77
0 94 78
0 96 80
0 98 83
0 98 82
0 98 83
0 98 83
0 98 83
0 98 83
0 98 83
0 98 83
0 98 83
0 98 83
0 100 84
0 103 86
0 104 87
0 104 87
0 105 88
0 105 88
0 106 88
0 106 88
0 106 88
0 107 89
0 110 90
0 113 92
0 114 93
0 114 93
67 123 73
95 132 0
95 132 0
95 132 0
95 132 0
95 132 0
95 132 0
95 132 0
95 132 0
95 132 0
95 132 0
95 132 0
95 132 0
95 132 0
95 132 0
95 132 0
95 132 0
95 132 0
95 132 0
95 132 0
95 132 0
95 132 0
95 132 0
95 132 0
95 132 0
95 132 0
95 133 0
95 133 0
95 133 0
95 133 0
95 133 0
95 133 0
95 133 0
95 133 0
95 133 0
95 133 0
95 133 0
94 131 0
94 131 0
94 131 0
94 131 0
94 131 0
94 131 0
94 131 0
94 131 0
94 131 0
94 131 0
94 131 0
94 131 0
94 131 0
94 131 0
94 131 0
94 131 0
94 131 0
94 131 0
94 131 0
93 131 0
93 131 0
93 131 0
93 131 0
93 131 0
93 130 0
93 130 0
93 130 0
93 130 0
93 130 0
93 130 0
93 130 0
93 130 0
93 130 0
93 130 0
93 130 0
93 130 0
93 130 0
93 130 0
93 130 0
93 130 0
93 130 0
93 130 0
93 130 0
93 130 0
93 130 0
93 130 0
93 130 0
93 130 0
93 130 0
93 130 0
93 130 0
93 130 0
93 130 0
93 130 0
93 130 0
93 130 0
93 130 0
93 130 0
93 130 0
93 130 0
93 130 0
93 130 0
93 130 0
93 130 0
93 129 0
93 129 0
93 129 0
93 129 0
93 129 0
93 129 0
93 129 0
93 129 0
93 129 0
93 129 0
93 129 0
93 129 0
93 130 0
93 129 0
93 130 0
93 130 0
93 130 0
93 130 0
93 130 0
93 130 0
93 130 0
93 130 0
93 130 0
93 130 0
93 130 0
93 130 0
93 130 0
93 130 0
93 130 0
93 130 0
93 130 0
93 130 0
93 130 0
93 130 0
93 130 0
93 130 0
93 130 0
93 130 0
93 130 0
93 130 0
93 130 0
93 130 0
59 112 61
0 102 74
0 107 79
0 108 76
0 107 77
0 106 80
0 99 75
0 95 73
0 95 73
0 95 74
0 92 70
0 88 67
0 88 67
0 88 67
0 88 67
0 88 67
0 88 67
0 86 64
0 87 65
0 89 69
0 91 73
0 91 74
0 91 74
0 91 74
0 91 74
0 91 74
0 91 74
0 91 74
0 91 74
0 92 76
0 94 78
0 94 78
0 94 79
0 95 79
0 98 82
0 98 83
0 98 83
0 98 83
0 98 83
0 98 83
0 98 83
0 98 83
0 97 82
0 96 80
0 96 80
0 98 82
0 101 85
0 101 85
0 101 85
0 101 85
0 101 85
0 101 85
0 102 86
0 103 86
0 103 86
0 108 89
0 113 92
0 114 93
37 117 89
74 125 66
95 132 0
95 132 0
95 132 0
95 132 0
95 132 0
95 132 0
95 132 0
95 132 0
95 132 0
95 132 0
95 132 0
95 132 0
95 132 0
95 132 0
95 132 0
95 132 0
95 132 0
95 132 0
95 132 0
95 132 0
95 132 0
95 132 0
95 132 0
95 133 0
95 133 0
95 133 0
95 133 0
95 133 0
95 133 0
95 133 0
95 133 0
95 133 0
95 133 0
95 133 0
94 131 0
94 131 0
94 131 0
94 131 0
94 131 0
94 131 0
94 131 0
94 131 0
94 131 0
94 131 0
94 131 0
94 131 0
94 131 0
94 131 0
94 131 0
94 131 0
94 131 0
94 131 0
94 131 0
93 131 0
93 131 0
93 131 0
93 131 0
93 130 0
93 130 0
93 130 0
93 130 0
93 130 0
93 130 0
93 130 0
93 130 0
93 130 0
93 130 0
93 130 0
93 130 0
93 130 0
93 130 0
93 130 0
93 130 0
93 130 0
93 130 0
93 130 0
93 130 0
93 130 0
93 130 0
93 130 0
93 130 0
93 130 0
93 130 0
93 130 0
93 130 0
93 130 0
93 130 0
93 130 0
93 130 0
93 130 0
93 130 0
93 130 0
93 129 0
93 129 0
93 129 0
93 129 0
93 129 0
93 129 0
93 129 0
93 129 0
93 129 0
93 129 0
93 129 0
93 129 0
93 129 0
93 129 0
93 129 0
93 129 0
93 129 0
93 129 0
93 129 0
93 129 0
93 129 0
93 129 0
93 129 0
93 129 0
93 129 0
93 129 0
93 129 0
93 130 0
93 130 0
93 130 0
93 130 0
93 130 0
93 130 0
93 130 0
93 130 0
93 130 0
93 130 0
93 130 0
93 130 0
93 130 0
93 130 0
93 130 0
93 130 0
93 130 0
93 130 0
93 130 0
93 130 0
93 130 0
59 112 62
0 106 78
0 108 80
0 108 76
0 107 76
0 106 80
0 95 73
0 95 73
0 96 74
0 95 73
0 88 66
0 88 66
0 88 67
0 88 67
0 88 67
0 88 67
0 86 64
0 86 63
0 87 65
0 87 66
0 88 67
0 90 71
0 91 74
0 91 74
0 91 74
0 91 74
0 91 74
0 91 74
0 92 75
0 94 78
0 94 78
0 94 78
0 94 79
0 94 79
0 95 79
0 97 81
0 98 82
0 98 83
0 98 83
0 98 83
0 98 82
0 97 81
0 96 80
0 96 80
0 96 80
0 96 80
0 96 80
0 98 83
0 101 85
0 101 85
0 101 85
0 101 85
0 102 85
0 102 85
0 101 85
0 100 83
0 102 85
0 110 90
0 114 93
0 114 93
37 117 89
74 125 66
95 132 0
95 132 0
95 132 0
95 132 0
95 132 0
95 132 0
95 132 0
95 132 0
95 132 0
95 132 0
95 132 0
95 132 0
95 132 0
95 132 0
95 132 0
95 132 0
95 132 0
95 132 0
95 132 0
95 132 0
95 132 0
95 132 0
95 133 0
95 133 0
95 133 0
95 133 0
95 133 0
95 133 0
95 133 0
95 133 0
95 133 0
95 133 0
94 131 0
94 131 0
94 131 0
94 131 0
94 131 0
94 131 0
94 131 0
94 131 0
94 131 0
94 131 0
94 131 0
94 131 0
94 131 0
94 131 0
94 131 0
94 131 0
94 131 0
94 131 0
94 131 0
93 131 0
93 131 0
93 131 0
93 130 0
93 130 0
93 130 0
93 130 0
93 130 0
93 130 0
93 130 0
93 130 0
93 130 0
93 130 0
93 130 0
93 130 0
93 130 0
93 130 0
93 130 0
93 130 0
93 130 0
93 130 0
93 130 0
93 130 0
93 130 0
93 130 0
93 130 0
93 130 0
93 130 0
93 130 0
93 130 0
93 130 0
93 130 0
93 129 0
93 129 0
93 129 0
93 129 0
93 129 0
93 129 0
93 129 0
93 129 0
93 129 0
93 129 0
93 129 0
93 129 0
93 129 0
93 129 0
93 129 0
93 129 0
93 129 0
93 129 0
93 129 0
93 129 0
92 129 0
93 129 0
93 129 0
93 129 0
93 129 0
93 129 0
93 129 0
93 129 0
93 129 0
93 129 0
93 129 0
93 129 0
93 129 0
93 129 0
93 129 0
93 129 0
93 129 0
93 129 0
93 129 0
93 129 0
93 129 0
93 130 0
93 130 0
93 130 0
93 130 0
93 130 0
93 130 0
93 130 0
93 130 0
93 130 0
93 130 0
93 130 0
93 130 0
93 130 0
93 130 0
59 114 65
0 108 81
0 108 80
0 108 76
0 107 76
0 103 77
0 96 74
0 96 74
0 96 74
0 92 70
0 88 66
0 88 66
0 88 67
0 88 67
0 88 67
0 86 62
0 85 61
0 86 64
0 87 65
0 87 66
0 87 66
0 87 66
0 89 70
0 91 74
0 91 74
0 91 74
0 91 74
0 92 75
0 94 78
0 94 78
0 94 78
0 94 78
0 94 78
0 94 79
0 94 78
0 94 78
0 96 81
0 98 83
0 98 83
0 97 82
0 96 80
0 96 80
0 96 80
0 96 80
0 96 80
0 96 80
0 96 80
0 96 80
0 96 80
0 98 83
0 101 85
0 101 85
0 101 85
0 101 85
0 100 83
0 100 83
0 100 83
0 100 83
0 107 88
0 115 93
0 115 93
0 115 93
37 117 89
86 128 49
95 132 0
95 132 0
95 132 0
95 132 0
95 132 0
95 132 0
95 132 0
95 132 0
95 132 0
95 132 0
95 132 0
95 132 0
95 132 0
95 132 0
95 132 0
95 132 0
95 132 0
95 132 0
95 132 0
95 132 0
95 132 0
95 133 0
95 133 0
95 133 0
95 133 0
95 133 0
95 133 0
95 133 0
95 133 0
95 133 0
94 131 0
94 131 0
94 131 0
94 131 0
94 131 0
94 131 0
94 131 0
94 131 0
94 131 0
94 131 0
94 131 0
94 131 0
94 131 0
94 131 0
94 131 0
94 131 0
94 131 0
94 131 0
94 131 0
93 130 0
93 130 0
93 130 0
93 130 0
93 130 0
93 130 0
93 130 0
93 130 0
93 130 0
93 130 0
93 130 0
93 130 0
93 130 0
93 130 0
93 130 0
93 130 0
93 130 0
93 130 0
93 130 0
93 130 0
93 130 0
93 130 0
93 130 0
93 130 0
93 130 0
93 130 0
93 130 0
93 130 0
93 130 0
93 129 0
93 129 0
93 129 0
93 129 0
93 129 0
93 129 0
93 129 0
93 129 0
93 129 0
93 129 0
93 129 0
93 129 0
93 129 0
92 129 0
92 129 0
92 129 0
92 129 0
92 129 0
92 129 0
92 129 0
92 129 0
92 129 0
92 129 0
92 129 0
92 129 0
92 129 0
92 129 0
92 129 0
92 129 0
92 129 0
92 129 0
92 129 0
92 129 0
92 129 0
92 129 0
92 129 0
93 129 0
93 129 0
93 129 0
93 129 0
93 129 0
93 129 0
93 129 0
93 129 0
93 129 0
93 129 0
93 129 0
93 129 0
93 129 0
93 129 0
93 129 0
93 130 0
93 130 0
93 130 0
93 130 0
93 130 0
93 130 0
93 130 0
73 121 50
0 108 79
0 108 81
0 108 76
0 108 77
0 101 74
0 96 73
0 96 74
0 94 72
0 88 66
0 88 66
0 88 66
0 88 66
0 88 66
0 86 62
0 85 61
0 85 62
0 87 65
0 88 65
0 88 66
0 87 66
0 87 66
0 87 66
0 88 67
0 90 73
0 91 74
0 91 74
0 94 78
0 94 78
0 94 78
0 94 78
0 94 78
0 94 78
0 94 78
0 94 78
0 94 78
0 94 78
0 95 80
0 96 81
0 96 80
0 96 80
0 96 80
0 96 80
0 96 80
0 96 80
0 96 80
0 96 80
0 96 80
0 96 80
0 96 80
0 96 80
0 98 83
0 100 84
0 100 83
0 100 83
0 100 83
0 100 83
0 100 83
0 100 83
0 103 85
0 113 92
0 115 93
0 115 93
0 115 93
50 119 84
86 128 49
95 132 0
95 132 0
95 132 0
95 132 0
95 132 0
95 132 0
95 132 0
95 132 0
95 132 0
95 132 0
95 132 0
95 132 0
95 132 0
95 132 0
95 132 0
95 132 0
95 132 0
95 132 0
95 132 0
95 132 0
95 133 0
95 133 0
95 133 0
95 133 0
95 133 0
95 133 0
95 133 0
95 133 0
94 131 0
94 131 0
94 131 0
94 131 0
94 131 0
94 131 0
94 131 0
94 131 0
94 131 0
94 131 0
94 131 0
94 131 0
94 131 0
94 131 0
94 131 0
94 131 0
94 131 0
93 131 0
93 130 0
93 130 0
93 130 0
93 130 0
93 130 0
93 130 0
93 130 0
93 130 0
93 130 0
93 130 0
93 130 0
93 130 0
93 130 0
93 130 0
93 130 0
93 130 0
93 130 0
93 130 0
93 130 0
93 130 0
93 130 0
93 130 0
93 130 0
93 130 0
93 130 0
93 130 0
93 130 0
93 129 0
93 129 0
93 129 0
93 129 0
93 129 0
93 129 0
93 129 0
93 129 0
92 129 0
92 129 0
92 129 0
92 129 0
92 129 0
92 129 0
92 129 0
92 129 0
92 129 0
92 129 0
92 129 0
92 129 0
92 129 0
92 129 0
92 129 0
92 129 0
92 129 0
92 129 0
92 129 0
92 129 0
92 129 0
92 129 0
92 129 0
92 129 0
92 129 0
92 129 0
92 129 0
92 129 0
92 129 0
92 129 0
92 129 0
92 129 0
92 129 0
92 129 0
92 129 0
92 129 0
92 129 0
92 129 0
93 129 0
93 129 0
93 129 0
93 129 0
93 129 0
93 129 0
93 129 0
93 129 0
93 129 0
93 129 0
93 129 0
93 129 0
93 129 0
93 130 0
93 130 0
93 130 0
58 114 54
0 107 75
0 108 77
0 109 80
0 97 71
0 96 71
0 96 73
0 90 68
0 88 65
0 88 64
0 87 62
0 87 61
0 85 58
0 85 61
0 85 61
0 86 63
0 87 65
0 88 65
0 88 66
0 87 66
0 87 66
0 87 66
0 87 66
0 87 66
0 89 71
0 94 78
0 94 78
0 94 78
0 94 78
0 94 78
0 94 78
0 94 78
0 94 78
0 94 78
0 94 78
0 94 78
0 93 76
0 92 76
0 95 79
0 96 80
0 96 80
0 96 80
0 96 80
0 96 80
0 96 80
0 96 80
0 96 80
0 96 80
0 96 80
0 95 79
0 94 78
0 93 76
0 97 80
0 98 81
0 98 82
0 98 82
0 98 82
0 98 82
0 99 83
0 101 85
0 105 87
0 113 92
0 115 93
0 115 93
0 115 93
60 121 79
95 132 0
95 132 0
95 132 0
95 132 0
95 132 0
95 132 0
95 132 0
95 132 0
95 132 0
95 132 0
95 132 0
95 132 0
95 132 0
95 132 0
95 132 0
95 132 0
95 132 0
95 132 0
95 132 0
95 132 0
95 132 0
95 133 0
95 133 0
95 133 0
95 133 0
95 133 0
95 133 0
94 131 0
94 131 0
94 131 0
94 131 0
94 131 0
94 131 0
94 131 0
94 131 0
94 131 0
94 131 0
94 131 0
94 131 0
94 131 0
94 131 0
94 131 0
94 131 0
93 130 0
93 130 0
93 130 0
93 130 0
93 130 0
93 130 0
93 130 0
93 130 0
93 130 0
93 130 0
93 130 0
93 130 0
93 130 0
93 130 0
93 130 0
93 130 0
93 130 0
93 130 0
93 130 0
93 130 0
93 130 0
93 130 0
93 130 0
93 130 0
93 130 0
93 130 0
93 129 0
93 129 0
93 129 0
93 129 0
93 129 0
93 129 0
93 129 0
93 129 0
92 129 0
92 129 0
92 129 0
92 129 0
92 129 0
92 129 0
92 129 0
92 129 0
92 129 0
92 129 0
92 129 0
92 129 0
92 129 0
92 129 0
92 129 0
92 129 0
92 129 0
92 129 0
92 129 0
92 129 0
92 129 0
92 129 0
92 129 0
92 129 0
92 129 0
92 129 0
92 129 0
92 129 0
92 129 0
92 129 0
92 129 0
92 129 0
92 129 0
92 129 0
92 129 0
92 129 0
92 129 0
92 129 0
92 129 0
92 129 0
92 129 0
92 129 0
92 129 0
92 129 0
92 129 0
92 129 0
92 129 0
93 129 0
93 129 0
93 129 0
93 129 0
93 129 0
93 129 0
93 129 0
93 129 0
93 129 0
93 129 0
88 127 22
36 107 57
0 109 79
0 107 78
0 97 71
0 96 71
0 94 69
0 87 60
0 87 60
0 87 60
0 87 60
0 84 53
0 85 55
0 85 61
0 85 62
0 87 64
0 87 65
0 88 65
0 88 65
0 87 66
0 87 65
0 87 65
0 86 64
0 86 64
0 89 67
0 92 74
0 94 77
0 94 78
0 94 78
0 94 78
0 94 78
0 94 78
0 94 78
0 94 78
0 94 78
0 92 76
0 92 75
0 92 75
0 92 75
0 93 76
0 95 79
0 96 80
0 95 80
0 95 80
0 96 80
0 95 80
0 94 79
0 94 78
0 93 77
0 94 77
0 93 77
0 93 76
0 93 76
0 97 80
0 98 81
0 98 82
0 98 82
0 99 83
0 101 85
0 101 85
0 101 85
0 101 85
0 104 87
0 110 90
0 116 94
0 115 94
60 122 80
90 130 36
95 132 0
95 132 0
95 132 0
95 132 0
95 132 0
95 132 0
95 132 0
95 132 0
95 132 0
95 132 0
95 132 0
95 132 0
95 132 0
95 132 0
95 132 0
95 132 0
95 132 0
95 132 0
95 132 0
95 132 0
95 132 0
95 133 0
95 133 0
95 133 0
95 133 0
94 131 0
94 131 0
94 131 0
94 131 0
94 131 0
94 131 0
94 131 0
94 131 0
94 131 0
94 131 0
94 131 0
94 131 0
94 131 0
94 131 0
94 131 0
93 130 0
93 130 0
93 130 0
93 130 0
93 130 0
93 130 0
93 130 0
93 130 0
93 130 0
93 130 0
93 130 0
93 130 0
93 130 0
93 130 0
93 130 0
93 130 0
93 130 0
93 130 0
93 130 0
93 130 0
93 130 0
93 130 0
93 130 0
93 130 0
93 130 0
93 129 0
93 129 0
93 129 0
93 129 0
93 129 0
93 129 0
92 129 0
92 129 0
92 129 0
92 129 0
92 129 0
92 129 0
92 129 0
92 129 0
92 129 0
92 129 0
92 129 0
92 129 0
92 129 0
92 129 0
92 129 0
92 129 0
92 129 0
92 129 0
92 129 0
92 129 0
92 129 0
92 129 0
92 129 0
92 129 0
92 129 0
92 129 0
92 129 0
92 129 0
92 129 0
92 129 0
92 129 0
92 129 0
92 129 0
92 129 0
92 129 0
92 129 0
92 129 0
92 129 0
92 129 0
92 129 0
92 129 0
92 129 0
92 129 0
92 129 0
92 129 0
92 129 0
92 129 0
92 129 0
92 129 0
92 129 0
92 129 0
92 129 0
92 129 0
92 129 0
92 129 0
92 129 0
92 129 0
93 129 0
93 129 0
93 129 0
93 129 0
93 129 0
78 122 37
0 109 76
0 104 76
0 96 71
0 97 72
0 90 64
0 87 60
0 87 60
0 87 60
0 86 57
0 81 48
0 86 54
0 86 61
0 86 63
0 87 64
0 88 65
0 87 63
0 87 62
0 87 64
0 86 64
0 86 64
0 86 64
0 85 63
0 91 69
0 91 71
0 92 72
0 94 77
0 94 78
0 94 78
0 94 78
0 94 78
0 94 78
0 94 78
0 92 76
0 92 75
0 92 75
0 92 75
0 92 75
0 92 75
0 92 75
0 94 77
0 95 79
0 94 79
0 94 78
0 93 77
0 93 77
0 93 77
0 93 77
0 93 77
0 93 76
0 93 76
0 93 76
0 93 76
0 96 80
0 98 81
0 99 83
0 101 85
0 101 85
0 101 85
0 101 85
0 102 86
0 102 86
0 102 86
0 103 86
0 112 91
0 116 94
37 119 90
90 130 36
95 132 0
95 132 0
95 132 0
95 132 0
95 132 0
95 132 0
95 132 0
95 132 0
95 132 0
95 132 0
95 132 0
95 132 0
95 132 0
95 132 0
95 132 0
95 132 0
95 132 0
95 132 0
95 132 0
95 132 0
95 132 0
95 132 0
95 133 0
95 133 0
94 131 0
94 131 0
94 131 0
94 131 0
94 131 0
94 131 0
94 131 0
94 131 0
94 131 0
94 131 0
94 131 0
94 131 0
94 131 0
94 130 0
93 130 0
93 130 0
93 130 0
93 130 0
93 130 0
93 130 0
93 130 0
93 130 0
93 130 0
93 130 0
93 130 0
93 130 0
93 130 0
93 130 0
93 130 0
93 130 0
93 130 0
93 130 0
93 130 0
93 130 0
93 130 0
93 130 0
93 130 0
93 129 0
93 129 0
93 129 0
93 129 0
93 129 0
93 129 0
92 129 0
92 129 0
92 129 0
92 129 0
92 129 0
92 129 0
92 129 0
92 129 0
92 129 0
92 129 0
92 129 0
92 129 0
92 129 0
92 129 0
92 129 0
92 129 0
92 129 0
92 129 0
92 129 0
92 129 0
92 129 0
92 129 0
92 129 0
92 129 0
92 129 0
92 129 0
92 129 0
92 129 0
92 129 0
92 129 0
92 129 0
92 129 0
92 129 0
92 129 0
92 129 0
92 129 0
92 129 0
92 129 0
92 129 0
92 129 0
92 129 0
92 129 0
92 129 0
92 129 0
92 129 0
92 129 0
92 129 0
92 129 0
92 129 0
92 129 0
92 129 0
92 129 0
92 129 0
92 129 0
92 129 0
92 129 0
92 129 0
92 129 0
92 129 0
92 129 0
92 129 0
92 129 0
92 129 0
92 129 0
92 129 0
92 129 0
58 117 67
0 100 73
0 97 72
0 97 72
0 86 60
0 87 60
0 87 60
0 87 60
0 84 50
0 81 48
0 86 54
0 88 60
0 87 61
0 86 60
0 86 58
0 86 58
0 87 59
0 87 63
0 86 63
0 86 63
0 86 63
0 86 64
0 93 70
0 92 71
0 91 71
0 91 71
0 93 76
0 94 78
0 94 78
0 94 78
0 94 78
0 93 76
0 92 75
0 92 75
0 92 75
0 92 75
0 92 75
0 92 75
0 92 75
0 92 75
0 90 72
0 91 74
0 93 77
0 93 77
0 93 77
0 93 77
0 93 77
0 93 76
0 93 76
0 93 76
0 93 76
0 93 76
0 93 76
0 96 79
0 101 86
0 102 86
0 102 86
0 102 86
0 103 87
0 103 87
0 103 87
0 103 87
0 102 85
0 102 84
0 107 88
0 117 93
37 118 88
86 129 50
95 132 0
95 132 0
95 132 0
95 132 0
95 132 0
95 132 0
95 132 0
95 132 0
95 132 0
95 132 0
95 132 0
95 132 0
95 132 0
95 132 0
95 132 0
95 132 0
95 132 0
95 132 0
95 132 0
95 132 0
95 132 0
95 132 0
95 132 0
94 131 0
94 131 0
94 131 0
94 131 0
94 131 0
94 131 0
94 131 0
94 131 0
94 131 0
94 131 0
94 130 0
94 130 0
93 130 0
93 130 0
93 130 0
93 130 0
93 130 0
93 130 0
93 130 0
93 130 0
93 130 0
93 130 0
93 130 0
93 130 0
93 130 0
93 130 0
93 130 0
93 130 0
93 130 0
93 130 0
93 130 0
93 130 0
93 130 0
93 130 0
93 129 0
93 129 0
93 129 0
93 129 0
93 129 0
93 129 0
92 129 0
92 129 0
92 129 0
92 129 0
92 129 0
92 129 0
92 129 0
92 129 0
92 129 0
92 129 0
92 129 0
92 129 0
92 129 0
92 129 0
92 129 0
92 129 0
92 129 0
92 129 0
92 129 0
92 129 0
92 129 0
92 129 0
92 129 0
92 129 0
92 129 0
92 129 0
92 129 0
92 129 0
92 129 0
92 129 0
92 129 0
92 128 0
92 128 0
92 128 0
92 128 0
92 128 0
92 128 0
92 128 0
92 128 0
92 128 0
92 128 0
92 128 0
92 128 0
92 128 0
92 128 0
92 128 0
92 128 0
92 128 0
92 128 0
92 128 0
92 128 0
92 128 0
92 128 0
92 129 0
92 129 0
92 129 0
92 129 0
92 129 0
92 129 0
92 129 0
92 129 0
92 129 0
92 129 0
92 129 0
92 129 0
92 129 0
92 129 0
92 129 0
92 129 0
58 117 66
0 97 72
0 99 73
0 90 64
0 86 60
0 87 60
0 87 60
0 86 54
0 82 48
0 81 48
0 86 54
0 89 54
0 86 57
0 86 58
0 86 58
0 86 58
0 88 60
0 88 62
0 86 63
0 86 63
0 85 63
0 89 67
0 93 70
0 92 71
0 91 71
0 91 71
0 91 71
0 92 74
0 94 78
0 94 78
0 93 77
0 91 75
0 91 75
0 91 75
0 91 75
0 92 75
0 92 75
0 92 75
0 92 75
0 91 74
0 89 71
0 89 70
0 89 71
0 91 74
0 93 77
0 93 77
0 93 76
0 92 76
0 93 76
0 92 75
0 92 75
0 92 75
0 92 75
0 91 75
0 94 78
0 96 80
0 98 82
0 100 84
0 103 87
0 103 87
0 103 87
0 102 86
0 101 84
0 102 84
0 102 84
0 107 88
0 115 92
0 115 92
80 127 58
95 132 0
95 132 0
95 132 0
95 132 0
95 132 0
95 132 0
95 132 0
95 132 0
95 132 0
95 132 0
95 132 0
95 132 0
95 132 0
95 132 0
95 132 0
95 132 0
95 132 0
95 132 0
95 132 0
95 132 0
95 132 0
95 132 0
94 131 0
94 131 0
94 131 0
94 131 0
94 131 0
94 131 0
94 131 0
94 131 0
94 130 0
94 130 0
93 130 0
93 130 0
93 130 0
93 130 0
93 130 0
93 130 0
93 130 0
93 130 0
93 130 0
93 130 0
93 130 0
93 130 0
93 130 0
93 130 0
93 130 0
93 130 0
93 130 0
93 130 0
93 130 0
93 130 0
93 129 0
93 129 0
93 129 0
93 129 0
93 129 0
93 129 0
93 129 0
92 129 0
92 129 0
92 129 0
92 129 0
92 129 0
92 129 0
92 129 0
92 129 0
92 129 0
92 129 0
92 129 0
92 129 0
92 129 0
92 129 0
92 129 0
92 129 0
92 129 0
92 129 0
92 129 0
92 129 0
92 129 0
92 129 0
92 129 0
92 129 0
92 128 0
92 128 0
92 128 0
92 128 0
92 128 0
92 128 0
92 128 0
92 128 0
92 128 0
92 128 0
92 128 0
92 128 0
92 128 0
92 128 0
92 128 0
92 128 0
92 128 0
92 128 0
92 128 0
92 128 0
92 128 0
92 128 0
92 128 0
92 128 0
92 128 0
92 128 0
92 128 0
92 128 0
92 128 0
92 128 0
92 128 0
92 128 0
92 128 0
92 128 0
92 128 0
92 128 0
92 128 0
92 128 0
92 128 0
92 128 0
92 129 0
92 129 0
92 129 0
92 129 0
92 129 0
92 129 0
92 129 0
92 129 0
58 114 61
0 99 73
0 97 71
0 87 60
0 86 59
0 87 60
0 87 58
0 84 48
0 81 47
0 82 48
0 86 52
0 88 52
0 89 53
0 86 57
0 86 58
0 86 58
0 89 61
0 89 62
0 86 63
0 86 63
0 85 63
0 92 69
0 93 70
0 92 71
0 91 71
0 91 71
0 91 71
0 91 71
0 92 73
0 93 76
0 91 75
0 91 75
0 91 75
0 91 75
0 91 75
0 91 75
0 92 75
0 92 75
0 92 75
0 91 73
0 90 72
0 88 70
0 89 70
0 89 70
0 89 71
0 91 74
0 92 75
0 92 75
0 92 74
0 92 74
0 92 74
0 92 74
0 92 75
0 91 75
0 92 76
0 94 78
0 94 79
0 94 79
0 94 79
0 96 81
0 98 81
0 100 82
0 101 84
0 101 84
0 101 84
0 102 84
0 105 86
0 113 89
0 114 91
90 130 33
95 132 0
95 132 0
95 132 0
95 132 0
95 132 0
95 132 0
95 132 0
95 132 0
95 132 0
95 132 0
95 132 0
95 132 0
95 132 0
95 132 0
95 132 0
95 132 0
95 132 0
95 132 0
95 132 0
95 132 0
95 132 0
94 131 0
94 131 0
94 131 0
94 131 0
94 131 0
94 131 0
94 130 0
94 130 0
93 130 0
93 130 0
93 130 0
93 130 0
93 130 0
93 130 0
93 130 0
93 130 0
93 130 0
93 130 0
93 130 0
93 130 0
93 130 0
93 130 0
93 130 0
93 130 0
93 130 0
93 130 0
93 130 0
93 129 0
93 129 0
93 129 0
93 129 0
93 129 0
93 129 0
93 129 0
93 129 0
92 129 0
92 129 0
92 129 0
92 129 0
92 129 0
92 129 0
92 129 0
92 129 0
92 129 0
92 129 0
92 129 0
92 129 0
92 129 0
92 129 0
92 129 0
92 129 0
92 129 0
92 129 0
92 129 0
92 129 0
92 128 0
92 128 0
92 128 0
92 128 0
92 128 0
92 128 0
92 128 0
92 128 0
92 128 0
92 128 0
92 128 0
92 128 0
92 128 0
92 128 0
92 128 0
92 128 0
92 128 0
92 128 0
92 128 0
92 128 0
92 128 0
92 128 0
92 128 0
92 128 0
92 128 0
92 128 0
92 128 0
92 128 0
92 128 0
92 128 0
92 128 0
92 128 0
92 128 0
92 128 0
92 128 0
92 128 0
92 128 0
92 128 0
92 128 0
92 128 0
92 128 0
92 128 0
92 128 0
92 128 0
92 128 0
92 128 0
92 128 0
92 128 0
92 128 0
92 128 0
92 128 0
92 129 0
92 129 0
92 129 0
58 111 62
0 99 73
0 92 66
0 86 59
0 86 59
0 87 60
0 86 50
0 83 47
0 82 48
0 83 45
0 87 45
0 88 49
0 89 52
0 89 53
0 86 57
0 87 59
0 89 61
0 89 61
0 87 63
0 86 63
0 87 64
0 93 70
0 93 70
0 93 71
0 91 71
0 91 71
0 91 71
0 91 71
0 90 70
0 87 65
0 89 71
0 91 75
0 91 75
0 91 75
0 91 75
0 91 75
0 92 75
0 92 75
0 91 74
0 91 73
0 90 73
0 88 70
0 88 70
0 89 70
0 89 70
0 89 71
0 91 74
0 92 74
0 92 74
0 92 74
0 92 74
0 91 74
0 92 75
0 91 75
0 91 74
0 93 77
0 94 78
0 94 79
0 94 79
0 94 79
0 93 74
0 90 71
0 100 82
0 101 84
0 101 84
0 101 84
0 102 82
0 110 85
0 114 91
80 127 53
95 131 0
95 132 0
95 132 0
95 132 0
95 132 0
95 132 0
95 132 0
95 132 0
95 132 0
95 132 0
95 132 0
95 132 0
95 132 0
95 132 0
95 132 0
95 132 0
95 132 0
95 132 0
95 132 0
95 132 0
95 132 0
94 131 0
94 131 0
94 131 0
94 131 0
94 130 0
94 130 0
93 130 0
93 130 0
93 130 0
93 130 0
93 130 0
93 130 0
93 130 0
93 130 0
93 130 0
93 130 0
93 130 0
93 130 0
93 130 0
93 130 0
93 130 0
93 130 0
93 130 0
93 129 0
93 129 0
93 129 0
93 129 0
93 129 0
93 129 0
93 129 0
93 129 0
93 129 0
92 129 0
92 129 0
92 129 0
92 129 0
92 129 0
92 129 0
92 129 0
92 129 0
92 129 0
92 129 0
92 129 0
92 129 0
92 129 0
92 129 0
92 129 0
92 129 0
92 128 0
92 128 0
92 128 0
92 128 0
92 128 0
92 128 0
92 128 0
92 128 0
92 128 0
92 128 0
92 128 0
92 128 0
92 128 0
92 128 0
92 128 0
92 128 0
92 128 0
92 128 0
92 128 0
92 128 0
92 128 0
92 128 0
92 128 0
92 128 0
92 128 0
91 128 0
91 128 0
91 128 0
91 128 0
91 128 0
91 128 0
91 128 0
91 128 0
91 128 0
91 128 0
91 128 0
91 128 0
91 128 0
91 128 0
91 128 0
91 128 0
91 128 0
91 128 0
91 128 0
91 128 0
91 128 0
91 128 0
91 128 0
91 128 0
91 128 0
91 128 0
92 128 0
92 128 0
92 128 0
92 128 0
92 128 0
92 128 0
92 128 0
92 128 0
92 128 0
92 128 0
0 99 73
0 97 71
0 88 61
0 86 59
0 87 59
0 87 54
0 85 47
0 82 46
0 84 39
0 85 32
0 87 36
0 89 40
0 90 43
0 90 46
0 89 50
0 88 60
0 89 61
0 89 61
0 88 62
0 85 63
0 89 66
0 93 70
0 93 70
0 93 71
0 91 71
0 91 71
0 91 71
0 91 71
0 87 66
0 87 65
0 87 66
0 87 67
0 89 71
0 91 75
0 91 75
0 91 75
0 92 75
0 92 75
0 91 73
0 91 73
0 90 73
0 88 71
0 88 70
0 89 70
0 89 70
0 89 71
0 90 73
0 92 74
0 92 74
0 91 74
0 91 74
0 91 74
0 92 75
0 91 75
0 91 74
0 91 75
0 94 78
0 94 79
0 94 79
0 94 77
0 93 73
0 88 70
0 90 71
0 98 81
0 101 84
0 101 84
0 104 78
0 105 78
0 114 91
67 123 67
95 131 0
95 131 0
95 131 0
95 131 0
95 132 0
95 132 0
95 132 0
95 132 0
95 132 0
95 132 0
95 132 0
95 132 0
95 132 0
95 132 0
95 132 0
95 132 0
95 132 0
95 132 0
95 132 0
95 132 0
95 132 0
94 131 0
94 130 0
94 130 0
94 130 0
94 130 0
93 130 0
93 130 0
93 130 0
93 130 0
93 130 0
93 130 0
93 130 0
93 130 0
93 130 0
93 130 0
93 130 0
93 130 0
93 130 0
93 130 0
93 130 0
93 130 0
93 129 0
93 129 0
93 129 0
93 129 0
93 129 0
93 129 0
93 129 0
93 129 0
93 129 0
92 129 0
92 129 0
92 129 0
92 129 0
92 129 0
92 129 0
92 129 0
92 129 0
92 129 0
92 129 0
92 129 0
92 129 0
92 128 0
92 128 0
92 128 0
92 128 0
92 128 0
92 128 0
92 128 0
92 128 0
92 128 0
92 128 0
92 128 0
92 128 0
92 128 0
92 128 0
92 128 0
92 128 0
92 128 0
92 128 0
92 128 0
92 128 0
91 128 0
92 128 0
91 128 0
91 128 0
91 128 0
91 128 0
91 128 0
91 128 0
91 128 0
91 128 0
91 128 0
91 128 0
91 128 0
91 128 0
91 128 0
91 128 0
91 128 0
91 128 0
91 128 0
91 128 0
91 128 0
91 128 0
91 128 0
91 128 0
91 128 0
91 128 0
91 128 0
91 128 0
91 128 0
91 128 0
91 128 0
91 128 0
91 128 0
91 128 0
91 128 0
91 128 0
91 128 0
91 128 0
91 128 0
91 128 0
91 128 0
91 128 0
91 128 0
91 128 0
92 128 0
92 128 0
77 120 45
0 99 73
0 92 66
0 87 60
0 86 59
0 87 58
0 86 48
0 84 45
0 86 37
0 88 33
0 86 31
0 85 34
0 86 38
0 87 44
0 89 49
0 91 52
0 91 55
0 90 58
0 89 61
0 89 61
0 85 62
0 92 69
0 93 70
0 93 70
0 93 70
0 91 71
0 91 71
0 91 71
0 89 68
0 87 65
0 87 65
0 87 65
0 87 65
0 87 65
0 88 68
0 90 73
0 91 75
0 91 75
0 91 74
0 91 73
0 91 73
0 90 73
0 89 71
0 88 70
0 88 70
0 89 71
0 89 71
0 90 72
0 92 74
0 91 74
0 91 74
0 91 74
0 91 75
0 92 75
0 91 75
0 91 74
0 91 74
0 92 76
0 94 78
0 94 79
0 93 74
0 93 73
0 89 70
0 88 70
0 89 70
0 97 79
0 102 81
0 105 76
0 104 76
0 111 86
59 121 72
94 131 0
94 131 0
95 131 0
95 131 0
95 131 0
95 131 0
95 132 0
95 132 0
95 132 0
95 132 0
95 132 0
95 132 0
95 132 0
95 132 0
95 132 0
95 132 0
95 132 0
95 132 0
95 132 0
95 132 0
95 132 0
94 130 0
94 130 0
94 130 0
93 130 0
93 130 0
93 130 0
93 130 0
93 130 0
93 130 0
93 130 0
93 130 0
93 130 0
93 130 0
93 130 0
93 130 0
93 130 0
93 130 0
93 130 0
93 129 0
93 129 0
93 129 0
93 129 0
93 129 0
93 129 0
93 129 0
93 129 0
93 129 0
92 129 0
92 129 0
92 129 0
92 129 0
92 129 0
92 129 0
92 129 0
92 129 0
92 129 0
92 129 0
92 128 0
92 128 0
92 128 0
92 128 0
92 128 0
92 128 0
92 128 0
92 128 0
92 128 0
92 128 0
92 128 0
92 128 0
92 128 0
92 128 0
92 128 0
92 128 0
92 128 0
91 128 0
91 128 0
91 128 0
91 128 0
91 128 0
91 128 0
91 128 0
91 128 0
91 128 0
91 128 0
91 128 0
91 128 0
91 128 0
91 128 0
91 128 0
91 128 0
91 128 0
91 128 0
91 128 0
91 128 0
91 128 0
91 128 0
91 128 0
91 128 0
91 128 0
91 128 0
91 128 0
91 128 0
91 128 0
91 128 0
91 128 0
91 128 0
91 128 0
91 128 0
91 128 0
91 128 0
91 128 0
91 128 0
91 128 0
91 128 0
91 128 0
91 128 0
91 128 0
91 128 0
91 128 0
91 128 0
91 128 0
91 128 0
91 128 0
91 128 0
91 128 0
91 128 0
91 128 0
91 128 0
57 110 61
0 97 71
0 90 63
0 86 59
0 86 59
0 86 52
0 85 49
0 81 38
35 94 34
77 119 23
0 89 36
0 84 38
0 84 41
0 86 45
0 89 49
0 91 52
0 91 53
0 91 53
0 91 54
0 90 58
0 88 63
0 93 70
0 93 70
0 93 70
0 93 70
0 91 71
0 91 71
0 90 70
0 87 65
0 87 65
0 87 65
0 87 65
0 87 65
0 87 65
0 87 65
0 87 65
0 88 69
0 91 74
0 91 73
0 91 73
0 91 73
0 90 73
0 89 71
0 88 70
0 88 70
0 89 71
0 89 71
0 89 71
0 91 74
0 91 74
0 91 74
0 91 74
0 92 75
0 92 75
0 91 75
0 91 74
0 91 74
0 91 74
0 93 77
0 94 76
0 93 73
0 93 73
0 89 70
0 88 69
0 89 70
0 89 70
0 102 74
0 105 76
0 104 76
0 107 79
0 115 85
94 131 0
94 131 0
94 131 0
94 131 0
94 131 0
95 131 0
95 131 0
95 131 0
95 131 0
95 131 0
95 132 0
95 132 0
95 132 0
95 132 0
95 132 0
95 132 0
95 132 0
95 132 0
95 132 0
95 132 0
95 132 0
94 130 0
93 130 0
93 130 0
93 130 0
93 130 0
93 130 0
93 130 0
93 130 0
93 130 0
93 130 0
93 130 0
93 130 0
93 130 0
93 130 0
93 130 0
93 129 0
93 129 0
93 129 0
93 129 0
93 129 0
93 129 0
93 129 0
93 129 0
92 129 0
92 129 0
92 129 0
92 129 0
92 129 0
92 129 0
92 129 0
92 129 0
92 129 0
92 129 0
92 129 0
92 128 0
92 128 0
92 128 0
92 128 0
92 128 0
92 128 0
92 128 0
92 128 0
92 128 0
92 128 0
92 128 0
92 128 0
92 128 0
91 128 0
91 128 0
91 128 0
91 128 0
91 128 0
91 128 0
91 128 0
91 128 0
91 128 0
91 128 0
91 128 0
91 128 0
91 128 0
91 128 0
91 128 0
91 128 0
91 128 0
91 128 0
91 128 0
91 128 0
91 128 0
91 128 0
91 128 0
91 127 0
91 128 0
91 128 0
91 127 0
91 127 0
91 127 0
91 127 0
91 127 0
91 127 0
91 127 0
91 127 0
91 127 0
91 127 0
91 127 0
91 127 0
91 127 0
91 127 0
91 127 0
91 127 0
91 127 0
91 127 0
91 127 0
91 127 0
91 127 0
91 128 0
91 128 0
91 128 0
91 128 0
91 128 0
91 128 0
91 128 0
91 128 0
91 128 0
91 128 0
91 128 0
91 128 0
91 128 0
87 126 31
0 99 73
0 93 66
0 88 61
0 86 59
0 86 56
0 86 49
0 83 43
0 83 37
77 118 23
91 128 0
87 125 14
48 101 33
0 86 42
0 87 45
0 89 49
0 91 51
0 91 53
0 91 53
0 91 53
0 91 54
0 92 60
0 93 68
0 93 70
0 93 70
0 93 70
0 92 71
0 91 71
0 88 66
0 87 65
0 87 65
0 87 65
0 87 65
0 87 65
0 87 65
0 87 65
0 87 65
0 87 65
0 86 64
0 87 65
0 89 70
0 91 73
0 90 72
0 90 72
0 88 70
0 89 70
0 89 71
0 89 71
0 89 71
0 91 73
0 91 74
0 91 74
0 91 74
0 92 75
0 92 75
0 91 75
0 91 74
0 91 74
0 91 74
0 92 75
0 93 73
0 93 73
0 93 73
0 91 71
0 88 69
0 89 69
0 92 68
0 100 70
0 105 76
0 104 75
0 105 74
0 113 83
85 128 44
94 131 0
94 131 0
94 131 0
94 131 0
94 131 0
94 131 0
94 131 0
94 131 0
95 131 0
95 131 0
95 131 0
95 131 0
95 131 0
95 132 0
95 132 0
95 132 0
95 132 0
95 132 0
95 132 0
95 132 0
93 130 0
93 130 0
93 130 0
93 130 0
93 130 0
93 130 0
93 130 0
93 130 0
93 130 0
93 130 0
93 130 0
93 130 0
93 129 0
93 129 0
93 129 0
93 129 0
93 129 0
93 129 0
93 129 0
93 129 0
93 129 0
92 129 0
92 129 0
92 129 0
92 129 0
92 129 0
92 129 0
92 129 0
92 129 0
92 129 0
92 129 0
92 128 0
92 128 0
92 128 0
92 128 0
92 128 0
92 128 0
92 128 0
92 128 0
92 128 0
92 128 0
92 128 0
91 128 0
91 128 0
91 128 0
91 128 0
91 128 0
91 128 0
91 128 0
91 128 0
91 128 0
91 128 0
91 128 0
91 128 0
91 128 0
91 128 0
91 128 0
91 128 0
91 127 0
91 127 0
91 127 0
91 127 0
91 127 0
91 127 0
91 127 0
91 127 0
91 127 0
91 127 0
91 127 0
91 127 0
91 127 0
91 127 0
91 127 0
91 127 0
91 127 0
91 127 0
91 127 0
91 127 0
91 127 0
91 127 0
91 127 0
91 127 0
91 127 0
91 127 0
91 127 0
91 127 0
91 127 0
91 127 0
91 127 0
91 127 0
91 127 0
91 127 0
91 127 0
91 127 0
91 127 0
91 127 0
91 127 0
91 127 0
91 127 0
91 127 0
91 127 0
91 127 0
91 127 0
91 127 0
91 128 0
91 128 0
91 128 0
71 118 53
0 97 71
0 90 63
0 87 59
0 86 58
0 86 51
0 86 48
0 81 39
57 105 32
91 128 0
91 128 0
91 128 0
91 128 0
71 115 28
0 88 45
0 89 48
0 91 51
0 92 52
0 90 52
0 91 53
0 91 53
0 94 61
0 92 61
0 93 63
0 93 68
0 93 70
0 92 70
0 89 68
0 87 65
0 87 65
0 87 65
0 87 65
0 87 65
0 87 65
0 87 65
0 87 65
0 87 65
0 87 65
0 86 63
0 86 63
0 86 63
0 86 63
0 87 66
0 89 69
0 88 70
0 89 70
0 89 70
0 89 71
0 89 71
0 90 72
0 91 74
0 91 74
0 92 75
0 92 75
0 92 75
0 91 75
0 91 74
0 91 74
0 91 74
0 91 72
0 90 69
0 93 72
0 93 73
0 91 71
0 88 69
0 88 69
0 96 67
0 98 68
0 104 74
0 104 75
0 106 73
0 107 75
80 126 53
94 131 0
94 131 0
94 131 0
94 131 0
94 131 0
94 131 0
94 131 0
94 131 0
94 131 0
94 131 0
94 131 0
95 131 0
95 131 0
95 131 0
95 131 0
95 131 0
95 132 0
95 132 0
95 132 0
95 132 0
93 130 0
93 130 0
93 130 0
93 130 0
93 130 0
93 130 0
93 130 0
93 130 0
93 130 0
93 130 0
93 129 0
93 129 0
93 129 0
93 129 0
93 129 0
93 129 0
93 129 0
93 129 0
93 129 0
92 129 0
92 129 0
92 129 0
92 129 0
92 129 0
92 129 0
92 129 0
92 129 0
92 128 0
92 128 0
92 128 0
92 128 0
92 128 0
92 128 0
92 128 0
92 128 0
92 128 0
92 128 0
92 128 0
92 128 0
91 128 0
91 128 0
91 128 0
91 128 0
91 128 0
91 128 0
91 128 0
91 128 0
91 128 0
91 128 0
91 128 0
91 128 0
91 127 0
91 127 0
91 127 0
91 127 0
91 127 0
91 127 0
91 127 0
91 127 0
91 127 0
91 127 0
91 127 0
91 127 0
91 127 0
91 127 0
91 127 0
91 127 0
91 127 0
91 127 0
91 127 0
91 127 0
91 127 0
91 127 0
91 127 0
91 127 0
91 127 0
91 127 0
91 127 0
91 127 0
91 127 0
91 127 0
91 127 0
91 127 0
91 127 0
91 127 0
91 127 0
91 127 0
91 127 0
91 127 0
91 127 0
91 127 0
91 127 0
91 127 0
91 127 0
91 127 0
91 127 0
91 127 0
91 127 0
91 127 0
91 127 0
91 127 0
91 127 0
91 127 0
91 127 0
91 127 0
91 127 0
91 127 0
48 107 66
0 93 66
0 89 62
0 87 58
0 86 56
0 86 49
0 84 43
0 85 39
87 125 14
91 128 0
91 128 0
91 128 0
91 128 0
91 128 0
77 118 26
0 90 48
0 91 51
0 92 52
0 90 52
0 91 53
0 92 57
0 94 61
0 92 61
0 93 61
0 93 61
0 93 63
0 91 67
0 87 65
0 87 65
0 87 65
0 87 65
0 87 65
0 87 65
0 87 65
0 87 65
0 87 65
0 87 65
0 86 64
0 86 62
0 86 62
0 86 63
0 86 63
0 86 63
0 85 62
0 87 68
0 89 70
0 89 70
0 89 70
0 89 71
0 89 71
0 91 74
0 91 74
0 92 75
0 92 75
0 92 75
0 91 75
0 91 74
0 91 74
0 91 74
0 90 70
0 90 68
0 91 69
0 93 73
0 92 72
0 88 69
0 92 68
0 97 67
0 98 68
0 101 70
0 105 74
0 106 73
0 105 72
59 119 68
94 131 0
94 131 0
94 131 0
94 131 0
94 131 0
94 131 0
94 131 0
94 131 0
94 131 0
94 131 0
94 131 0
94 131 0
94 131 0
94 131 0
95 131 0
95 131 0
95 131 0
95 131 0
95 131 0
95 131 0
93 130 0
93 130 0
93 130 0
93 130 0
93 130 0
93 130 0
93 130 0
93 130 0
93 129 0
93 129 0
93 129 0
93 129 0
93 129 0
93 129 0
93 129 0
93 129 0
93 129 0
92 129 0
92 129 0
92 129 0
92 129 0
92 129 0
92 129 0
92 129 0
92 129 0
92 128 0
92 128 0
92 128 0
92 128 0
92 128 0
92 128 0
92 128 0
92 128 0
92 128 0
92 128 0
92 128 0
91 128 0
91 128 0
91 128 0
91 128 0
91 128 0
91 128 0
91 128 0
91 128 0
91 128 0
91 127 0
91 127 0
91 127 0
91 127 0
91 127 0
91 127 0
91 127 0
91 127 0
91 127 0
91 127 0
91 127 0
91 127 0
91 127 0
91 127 0
91 127 0
91 127 0
91 127 0
91 127 0
91 127 0
91 127 0
91 127 0
91 127 0
91 127 0
91 127 0
91 127 0
91 127 0
91 127 0
91 127 0
90 127 0
90 127 0
90 127 0
90 127 0
90 127 0
90 127 0
90 127 0
90 127 0
90 127 0
90 127 0
90 127 0
90 127 0
90 127 0
90 127 0
90 127 0
90 127 0
90 127 0
90 127 0
90 127 0
90 127 0
90 127 0
90 127 0
90 127 0
90 127 0
90 127 0
90 127 0
90 127 0
90 127 0
90 127 0
90 127 0
90 127 0
91 127 0
91 127 0
86 125 28
0 97 71
0 91 64
0 88 60
0 86 57
0 87 51
0 86 46
0 81 40
71 113 27
91 127 0
91 127 0
91 127 0
91 127 0
91 128 0
91 128 0
91 128 0
57 107 38
0 91 50
0 92 52
0 91 52
0 90 52
0 94 60
0 94 61
0 92 60
0 93 61
0 93 61
0 92 60
0 89 56
0 88 58
0 87 64
0 87 65
0 87 65
0 87 65
0 87 65
0 87 65
0 87 65
0 87 65
0 87 65
0 86 63
0 86 62
0 86 62
0 86 62
0 86 62
0 85 62
0 84 61
0 87 65
0 88 70
0 89 70
0 89 70
0 89 70
0 89 71
0 91 73
0 91 75
0 92 75
0 92 75
0 92 75
0 91 75
0 91 75
0 91 74
0 91 73
0 90 68
0 90 68
0 90 68
0 91 70
0 93 72
0 88 69
0 95 67
0 97 67
0 98 68
0 99 68
0 102 68
0 106 73
0 105 72
49 113 67
94 130 0
94 130 0
94 131 0
94 131 0
94 131 0
94 131 0
94 131 0
94 131 0
94 131 0
94 131 0
94 131 0
94 131 0
94 131 0
94 131 0
94 131 0
94 131 0
94 131 0
94 131 0
94 131 0
95 131 0
93 130 0
93 130 0
93 130 0
93 130 0
93 130 0
93 130 0
93 129 0
93 129 0
93 129 0
93 129 0
93 129 0
93 129 0
93 129 0
93 129 0
93 129 0
92 129 0
92 129 0
92 129 0
92 129 0
92 129 0
92 129 0
92 129 0
92 128 0
92 128 0
92 128 0
92 128 0
92 128 0
92 128 0
92 128 0
92 128 0
92 128 0
92 128 0
92 128 0
91 128 0
91 128 0
91 128 0
91 128 0
91 128 0
91 128 0
91 128 0
91 127 0
91 127 0
91 127 0
91 127 0
91 127 0
91 127 0
91 127 0
91 127 0
91 127 0
91 127 0
91 127 0
91 127 0
91 127 0
91 127 0
91 127 0
91 127 0
91 127 0
91 127 0
91 127 0
91 127 0
91 127 0
91 127 0
91 127 0
91 127 0
90 127 0
90 127 0
90 127 0
90 127 0
90 127 0
90 127 0
90 127 0
90 127 0
90 127 0
90 127 0
90 127 0
90 127 0
90 127 0
90 127 0
90 127 0
90 127 0
90 127 0
90 127 0
90 127 0
90 127 0
90 127 0
90 127 0
90 127 0
90 127 0
90 127 0
90 127 0
90 127 0
90 127 0
90 127 0
90 127 0
90 127 0
90 127 0
90 127 0
90 127 0
90 127 0
90 127 0
90 127 0
90 127 0
90 127 0
90 127 0
90 127 0
90 127 0
71 116 51
0 93 66
0 90 63
0 87 57
0 87 55
0 87 48
0 84 43
47 97 36
90 127 0
90 127 0
90 127 0
91 127 0
91 127 0
91 127 0
91 127 0
91 127 0
91 127 0
57 107 40
0 92 52
0 91 52
0 91 54
0 95 60
0 95 61
0 92 60
0 93 60
0 92 59
0 92 59
0 89 56
0 88 55
0 88 55
0 87 59
0 87 64
0 87 65
0 87 65
0 87 65
0 87 65
0 87 65
0 87 64
0 86 62
0 86 62
0 86 62
0 86 62
0 85 61
0 85 61
0 84 62
0 87 65
0 88 68
0 89 70
0 89 70
0 89 70
0 89 70
0 90 72
0 92 75
0 92 75
0 92 75
0 92 75
0 92 75
0 91 75
0 91 74
0 90 71
0 90 68
0 90 68
0 90 68
0 90 68
0 91 70
0 90 69
0 97 66
0 97 66
0 98 68
0 92 58
0 95 58
0 106 73
0 105 72
59 115 59
94 130 0
94 130 0
94 130 0
94 130 0
94 130 0
94 131 0
94 131 0
94 131 0
94 131 0
94 131 0
94 131 0
94 131 0
94 131 0
94 131 0
94 131 0
94 131 0
94 131 0
94 131 0
94 131 0
94 131 0
93 130 0
93 130 0
93 130 0
93 130 0
93 129 0
93 129 0
93 129 0
93 129 0
93 129 0
93 129 0
93 129 0
93 129 0
93 129 0
92 129 0
92 129 0
92 129 0
92 129 0
92 129 0
92 129 0
92 129 0
92 128 0
92 128 0
92 128 0
92 128 0
92 128 0
92 128 0
92 128 0
92 128 0
92 128 0
92 128 0
92 128 0
91 128 0
91 128 0
91 128 0
91 128 0
91 128 0
91 127 0
91 127 0
91 127 0
91 127 0
91 127 0
91 127 0
91 127 0
91 127 0
91 127 0
91 127 0
91 127 0
91 127 0
91 127 0
91 127 0
91 127 0
91 127 0
91 127 0
91 127 0
91 127 0
91 127 0
91 127 0
91 127 0
90 127 0
90 127 0
90 127 0
90 127 0
90 127 0
90 127 0
90 127 0
90 127 0
90 127 0
90 127 0
90 127 0
90 127 0
90 127 0
90 127 0
90 127 0
90 127 0
90 126 0
90 126 0
90 126 0
90 126 0
90 126 0
90 126 0
90 126 0
90 126 0
90 126 0
90 126 0
90 126 0
90 126 0
90 126 0
90 126 0
90 126 0
90 126 0
90 126 0
90 126 0
90 127 0
90 127 0
90 127 0
90 127 0
90 127 0
90 127 0
90 127 0
90 127 0
90 127 0
90 127 0
90 127 0
90 127 0
90 127 0
90 127 0
47 105 63
0 91 64
0 89 60
0 86 57
0 87 51
0 87 45
0 83 41
81 121 21
90 127 0
90 127 0
90 127 0
90 127 0
90 127 0
90 127 0
90 127 0
90 127 0
90 127 0
86 124 17
35 99 46
0 92 52
0 94 58
0 95 61
0 95 61
0 92 59
0 92 59
0 92 59
0 92 59
0 88 55
0 88 55
0 88 54
0 88 54
0 88 54
0 87 60
0 87 65
0 87 64
0 87 65
0 87 65
0 86 63
0 86 62
0 86 62
0 86 61
0 86 61
0 85 61
0 84 60
0 85 62
0 87 65
0 88 66
0 89 70
0 89 70
0 89 70
0 89 70
0 88 69
0 89 70
0 91 73
0 92 75
0 92 75
0 92 75
0 91 75
0 91 73
0 90 68
0 90 68
0 90 68
0 90 68
0 90 68
0 90 66
0 95 66
0 97 66
0 97 66
0 98 68
0 82 44
0 86 46
0 105 72
0 105 71
84 125 36
93 130 0
93 130 0
93 130 0
93 130 0
94 130 0
94 130 0
94 130 0
94 130 0
94 130 0
94 131 0
94 131 0
94 131 0
94 131 0
94 131 0
94 131 0
94 131 0
94 131 0
94 131 0
94 131 0
94 131 0
93 130 0
93 129 0
93 129 0
93 129 0
93 129 0
93 129 0
93 129 0
93 129 0
93 129 0
93 129 0
93 129 0
93 129 0
92 129 0
92 129 0
92 129 0
92 129 0
92 129 0
92 129 0
92 128 0
92 128 0
92 128 0
92 128 0
92 128 0
92 128 0
92 128 0
92 128 0
92 128 0
92 128 0
92 128 0
91 128 0
91 128 0
91 128 0
91 128 0
91 127 0
91 127 0
91 127 0
91 127 0
91 127 0
91 127 0
91 127 0
91 127 0
91 127 0
91 127 0
91 127 0
91 127 0
91 127 0
91 127 0
91 127 0
91 127 0
91 127 0
91 127 0
91 127 0
91 127 0
90 127 0
90 127 0
90 127 0
90 127 0
90 127 0
90 127 0
90 127 0
90 127 0
90 127 0
90 126 0
90 126 0
90 126 0
90 126 0
90 126 0
90 126 0
90 126 0
90 126 0
90 126 0
90 126 0
90 126 0
90 126 0
90 126 0
90 126 0
90 126 0
90 126 0
90 126 0
90 126 0
90 126 0
90 126 0
90 126 0
90 126 0
90 126 0
90 126 0
90 126 0
90 126 0
90 126 0
90 126 0
90 126 0
90 126 0
90 126 0
90 126 0
90 126 0
90 126 0
90 126 0
90 126 0
90 126 0
90 126 0
90 126 0
90 126 0
90 126 0
90 126 0
90 127 0
86 124 28
0 93 66
0 90 62
0 87 57
0 87 56
0 88 47
0 84 42
64 107 32
90 127 0
90 127 0
90 127 0
90 127 0
90 127 0
90 127 0
90 127 0
90 127 0
90 127 0
90 127 0
90 127 0
86 124 17
35 99 45
0 95 55
0 95 54
0 95 52
0 93 56
0 92 59
0 92 59
0 92 58
0 88 54
0 88 54
0 88 54
0 88 54
0 88 54
0 88 54
0 87 55
0 87 60
0 87 64
0 87 64
0 86 62
0 86 61
0 86 61
0 86 61
0 85 61
0 85 61
0 84 60
0 85 63
0 87 64
0 87 65
0 88 68
0 89 70
0 89 70
0 89 70
0 88 69
0 88 68
0 87 66
0 88 68
0 90 72
0 92 75
0 91 75
0 90 71
0 90 68
0 90 67
0 90 66
0 90 64
0 90 63
0 91 63
0 95 65
0 97 67
0 97 66
0 87 56
0 73 39
0 78 41
0 101 66
36 109 65
93 130 0
93 130 0
93 130 0
93 130 0
93 130 0
93 130 0
93 130 0
93 130 0
94 130 0
94 130 0
94 130 0
94 130 0
94 130 0
94 131 0
94 131 0
94 131 0
94 131 0
94 131 0
94 131 0
94 131 0
94 131 0
93 129 0
93 129 0
93 129 0
93 129 0
93 129 0
93 129 0
93 129 0
93 129 0
93 129 0
93 129 0
93 129 0
92 129 0
92 129 0
92 129 0
92 129 0
92 129 0
92 128 0
92 128 0
92 128 0
92 128 0
92 128 0
92 128 0
92 128 0
92 128 0
92 128 0
92 128 0
92 128 0
92 128 0
91 128 0
91 128 0
91 128 0
91 127 0
91 127 0
91 127 0
91 127 0
91 127 0
91 127 0
91 127 0
91 127 0
91 127 0
91 127 0
91 127 0
91 127 0
91 127 0
91 127 0
91 127 0
91 127 0
91 127 0
91 127 0
90 127 0
90 127 0
90 127 0
90 127 0
90 127 0
90 127 0
90 126 0
90 126 0
90 126 0
90 126 0
90 126 0
90 126 0
90 126 0
90 126 0
90 126 0
90 126 0
90 126 0
90 126 0
90 126 0
90 126 0
90 126 0
90 126 0
90 126 0
90 126 0
90 126 0
90 126 0
90 126 0
90 126 0
90 126 0
90 126 0
90 126 0
90 126 0
90 126 0
90 126 0
90 126 0
90 126 0
90 126 0
90 126 0
90 126 0
90 126 0
90 126 0
90 126 0
90 126 0
90 126 0
90 126 0
90 126 0
90 126 0
90 126 0
90 126 0
90 126 0
90 126 0
90 126 0
90 126 0
90 126 0
90 126 0
90 126 0
70 115 48
0 90 62
0 89 58
0 87 57
0 88 52
0 88 44
34 89 40
90 127 0
90 127 0
90 127 0
90 127 0
90 127 0
90 127 0
90 127 0
90 127 0
90 127 0
90 127 0
90 127 0
90 127 0
90 127 0
86 124 15
47 104 38
0 95 46
0 95 48
0 95 50
0 94 54
0 92 59
0 91 57
0 88 54
0 88 54
0 88 54
0 88 54
0 88 54
0 88 54
0 88 54
0 88 54
0 87 55
0 86 60
0 86 61
0 86 61
0 86 61
0 86 61
0 85 61
0 84 60
0 84 61
0 86 63
0 87 64
0 88 65
0 88 66
0 89 70
0 89 70
0 89 70
0 88 68
0 88 68
0 87 67
0 87 66
0 87 66
0 88 67
0 90 71
0 90 66
0 90 64
0 90 63
0 90 63
0 90 63
0 90 63
0 92 63
0 95 65
0 97 66
0 97 67
78 117 30
0 62 38
0 65 41
0 101 65
66 117 53
93 130 0
93 130 0
93 130 0
93 130 0
93 130 0
93 130 0
93 130 0
93 130 0
93 130 0
93 130 0
93 130 0
93 130 0
94 130 0
94 130 0
94 130 0
94 130 0
94 131 0
94 131 0
94 131 0
94 131 0
94 131 0
93 129 0
93 129 0
93 129 0
93 129 0
93 129 0
93 129 0
93 129 0
93 129 0
93 129 0
93 129 0
92 129 0
92 129 0
92 129 0
92 129 0
92 128 0
92 128 0
92 128 0
92 128 0
92 128 0
92 128 0
92 128 0
92 128 0
92 128 0
92 128 0
92 128 0
92 128 0
92 128 0
91 128 0
91 128 0
91 127 0
91 127 0
91 127 0
91 127 0
91 127 0
91 127 0
91 127 0
91 127 0
91 127 0
91 127 0
91 127 0
91 127 0
91 127 0
91 127 0
91 127 0
91 127 0
91 127 0
90 127 0
90 127 0
90 126 0
90 126 0
90 126 0
90 126 0
90 126 0
90 126 0
90 126 0
90 126 0
90 126 0
90 126 0
90 126 0
90 126 0
90 126 0
90 126 0
90 126 0
90 126 0
90 126 0
90 126 0
90 126 0
90 126 0
90 126 0
90 126 0
90 126 0
90 126 0
90 126 0
90 126 0
90 126 0
90 126 0
90 126 0
90 126 0
90 126 0
90 126 0
90 126 0
90 126 0
90 126 0
89 126 0
89 126 0
89 126 0
89 126 0
89 126 0
89 126 0
89 126 0
89 126 0
89 126 0
89 126 0
89 126 0
89 126 0
89 126 0
89 126 0
89 126 0
89 126 0
89 126 0
89 126 0
90 126 0
90 126 0
90 126 0
90 126 0
47 100 55
0 88 59
0 88 58
0 87 56
0 90 46
56 104 31
81 119 22
90 126 0
90 126 0
90 126 0
90 126 0
90 126 0
90 126 0
89 126 0
89 126 0
89 126 0
89 126 0
89 126 0
89 126 0
89 126 0
89 126 0
90 126 0
64 112 32
0 95 45
0 95 46
0 95 48
0 95 50
0 90 55
0 88 54
0 88 54
0 88 53
0 88 53
0 88 53
0 88 52
0 88 52
0 88 52
0 87 52
0 86 49
0 86 50
0 86 56
0 86 61
0 85 60
0 85 60
0 84 60
0 84 61
0 86 63
0 87 64
0 88 65
0 88 65
0 89 69
0 89 70
0 89 69
0 88 68
0 88 68
0 88 68
0 87 66
0 87 66
0 87 66
0 88 66
0 90 63
0 89 63
0 90 63
0 90 63
0 90 63
0 91 63
0 93 63
0 95 65
0 97 66
58 111 55
78 114 24
0 62 40
0 84 53
0 103 66
88 127 26
93 129 0
93 130 0
93 130 0
93 130 0
93 130 0
93 130 0
93 130 0
93 130 0
93 130 0
93 130 0
93 130 0
93 130 0
93 130 0
93 130 0
93 130 0
94 130 0
94 130 0
94 130 0
94 130 0
94 130 0
94 131 0
93 129 0
93 129 0
93 129 0
93 129 0
93 129 0
93 129 0
93 129 0
93 129 0
92 129 0
92 129 0
92 129 0
92 129 0
92 129 0
92 128 0
92 128 0
92 128 0
92 128 0
92 128 0
92 128 0
92 128 0
92 128 0
92 128 0
92 128 0
92 128 0
92 128 0
91 128 0
91 128 0
91 127 0
91 127 0
91 127 0
91 127 0
91 127 0
91 127 0
91 127 0
91 127 0
91 127 0
91 127 0
91 127 0
91 127 0
91 127 0
91 127 0
91 127 0
91 127 0
90 127 0
90 126 0
90 126 0
90 126 0
90 126 0
90 126 0
90 126 0
90 126 0
90 126 0
90 126 0
90 126 0
90 126 0
90 126 0
90 126 0
90 126 0
90 126 0
90 126 0
90 126 0
90 126 0
90 126 0
90 126 0
90 126 0
90 126 0
90 126 0
90 126 0
90 126 0
90 126 0
90 126 0
90 126 0
90 126 0
90 126 0
89 126 0
89 126 0
89 126 0
89 126 0
89 126 0
89 126 0
89 126 0
89 126 0
89 126 0
89 126 0
89 126 0
89 126 0
89 126 0
89 126 0
89 126 0
89 126 0
89 126 0
89 126 0
89 126 0
89 126 0
89 126 0
89 126 0
89 126 0
89 126 0
89 126 0
89 126 0
89 126 0
89 126 0
89 126 0
89 126 0
70 115 51
0 89 67
0 88 63
0 88 60
0 88 51
34 97 41
85 123 15
89 126 0
89 126 0
89 126 0
89 126 0
89 126 0
89 126 0
89 126 0
89 126 0
89 126 0
89 126 0
89 126 0
89 126 0
89 126 0
89 126 0
89 126 0
89 126 0
89 126 0
75 118 25
34 100 43
0 95 46
0 95 47
0 93 43
0 91 46
0 89 51
0 88 52
0 88 52
0 88 52
0 88 52
0 88 52
0 88 52
0 87 50
0 86 48
0 86 48
0 86 48
0 86 50
0 85 54
0 85 59
0 84 59
0 85 62
0 87 63
0 88 64
0 88 65
0 88 65
0 88 66
0 89 70
0 88 68
0 88 68
0 88 68
0 88 68
0 88 67
0 87 66
0 87 66
0 89 66
0 91 64
0 89 63
0 90 63
0 90 63
0 90 63
0 93 62
0 93 62
0 94 64
0 97 66
83 124 34
36 75 38
0 66 44
0 96 60
48 111 61
92 129 0
92 129 0
93 129 0
93 129 0
93 129 0
93 129 0
93 130 0
93 130 0
93 130 0
93 130 0
93 130 0
93 130 0
93 130 0
93 130 0
93 130 0
93 130 0
93 130 0
93 130 0
93 130 0
94 130 0
94 130 0
94 130 0
93 129 0
93 129 0
93 129 0
93 129 0
93 129 0
93 129 0
93 129 0
93 129 0
92 129 0
92 129 0
92 129 0
92 128 0
92 128 0
92 128 0
92 128 0
92 128 0
92 128 0
92 128 0
92 128 0
92 128 0
92 128 0
92 128 0
92 128 0
92 128 0
91 128 0
91 127 0
91 127 0
91 127 0
91 127 0
91 127 0
91 127 0
91 127 0
91 127 0
91 127 0
91 127 0
91 127 0
91 127 0
91 127 0
91 127 0
91 127 0
91 127 0
90 126 0
90 126 0
90 126 0
90 126 0
90 126 0
90 126 0
90 126 0
90 126 0
90 126 0
90 126 0
90 126 0
90 126 0
90 126 0
90 126 0
90 126 0
90 126 0
90 126 0
90 126 0
90 126 0
90 126 0
90 126 0
90 126 0
90 126 0
90 126 0
90 126 0
90 126 0
90 126 0
89 126 0
89 126 0
89 126 0
89 126 0
89 126 0
89 126 0
89 126 0
89 126 0
89 126 0
89 126 0
89 126 0
89 126 0
89 126 0
89 126 0
89 126 0
89 126 0
89 126 0
89 126 0
89 126 0
89 126 0
89 126 0
89 126 0
89 126 0
89 126 0
89 126 0
89 126 0
89 126 0
89 126 0
89 126 0
89 126 0
89 126 0
89 126 0
89 126 0
89 126 0
89 126 0
85 123 26
0 93 70
0 90 68
0 89 67
0 88 62
0 89 44
80 120 21
89 126 0
89 126 0
89 126 0
89 126 0
89 126 0
89 126 0
89 126 0
89 126 0
89 126 0
89 126 0
89 126 0
89 126 0
89 126 0
89 126 0
89 126 0
89 126 0
89 126 0
89 126 0
89 126 0
85 123 16
47 104 40
0 95 46
0 93 42
0 92 40
0 93 40
0 92 46
0 89 51
0 88 52
0 88 52
0 88 52
0 88 52
0 86 48
0 86 48
0 86 48
0 86 48
0 86 48
0 86 48
0 86 47
0 86 53
0 86 61
0 87 62
0 87 63
0 88 64
0 88 65
0 88 65
0 89 68
0 88 68
0 88 68
0 88 68
0 88 68
0 88 68
0 87 66
0 87 66
0 92 66
0 91 64
0 89 62
0 90 62
0 90 63
0 91 62
0 93 62
0 93 62
0 94 64
48 107 59
72 108 29
0 64 43
0 85 54
0 99 61
78 122 42
92 129 0
92 129 0
92 129 0
92 129 0
92 129 0
93 129 0
93 129 0
93 129 0
93 129 0
93 130 0
93 130 0
93 130 0
93 130 0
93 130 0
93 130 0
93 130 0
93 130 0
93 130 0
93 130 0
93 130 0
93 130 0
93 130 0
93 129 0
93 129 0
93 129 0
93 129 0
93 129 0
93 129 0
92 129 0
92 129 0
92 129 0
92 128 0
92 128 0
92 128 0
92 128 0
92 128 0
92 128 0
92 128 0
92 128 0
92 128 0
92 128 0
92 128 0
92 128 0
92 128 0
92 128 0
91 127 0
91 127 0
91 127 0
91 127 0
91 127 0
91 127 0
91 127 0
91 127 0
91 127 0
91 127 0
91 127 0
91 127 0
91 127 0
91 127 0
91 127 0
91 126 0
90 126 0
90 126 0
90 126 0
90 126 0
90 126 0
90 126 0
90 126 0
90 126 0
90 126 0
90 126 0
90 126 0
90 126 0
90 126 0
90 126 0
90 126 0
90 126 0
90 126 0
90 126 0
90 126 0
90 126 0
90 126 0
90 126 0
90 126 0
90 126 0
89 126 0
89 126 0
89 126 0
89 125 0
89 125 0
89 125 0
89 125 0
89 125 0
89 125 0
89 125 0
89 125 0
89 125 0
89 125 0
89 125 0
89 125 0
89 125 0
89 125 0
89 125 0
89 125 0
89 125 0
89 125 0
89 125 0
89 125 0
89 125 0
89 125 0
89 125 0
89 125 0
89 125 0
89 125 0
89 125 0
89 125 0
89 125 0
89 125 0
89 125 0
89 126 0
89 126 0
89 126 0
89 126 0
89 126 0
89 126 0
34 103 72
0 90 68
0 90 68
0 90 66
0 87 49
63 110 33
89 126 0
89 126 0
89 126 0
89 126 0
89 126 0
89 126 0
89 126 0
89 126 0
89 126 0
89 126 0
89 126 0
89 126 0
89 126 0
89 126 0
89 126 0
89 126 0
89 126 0
89 126 0
89 126 0
89 126 0
89 126 0
89 126 0
63 111 33
0 93 42
0 92 40
0 92 40
0 92 40
0 94 40
0 92 46
0 89 51
0 88 52
0 87 50
0 86 48
0 86 48
0 87 46
0 87 45
0 87 44
0 87 42
0 86 42
0 87 48
0 87 57
0 87 59
0 87 59
0 87 59
0 87 59
0 87 59
0 87 60
0 87 61
0 87 64
0 88 68
0 88 68
0 88 68
0 88 67
0 87 66
0 93 66
0 92 65
0 89 62
0 90 62
0 90 62
0 93 62
0 93 62
0 93 62
0 94 63
77 118 36
0 64 43
0 72 47
0 99 61
35 103 58
92 129 0
92 129 0
92 129 0
92 129 0
92 129 0
92 129 0
92 129 0
92 129 0
92 129 0
92 129 0
93 129 0
93 129 0
93 129 0
93 129 0
93 130 0
93 130 0
93 130 0
93 130 0
93 130 0
93 130 0
93 130 0
93 130 0
93 130 0
93 129 0
93 129 0
93 129 0
93 129 0
93 129 0
93 129 0
92 129 0
92 129 0
92 128 0
92 128 0
92 128 0
92 128 0
92 128 0
92 128 0
92 128 0
92 128 0
92 128 0
92 128 0
92 128 0
92 128 0
92 128 0
92 128 0
91 127 0
91 127 0
91 127 0
91 127 0
91 127 0
91 127 0
91 127 0
91 127 0
91 127 0
91 127 0
91 127 0
91 127 0
91 127 0
91 127 0
91 127 0
91 126 0
90 126 0
90 126 0
90 126 0
90 126 0
90 126 0
90 126 0
90 126 0
90 126 0
90 126 0
90 126 0
90 126 0
90 126 0
90 126 0
90 126 0
90 126 0
90 126 0
90 126 0
90 126 0
90 126 0
90 126 0
90 125 0
90 125 0
89 125 0
89 125 0
89 125 0
89 125 0
89 125 0
89 125 0
89 125 0
89 125 0
89 125 0
89 125 0
89 125 0
89 125 0
89 125 0
89 125 0
89 125 0
89 125 0
89 125 0
89 125 0
89 125 0
89 125 0
89 125 0
89 125 0
89 125 0
89 125 0
89 125 0
89 125 0
89 125 0
89 125 0
89 125 0
89 125 0
89 125 0
89 125 0
89 125 0
89 125 0
89 125 0
89 125 0
89 125 0
89 125 0
89 125 0
89 125 0
89 125 0
89 125 0
56 113 68
0 90 68
0 90 68
0 91 69
0 88 55
34 95 42
89 126 0
89 126 0
89 126 0
89 126 0
89 126 0
89 126 0
89 125 0
89 125 0
88 125 0
88 125 0
88 125 0
88 125 0
88 125 0
88 125 0
88 125 0
88 125 0
88 125 0
88 125 0
88 125 0
88 125 0
88 125 0
88 125 0
88 125 0
88 126 0
80 120 18
63 110 30
34 97 37
0 92 40
0 92 40
0 94 40
0 94 40
0 91 46
0 88 43
0 88 43
0 88 42
0 87 42
0 87 42
0 86 41
0 85 41
0 86 45
0 88 48
0 90 55
0 88 58
0 87 59
0 87 59
0 87 59
0 87 59
0 87 59
0 86 57
0 86 55
0 86 55
0 87 60
0 87 64
0 88 67
0 87 66
0 94 66
0 92 65
0 89 62
0 90 62
0 92 62
0 93 62
0 93 62
0 93 62
35 101 58
65 102 32
0 67 44
0 88 55
0 99 61
71 117 43
91 128 0
92 128 0
92 128 0
92 129 0
92 129 0
92 129 0
92 129 0
92 129 0
92 129 0
92 129 0
92 129 0
92 129 0
93 129 0
93 129 0
93 129 0
93 129 0
93 129 0
93 130 0
93 130 0
93 130 0
93 130 0
93 130 0
93 130 0
93 129 0
93 129 0
93 129 0
93 129 0
93 129 0
92 129 0
92 129 0
92 128 0
92 128 0
92 128 0
92 128 0
92 128 0
92 128 0
92 128 0
92 128 0
92 128 0
92 128 0
92 128 0
92 128 0
92 128 0
92 128 0
91 127 0
91 127 0
91 127 0
91 127 0
91 127 0
91 127 0
91 127 0
91 127 0
91 127 0
91 127 0
91 127 0
91 127 0
91 127 0
91 127 0
91 126 0
91 126 0
90 126 0
90 126 0
90 126 0
90 126 0
90 126 0
90 126 0
90 126 0
90 126 0
90 126 0
90 126 0
90 126 0
90 126 0
90 126 0
90 126 0
90 126 0
90 126 0
90 125 0
90 125 0
90 125 0
90 125 0
89 125 0
89 125 0
89 125 0
89 125 0
89 125 0
89 125 0
89 125 0
89 125 0
89 125 0
89 125 0
89 125 0
89 125 0
89 125 0
89 125 0
89 125 0
89 125 0
89 125 0
89 125 0
89 125 0
89 125 0
89 125 0
89 125 0
89 125 0
89 125 0
89 125 0
89 125 0
89 125 0
89 125 0
89 125 0
89 125 0
89 125 0
89 125 0
89 125 0
89 125 0
88 125 0
89 125 0
89 125 0
89 125 0
89 125 0
89 125 0
89 125 0
89 125 0
89 125 0
89 125 0
75 121 54
0 93 70
0 91 68
0 91 69
0 89 60
0 88 46
84 123 16
89 125 0
89 125 0
89 125 0
88 125 0
88 125 0
88 125 0
88 125 0
88 125 0
88 125 0
88 125 0
88 125 0
88 125 0
88 125 0
88 125 0
88 125 0
88 125 0
88 125 0
88 125 0
88 125 0
88 125 0
88 125 0
88 125 0
88 125 0
88 125 0
88 125 0
88 125 0
88 125 0
79 120 20
55 106 32
0 92 39
0 93 40
0 94 40
0 90 36
0 90 36
0 90 36
0 89 37
0 88 37
0 86 38
0 86 44
0 87 46
0 88 48
0 91 55
0 88 57
0 87 59
0 87 59
0 87 59
0 87 59
0 87 59
0 86 59
0 85 56
0 86 54
0 86 54
0 86 54
0 86 54
0 87 57
0 93 65
0 93 65
0 89 62
0 90 62
0 93 62
0 93 62
0 94 59
0 98 56
71 115 37
0 68 43
0 74 47
0 99 61
48 106 55
91 128 0
91 128 0
91 128 0
91 128 0
91 128 0
92 128 0
92 129 0
92 129 0
92 129 0
92 129 0
92 129 0
92 129 0
92 129 0
92 129 0
92 129 0
92 129 0
93 129 0
93 129 0
93 129 0
93 129 0
93 130 0
93 130 0
93 130 0
93 130 0
93 129 0
93 129 0
93 129 0
93 129 0
92 129 0
92 128 0
92 128 0
92 128 0
92 128 0
92 128 0
92 128 0
92 128 0
92 128 0
92 128 0
92 128 0
92 128 0
92 128 0
92 128 0
92 128 0
92 128 0
91 127 0
91 127 0
91 127 0
91 127 0
91 127 0
91 127 0
91 127 0
91 127 0
91 127 0
91 127 0
91 127 0
91 127 0
91 127 0
91 127 0
91 126 0
91 126 0
90 126 0
90 126 0
90 126 0
90 126 0
90 126 0
90 126 0
90 126 0
90 126 0
90 126 0
90 126 0
90 126 0
90 126 0
90 126 0
90 126 0
90 125 0
90 125 0
90 125 0
90 125 0
90 125 0
89 125 0
89 125 0
89 125 0
89 125 0
89 125 0
89 125 0
89 125 0
89 125 0
89 125 0
89 125 0
89 125 0
89 125 0
89 125 0
89 125 0
89 125 0
89 125 0
89 125 0
89 125 0
89 125 0
89 125 0
89 125 0
89 125 0
89 125 0
89 125 0
88 125 0
88 125 0
88 125 0
88 125 0
88 125 0
88 125 0
88 125 0
88 125 0
88 125 0
88 125 0
88 125 0
88 125 0
88 125 0
88 125 0
88 125 0
88 125 0
88 125 0
88 125 0
88 125 0
88 125 0
75 120 54
69 119 61
0 103 79
0 91 69
0 91 69
0 90 65
0 86 47
69 112 31
88 125 0
88 125 0
88 125 0
88 125 0
88 125 0
88 125 0
88 125 0
88 125 0
88 125 0
88 125 0
88 125 0
88 125 0
88 125 0
88 125 0
88 125 0
88 125 0
88 125 0
88 125 0
88 125 0
88 125 0
88 125 0
88 125 0
88 125 0
88 125 0
88 125 0
88 125 0
88 125 0
88 125 0
88 125 0
88 125 0
88 125 0
74 116 24
55 106 33
0 90 34
0 89 35
0 89 35
0 88 35
0 88 35
0 87 35
0 86 39
0 87 46
0 89 48
0 93 54
0 89 57
0 88 57
0 87 59
0 87 59
0 87 59
0 87 59
0 86 59
0 86 59
0 86 55
0 86 54
0 86 54
0 86 54
0 87 54
0 89 57
0 94 66
0 90 62
0 92 62
0 93 60
0 96 56
0 97 54
76 119 34
47 89 39
0 71 46
0 88 55
0 97 62
82 122 32
91 128 0
91 128 0
91 128 0
91 128 0
91 128 0
91 128 0
91 128 0
92 128 0
92 129 0
92 129 0
92 129 0
92 129 0
92 129 0
92 129 0
92 129 0
92 129 0
92 129 0
92 129 0
92 129 0
93 129 0
93 129 0
93 129 0
93 129 0
93 129 0
93 129 0
93 129 0
93 129 0
93 129 0
92 128 0
92 128 0
92 128 0
92 128 0
92 128 0
92 128 0
92 128 0
92 128 0
92 128 0
92 128 0
92 128 0
92 128 0
92 128 0
92 128 0
92 127 0
92 127 0
91 127 0
91 127 0
91 127 0
91 127 0
91 127 0
91 127 0
91 127 0
91 127 0
91 127 0
91 127 0
91 127 0
91 127 0
91 127 0
91 126 0
91 126 0
91 126 0
90 126 0
90 126 0
90 126 0
90 126 0
90 126 0
90 126 0
90 126 0
90 126 0
90 126 0
90 126 0
90 126 0
90 126 0
90 125 0
90 125 0
90 125 0
90 125 0
90 125 0
89 125 0
89 125 0
89 125 0
89 125 0
89 125 0
89 125 0
89 125 0
89 125 0
89 125 0
89 125 0
89 125 0
89 125 0
89 125 0
89 125 0
89 125 0
89 125 0
89 125 0
89 125 0
89 125 0
89 125 0
88 125 0
88 124 0
88 124 0
88 124 0
88 124 0
88 124 0
88 124 0
88 124 0
88 124 0
88 124 0
88 124 0
88 124 0
88 124 0
88 124 0
88 124 0
88 124 0
88 125 0
88 125 0
88 125 0
88 125 0
88 125 0
88 125 0
88 125 0
88 125 0
62 114 63
0 100 77
0 104 81
0 108 85
0 91 69
0 91 69
0 90 67
0 87 50
46 99 41
88 125 0
88 125 0
88 125 0
88 125 0
88 125 0
88 125 0
88 125 0
88 125 0
88 125 0
88 125 0
88 125 0
88 125 0
88 125 0
88 125 0
88 125 0
88 125 0
88 125 0
88 125 0
88 125 0
88 125 0
88 125 0
88 125 0
88 125 0
88 125 0
88 125 0
88 125 0
88 125 0
88 125 0
88 125 0
88 125 0
88 125 0
88 125 0
88 125 0
88 125 0
88 125 0
88 125 0
88 125 0
88 125 0
88 125 0
88 125 0
55 103 33
0 87 46
0 89 48
0 94 54
0 90 56
0 89 57
0 88 58
0 88 59
0 88 59
0 87 59
0 86 59
0 86 59
0 86 58
0 86 54
0 86 54
0 86 54
0 88 54
0 88 54
0 90 58
0 92 61
0 94 57
0 96 54
0 97 54
76 119 33
81 118 22
0 71 45
0 76 49
0 97 61
64 112 48
90 127 0
90 127 0
90 127 0
90 127 0
90 127 0
91 127 0
91 128 0
91 128 0
91 128 0
91 128 0
91 128 0
92 128 0
92 128 0
92 129 0
92 129 0
92 129 0
92 129 0
92 129 0
92 129 0
92 129 0
92 129 0
92 129 0
92 129 0
93 129 0
93 129 0
93 129 0
93 129 0
93 129 0
92 128 0
92 128 0
92 128 0
92 128 0
92 128 0
92 128 0
92 128 0
92 128 0
92 128 0
92 128 0
92 128 0
92 128 0
92 128 0
92 128 0
92 127 0
92 127 0
91 127 0
91 127 0
91 127 0
91 127 0
91 127 0
91 127 0
91 127 0
91 127 0
91 127 0
91 127 0
91 127 0
91 127 0
91 127 0
91 126 0
91 126 0
91 126 0
91 126 0
90 126 0
90 126 0
90 126 0
90 126 0
90 126 0
90 126 0
90 126 0
90 126 0
90 126 0
90 126 0
90 126 0
90 125 0
90 125 0
90 125 0
90 125 0
90 125 0
89 125 0
89 125 0
89 125 0
89 125 0
89 125 0
89 125 0
89 125 0
89 125 0
89 125 0
89 125 0
89 125 0
89 125 0
89 125 0
89 125 0
89 124 0
89 124 0
89 124 0
89 124 0
88 124 0
88 124 0
88 124 0
88 124 0
88 124 0
88 124 0
88 124 0
88 124 0
88 124 0
88 124 0
88 124 0
88 124 0
88 124 0
88 124 0
88 124 0
88 124 0
88 124 0
88 124 0
88 124 0
88 124 0
88 124 0
88 124 0
88 124 0
88 124 0
88 124 0
84 123 34
69 118 63
55 115 75
0 110 90
0 103 81
0 90 68
0 91 69
0 91 69
0 87 58
34 91 45
84 122 17
88 125 0
88 125 0
88 125 0
88 125 0
88 125 0
88 125 0
88 125 0
88 125 0
88 125 0
88 125 0
88 125 0
88 125 0
88 125 0
88 125 0
88 125 0
88 125 0
88 125 0
88 125 0
88 125 0
88 125 0
88 125 0
87 125 0
87 125 0
87 125 0
87 125 0
87 125 0
87 125 0
87 125 0
87 125 0
87 125 0
87 125 0
87 125 0
87 125 0
87 125 0
88 125 0
88 125 0
88 125 0
88 125 0
88 125 0
88 125 0
55 105 39
0 88 49
0 89 50
0 94 54
0 91 56
0 89 57
0 89 57
0 88 58
0 88 59
0 87 59
0 86 59
0 86 59
0 86 59
0 86 57
0 86 54
0 87 54
0 88 53
0 88 54
0 88 56
0 95 54
0 96 53
0 97 54
75 119 33
89 126 0
47 90 41
0 73 47
0 93 59
34 101 58
85 124 23
89 127 0
90 127 0
90 127 0
90 127 0
90 127 0
90 127 0
90 127 0
90 127 0
90 127 0
91 128 0
91 128 0
91 128 0
91 128 0
91 128 0
92 128 0
92 128 0
92 129 0
92 129 0
92 129 0
92 129 0
92 129 0
92 129 0
92 129 0
92 129 0
92 129 0
93 129 0
93 129 0
93 128 0
92 128 0
92 128 0
92 128 0
92 128 0
92 128 0
92 128 0
92 128 0
92 128 0
92 128 0
92 128 0
92 128 0
92 128 0
92 128 0
92 127 0
92 127 0
92 127 0
91 127 0
91 127 0
91 127 0
91 127 0
91 127 0
91 127 0
91 127 0
91 127 0
91 127 0
91 127 0
91 127 0
91 127 0
91 126 0
91 126 0
91 126 0
91 126 0
90 126 0
90 126 0
90 126 0
90 126 0
90 126 0
90 126 0
90 126 0
90 126 0
90 126 0
90 126 0
90 126 0
90 125 0
90 125 0
90 125 0
90 125 0
90 125 0
89 125 0
89 125 0
89 125 0
89 125 0
89 125 0
89 125 0
89 125 0
89 125 0
89 125 0
89 125 0
89 124 0
89 124 0
89 124 0
89 124 0
89 124 0
89 124 0
88 124 0
88 124 0
88 124 0
88 124 0
88 124 0
88 124 0
88 124 0
88 124 0
88 124 0
88 124 0
88 124 0
88 124 0
88 124 0
88 124 0
88 124 0
88 124 0
88 124 0
88 124 0
88 124 0
88 124 0
88 124 0
88 124 0
88 124 0
88 124 0
88 124 0
88 124 0
88 124 0
74 120 56
0 109 89
0 109 89
0 104 83
0 93 71
0 89 68
0 90 68
0 91 69
34 94 60
62 106 40
84 121 19
88 125 0
88 125 0
88 125 0
88 125 0
88 125 0
88 125 0
88 125 0
88 125 0
88 125 0
88 125 0
88 125 0
88 125 0
88 125 0
88 125 0
88 125 0
88 125 0
88 125 0
88 125 0
88 125 0
88 125 0
87 125 0
87 125 0
87 125 0
87 125 0
87 125 0
87 125 0
87 125 0
87 125 0
87 125 0
87 125 0
87 125 0
87 125 0
87 125 0
87 125 0
87 125 0
87 125 0
87 125 0
87 125 0
87 125 0
87 125 0
87 125 0
68 113 35
0 89 52
0 89 52
0 94 54
0 94 56
0 89 57
0 89 57
0 89 57
0 88 59
0 87 59
0 87 59
0 87 59
0 87 59
0 86 59
0 86 55
0 88 53
0 88 55
0 87 57
0 94 58
0 96 53
0 96 53
75 118 33
88 126 0
69 108 32
0 73 47
0 80 52
0 97 61
69 115 43
89 126 0
89 126 0
89 126 0
89 126 0
89 126 0
89 126 0
89 127 0
90 127 0
90 127 0
90 127 0
90 127 0
90 127 0
91 128 0
91 128 0
91 128 0
91 128 0
91 128 0
91 128 0
91 128 0
92 128 0
92 128 0
92 129 0
92 129 0
92 129 0
92 129 0
92 129 0
93 129 0
93 128 0
92 128 0
92 128 0
92 128 0
92 128 0
92 128 0
92 128 0
92 128 0
92 128 0
92 128 0
92 128 0
92 128 0
92 128 0
92 128 0
92 127 0
92 127 0
92 127 0
92 127 0
91 127 0
91 127 0
91 127 0
91 127 0
91 127 0
91 127 0
91 127 0
91 127 0
91 127 0
91 127 0
91 127 0
91 126 0
91 126 0
91 126 0
91 126 0
91 126 0
90 126 0
90 126 0
90 126 0
90 126 0
90 126 0
90 126 0
90 126 0
90 126 0
90 126 0
90 125 0
90 125 0
90 125 0
90 125 0
90 125 0
90 125 0
89 125 0
89 125 0
89 125 0
89 125 0
89 125 0
89 125 0
89 125 0
89 125 0
89 125 0
89 124 0
89 124 0
89 124 0
89 124 0
89 124 0
89 124 0
88 124 0
88 124 0
88 124 0
88 124 0
88 124 0
88 124 0
88 124 0
88 124 0
88 124 0
88 124 0
88 124 0
88 124 0
88 124 0
88 124 0
88 124 0
88 124 0
88 124 0
88 124 0
88 124 0
88 124 0
88 124 0
88 124 0
88 124 0
88 124 0
88 124 0
88 124 0
88 124 0
88 124 0
88 124 0
88 124 0
74 119 56
34 100 71
0 90 68
0 90 68
0 90 68
0 90 68
34 96 63
88 124 0
88 124 0
88 124 0
88 124 0
88 124 0
88 124 0
88 124 0
88 124 0
88 124 0
87 124 0
87 124 0
87 125 0
87 125 0
87 125 0
87 125 0
87 125 0
87 125 0
87 125 0
87 125 0
87 125 0
87 125 0
87 125 0
87 125 0
87 125 0
87 125 0
87 125 0
87 125 0
87 125 0
87 125 0
87 125 0
87 125 0
87 125 0
87 125 0
87 125 0
87 125 0
87 125 0
87 125 0
87 125 0
87 125 0
87 125 0
87 125 0
87 125 0
87 125 0
87 125 0
74 116 33
0 90 54
0 90 54
0 93 53
0 95 55
0 89 57
0 89 56
0 89 57
0 89 57
0 87 59
0 87 59
0 87 59
0 87 59
0 87 58
0 87 57
0 87 57
0 87 57
0 89 58
0 99 57
0 96 53
69 114 37
88 125 0
88 126 0
34 82 45
0 74 49
0 93 58
34 101 58
89 126 0
89 126 0
89 126 0
89 126 0
89 126 0
89 126 0
89 126 0
89 126 0
89 126 0
89 126 0
89 126 0
90 127 0
90 127 0
90 127 0
90 127 0
91 127 0
91 128 0
91 128 0
91 128 0
91 128 0
91 128 0
91 128 0
91 128 0
92 128 0
92 128 0
92 129 0
92 129 0
93 128 0
93 128 0
92 128 0
92 128 0
92 128 0
92 128 0
92 128 0
92 128 0
92 128 0
92 128 0
92 128 0
92 128 0
92 128 0
92 128 0
92 127 0
92 127 0
92 127 0
92 127 0
92 127 0
91 127 0
91 127 0
91 127 0
91 127 0
91 127 0
91 127 0
91 127 0
91 127 0
91 127 0
91 127 0
91 126 0
91 126 0
91 126 0
91 126 0
91 126 0
90 126 0
90 126 0
90 126 0
90 126 0
90 126 0
90 126 0
90 126 0
90 126 0
90 126 0
90 125 0
90 125 0
90 125 0
90 125 0
90 125 0
90 125 0
90 125 0
89 125 0
89 125 0
89 125 0
89 125 0
89 125 0
89 125 0
89 125 0
89 124 0
89 124 0
89 124 0
89 124 0
89 124 0
89 124 0
88 124 0
88 124 0
88 124 0
88 124 0
88 124 0
88 124 0
88 124 0
88 124 0
88 124 0
88 124 0
88 124 0
88 124 0
88 124 0
88 124 0
88 124 0
88 124 0
88 124 0
88 124 0
88 124 0
88 124 0
88 124 0
88 124 0
87 124 0
87 124 0
87 124 0
87 124 0
87 124 0
87 124 0
87 124 0
87 124 0
87 124 0
87 124 0
87 124 0
87 124 0
79 119 15
55 105 45
0 92 55
33 96 58
83 121 26
87 124 0
87 124 0
87 124 0
87 124 0
87 124 0
87 124 0
87 124 0
87 124 0
87 124 0
87 124 0
87 124 0
87 124 0
87 124 0
87 124 0
87 124 0
87 125 0
87 125 0
87 125 0
87 125 0
87 125 0
87 125 0
87 125 0
87 125 0
87 125 0
87 125 0
87 125 0
87 125 0
87 125 0
87 125 0
87 125 0
87 125 0
87 125 0
87 125 0
87 125 0
87 125 0
87 125 0
87 125 0
87 125 0
87 125 0
87 125 0
87 125 0
87 125 0
87 125 0
87 125 0
74 117 34
0 91 55
0 91 55
0 91 55
0 96 53
0 90 56
0 89 56
0 89 57
0 89 57
0 88 58
0 87 58
0 87 57
0 87 57
0 87 57
0 87 57
0 87 57
0 87 57
0 95 58
0 98 56
34 99 51
88 125 0
88 125 0
62 103 37
0 74 49
0 86 55
0 97 61
79 120 31
88 125 0
88 125 0
88 126 0
88 126 0
88 126 0
88 126 0
89 126 0
89 126 0
89 126 0
89 126 0
89 126 0
89 126 0
89 126 0
90 127 0
90 127 0
90 127 0
90 127 0
90 127 0
91 127 0
91 128 0
91 128 0
91 128 0
91 128 0
91 128 0
91 128 0
91 128 0
92 128 0
93 128 0
92 128 0
92 128 0
92 128 0
92 128 0
92 128 0
92 128 0
92 128 0
92 128 0
92 128 0
92 128 0
92 128 0
92 128 0
92 128 0
92 127 0
92 127 0
92 127 0
92 127 0
91 127 0
91 127 0
91 127 0
91 127 0
91 127 0
91 127 0
91 127 0
91 127 0
91 127 0
91 127 0
91 126 0
91 126 0
91 126 0
91 126 0
91 126 0
91 126 0
90 126 0
90 126 0
90 126 0
90 126 0
90 126 0
90 126 0
90 126 0
90 126 0
90 125 0
90 125 0
90 125 0
90 125 0
90 125 0
90 125 0
90 125 0
89 125 0
89 125 0
89 125 0
89 125 0
89 125 0
89 125 0
89 124 0
89 124 0
89 124 0
89 124 0
89 124 0
89 124 0
89 124 0
88 124 0
88 124 0
88 124 0
88 124 0
88 124 0
88 124 0
88 124 0
88 124 0
88 124 0
88 124 0
88 124 0
88 124 0
88 124 0
88 124 0
88 124 0
88 123 0
88 123 0
88 123 0
88 123 0
87 123 0
87 123 0
87 123 0
87 123 0
87 123 0
87 123 0
87 123 0
87 123 0
87 123 0
87 123 0
87 123 0
87 123 0
87 123 0
87 124 0
87 124 0
87 124 0
87 124 0
87 124 0
87 124 0
87 124 0
87 124 0
87 124 0
87 124 0
87 124 0
87 124 0
87 124 0
87 124 0
87 124 0
87 124 0
87 124 0
87 124 0
87 124 0
87 124 0
87 124 0
87 124 0
87 124 0
87 124 0
87 124 0
87 125 0
87 125 0
87 125 0
87 125 0
87 125 0
87 125 0
87 125 0
87 125 0
87 125 0
87 125 0
87 125 0
87 125 0
87 125 0
87 125 0
87 125 0
87 125 0
87 125 0
87 125 0
87 125 0
87 125 0
87 125 0
87 125 0
87 125 0
87 125 0
87 125 0
87 125 0
87 125 0
73 117 31
0 93 53
0 92 54
0 92 55
0 92 51
0 93 54
0 90 57
0 89 57
0 89 57
0 88 58
0 87 59
0 87 57
0 87 57
0 87 57
0 87 57
0 87 57
0 89 57
0 99 57
0 96 56
74 116 33
88 125 0
83 121 18
0 74 49
0 74 49
0 95 59
55 108 51
88 125 0
88 125 0
88 125 0
88 125 0
88 125 0
88 125 0
88 125 0
88 125 0
88 126 0
88 126 0
88 126 0
89 126 0
89 126 0
89 126 0
89 126 0
89 126 0
90 127 0
90 127 0
90 127 0
90 127 0
90 127 0
90 127 0
91 127 0
91 128 0
91 128 0
91 128 0
91 128 0
91 128 0
93 128 0
92 128 0
92 128 0
92 128 0
92 128 0
92 128 0
92 128 0
92 128 0
92 128 0
92 128 0
92 128 0
92 128 0
92 128 0
92 127 0
92 127 0
92 127 0
92 127 0
92 127 0
91 127 0
91 127 0
91 127 0
91 127 0
91 127 0
91 127 0
91 127 0
91 127 0
91 127 0
91 126 0
91 126 0
91 126 0
91 126 0
91 126 0
91 126 0
91 126 0
90 126 0
90 126 0
90 126 0
90 126 0
90 126 0
90 126 0
90 125 0
90 125 0
90 125 0
90 125 0
90 125 0
90 125 0
90 125 0
90 125 0
89 125 0
89 125 0
89 125 0
89 125 0
89 125 0
89 125 0
89 124 0
89 124 0
89 124 0
89 124 0
89 124 0
89 124 0
89 124 0
88 124 0
88 124 0
88 124 0
88 124 0
88 124 0
88 124 0
88 124 0
88 124 0
88 124 0
88 124 0
88 123 0
88 123 0
88 123 0
88 123 0
88 123 0
88 123 0
88 123 0
88 123 0
87 123 0
87 123 0
87 123 0
87 123 0
87 123 0
87 123 0
87 123 0
87 123 0
87 123 0
87 123 0
87 123 0
87 123 0
87 123 0
87 123 0
87 123 0
87 123 0
87 123 0
87 123 0
87 123 0
87 123 0
87 123 0
87 123 0
87 123 0
87 124 0
87 124 0
87 124 0
87 124 0
87 124 0
87 124 0
87 124 0
87 124 0
87 124 0
87 124 0
87 124 0
87 124 0
87 124 0
87 124 0
87 124 0
87 124 0
87 124 0
87 124 0
87 124 0
87 125 0
87 125 0
87 125 0
87 125 0
87 125 0
87 125 0
87 125 0
87 125 0
87 125 0
87 125 0
87 125 0
87 125 0
87 125 0
87 125 0
87 125 0
87 125 0
87 125 0
87 125 0
87 125 0
87 125 0
87 125 0
87 125 0
87 125 0
87 125 0
87 125 0
87 125 0
45 104 47
0 92 55
0 93 55
0 88 51
0 93 52
0 90 57
0 90 57
0 90 57
0 88 56
0 89 62
0 87 59
0 87 57
0 87 57
0 87 57
0 87 57
0 98 58
0 97 56
46 101 49
87 125 0
87 125 0
62 103 37
0 74 49
0 88 56
0 96 60
84 123 23
88 125 0
88 125 0
88 125 0
88 125 0
88 125 0
88 125 0
88 125 0
88 125 0
88 125 0
88 125 0
88 125 0
88 125 0
88 126 0
89 126 0
89 126 0
89 126 0
89 126 0
90 127 0
90 127 0
90 127 0
90 127 0
90 127 0
90 127 0
90 127 0
91 127 0
91 127 0
91 128 0
91 128 0
93 128 0
92 128 0
92 128 0
92 128 0
92 128 0
92 128 0
92 128 0
92 128 0
92 128 0
92 128 0
92 128 0
92 128 0
92 127 0
92 127 0
92 127 0
92 127 0
92 127 0
92 127 0
91 127 0
91 127 0
91 127 0
91 127 0
91 127 0
91 127 0
91 127 0
91 127 0
91 126 0
91 126 0
91 126 0
91 126 0
91 126 0
91 126 0
91 126 0
90 126 0
90 126 0
90 126 0
90 126 0
90 126 0
90 126 0
90 125 0
90 125 0
90 125 0
90 125 0
90 125 0
90 125 0
90 125 0
90 125 0
89 125 0
89 125 0
89 125 0
89 125 0
89 125 0
89 124 0
89 124 0
89 124 0
89 124 0
89 124 0
89 124 0
89 124 0
89 124 0
88 124 0
88 124 0
88 124 0
88 124 0
88 124 0
88 124 0
88 124 0
88 123 0
88 123 0
88 123 0
88 123 0
88 123 0
88 123 0
88 123 0
88 123 0
88 123 0
87 123 0
87 123 0
87 123 0
87 123 0
87 123 0
87 123 0
87 123 0
87 123 0
87 123 0
87 123 0
87 123 0
87 123 0
87 123 0
87 123 0
87 123 0
87 123 0
87 123 0
87 123 0
87 123 0
87 123 0
87 123 0
87 123 0
87 123 0
87 123 0
87 123 0
87 123 0
87 123 0
87 123 0
87 123 0
87 123 0
87 123 0
87 124 0
87 124 0
87 124 0
87 124 0
87 124 0
87 124 0
87 124 0
87 124 0
87 124 0
87 124 0
87 124 0
87 124 0
87 124 0
87 124 0
87 124 0
87 124 0
87 125 0
87 125 0
87 125 0
87 125 0
87 125 0
87 125 0
87 125 0
87 125 0
87 125 0
87 125 0
87 125 0
87 125 0
87 125 0
87 125 0
87 125 0
87 125 0
87 125 0
87 125 0
87 125 0
87 125 0
87 125 0
87 125 0
87 125 0
87 125 0
83 122 19
0 95 54
0 93 55
0 89 51
0 89 50
0 91 56
0 90 57
0 90 57
0 88 56
0 88 60
0 89 62
0 88 59
0 87 57
0 87 57
0 91 58
0 99 58
0 92 55
79 119 28
87 125 0
87 125 0
34 83 46
0 77 51
0 96 60
68 114 42
88 125 0
88 125 0
88 125 0
88 125 0
88 125 0
88 125 0
88 125 0
88 125 0
88 125 0
88 125 0
88 125 0
88 125 0
88 125 0
88 125 0
88 125 0
88 126 0
89 126 0
89 126 0
89 126 0
90 126 0
90 127 0
90 127 0
90 127 0
90 127 0
90 127 0
90 127 0
91 127 0
91 127 0
91 127 0
93 128 0
92 128 0
92 128 0
92 128 0
92 128 0
92 128 0
92 128 0
92 128 0
92 128 0
92 128 0
92 128 0
92 127 0
92 127 0
92 127 0
92 127 0
92 127 0
92 127 0
92 127 0
91 127 0
91 127 0
91 127 0
91 127 0
91 127 0
91 127 0
91 127 0
91 126 0
91 126 0
91 126 0
91 126 0
91 126 0
91 126 0
91 126 0
91 126 0
90 126 0
90 126 0
90 126 0
90 126 0
90 126 0
90 125 0
90 125 0
90 125 0
90 125 0
90 125 0
90 125 0
90 125 0
90 125 0
90 125 0
89 125 0
89 125 0
89 125 0
89 125 0
89 124 0
89 124 0
89 124 0
89 124 0
89 124 0
89 124 0
89 124 0
89 124 0
88 124 0
88 124 0
88 124 0
88 124 0
88 124 0
88 124 0
88 123 0
88 123 0
88 123 0
88 123 0
88 123 0
88 123 0
88 123 0
88 123 0
88 123 0
87 123 0
87 123 0
87 123 0
87 123 0
87 123 0
87 123 0
87 123 0
87 123 0
87 123 0
87 123 0
87 123 0
87 123 0
87 123 0
87 123 0
87 123 0
87 123 0
87 123 0
87 123 0
87 123 0
87 123 0
87 123 0
87 123 0
87 123 0
86 123 0
86 123 0
86 123 0
86 123 0
86 123 0
86 123 0
86 123 0
86 123 0
86 123 0
86 123 0
86 123 0
86 123 0
86 123 0
86 123 0
86 123 0
86 124 0
86 124 0
86 124 0
86 124 0
87 124 0
87 124 0
87 124 0
87 124 0
87 124 0
87 124 0
87 124 0
87 124 0
87 124 0
87 124 0
87 125 0
87 125 0
87 125 0
87 125 0
87 125 0
87 125 0
87 125 0
87 125 0
87 125 0
87 125 0
87 125 0
87 125 0
87 125 0
87 125 0
87 125 0
87 125 0
87 125 0
87 125 0
87 125 0
87 125 0
87 125 0
87 125 0
68 114 37
0 93 56
0 88 51
0 86 49
0 90 53
0 90 57
0 90 57
0 88 56
0 88 58
0 89 62
0 89 62
0 87 57
0 87 57
0 98 59
0 94 56
62 109 42
87 125 0
87 125 0
68 108 32
0 74 49
0 90 57
33 100 57
87 125 0
87 125 0
87 125 0
88 125 0
88 125 0
88 125 0
88 125 0
88 125 0
88 125 0
88 125 0
88 125 0
88 125 0
88 125 0
88 125 0
88 125 0
88 125 0
88 125 0
88 126 0
89 126 0
89 126 0
89 126 0
90 126 0
90 127 0
90 127 0
90 127 0
90 127 0
90 127 0
90 127 0
90 127 0
91 127 0
92 128 0
92 128 0
92 128 0
92 128 0
92 128 0
92 128 0
92 128 0
92 128 0
92 128 0
92 128 0
92 127 0
92 127 0
92 127 0
92 127 0
92 127 0
92 127 0
92 127 0
92 127 0
91 127 0
91 127 0
91 127 0
91 127 0
91 127 0
91 127 0
91 126 0
91 126 0
91 126 0
91 126 0
91 126 0
91 126 0
91 126 0
91 126 0
91 126 0
90 126 0
90 126 0
90 126 0
90 126 0
90 125 0
90 125 0
90 125 0
90 125 0
90 125 0
90 125 0
90 125 0
90 125 0
90 125 0
89 125 0
89 125 0
89 125 0
89 125 0
89 124 0
89 124 0
89 124 0
89 124 0
89 124 0
89 124 0
89 124 0
89 124 0
89 124 0
88 124 0
88 124 0
88 124 0
88 123 0
88 123 0
88 123 0
88 123 0
88 123 0
88 123 0
88 123 0
88 123 0
88 123 0
88 123 0
88 123 0
87 123 0
87 123 0
87 123 0
87 123 0
87 123 0
87 123 0
87 123 0
87 123 0
87 123 0
87 123 0
87 123 0
87 123 0
87 123 0
87 123 0
87 123 0
87 123 0
87 123 0
87 123 0
87 123 0
86 123 0
86 123 0
86 123 0
86 123 0
86 123 0
86 123 0
86 123 0
86 123 0
86 123 0
86 123 0
86 123 0
86 123 0
86 123 0
86 123 0
86 123 0
86 123 0
86 123 0
86 123 0
86 123 0
86 123 0
86 123 0
86 123 0
86 123 0
86 123 0
86 124 0
86 124 0
86 124 0
86 124 0
86 124 0
86 124 0
86 124 0
86 124 0
87 124 0
87 124 0
87 124 0
87 124 0
87 124 0
87 125 0
87 125 0
87 125 0
87 125 0
87 125 0
87 125 0
87 125 0
87 125 0
87 125 0
87 125 0
87 125 0
87 125 0
87 125 0
87 125 0
87 124 0
86 124 0
86 124 0
86 124 0
86 124 0
86 124 0
33 100 51
0 86 50
0 86 49
0 87 50
0 90 57
0 90 57
0 88 56
0 88 56
0 89 62
0 89 62
0 89 62
0 91 58
0 96 55
61 108 36
87 124 0
87 125 0
87 125 0
45 90 43
0 80 52
0 96 60
74 117 37
87 125 0
87 125 0
87 125 0
87 125 0
87 125 0
87 125 0
88 125 0
88 125 0
88 125 0
88 125 0
88 125 0
88 125 0
88 125 0
88 125 0
88 125 0
88 125 0
88 125 0
88 125 0
88 126 0
89 126 0
89 126 0
89 126 0
90 126 0
90 127 0
90 127 0
90 127 0
90 127 0
90 127 0
90 127 0
90 127 0
92 128 0
92 128 0
92 128 0
92 128 0
92 128 0
92 128 0
92 128 0
92 128 0
92 128 0
92 128 0
92 127 0
92 127 0
92 127 0
92 127 0
92 127 0
92 127 0
92 127 0
92 127 0
91 127 0
91 127 0
91 127 0
91 127 0
91 127 0
91 126 0
91 126 0
91 126 0
91 126 0
91 126 0
91 126 0
91 126 0
91 126 0
91 126 0
90 126 0
90 126 0
90 126 0
90 126 0
90 125 0
90 125 0
90 125 0
90 125 0
90 125 0
90 125 0
90 125 0
90 125 0
90 125 0
89 125 0
89 125 0
89 125 0
89 124 0
89 124 0
89 124 0
89 124 0
89 124 0
89 124 0
89 124 0
89 124 0
89 124 0
89 124 0
88 124 0
88 124 0
88 124 0
88 123 0
88 123 0
88 123 0
88 123 0
88 123 0
88 123 0
88 123 0
88 123 0
88 123 0
88 123 0
87 123 0
87 123 0
87 123 0
87 123 0
87 123 0
87 123 0
87 123 0
87 123 0
87 123 0
87 123 0
87 123 0
87 123 0
87 122 0
87 122 0
87 122 0
87 122 0
87 122 0
86 122 0
86 122 0
86 122 0
86 122 0
86 122 0
86 122 0
86 122 0
86 122 0
86 122 0
86 122 0
86 122 0
86 122 0
86 122 0
86 122 0
86 122 0
86 123 0
86 123 0
86 123 0
86 123 0
86 123 0
86 123 0
86 123 0
86 123 0
86 123 0
86 123 0
86 123 0
86 123 0
86 123 0
86 123 0
86 123 0
86 123 0
86 123 0
86 124 0
86 124 0
86 124 0
86 124 0
86 124 0
86 124 0
86 124 0
86 124 0
86 124 0
86 124 0
87 124 0
87 124 0
87 124 0
87 124 0
87 124 0
87 124 0
87 124 0
86 124 0
86 124 0
86 124 0
86 124 0
86 124 0
86 124 0
86 124 0
86 124 0
86 124 0
86 124 0
86 124 0
86 124 0
78 119 28
54 101 37
0 86 50
0 86 49
0 89 55
0 90 57
0 88 56
0 88 55
0 89 61
0 89 62
0 90 62
0 95 63
68 112 35
87 124 0
87 124 0
87 124 0
78 117 23
0 74 49
0 92 57
45 103 53
87 125 0
87 125 0
87 125 0
87 125 0
87 125 0
87 125 0
87 125 0
87 125 0
88 125 0
88 125 0
88 125 0
88 125 0
88 125 0
88 125 0
88 125 0
88 125 0
88 125 0
88 125 0
88 125 0
88 125 0
89 126 0
89 126 0
89 126 0
89 126 0
90 126 0
90 127 0
90 127 0
90 127 0
90 127 0
90 127 0
90 127 0
92 128 0
92 128 0
92 128 0
92 128 0
92 128 0
92 128 0
92 128 0
92 128 0
92 128 0
92 127 0
92 127 0
92 127 0
92 127 0
92 127 0
92 127 0
92 127 0
92 127 0
92 127 0
91 127 0
91 127 0
91 127 0
91 127 0
91 127 0
91 126 0
91 126 0
91 126 0
91 126 0
91 126 0
91 126 0
91 126 0
91 126 0
91 126 0
90 126 0
90 126 0
90 126 0
90 126 0
90 125 0
90 125 0
90 125 0
90 125 0
90 125 0
90 125 0
90 125 0
90 125 0
90 125 0
89 125 0
89 125 0
89 124 0
89 124 0
89 124 0
89 124 0
89 124 0
89 124 0
89 124 0
89 124 0
89 124 0
89 124 0
88 124 0
88 124 0
88 124 0
88 123 0
88 123 0
88 123 0
88 123 0
88 123 0
88 123 0
88 123 0
88 123 0
88 123 0
88 123 0
87 123 0
87 123 0
87 123 0
87 123 0
87 123 0
87 123 0
87 123 0
87 123 0
87 122 0
87 122 0
87 122 0
87 122 0
87 122 0
87 122 0
87 122 0
87 122 0
86 122 0
86 122 0
86 122 0
86 122 0
86 122 0
86 122 0
86 122 0
86 122 0
86 122 0
86 122 0
86 122 0
86 122 0
86 122 0
86 122 0
86 122 0
86 122 0
86 122 0
86 122 0
86 122 0
86 122 0
86 122 0
86 122 0
86 122 0
86 122 0
86 123 0
86 123 0
86 123 0
86 123 0
86 123 0
86 123 0
86 123 0
86 123 0
86 123 0
86 123 0
86 123 0
86 123 0
86 123 0
86 123 0
86 124 0
86 124 0
86 124 0
86 124 0
86 124 0
86 124 0
86 124 0
86 124 0
86 124 0
86 124 0
86 124 0
86 124 0
86 124 0
86 124 0
86 124 0
86 124 0
86 124 0
86 124 0
86 124 0
86 124 0
86 124 0
86 124 0
86 124 0
86 124 0
86 124 0
86 124 0
86 124 0
72 114 31
0 86 49
0 88 52
0 90 56
0 88 56
0 88 55
0 89 58
0 90 62
0 90 62
0 96 66
54 109 56
86 124 0
86 124 0
86 124 0
61 102 36
0 83 53
0 96 59
83 122 22
87 124 0
87 124 0
87 124 0
87 125 0
87 125 0
87 125 0
87 125 0
87 125 0
87 125 0
87 125 0
88 125 0
88 125 0
88 125 0
88 125 0
88 125 0
88 125 0
88 125 0
88 125 0
88 125 0
88 125 0
88 125 0
89 126 0
89 126 0
89 126 0
89 126 0
90 126 0
90 126 0
90 127 0
90 127 0
90 127 0
90 127 0
92 128 0
92 128 0
92 128 0
92 128 0
92 128 0
92 128 0
92 128 0
92 128 0
92 127 0
92 127 0
92 127 0
92 127 0
92 127 0
92 127 0
92 127 0
92 127 0
92 127 0
92 127 0
91 127 0
91 127 0
91 127 0
91 127 0
91 127 0
91 126 0
91 126 0
91 126 0
91 126 0
91 126 0
91 126 0
91 126 0
91 126 0
91 126 0
91 126 0
90 126 0
90 126 0
90 125 0
90 125 0
90 125 0
90 125 0
90 125 0
90 125 0
90 125 0
90 125 0
90 125 0
90 125 0
89 125 0
89 125 0
89 124 0
89 124 0
89 124 0
89 124 0
89 124 0
89 124 0
89 124 0
89 124 0
89 124 0
89 124 0
88 124 0
88 124 0
88 123 0
88 123 0
88 123 0
88 123 0
88 123 0
88 123 0
88 123 0
88 123 0
88 123 0
87 123 0
87 123 0
87 123 0
87 123 0
87 123 0
87 123 0
87 122 0
87 122 0
87 122 0
87 122 0
87 122 0
87 122 0
87 122 0
87 122 0
87 122 0
87 122 0
86 122 0
86 122 0
86 122 0
86 122 0
86 122 0
86 122 0
86 122 0
86 122 0
86 122 0
86 122 0
86 122 0
86 122 0
86 122 0
86 122 0
86 122 0
86 122 0
86 122 0
86 122 0
85 122 0
85 122 0
85 122 0
85 122 0
85 122 0
85 122 0
85 122 0
85 122 0
85 122 0
85 122 0
85 122 0
85 122 0
85 122 0
85 122 0
85 122 0
85 123 0
85 123 0
85 123 0
85 123 0
85 123 0
85 123 0
85 123 0
85 123 0
86 123 0
86 123 0
86 123 0
86 124 0
86 124 0
86 124 0
86 124 0
86 124 0
86 124 0
86 124 0
86 124 0
86 124 0
86 124 0
86 124 0
86 124 0
86 124 0
86 124 0
86 124 0
86 124 0
86 124 0
86 124 0
86 124 0
86 124 0
86 124 0
86 124 0
86 124 0
86 124 0
82 121 18
33 92 47
0 89 55
0 89 56
0 88 55
0 88 56
0 90 62
0 90 62
0 94 64
54 111 57
86 124 0
86 124 0
82 120 16
0 76 48
0 94 58
61 110 46
87 124 0
87 124 0
87 124 0
87 124 0
87 124 0
87 124 0
87 124 0
87 124 0
87 125 0
87 125 0
87 125 0
87 125 0
87 125 0
88 125 0
88 125 0
88 125 0
88 125 0
88 125 0
88 125 0
88 125 0
88 125 0
88 125 0
88 125 0
89 126 0
89 126 0
89 126 0
89 126 0
90 126 0
90 126 0
90 126 0
90 127 0
90 127 0
92 128 0
92 128 0
92 128 0
92 128 0
92 128 0
92 128 0
92 128 0
92 127 0
92 127 0
92 127 0
92 127 0
92 127 0
92 127 0
92 127 0
92 127 0
92 127 0
92 127 0
92 127 0
91 127 0
91 127 0
91 127 0
91 127 0
91 126 0
91 126 0
91 126 0
91 126 0
91 126 0
91 126 0
91 126 0
91 126 0
91 126 0
91 126 0
90 126 0
90 126 0
90 126 0
90 125 0
90 125 0
90 125 0
90 125 0
90 125 0
90 125 0
90 125 0
90 125 0
90 125 0
90 125 0
89 125 0
89 124 0
89 124 0
89 124 0
89 124 0
89 124 0
89 124 0
89 124 0
89 124 0
89 124 0
89 124 0
89 124 0
88 124 0
88 123 0
88 123 0
88 123 0
88 123 0
88 123 0
88 123 0
88 123 0
88 123 0
88 123 0
88 123 0
87 123 0
87 123 0
87 123 0
87 123 0
87 122 0
87 122 0
87 122 0
87 122 0
87 122 0
87 122 0
87 122 0
87 122 0
87 122 0
87 122 0
86 122 0
86 122 0
86 122 0
86 122 0
86 122 0
86 122 0
86 122 0
86 122 0
86 122 0
86 122 0
86 122 0
86 122 0
86 122 0
86 122 0
85 122 0
85 122 0
85 122 0
85 122 0
85 122 0
85 122 0
85 122 0
85 122 0
85 122 0
85 122 0
85 122 0
85 122 0
85 122 0
85 122 0
85 122 0
85 122 0
85 122 0
85 122 0
85 122 0
85 122 0
85 122 0
85 122 0
85 122 0
85 122 0
85 122 0
85 122 0
85 122 0
85 123 0
85 123 0
85 123 0
85 123 0
85 123 0
85 123 0
85 123 0
85 123 0
86 123 0
86 123 0
86 124 0
86 124 0
85 123 0
85 124 0
85 123 0
85 123 0
85 123 0
85 123 0
85 123 0
85 123 0
85 123 0
85 123 0
85 123 0
85 123 0
85 123 0
85 123 0
85 123 0
85 123 0
85 123 0
85 124 0
72 115 34
45 99 48
0 89 55
0 88 55
0 88 55
0 89 61
0 90 62
0 92 63
45 110 64
86 124 0
86 124 0
67 108 33
0 86 54
33 99 56
86 124 0
86 124 0
86 124 0
86 124 0
87 124 0
87 124 0
87 124 0
87 124 0
87 124 0
87 124 0
87 124 0
87 124 0
87 124 0
87 125 0
87 125 0
88 125 0
88 125 0
88 125 0
88 125 0
88 125 0
88 125 0
88 125 0
88 125 0
88 125 0
88 125 0
89 125 0
89 126 0
89 126 0
89 126 0
90 126 0
90 126 0
90 126 0
90 126 0
92 128 0
92 128 0
92 128 0
92 128 0
92 128 0
92 128 0
92 128 0
92 127 0
92 127 0
92 127 0
92 127 0
92 127 0
92 127 0
92 127 0
92 127 0
92 127 0
92 127 0
92 127 0
91 127 0
91 127 0
91 127 0
91 126 0
91 126 0
91 126 0
91 126 0
91 126 0
91 126 0
91 126 0
91 126 0
91 126 0
91 126 0
91 126 0
91 126 0
90 126 0
90 125 0
90 125 0
90 125 0
90 125 0
90 125 0
90 125 0
90 125 0
90 125 0
90 125 0
90 125 0
90 125 0
89 125 0
89 124 0
89 124 0
89 124 0
89 124 0
89 124 0
89 124 0
89 124 0
89 124 0
89 124 0
89 124 0
88 124 0
88 123 0
88 123 0
88 123 0
88 123 0
88 123 0
88 123 0
88 123 0
88 123 0
88 123 0
88 123 0
87 123 0
87 123 0
87 123 0
87 122 0
87 122 0
87 122 0
87 122 0
87 122 0
87 122 0
87 122 0
87 122 0
87 122 0
87 122 0
87 122 0
86 122 0
86 122 0
86 122 0
86 122 0
86 122 0
86 122 0
86 122 0
86 122 0
86 122 0
86 121 0
86 121 0
86 121 0
85 121 0
85 121 0
85 121 0
85 121 0
85 121 0
85 121 0
85 121 0
85 121 0
85 121 0
85 121 0
85 121 0
85 121 0
85 121 0
85 121 0
85 121 0
85 121 0
85 121 0
85 121 0
85 122 0
85 122 0
84 122 0
84 122 0
84 122 0
84 122 0
84 122 0
84 122 0
84 122 0
84 122 0
84 122 0
84 122 0
84 122 0
85 122 0
85 122 0
85 123 0
85 123 0
85 123 0
85 123 0
85 123 0
85 123 0
85 123 0
85 123 0
85 123 0
85 123 0
85 123 0
85 123 0
85 123 0
85 123 0
85 123 0
85 123 0
85 123 0
85 123 0
85 123 0
85 123 0
85 123 0
85 123 0
85 123 0
85 123 0
85 123 0
85 123 0
85 123 0
85 123 0
60 110 48
0 89 55
0 88 55
0 88 55
0 89 59
0 90 62
0 92 63
0 101 68
86 124 0
86 124 0
33 88 47
0 96 59
67 113 41
86 124 0
86 124 0
86 124 0
86 124 0
86 124 0
86 124 0
86 124 0
87 124 0
87 124 0
87 124 0
87 124 0
87 124 0
87 124 0
87 124 0
87 124 0
87 125 0
87 125 0
88 125 0
88 125 0
88 125 0
88 125 0
88 125 0
88 125 0
88 125 0
88 125 0
88 125 0
89 125 0
89 126 0
89 126 0
89 126 0
89 126 0
90 126 0
90 126 0
92 128 0
92 128 0
92 128 0
92 128 0
92 128 0
92 128 0
92 127 0
92 127 0
92 127 0
92 127 0
92 127 0
92 127 0
92 127 0
92 127 0
92 127 0
92 127 0
92 127 0
91 127 0
91 127 0
91 127 0
91 127 0
91 126 0
91 126 0
91 126 0
91 126 0
91 126 0
91 126 0
91 126 0
91 126 0
91 126 0
91 126 0
91 126 0
91 126 0
90 125 0
90 125 0
90 125 0
90 125 0
90 125 0
90 125 0
90 125 0
90 125 0
90 125 0
90 125 0
90 125 0
90 125 0
89 124 0
89 124 0
89 124 0
89 124 0
89 124 0
89 124 0
89 124 0
89 124 0
89 124 0
89 124 0
89 124 0
88 124 0
88 123 0
88 123 0
88 123 0
88 123 0
88 123 0
88 123 0
88 123 0
88 123 0
88 123 0
88 123 0
87 123 0
87 123 0
87 122 0
87 122 0
87 122 0
87 122 0
87 122 0
87 122 0
87 122 0
87 122 0
87 122 0
87 122 0
86 122 0
86 122 0
86 122 0
86 122 0
86 122 0
86 122 0
86 122 0
86 121 0
86 121 0
86 121 0
86 121 0
86 121 0
85 121 0
85 121 0
85 121 0
85 121 0
85 121 0
85 121 0
85 121 0
85 121 0
85 121 0
85 121 0
85 121 0
84 121 0
84 121 0
84 121 0
84 121 0
84 121 0
84 121 0
84 121 0
84 121 0
84 121 0
84 121 0
84 121 0
84 121 0
84 121 0
84 121 0
84 121 0
84 121 0
84 121 0
84 121 0
84 121 0
84 121 0
84 121 0
84 122 0
84 122 0
84 122 0
84 122 0
84 122 0
85 122 0
85 122 0
85 122 0
85 123 0
85 123 0
85 123 0
85 123 0
85 123 0
85 123 0
85 123 0
85 123 0
85 123 0
85 123 0
85 123 0
85 123 0
85 123 0
85 123 0
85 123 0
85 123 0
85 123 0
85 123 0
85 123 0
85 123 0
85 123 0
85 123 0
85 123 0
53 108 54
0 91 58
0 88 55
0 88 55
0 88 57
0 91 62
0 92 63
45 106 60
85 123 0
72 113 29
0 89 55
45 103 52
86 123 0
86 124 0
86 124 0
86 124 0
86 124 0
86 124 0
86 124 0
86 124 0
86 124 0
86 124 0
87 124 0
87 124 0
87 124 0
87 124 0
87 124 0
87 124 0
87 124 0
87 124 0
87 124 0
88 125 0
88 125 0
88 125 0
88 125 0
88 125 0
88 125 0
88 125 0
88 125 0
88 125 0
89 125 0
89 126 0
89 126 0
89 126 0
89 126 0
90 126 0
92 128 0
92 128 0
92 128 0
92 128 0
92 128 0
92 127 0
92 127 0
92 127 0
92 127 0
92 127 0
92 127 0
92 127 0
92 127 0
92 127 0
92 127 0
92 127 0
92 127 0
92 127 0
91 127 0
91 126 0
91 126 0
91 126 0
91 126 0
91 126 0
91 126 0
91 126 0
91 126 0
91 126 0
91 126 0
91 126 0
91 126 0
91 126 0
91 126 0
90 125 0
90 125 0
90 125 0
90 125 0
90 125 0
90 125 0
90 125 0
90 125 0
90 125 0
90 125 0
90 125 0
90 125 0
89 124 0
89 124 0
89 124 0
89 124 0
89 124 0
89 124 0
89 124 0
89 124 0
89 124 0
89 124 0
89 124 0
88 123 0
88 123 0
88 123 0
88 123 0
88 123 0
88 123 0
88 123 0
88 123 0
88 123 0
88 123 0
88 123 0
87 123 0
87 122 0
87 122 0
87 122 0
87 122 0
87 122 0
87 122 0
87 122 0
87 122 0
87 122 0
86 122 0
86 122 0
86 122 0
86 122 0
86 121 0
86 121 0
86 121 0
86 121 0
86 121 0
86 121 0
85 121 0
85 121 0
85 121 0
85 121 0
85 121 0
85 121 0
85 121 0
85 121 0
84 120 0
84 120 0
84 120 0
84 120 0
84 120 0
84 120 0
84 120 0
84 120 0
84 120 0
84 120 0
83 120 0
83 120 0
83 120 0
83 120 0
83 120 0
83 120 0
83 120 0
83 120 0
83 120 0
83 120 0
83 120 0
83 120 0
83 120 0
83 120 0
83 121 0
83 121 0
83 121 0
83 121 0
83 121 0
83 121 0
83 121 0
84 121 0
84 122 0
84 122 0
84 122 0
84 122 0
84 122 0
84 122 0
84 122 0
84 122 0
84 122 0
84 122 0
84 122 0
84 122 0
84 122 0
84 122 0
84 122 0
84 122 0
84 122 0
84 122 0
84 122 0
84 123 0
84 123 0
84 123 0
84 123 0
84 123 0
85 123 0
85 123 0
85 123 0
44 105 58
0 89 62
0 87 60
0 88 57
0 88 55
0 91 61
0 92 63
53 109 58
85 123 0
45 96 47
0 95 58
77 118 30
85 123 0
86 123 0
86 123 0
86 123 0
86 123 0
86 123 0
86 124 0
86 124 0
86 124 0
86 124 0
86 124 0
86 124 0
86 124 0
87 124 0
87 124 0
87 124 0
87 124 0
87 124 0
87 124 0
87 124 0
87 124 0
88 124 0
88 124 0
88 124 0
88 125 0
88 125 0
88 125 0
88 125 0
88 125 0
89 125 0
89 126 0
89 126 0
89 126 0
89 126 0
92 128 0
92 128 0
92 128 0
92 128 0
92 127 0
92 127 0
92 127 0
92 127 0
92 127 0
92 127 0
92 127 0
92 127 0
92 127 0
92 127 0
92 127 0
92 127 0
92 127 0
91 127 0
91 127 0
91 126 0
91 126 0
91 126 0
91 126 0
91 126 0
91 126 0
91 126 0
91 126 0
91 126 0
91 126 0
91 126 0
91 126 0
91 126 0
90 125 0
90 125 0
90 125 0
90 125 0
90 125 0
90 125 0
90 125 0
90 125 0
90 125 0
90 125 0
90 125 0
90 125 0
90 124 0
89 124 0
89 124 0
89 124 0
89 124 0
89 124 0
89 124 0
89 124 0
89 124 0
89 124 0
89 124 0
89 123 0
88 123 0
88 123 0
88 123 0
88 123 0
88 123 0
88 123 0
88 123 0
88 123 0
88 123 0
88 123 0
87 123 0
87 122 0
87 122 0
87 122 0
87 122 0
87 122 0
87 122 0
87 122 0
87 122 0
87 122 0
86 122 0
86 122 0
86 121 0
86 121 0
86 121 0
86 121 0
86 121 0
85 121 0
85 121 0
85 121 0
85 121 0
85 120 0
85 120 0
85 120 0
84 120 0
84 120 0
84 120 0
84 120 0
84 120 0
84 120 0
83 120 0
83 119 0
83 119 0
83 119 0
83 119 0
83 119 0
83 119 0
83 119 0
83 119 0
83 119 0
82 119 0
82 119 0
82 119 0
82 119 0
82 119 0
82 119 0
82 119 0
82 119 0
82 119 0
82 119 0
82 119 0
82 120 0
82 120 0
82 120 0
82 120 0
82 120 0
82 120 0
83 120 0
83 120 0
83 120 0
83 121 0
83 121 0
83 121 0
84 121 0
84 121 0
84 122 0
84 122 0
84 122 0
84 122 0
84 122 0
84 122 0
84 122 0
84 122 0
84 122 0
84 122 0
84 122 0
84 122 0
84 122 0
84 122 0
84 122 0
84 122 0
84 122 0
84 122 0
84 122 0
84 122 0
84 122 0
84 122 0
84 123 0
0 98 65
0 89 62
0 88 62
0 87 62
0 88 61
0 90 59
0 92 60
53 104 51
76 117 28
0 93 55
60 109 45
85 123 0
85 123 0
85 123 0
85 123 0
85 123 0
86 123 0
86 123 0
86 123 0
86 123 0
86 123 0
86 123 0
86 124 0
86 124 0
86 124 0
86 124 0
86 124 0
86 124 0
87 124 0
87 124 0
87 124 0
87 124 0
87 124 0
87 124 0
87 124 0
87 124 0
88 124 0
88 124 0
88 124 0
88 125 0
88 125 0
88 125 0
89 125 0
89 125 0
89 126 0
89 126 0
92 128 0
92 128 0
92 128 0
92 127 0
92 127 0
92 127 0
92 127 0
92 127 0
92 127 0
92 127 0
92 127 0
92 127 0
92 127 0
92 127 0
92 127 0
92 127 0
92 127 0
91 127 0
91 126 0
91 126 0
91 126 0
91 126 0
91 126 0
91 126 0
91 126 0
91 126 0
91 126 0
91 126 0
91 126 0
91 126 0
91 126 0
91 126 0
90 125 0
90 125 0
90 125 0
90 125 0
90 125 0
90 125 0
90 125 0
90 125 0
90 125 0
90 125 0
90 125 0
90 125 0
90 124 0
89 124 0
89 124 0
89 124 0
89 124 0
89 124 0
89 124 0
89 124 0
89 124 0
89 124 0
89 124 0
89 123 0
88 123 0
88 123 0
88 123 0
88 123 0
88 123 0
88 123 0
88 123 0
88 123 0
88 123 0
88 123 0
87 122 0
87 122 0
87 122 0
87 122 0
87 122 0
87 122 0
87 122 0
87 122 0
87 122 0
86 122 0
86 121 0
86 121 0
86 121 0
86 121 0
86 121 0
86 121 0
85 121 0
85 121 0
85 120 0
85 120 0
85 120 0
84 120 0
84 120 0
84 120 0
84 119 0
84 119 0
83 119 0
83 119 0
83 119 0
83 119 0
83 119 0
82 119 0
82 119 0
82 119 0
82 118 0
82 118 0
82 118 0
82 118 0
82 118 0
82 118 0
82 118 0
81 118 0
81 118 0
81 118 0
81 118 0
81 118 0
81 118 0
81 118 0
81 118 0
81 118 0
81 118 0
81 119 0
81 119 0
81 119 0
81 119 0
82 119 0
82 119 0
82 119 0
82 120 0
82 120 0
82 120 0
83 120 0
83 121 0
83 121 0
83 121 0
83 121 0
83 121 0
83 121 0
83 121 0
83 121 0
83 121 0
83 121 0
83 121 0
83 122 0
83 122 0
83 122 0
84 122 0
84 122 0
84 122 0
84 122 0
84 122 0
84 122 0
84 122 0
84 122 0
84 122 0
84 122 0
84 122 0
84 122 0
0 96 64
0 90 62
0 88 62
0 88 62
0 88 62
0 91 55
0 91 55
81 120 21
71 114 22
44 101 42
81 120 22
85 123 0
85 123 0
85 123 0
85 123 0
85 123 0
85 123 0
85 123 0
86 123 0
86 123 0
86 123 0
86 123 0
86 123 0
86 123 0
86 123 0
86 123 0
86 123 0
86 123 0
86 124 0
87 124 0
87 124 0
87 124 0
87 124 0
87 124 0
87 124 0
87 124 0
87 124 0
87 124 0
88 124 0
88 124 0
88 125 0
88 125 0
88 125 0
89 125 0
89 125 0
89 125 0
92 128 0
92 128 0
92 127 0
92 127 0
92 127 0
92 127 0
92 127 0
92 127 0
92 127 0
92 127 0
92 127 0
92 127 0
92 127 0
92 127 0
92 127 0
92 127 0
92 127 0
91 126 0
91 126 0
91 126 0
91 126 0
91 126 0
91 126 0
91 126 0
91 126 0
91 126 0
91 126 0
91 126 0
91 126 0
91 126 0
91 126 0
91 125 0
90 125 0
90 125 0
90 125 0
90 125 0
90 125 0
90 125 0
90 125 0
90 125 0
90 125 0
90 125 0
90 125 0
90 124 0
90 124 0
89 124 0
89 124 0
89 124 0
89 124 0
89 124 0
89 124 0
89 124 0
89 124 0
89 124 0
89 123 0
89 123 0
88 123 0
88 123 0
88 123 0
88 123 0
88 123 0
88 123 0
88 123 0
88 123 0
88 123 0
88 123 0
87 122 0
87 122 0
87 122 0
87 122 0
87 122 0
87 122 0
87 122 0
87 122 0
87 122 0
86 122 0
86 121 0
86 121 0
86 121 0
86 121 0
86 121 0
85 121 0
85 120 0
85 120 0
85 120 0
84 120 0
84 120 0
84 119 0
84 119 0
83 119 0
83 119 0
83 119 0
83 118 0
82 118 0
82 118 0
82 118 0
82 118 0
82 118 0
82 118 0
81 118 0
81 118 0
81 118 0
81 118 0
81 117 0
81 117 0
81 117 0
81 117 0
80 117 0
80 117 0
80 117 0
80 117 0
80 117 0
80 117 0
80 117 0
80 117 0
80 117 0
80 117 0
80 117 0
80 118 0
80 118 0
80 118 0
80 118 0
81 118 0
81 118 0
81 119 0
81 119 0
81 119 0
82 119 0
82 120 0
82 120 0
82 120 0
83 120 0
83 121 0
83 121 0
83 121 0
83 121 0
83 121 0
83 121 0
83 121 0
83 121 0
83 121 0
83 121 0
83 121 0
83 121 0
83 121 0
83 121 0
83 122 0
83 122 0
84 122 0
84 122 0
84 122 0
84 122 0
84 122 0
71 116 41
0 95 64
0 90 63
0 88 62
0 88 62
0 90 57
0 91 55
60 107 43
84 122 0
84 122 0
85 123 0
85 123 0
85 123 0
85 123 0
85 123 0
85 123 0
85 123 0
85 123 0
85 123 0
85 123 0
85 123 0
86 123 0
86 123 0
86 123 0
86 123 0
86 123 0
86 123 0
86 123 0
86 123 0
86 123 0
86 124 0
87 124 0
87 124 0
87 124 0
87 124 0
87 124 0
87 124 0
87 124 0
87 124 0
87 124 0
87 124 0
88 124 0
88 124 0
88 125 0
88 125 0
89 125 0
89 125 0
92 127 0
92 127 0
92 127 0
92 127 0
92 127 0
92 127 0
92 127 0
92 127 0
92 127 0
92 127 0
92 127 0
92 127 0
92 127 0
92 127 0
92 127 0
92 127 0
91 126 0
91 126 0
91 126 0
91 126 0
91 126 0
91 126 0
91 126 0
91 126 0
91 126 0
91 126 0
91 126 0
91 126 0
91 126 0
91 126 0
91 125 0
91 125 0
90 125 0
90 125 0
90 125 0
90 125 0
90 125 0
90 125 0
90 125 0
90 125 0
90 125 0
90 125 0
90 124 0
90 124 0
90 124 0
89 124 0
89 124 0
89 124 0
89 124 0
89 124 0
89 124 0
89 124 0
89 124 0
89 124 0
89 123 0
89 123 0
88 123 0
88 123 0
88 123 0
88 123 0
88 123 0
88 123 0
88 123 0
88 123 0
88 123 0
88 122 0
87 122 0
87 122 0
87 122 0
87 122 0
87 122 0
87 122 0
87 122 0
87 122 0
87 122 0
86 121 0
86 121 0
86 121 0
86 121 0
86 121 0
85 121 0
85 120 0
85 120 0
85 120 0
84 120 0
84 120 0
84 119 0
84 119 0
83 119 0
83 119 0
83 118 0
82 118 0
82 118 0
82 118 0
81 117 0
81 117 0
81 117 0
81 117 0
81 117 0
80 117 0
80 117 0
80 117 0
80 117 0
80 117 0
80 116 0
80 116 0
80 116 0
79 116 0
79 116 0
79 116 0
79 116 0
79 116 0
79 116 0
79 116 0
79 116 0
79 116 0
79 116 0
79 116 0
79 116 0
79 117 0
79 117 0
79 117 0
79 117 0
79 117 0
80 117 0
80 118 0
80 118 0
80 118 0
80 118 0
81 119 0
81 119 0
81 119 0
81 119 0
81 119 0
81 119 0
82 120 0
82 120 0
82 120 0
82 120 0
82 120 0
82 120 0
82 121 0
83 121 0
83 121 0
83 121 0
83 121 0
83 121 0
83 121 0
83 121 0
83 121 0
83 122 0
83 122 0
84 122 0
70 115 41
0 93 63
0 90 63
0 88 62
0 89 60
0 91 55
32 95 53
84 122 0
84 122 0
84 122 0
84 122 0
84 122 0
85 122 0
85 122 0
85 123 0
85 123 0
85 123 0
85 123 0
85 123 0
85 123 0
85 123 0
85 123 0
85 123 0
86 123 0
86 123 0
86 123 0
86 123 0
86 123 0
86 123 0
86 123 0
86 123 0
87 124 0
87 124 0
87 124 0
87 124 0
87 124 0
87 124 0
87 124 0
87 124 0
87 124 0
87 124 0
87 124 0
88 124 0
88 124 0
88 125 0
88 125 0
89 125 0
92 127 0
92 127 0
92 127 0
92 127 0
92 127 0
92 127 0
92 127 0
92 127 0
92 127 0
92 127 0
92 127 0
92 127 0
92 127 0
92 127 0
91 126 0
91 126 0
91 126 0
91 126 0
91 126 0
91 126 0
91 126 0
91 126 0
91 126 0
91 126 0
91 126 0
91 126 0
91 126 0
91 126 0
91 126 0
91 125 0
90 125 0
90 125 0
90 125 0
90 125 0
90 125 0
90 125 0
90 125 0
90 125 0
90 125 0
90 125 0
90 125 0
90 125 0
90 124 0
90 124 0
89 124 0
89 124 0
89 124 0
89 124 0
89 124 0
89 124 0
89 124 0
89 124 0
89 124 0
89 123 0
89 123 0
89 123 0
88 123 0
88 123 0
88 123 0
88 123 0
88 123 0
88 123 0
88 123 0
88 123 0
88 122 0
88 122 0
87 122 0
87 122 0
87 122 0
87 122 0
87 122 0
87 122 0
87 122 0
87 122 0
87 122 0
86 121 0
86 121 0
86 121 0
86 121 0
86 121 0
85 121 0
85 120 0
85 120 0
85 120 0
84 120 0
84 120 0
84 119 0
84 119 0
83 119 0
83 118 0
83 118 0
82 118 0
82 118 0
81 117 0
81 117 0
81 117 0
80 116 0
80 116 0
80 116 0
80 116 0
80 116 0
79 116 0
79 116 0
79 116 0
79 116 0
79 116 0
79 116 0
79 116 0
79 116 0
79 116 0
79 116 0
78 116 0
78 116 0
78 116 0
78 116 0
78 116 0
78 116 0
78 116 0
78 116 0
78 116 0
78 116 0
78 116 0
78 116 0
79 116 0
79 116 0
79 117 0
79 117 0
79 117 0
79 117 0
79 117 0
80 118 0
80 118 0
80 118 0
80 118 0
80 118 0
80 118 0
80 118 0
80 119 0
81 119 0
81 119 0
81 119 0
81 120 0
81 120 0
82 120 0
82 120 0
82 120 0
82 121 0
82 121 0
83 121 0
83 121 0
83 121 0
83 121 0
83 121 0
43 104 59
0 93 63
0 90 63
0 89 62
0 91 56
0 90 56
75 116 29
84 122 0
84 122 0
84 122 0
84 122 0
84 122 0
84 122 0
84 122 0
85 122 0
85 122 0
85 122 0
85 122 0
85 122 0
85 123 0
85 123 0
85 123 0
85 123 0
85 123 0
86 123 0
86 123 0
86 123 0
86 123 0
86 123 0
86 123 0
86 123 0
86 123 0
87 123 0
87 124 0
87 124 0
87 124 0
87 124 0
87 124 0
87 124 0
87 124 0
87 124 0
87 124 0
87 124 0
88 124 0
88 124 0
88 124 0
88 125 0
92 127 0
92 127 0
92 127 0
92 127 0
92 127 0
92 127 0
92 127 0
92 127 0
92 127 0
92 127 0
92 127 0
92 127 0
92 126 0
91 126 0
91 126 0
91 126 0
91 126 0
91 126 0
91 126 0
91 126 0
91 126 0
91 126 0
91 126 0
91 126 0
91 126 0
91 126 0
91 126 0
91 125 0
91 125 0
90 125 0
90 125 0
90 125 0
90 125 0
90 125 0
90 125 0
90 125 0
90 125 0
90 125 0
90 125 0
90 125 0
90 124 0
90 124 0
90 124 0
89 124 0
89 124 0
89 124 0
89 124 0
89 124 0
89 124 0
89 124 0
89 124 0
89 124 0
89 123 0
89 123 0
89 123 0
88 123 0
88 123 0
88 123 0
88 123 0
88 123 0
88 123 0
88 123 0
88 123 0
88 123 0
88 122 0
88 122 0
87 122 0
87 122 0
87 122 0
87 122 0
87 122 0
87 122 0
87 122 0
87 122 0
87 122 0
87 121 0
86 121 0
86 121 0
86 121 0
86 121 0
86 121 0
85 120 0
85 120 0
85 120 0
85 120 0
84 120 0
84 119 0
84 119 0
83 119 0
83 118 0
83 118 0
82 118 0
82 117 0
81 117 0
81 117 0
80 116 0
80 116 0
80 116 0
80 116 0
79 116 0
79 116 0
79 116 0
79 115 0
79 115 0
79 115 0
79 115 0
79 115 0
78 115 0
78 115 0
78 115 0
78 115 0
78 115 0
78 115 0
78 115 0
78 115 0
78 115 0
78 115 0
78 115 0
78 115 0
78 115 0
78 115 0
78 116 0
78 116 0
78 116 0
78 116 0
78 116 0
78 116 0
78 116 0
78 116 0
78 116 0
79 117 0
79 117 0
79 117 0
79 117 0
79 117 0
79 117 0
79 118 0
79 118 0
79 118 0
80 118 0
80 118 0
80 118 0
80 119 0
80 119 0
81 119 0
81 119 0
81 119 0
81 120 0
82 120 0
82 120 0
82 120 0
82 121 0
74 117 35
0 94 64
0 93 63
0 91 63
0 90 58
0 90 56
59 106 43
84 122 0
84 122 0
84 122 0
84 122 0
84 122 0
84 122 0
84 122 0
84 122 0
84 122 0
84 122 0
85 122 0
85 122 0
85 122 0
85 122 0
85 122 0
85 123 0
85 123 0
85 123 0
85 123 0
86 123 0
86 123 0
86 123 0
86 123 0
86 123 0
86 123 0
86 123 0
86 123 0
87 123 0
87 123 0
87 124 0
87 124 0
87 124 0
87 124 0
87 124 0
87 124 0
87 124 0
87 124 0
87 124 0
88 124 0
88 124 0
88 124 0
92 127 0
92 127 0
92 127 0
92 127 0
92 127 0
92 127 0
92 127 0
92 127 0
92 127 0
92 126 0
91 126 0
91 126 0
91 126 0
91 126 0
91 126 0
91 126 0
91 126 0
91 126 0
91 126 0
91 126 0
91 126 0
91 126 0
91 126 0
91 126 0
91 126 0
91 125 0
91 125 0
91 125 0
90 125 0
90 125 0
90 125 0
90 125 0
90 125 0
90 125 0
90 125 0
90 125 0
90 125 0
90 125 0
90 125 0
90 124 0
90 124 0
90 124 0
89 124 0
89 124 0
89 124 0
89 124 0
89 124 0
89 124 0
89 124 0
89 124 0
89 124 0
89 123 0
89 123 0
89 123 0
89 123 0
88 123 0
88 123 0
88 123 0
88 123 0
88 123 0
88 123 0
88 123 0
88 123 0
88 122 0
88 122 0
88 122 0
87 122 0
87 122 0
87 122 0
87 122 0
87 122 0
87 122 0
87 122 0
87 122 0
87 121 0
87 121 0
86 121 0
86 121 0
86 121 0
86 121 0
86 121 0
86 121 0
85 120 0
85 120 0
85 120 0
85 120 0
84 119 0
84 119 0
84 119 0
83 119 0
83 118 0
82 118 0
82 118 0
82 117 0
81 117 0
81 117 0
80 116 0
80 116 0
80 116 0
80 116 0
79 116 0
79 116 0
79 115 0
79 115 0
79 115 0
79 115 0
78 115 0
78 115 0
78 115 0
78 115 0
78 115 0
78 115 0
78 115 0
78 115 0
78 115 0
78 115 0
78 115 0
78 115 0
78 115 0
78 115 0
78 115 0
78 115 0
78 115 0
78 115 0
78 115 0
78 115 0
78 115 0
78 116 0
78 116 0
78 116 0
78 116 0
78 116 0
78 116 0
78 116 0
78 117 0
78 117 0
79 117 0
79 117 0
79 117 0
79 117 0
79 117 0
79 118 0
79 118 0
79 118 0
79 118 0
80 118 0
80 118 0
80 119 0
80 119 0
80 119 0
81 119 0
81 119 0
42 104 60
0 93 70
0 93 69
0 91 63
0 90 56
31 94 53
83 121 0
83 121 0
83 121 0
83 122 0
84 122 0
84 122 0
84 122 0
84 122 0
84 122 0
84 122 0
84 122 0
84 122 0
85 122 0
85 122 0
85 122 0
85 122 0
85 122 0
85 122 0
85 123 0
85 123 0
85 123 0
86 123 0
86 123 0
86 123 0
86 123 0
86 123 0
86 123 0
86 123 0
86 123 0
87 123 0
87 123 0
87 123 0
87 123 0
87 123 0
87 123 0
87 123 0
87 123 0
87 123 0
87 124 0
87 124 0
88 124 0
88 124 0
92 127 0
92 127 0
92 127 0
92 127 0
92 127 0
92 127 0
92 126 0
91 126 0
91 126 0
91 126 0
91 126 0
91 126 0
91 126 0
91 126 0
91 126 0
91 126 0
91 126 0
91 126 0
91 126 0
91 126 0
91 126 0
91 126 0
91 125 0
91 125 0
91 125 0
91 125 0
90 125 0
90 125 0
90 125 0
90 125 0
90 125 0
90 125 0
90 125 0
90 125 0
90 125 0
90 125 0
90 125 0
90 124 0
90 124 0
90 124 0
90 124 0
89 124 0
89 124 0
89 124 0
89 124 0
89 124 0
89 124 0
89 124 0
89 124 0
89 124 0
89 123 0
89 123 0
89 123 0
89 123 0
89 123 0
88 123 0
88 123 0
88 123 0
88 123 0
88 123 0
88 123 0
88 123 0
88 122 0
88 122 0
88 122 0
87 122 0
87 122 0
87 122 0
87 122 0
87 122 0
87 122 0
87 122 0
87 122 0
87 121 0
87 121 0
86 121 0
86 121 0
86 121 0
86 121 0
86 121 0
86 121 0
86 121 0
86 121 0
85 121 0
85 120 0
85 120 0
85 120 0
84 120 0
84 119 0
84 119 0
83 119 0
83 118 0
83 118 0
82 118 0
82 117 0
81 117 0
81 117 0
81 116 0
80 116 0
80 116 0
80 116 0
80 116 0
79 116 0
79 115 0
79 115 0
79 115 0
79 115 0
78 115 0
78 115 0
78 115 0
78 115 0
78 115 0
78 115 0
78 115 0
77 115 0
77 115 0
77 115 0
77 115 0
77 115 0
77 115 0
77 115 0
77 115 0
77 115 0
77 115 0
77 115 0
77 115 0
77 115 0
77 115 0
77 115 0
77 115 0
77 115 0
78 116 0
78 116 0
78 116 0
78 116 0
78 116 0
78 116 0
78 116 0
78 117 0
78 117 0
78 117 0
78 117 0
79 117 0
79 117 0
79 117 0
79 117 0
79 118 0
79 118 0
79 118 0
79 118 0
80 118 0
67 114 43
0 94 67
0 93 70
0 93 70
0 91 58
0 90 56
73 114 29
82 120 0
82 120 0
82 121 0
83 121 0
83 121 0
83 121 0
83 121 0
84 121 0
84 122 0
84 122 0
84 122 0
84 122 0
84 122 0
84 122 0
85 122 0
85 122 0
85 122 0
85 122 0
85 122 0
85 122 0
85 123 0
86 123 0
86 123 0
86 123 0
86 123 0
86 123 0
86 123 0
86 123 0
86 123 0
86 123 0
87 123 0
87 123 0
87 123 0
87 123 0
87 123 0
87 123 0
87 123 0
87 123 0
87 123 0
87 124 0
88 124 0
88 124 0
92 127 0
92 127 0
92 126 0
92 126 0
91 126 0
91 126 0
91 126 0
91 126 0
91 126 0
91 126 0
91 126 0
91 126 0
91 126 0
91 126 0
91 126 0
91 126 0
91 126 0
91 126 0
91 126 0
91 126 0
91 125 0
91 125 0
91 125 0
90 125 0
90 125 0
90 125 0
90 125 0
90 125 0
90 125 0
90 125 0
90 125 0
90 125 0
90 125 0
90 125 0
90 125 0
90 124 0
90 124 0
90 124 0
90 124 0
90 124 0
89 124 0
89 124 0
89 124 0
89 124 0
89 124 0
89 124 0
89 124 0
89 124 0
89 124 0
89 123 0
89 123 0
89 123 0
89 123 0
89 123 0
88 123 0
88 123 0
88 123 0
88 123 0
88 123 0
88 123 0
88 123 0
88 123 0
88 122 0
88 122 0
88 122 0
88 122 0
87 122 0
87 122 0
87 122 0
87 122 0
87 122 0
87 122 0
87 121 0
87 121 0
87 121 0
86 121 0
86 121 0
86 121 0
86 121 0
86 121 0
86 121 0
86 121 0
86 121 0
86 121 0
85 120 0
85 120 0
85 120 0
85 120 0
84 120 0
84 119 0
84 119 0
83 119 0
83 118 0
83 118 0
82 118 0
82 118 0
82 117 0
81 117 0
81 117 0
81 117 0
80 116 0
80 116 0
80 116 0
79 116 0
79 116 0
79 115 0
79 115 0
79 115 0
78 115 0
78 115 0
78 115 0
78 115 0
78 115 0
78 114 0
77 114 0
77 114 0
77 114 0
77 114 0
77 114 0
77 114 0
77 114 0
77 114 0
77 114 0
77 114 0
77 114 0
77 114 0
77 114 0
77 115 0
77 115 0
77 115 0
77 115 0
77 115 0
77 115 0
77 115 0
77 115 0
77 116 0
77 116 0
78 116 0
78 116 0
78 116 0
78 116 0
78 117 0
78 117 0
78 117 0
78 117 0
78 117 0
78 117 0
79 117 0
79 117 0
79 118 0
79 118 0
30 99 61
0 94 70
0 93 70
0 91 62
0 90 55
56 105 43
80 119 0
80 119 0
81 119 0
81 119 0
81 120 0
82 120 0
82 120 0
82 120 0
83 121 0
83 121 0
83 121 0
84 121 0
84 121 0
84 122 0
84 122 0
84 122 0
85 122 0
85 122 0
85 122 0
85 122 0
85 122 0
85 122 0
85 122 0
85 122 0
86 122 0
86 123 0
86 123 0
86 123 0
86 123 0
86 123 0
86 123 0
86 123 0
87 123 0
87 123 0
87 123 0
87 123 0
87 123 0
87 123 0
87 123 0
87 123 0
87 123 0
87 124 0
88 124 0
91 126 0
91 126 0
91 126 0
91 126 0
91 126 0
91 126 0
91 126 0
91 126 0
91 126 0
91 126 0
91 126 0
91 126 0
91 126 0
91 126 0
91 126 0
91 126 0
91 126 0
91 125 0
91 125 0
91 125 0
91 125 0
90 125 0
90 125 0
90 125 0
90 125 0
90 125 0
90 125 0
90 125 0
90 125 0
90 125 0
90 125 0
90 125 0
90 125 0
90 124 0
90 124 0
90 124 0
90 124 0
90 124 0
89 124 0
89 124 0
89 124 0
89 124 0
89 124 0
89 124 0
89 124 0
89 124 0
89 124 0
89 124 0
89 123 0
89 123 0
89 123 0
89 123 0
89 123 0
88 123 0
88 123 0
88 123 0
88 123 0
88 123 0
88 123 0
88 123 0
88 123 0
88 122 0
88 122 0
88 122 0
88 122 0
87 122 0
87 122 0
87 122 0
87 122 0
87 122 0
87 122 0
87 122 0
87 121 0
87 121 0
87 121 0
86 121 0
86 121 0
86 121 0
86 121 0
86 121 0
86 121 0
86 121 0
86 120 0
85 120 0
85 120 0
85 120 0
85 120 0
85 120 0
85 120 0
84 120 0
84 119 0
84 119 0
84 119 0
83 119 0
83 118 0
82 118 0
82 118 0
82 117 0
81 117 0
81 117 0
80 116 0
80 116 0
80 116 0
79 116 0
79 116 0
79 115 0
79 115 0
79 115 0
79 115 0
78 115 0
78 115 0
78 114 0
78 114 0
77 114 0
77 114 0
77 114 0
77 114 0
77 114 0
77 114 0
77 114 0
76 114 0
76 114 0
76 114 0
76 114 0
76 114 0
76 114 0
76 114 0
76 114 0
76 114 0
77 114 0
77 114 0
77 115 0
77 115 0
77 115 0
77 115 0
77 115 0
77 115 0
77 115 0
77 116 0
77 116 0
77 116 0
77 116 0
78 116 0
78 116 0
78 116 0
78 117 0
78 117 0
78 117 0
78 117 0
78 117 0
61 111 49
0 93 66
0 94 71
0 90 65
0 91 56
30 94 52
79 118 0
79 118 0
80 118 0
80 118 0
80 119 0
80 119 0
80 119 0
81 119 0
81 119 0
81 120 0
82 120 0
82 120 0
82 120 0
83 121 0
83 121 0
83 121 0
84 121 0
84 121 0
84 122 0
84 122 0
85 122 0
85 122 0
85 122 0
85 122 0
85 122 0
85 122 0
86 122 0
86 122 0
86 122 0
86 122 0
86 123 0
86 123 0
86 123 0
86 123 0
87 123 0
87 123 0
87 123 0
87 123 0
87 123 0
87 123 0
87 123 0
87 123 0
87 123 0
87 123 0
91 126 0
91 126 0
91 126 0
91 126 0
91 126 0
91 126 0
91 126 0
91 126 0
91 126 0
91 126 0
91 126 0
91 126 0
91 126 0
91 125 0
91 125 0
91 125 0
91 125 0
91 125 0
90 125 0
90 125 0
90 125 0
90 125 0
90 125 0
90 125 0
90 125 0
90 125 0
90 125 0
90 125 0
90 125 0
90 125 0
90 124 0
90 124 0
90 124 0
90 124 0
90 124 0
90 124 0
90 124 0
89 124 0
89 124 0
89 124 0
89 124 0
89 124 0
89 124 0
89 124 0
89 124 0
89 124 0
89 123 0
89 123 0
89 123 0
89 123 0
89 123 0
89 123 0
88 123 0
88 123 0
88 123 0
88 123 0
88 123 0
88 123 0
88 123 0
88 123 0
88 123 0
88 122 0
88 122 0
88 122 0
88 122 0
87 122 0
87 122 0
87 122 0
87 122 0
87 122 0
87 122 0
87 121 0
87 121 0
87 121 0
87 121 0
86 121 0
86 121 0
86 121 0
86 121 0
86 121 0
86 121 0
86 120 0
86 120 0
85 120 0
85 120 0
85 120 0
85 120 0
85 120 0
85 120 0
85 120 0
84 119 0
84 119 0
84 119 0
84 119 0
83 119 0
83 118 0
82 118 0
82 117 0
81 116 0
80 116 0
79 115 0
79 115 0
78 114 0
78 114 0
78 114 0
78 114 0
78 114 0
78 114 0
78 114 0
78 114 0
77 114 0
77 114 0
77 114 0
77 114 0
77 114 0
77 114 0
77 113 0
76 113 0
76 113 0
76 113 0
76 113 0
76 113 0
76 113 0
76 113 0
76 113 0
76 113 0
76 114 0
76 114 0
76 114 0
76 114 0
76 114 0
76 114 0
76 114 0
76 114 0
76 114 0
76 115 0
76 115 0
77 115 0
77 115 0
77 115 0
77 115 0
77 116 0
77 116 0
77 116 0
77 116 0
77 116 0
78 116 0
78 116 0
78 117 0
78 117 0
30 98 60
0 94 71
0 91 67
0 92 60
0 90 55
71 112 28
79 118 0
79 118 0
79 118 0
79 118 0
79 118 0
80 118 0
80 119 0
80 119 0
80 119 0
81 119 0
81 119 0
81 119 0
81 119 0
82 120 0
82 120 0
82 120 0
83 120 0
83 120 0
83 121 0
83 121 0
84 121 0
84 121 0
84 121 0
85 122 0
85 122 0
85 122 0
85 122 0
85 122 0
86 122 0
86 122 0
86 122 0
86 123 0
86 123 0
86 123 0
87 123 0
87 123 0
87 123 0
87 123 0
87 123 0
87 123 0
87 123 0
87 123 0
87 123 0
87 123 0
91 126 0
91 126 0
91 126 0
91 126 0
91 126 0
91 126 0
91 126 0
91 126 0
91 126 0
91 126 0
91 125 0
91 125 0
91 125 0
91 125 0
90 125 0
90 125 0
90 125 0
90 125 0
90 125 0
90 125 0
90 125 0
90 125 0
90 125 0
90 125 0
90 125 0
90 125 0
90 125 0
90 125 0
90 124 0
90 124 0
90 124 0
90 124 0
90 124 0
90 124 0
90 124 0
89 124 0
89 124 0
89 124 0
89 124 0
89 124 0
89 124 0
89 124 0
89 124 0
89 123 0
89 123 0
89 123 0
89 123 0
89 123 0
89 123 0
89 123 0
89 123 0
88 123 0
88 123 0
88 123 0
88 123 0
88 123 0
88 123 0
88 123 0
88 123 0
88 122 0
88 122 0
88 122 0
88 122 0
88 122 0
88 122 0
87 122 0
87 122 0
87 122 0
87 122 0
87 122 0
87 122 0
87 121 0
87 121 0
87 121 0
87 121 0
86 121 0
86 121 0
86 121 0
86 121 0
86 121 0
86 120 0
86 120 0
85 120 0
85 120 0
85 120 0
85 120 0
85 120 0
85 120 0
85 120 0
85 120 0
84 119 0
84 119 0
84 119 0
84 119 0
84 119 0
84 119 0
83 118 0
83 118 0
82 117 0
81 117 0
80 116 0
79 115 0
79 115 0
78 115 0
78 115 0
78 115 0
78 114 0
78 114 0
78 114 0
78 114 0
77 114 0
77 114 0
77 114 0
77 113 0
77 113 0
76 113 0
76 113 0
76 113 0
76 113 0
76 113 0
76 113 0
76 113 0
76 113 0
76 113 0
75 113 0
75 113 0
75 113 0
75 113 0
75 113 0
75 113 0
76 113 0
76 113 0
76 114 0
76 114 0
76 114 0
76 114 0
76 114 0
76 114 0
76 115 0
76 115 0
76 115 0
76 115 0
77 115 0
77 115 0
77 116 0
77 116 0
65 112 46
60 110 52
48 106 62
29 101 67
0 93 68
0 91 67
0 90 64
0 93 55
55 104 42
78 117 0
78 117 0
78 117 0
79 118 0
79 118 0
79 118 0
79 118 0
80 118 0
80 118 0
80 118 0
80 119 0
80 119 0
81 119 0
81 119 0
81 119 0
81 119 0
82 119 0
82 120 0
82 120 0
82 120 0
83 120 0
83 120 0
83 120 0
83 120 0
84 121 0
84 121 0
84 121 0
85 121 0
85 122 0
85 122 0
85 122 0
86 122 0
86 122 0
86 122 0
86 123 0
86 123 0
87 123 0
87 123 0
87 123 0
87 123 0
87 123 0
87 123 0
87 123 0
87 123 0
87 123 0
91 126 0
91 126 0
91 126 0
91 126 0
91 126 0
91 126 0
91 125 0
91 125 0
91 125 0
91 125 0
91 125 0
90 125 0
90 125 0
90 125 0
90 125 0
90 125 0
90 125 0
90 125 0
90 125 0
90 125 0
90 125 0
90 125 0
90 125 0
90 125 0
90 125 0
90 124 0
90 124 0
90 124 0
90 124 0
90 124 0
90 124 0
90 124 0
89 124 0
89 124 0
89 124 0
89 124 0
89 124 0
89 124 0
89 124 0
89 124 0
89 124 0
89 123 0
89 123 0
89 123 0
89 123 0
89 123 0
89 123 0
89 123 0
89 123 0
89 123 0
89 123 0
88 123 0
88 123 0
88 123 0
88 123 0
88 123 0
88 123 0
88 123 0
88 122 0
88 122 0
88 122 0
88 122 0
88 122 0
88 122 0
87 122 0
87 122 0
87 122 0
87 122 0
87 122 0
87 122 0
87 122 0
87 121 0
87 121 0
87 121 0
87 121 0
86 121 0
86 121 0
86 121 0
86 121 0
86 121 0
86 120 0
86 120 0
85 120 0
85 120 0
85 120 0
85 120 0
85 120 0
85 120 0
85 120 0
85 119 0
84 119 0
84 119 0
84 119 0
84 119 0
84 119 0
84 119 0
84 119 0
84 119 0
83 119 0
83 118 0
82 118 0
81 117 0
81 116 0
80 116 0
80 116 0
80 116 0
80 116 0
80 116 0
79 115 0
79 115 0
78 115 0
78 114 0
78 114 0
77 114 0
77 113 0
77 113 0
76 113 0
76 113 0
76 113 0
76 113 0
76 113 0
76 113 0
75 113 0
75 112 0
75 112 0
75 112 0
75 112 0
75 112 0
75 113 0
75 113 0
75 113 0
75 113 0
75 113 0
75 113 0
75 113 0
75 114 0
76 114 0
76 114 0
76 114 0
76 114 0
76 115 0
76 115 0
76 115 0
64 108 41
0 95 70
0 95 69
0 94 68
0 91 66
0 91 66
0 91 63
0 92 69
0 90 65
0 94 58
29 95 52
78 117 0
78 117 0
78 117 0
78 117 0
78 117 0
78 117 0
79 118 0
79 118 0
79 118 0
79 118 0
80 118 0
80 118 0
80 118 0
80 119 0
81 119 0
81 119 0
81 119 0
81 119 0
81 119 0
82 119 0
82 119 0
82 119 0
82 119 0
82 120 0
82 120 0
83 120 0
83 120 0
83 120 0
83 120 0
84 121 0
84 121 0
84 121 0
85 121 0
85 121 0
85 122 0
86 122 0
86 122 0
86 122 0
86 122 0
87 123 0
87 123 0
87 123 0
87 123 0
87 123 0
87 123 0
87 123 0
91 126 0
91 126 0
91 126 0
91 125 0
91 125 0
91 125 0
91 125 0
90 125 0
90 125 0
90 125 0
90 125 0
90 125 0
90 125 0
90 125 0
90 125 0
90 125 0
90 125 0
90 125 0
90 125 0
90 125 0
90 125 0
90 124 0
90 124 0
90 124 0
90 124 0
90 124 0
90 124 0
90 124 0
90 124 0
90 124 0
90 124 0
89 124 0
89 124 0
89 124 0
89 124 0
89 124 0
89 124 0
89 124 0
89 124 0
89 123 0
89 123 0
89 123 0
89 123 0
89 123 0
89 123 0
89 123 0
89 123 0
89 123 0
89 123 0
88 123 0
88 123 0
88 123 0
88 123 0
88 123 0
88 123 0
88 123 0
88 122 0
88 122 0
88 122 0
88 122 0
88 122 0
88 122 0
88 122 0
88 122 0
87 122 0
87 122 0
87 122 0
87 122 0
87 122 0
87 122 0
87 121 0
87 121 0
87 121 0
87 121 0
86 121 0
86 121 0
86 121 0
86 121 0
86 121 0
86 120 0
86 120 0
86 120 0
85 120 0
85 120 0
85 120 0
85 120 0
85 120 0
85 120 0
85 120 0
85 119 0
85 119 0
84 119 0
84 119 0
84 119 0
84 119 0
84 119 0
84 119 0
84 119 0
84 119 0
84 119 0
83 119 0
83 118 0
83 118 0
82 118 0
82 118 0
82 118 0
82 117 0
81 117 0
81 117 0
80 116 0
80 116 0
79 115 0
79 115 0
78 114 0
77 114 0
77 113 0
76 113 0
76 113 0
76 113 0
76 113 0
76 113 0
76 113 0
75 112 0
75 112 0
75 112 0
75 112 0
75 112 0
75 112 0
75 112 0
75 112 0
75 112 0
75 113 0
75 113 0
75 113 0
75 113 0
75 113 0
75 113 0
75 113 0
75 114 0
75 114 0
76 114 0
76 114 0
76 115 0
72 113 25
29 94 63
0 91 66
0 91 66
0 91 66
0 91 64
0 92 67
0 90 65
0 91 63
0 94 55
69 111 27
77 117 0
77 117 0
78 117 0
78 117 0
78 117 0
78 117 0
78 117 0
79 117 0
79 118 0
79 118 0
79 118 0
79 118 0
80 118 0
80 118 0
80 118 0
80 118 0
81 119 0
81 119 0
81 119 0
81 119 0
82 119 0
82 119 0
82 119 0
82 119 0
82 119 0
82 119 0
83 120 0
83 120 0
83 120 0
83 120 0
83 120 0
84 120 0
84 120 0
84 121 0
84 121 0
85 121 0
85 121 0
85 122 0
86 122 0
86 122 0
86 122 0
86 122 0
87 122 0
87 123 0
87 123 0
87 123 0
91 125 0
91 125 0
91 125 0
90 125 0
90 125 0
90 125 0
90 125 0
90 125 0
90 125 0
90 125 0
90 125 0
90 125 0
90 125 0
90 125 0
90 125 0
90 125 0
90 125 0
90 125 0
90 124 0
90 124 0
90 124 0
90 124 0
90 124 0
90 124 0
90 124 0
90 124 0
90 124 0
89 124 0
89 124 0
89 124 0
89 124 0
89 124 0
89 124 0
89 124 0
89 124 0
89 124 0
89 123 0
89 123 0
89 123 0
89 123 0
89 123 0
89 123 0
89 123 0
89 123 0
89 123 0
89 123 0
89 123 0
88 123 0
88 123 0
88 123 0
88 123 0
88 123 0
88 123 0
88 123 0
88 122 0
88 122 0
88 122 0
88 122 0
88 122 0
88 122 0
88 122 0
88 122 0
88 122 0
88 122 0
87 122 0
87 122 0
87 122 0
87 122 0
87 122 0
87 121 0
87 121 0
87 121 0
87 121 0
87 121 0
86 121 0
86 121 0
86 121 0
86 121 0
86 121 0
86 120 0
86 120 0
86 120 0
86 120 0
85 120 0
85 120 0
85 120 0
85 120 0
85 120 0
85 120 0
85 120 0
85 120 0
85 120 0
84 119 0
84 119 0
84 119 0
84 119 0
84 119 0
84 119 0
84 119 0
84 119 0
83 119 0
83 119 0
83 119 0
83 118 0
83 118 0
82 118 0
82 118 0
82 117 0
81 117 0
81 117 0
80 116 0
80 116 0
79 115 0
78 115 0
78 114 0
77 114 0
77 113 0
76 113 0
76 113 0
76 113 0
76 113 0
76 112 0
76 112 0
75 112 0
75 112 0
75 112 0
75 112 0
75 112 0
75 112 0
75 112 0
75 112 0
75 112 0
75 112 0
75 112 0
75 113 0
75 113 0
75 113 0
75 113 0
75 113 0
75 113 0
75 114 0
75 114 0
75 114 0
76 114 0
72 113 25
29 96 64
0 92 69
0 92 69
0 93 68
0 90 65
0 90 65
0 94 57
54 105 43
77 116 0
77 116 0
77 116 0
77 117 0
77 117 0
78 117 0
78 117 0
78 117 0
78 117 0
78 117 0
79 117 0
79 117 0
79 118 0
79 118 0
80 118 0
80 118 0
80 118 0
80 118 0
81 118 0
81 118 0
81 119 0
81 119 0
81 119 0
82 119 0
82 119 0
82 119 0
82 119 0
82 119 0
83 119 0
83 120 0
83 120 0
83 120 0
83 120 0
83 120 0
84 120 0
84 120 0
84 120 0
84 121 0
85 121 0
85 121 0
85 121 0
86 122 0
86 122 0
86 122 0
86 122 0
87 122 0
87 123 0
90 125 0
90 125 0
90 125 0
90 125 0
90 125 0
90 125 0
90 125 0
90 125 0
90 125 0
90 125 0
90 125 0
90 125 0
90 125 0
90 125 0
90 124 0
90 124 0
90 124 0
90 124 0
90 124 0
90 124 0
90 124 0
90 124 0
90 124 0
89 124 0
89 124 0
89 124 0
89 124 0
89 124 0
89 124 0
89 124 0
89 124 0
89 124 0
89 124 0
89 124 0
89 123 0
89 123 0
89 123 0
89 123 0
89 123 0
89 123 0
89 123 0
89 123 0
89 123 0
89 123 0
89 123 0
88 123 0
88 123 0
88 123 0
88 123 0
88 123 0
88 123 0
88 123 0
88 122 0
88 122 0
88 122 0
88 122 0
88 122 0
88 122 0
88 122 0
88 122 0
88 122 0
88 122 0
88 122 0
87 122 0
87 122 0
87 122 0
87 122 0
87 122 0
87 121 0
87 121 0
87 121 0
87 121 0
87 121 0
87 121 0
86 121 0
86 121 0
86 121 0
86 121 0
86 121 0
86 120 0
86 120 0
86 120 0
86 120 0
86 120 0
85 120 0
85 120 0
85 120 0
85 120 0
85 120 0
85 120 0
85 120 0
85 119 0
85 119 0
84 119 0
84 119 0
84 119 0
84 119 0
84 119 0
84 119 0
84 119 0
83 119 0
83 119 0
83 119 0
83 118 0
83 118 0
82 118 0
82 118 0
82 117 0
81 117 0
81 117 0
80 116 0
80 116 0
79 116 0
79 115 0
78 115 0
78 114 0
77 113 0
77 113 0
76 113 0
76 113 0
76 113 0
76 112 0
76 112 0
76 112 0
75 112 0
75 112 0
75 112 0
75 112 0
75 112 0
75 112 0
75 112 0
75 112 0
75 112 0
75 112 0
75 112 0
74 112 0
74 112 0
75 113 0
75 113 0
75 113 0
75 113 0
75 114 0
53 104 58
29 98 71
0 95 75
0 95 75
0 95 75
0 94 74
0 90 67
0 89 65
0 92 61
47 103 46
76 116 0
76 116 0
77 116 0
77 116 0
77 116 0
77 116 0
77 116 0
77 117 0
77 117 0
78 117 0
78 117 0
78 117 0
78 117 0
79 117 0
79 117 0
79 117 0
80 118 0
80 118 0
80 118 0
80 118 0
81 118 0
81 118 0
81 118 0
81 119 0
81 119 0
82 119 0
82 119 0
82 119 0
82 119 0
82 119 0
83 119 0
83 119 0
83 120 0
83 120 0
83 120 0
83 120 0
83 120 0
84 120 0
84 120 0
84 121 0
85 121 0
85 121 0
85 121 0
85 121 0
86 122 0
86 122 0
86 122 0
86 122 0
90 125 0
90 125 0
90 125 0
90 125 0
90 125 0
90 125 0
90 125 0
90 125 0
90 125 0
90 125 0
90 124 0
90 124 0
90 124 0
90 124 0
90 124 0
90 124 0
90 124 0
90 124 0
90 124 0
90 124 0
89 124 0
89 124 0
89 124 0
89 124 0
89 124 0
89 124 0
89 124 0
89 124 0
89 124 0
89 124 0
89 123 0
89 123 0
89 123 0
89 123 0
89 123 0
89 123 0
89 123 0
89 123 0
89 123 0
89 123 0
89 123 0
89 123 0
89 123 0
88 123 0
88 123 0
88 123 0
88 123 0
88 123 0
88 123 0
88 123 0
88 122 0
88 122 0
88 122 0
88 122 0
88 122 0
88 122 0
88 122 0
88 122 0
88 122 0
88 122 0
88 122 0
88 122 0
87 122 0
87 122 0
87 122 0
87 122 0
87 122 0
87 121 0
87 121 0
87 121 0
87 121 0
87 121 0
87 121 0
87 121 0
86 121 0
86 121 0
86 121 0
86 121 0
86 120 0
86 120 0
86 120 0
86 120 0
86 120 0
86 120 0
85 120 0
85 120 0
85 120 0
85 120 0
85 120 0
85 120 0
85 120 0
85 119 0
85 119 0
84 119 0
84 119 0
84 119 0
84 119 0
84 119 0
84 119 0
84 119 0
83 119 0
83 119 0
83 118 0
83 118 0
83 118 0
82 118 0
82 118 0
82 118 0
81 117 0
81 117 0
81 116 0
80 116 0
80 116 0
79 115 0
79 115 0
78 114 0
77 114 0
77 113 0
76 113 0
76 113 0
76 113 0
76 113 0
76 112 0
76 112 0
75 112 0
75 112 0
75 112 0
75 112 0
75 112 0
75 112 0
75 112 0
75 112 0
75 112 0
74 112 0
74 112 0
74 112 0
74 112 0
74 112 0
74 112 0
74 112 0
74 113 0
74 113 0
71 111 29
28 98 72
0 96 76
0 96 76
0 96 76
0 93 70
0 90 66
0 89 64
47 102 48
76 116 0
76 116 0
76 116 0
76 116 0
76 116 0
76 116 0
76 116 0
76 116 0
77 116 0
77 116 0
77 116 0
77 116 0
78 116 0
78 117 0
78 117 0
79 117 0
79 117 0
79 117 0
80 117 0
80 118 0
80 118 0
80 118 0
81 118 0
81 118 0
81 118 0
81 119 0
82 119 0
82 119 0
82 119 0
82 119 0
82 119 0
82 119 0
83 119 0
83 119 0
83 119 0
83 120 0
83 120 0
83 120 0
84 120 0
84 120 0
84 120 0
84 121 0
85 121 0
85 121 0
85 121 0
85 121 0
86 121 0
86 122 0
86 122 0
90 125 0
90 125 0
90 125 0
90 125 0
90 125 0
90 125 0
90 124 0
90 124 0
90 124 0
90 124 0
90 124 0
90 124 0
90 124 0
90 124 0
90 124 0
89 124 0
89 124 0
89 124 0
89 124 0
89 124 0
89 124 0
89 124 0
89 124 0
89 124 0
89 124 0
89 124 0
89 124 0
89 123 0
89 123 0
89 123 0
89 123 0
89 123 0
89 123 0
89 123 0
89 123 0
89 123 0
89 123 0
89 123 0
89 123 0
89 123 0
88 123 0
88 123 0
88 123 0
88 123 0
88 123 0
88 123 0
88 122 0
88 122 0
88 122 0
88 122 0
88 122 0
88 122 0
88 122 0
88 122 0
88 122 0
88 122 0
88 122 0
88 122 0
88 122 0
88 122 0
88 122 0
87 122 0
87 122 0
87 122 0
87 122 0
87 121 0
87 121 0
87 121 0
87 121 0
87 121 0
87 121 0
87 121 0
87 121 0
87 121 0
86 121 0
86 121 0
86 121 0
86 121 0
86 120 0
86 120 0
86 120 0
86 120 0
86 120 0
85 120 0
85 120 0
85 120 0
85 120 0
85 120 0
85 120 0
85 120 0
85 120 0
85 119 0
84 119 0
84 119 0
84 119 0
84 119 0
84 119 0
84 119 0
84 119 0
83 119 0
83 119 0
83 118 0
83 118 0
83 118 0
82 118 0
82 118 0
82 117 0
81 117 0
81 117 0
80 116 0
80 116 0
79 115 0
79 115 0
79 115 0
78 114 0
78 114 0
77 114 0
77 113 0
76 113 0
76 113 0
76 113 0
76 112 0
76 112 0
76 112 0
75 112 0
75 112 0
75 112 0
75 112 0
75 112 0
75 112 0
75 112 0
75 112 0
75 112 0
75 112 0
74 112 0
74 112 0
74 112 0
74 112 0
74 112 0
74 112 0
74 112 0
74 112 0
74 112 0
70 111 29
28 98 73
0 96 77
0 94 73
0 92 67
0 91 67
46 100 51
75 115 0
75 115 0
75 115 0
75 115 0
75 115 0
75 115 0
75 115 0
75 115 0
75 115 0
76 115 0
76 115 0
77 115 0
77 116 0
77 116 0
78 116 0
78 116 0
79 117 0
79 117 0
79 117 0
79 117 0
80 117 0
80 118 0
80 118 0
81 118 0
81 118 0
81 118 0
81 118 0
81 119 0
82 119 0
82 119 0
82 119 0
82 119 0
82 119 0
83 119 0
83 119 0
83 119 0
83 120 0
83 120 0
83 120 0
83 120 0
84 120 0
84 120 0
84 120 0
85 121 0
85 121 0
85 121 0
85 121 0
86 121 0
86 122 0
86 122 0
90 125 0
90 125 0
90 124 0
90 124 0
90 124 0
90 124 0
90 124 0
90 124 0
90 124 0
90 124 0
89 124 0
89 124 0
89 124 0
89 124 0
89 124 0
89 124 0
89 124 0
89 124 0
89 124 0
89 124 0
89 124 0
89 124 0
89 124 0
89 123 0
89 123 0
89 123 0
89 123 0
89 123 0
89 123 0
89 123 0
89 123 0
89 123 0
89 123 0
89 123 0
89 123 0
89 123 0
89 123 0
88 123 0
88 123 0
88 123 0
88 123 0
88 123 0
88 123 0
88 122 0
88 122 0
88 122 0
88 122 0
88 122 0
88 122 0
88 122 0
88 122 0
88 122 0
88 122 0
88 122 0
88 122 0
88 122 0
88 122 0
88 122 0
88 122 0
87 122 0
87 122 0
87 122 0
87 122 0
87 121 0
87 121 0
87 121 0
87 121 0
87 121 0
87 121 0
87 121 0
87 121 0
87 121 0
87 121 0
87 121 0
86 121 0
86 121 0
86 121 0
86 121 0
86 120 0
86 120 0
86 120 0
86 120 0
86 120 0
85 120 0
85 120 0
85 120 0
85 120 0
85 120 0
85 120 0
85 120 0
85 119 0
84 119 0
84 119 0
84 119 0
84 119 0
83 118 0
83 118 0
83 118 0
82 117 0
82 117 0
82 117 0
82 117 0
81 117 0
81 117 0
81 116 0
81 116 0
80 116 0
80 116 0
80 115 0
79 115 0
79 115 0
79 115 0
78 114 0
78 114 0
78 114 0
77 114 0
77 113 0
77 113 0
76 113 0
76 113 0
76 113 0
76 112 0
76 112 0
76 112 0
76 112 0
75 112 0
75 112 0
75 112 0
75 112 0
75 112 0
75 112 0
75 112 0
75 112 0
75 112 0
75 112 0
74 112 0
74 112 0
74 111 0
74 111 0
73 111 0
73 111 0
73 111 0
73 111 0
73 112 0
70 110 30
28 98 72
45 100 57
51 102 52
61 106 41
72 113 0
73 113 0
73 113 0
73 113 0
73 113 0
73 113 0
74 113 0
74 114 0
75 114 0
75 114 0
76 115 0
76 115 0
77 115 0
77 116 0
78 116 0
78 116 0
78 116 0
79 117 0
79 117 0
79 117 0
80 117 0
80 117 0
80 118 0
80 118 0
81 118 0
81 118 0
81 118 0
81 118 0
81 118 0
82 119 0
82 119 0
82 119 0
82 119 0
82 119 0
83 119 0
83 119 0
83 119 0
83 119 0
83 120 0
83 120 0
83 120 0
84 120 0
84 120 0
84 120 0
85 121 0
85 121 0
85 121 0
85 121 0
85 121 0
86 121 0
86 122 0
90 124 0
90 124 0
90 124 0
90 124 0
90 124 0
90 124 0
89 124 0
89 124 0
89 124 0
89 124 0
89 124 0
89 124 0
89 124 0
89 124 0
89 124 0
89 124 0
89 124 0
89 124 0
89 124 0
89 123 0
89 123 0
89 123 0
89 123 0
89 123 0
89 123 0
89 123 0
89 123 0
89 123 0
89 123 0
89 123 0
89 123 0
89 123 0
89 123 0
88 123 0
88 123 0
88 123 0
88 123 0
88 123 0
88 123 0
88 123 0
88 123 0
88 122 0
88 122 0
88 122 0
88 122 0
88 122 0
88 122 0
88 122 0
88 122 0
88 122 0
88 122 0
88 122 0
88 122 0
88 122 0
88 122 0
88 122 0
88 122 0
88 122 0
87 122 0
87 122 0
87 122 0
87 122 0
87 121 0
87 121 0
87 121 0
87 121 0
87 121 0
87 121 0
87 121 0
87 121 0
87 121 0
87 121 0
87 121 0
87 121 0
86 121 0
86 121 0
86 121 0
86 120 0
86 120 0
86 120 0
86 120 0
86 120 0
86 120 0
85 120 0
85 120 0
85 120 0
85 120 0
85 120 0
85 120 0
85 119 0
85 119 0
84 119 0
84 119 0
83 118 0
83 118 0
82 117 0
81 117 0
81 116 0
80 116 0
80 115 0
80 115 0
79 115 0
79 115 0
79 115 0
79 115 0
79 115 0
79 115 0
79 114 0
78 114 0
78 114 0
78 114 0
78 114 0
78 114 0
77 114 0
77 113 0
77 113 0
77 113 0
77 113 0
76 113 0
76 113 0
76 112 0
76 112 0
76 112 0
76 112 0
76 112 0
75 112 0
75 112 0
75 112 0
75 112 0
75 112 0
75 112 0
75 112 0
75 112 0
75 112 0
74 112 0
74 112 0
74 111 0
74 111 0
74 111 0
74 111 0
73 111 0
73 111 0
73 111 0
73 111 0
74 112 0
74 112 0
73 112 0
73 112 0
73 112 0
73 112 0
73 112 0
73 112 0
73 112 0
73 113 0
74 113 0
74 113 0
75 114 0
75 114 0
76 115 0
76 115 0
77 115 0
77 116 0
78 116 0
78 116 0
78 116 0
79 117 0
79 117 0
79 117 0
79 117 0
80 117 0
80 118 0
80 118 0
81 118 0
81 118 0
81 118 0
81 118 0
81 118 0
82 119 0
82 119 0
82 119 0
82 119 0
82 119 0
82 119 0
83 119 0
83 119 0
83 119 0
83 119 0
83 119 0
83 120 0
83 120 0
84 120 0
84 120 0
84 120 0
84 120 0
85 121 0
85 121 0
85 121 0
85 121 0
86 121 0
86 121 0
89 124 0
89 124 0
89 124 0
89 124 0
89 124 0
89 124 0
89 124 0
89 124 0
89 124 0
89 124 0
89 124 0
89 124 0
89 124 0
89 124 0
89 123 0
89 123 0
89 123 0
89 123 0
89 123 0
89 123 0
89 123 0
89 123 0
89 123 0
89 123 0
89 123 0
89 123 0
89 123 0
89 123 0
89 123 0
88 123 0
88 123 0
88 123 0
88 123 0
88 123 0
88 123 0
88 123 0
88 123 0
88 123 0
88 122 0
88 122 0
88 122 0
88 122 0
88 122 0
88 122 0
88 122 0
88 122 0
88 122 0
88 122 0
88 122 0
88 122 0
88 122 0
88 122 0
88 122 0
88 122 0
88 122 0
88 122 0
87 122 0
87 122 0
87 122 0
87 122 0
87 121 0
87 121 0
87 121 0
87 121 0
87 121 0
87 121 0
87 121 0
87 121 0
87 121 0
87 121 0
87 121 0
87 121 0
87 121 0
86 121 0
86 121 0
86 121 0
86 120 0
86 120 0
86 120 0
86 120 0
86 120 0
86 120 0
86 120 0
86 120 0
85 120 0
85 120 0
85 120 0
85 120 0
85 120 0
85 119 0
85 119 0
84 119 0
84 119 0
84 118 0
83 118 0
82 117 0
81 116 0
80 116 0
80 115 0
79 115 0
79 115 0
79 115 0
79 115 0
79 115 0
79 115 0
79 115 0
79 115 0
79 115 0
79 115 0
79 114 0
78 114 0
78 114 0
78 114 0
77 114 0
77 113 0
77 113 0
77 113 0
76 113 0
76 113 0
76 112 0
76 112 0
76 112 0
76 112 0
76 112 0
75 112 0
75 112 0
75 112 0
75 112 0
75 112 0
75 112 0
75 112 0
75 112 0
75 111 0
74 111 0
74 111 0
74 111 0
74 111 0
74 111 0
74 111 0
73 111 0
73 111 0
73 110 0
73 110 0
73 110 0
73 111 0
74 111 0
74 112 0
74 113 0
74 113 0
74 112 0
74 113 0
74 113 0
74 113 0
75 113 0
75 114 0
75 114 0
76 114 0
76 115 0
76 115 0
77 115 0
77 115 0
78 116 0
78 116 0
78 116 0
78 116 0
79 117 0
79 117 0
79 117 0
80 117 0
80 117 0
80 118 0
80 118 0
81 118 0
81 118 0
81 118 0
81 118 0
82 118 0
82 119 0
82 119 0
82 119 0
82 119 0
82 119 0
82 119 0
83 119 0
83 119 0
83 119 0
83 119 0
83 119 0
83 119 0
83 120 0
83 120 0
84 120 0
84 120 0
84 120 0
85 120 0
85 121 0
85 121 0
85 121 0
85 121 0
86 121 0
